; G-Code generated by Simplify3D(R) Version 4.0.1
; Dec 12, 2018 at 10:24:10 PM
; Settings Summary
;   processName,Tevo Tornado
;   applyToModels,Cable_holder_Extruder
;   profileName,007 Tevo Tornado (experimental) 06-03
;   profileVersion,2018-12-06 16:04:13
;   baseProfile,Creality CR-10(2)
;   printMaterial,PLA
;   printQuality,Medium
;   printExtruders,
;   extruderName,Primary Extruder
;   extruderToolheadNumber,0
;   extruderDiameter,0.4
;   extruderAutoWidth,0
;   extruderWidth,0.4
;   extrusionMultiplier,1
;   extruderUseRetract,1
;   extruderRetractionDistance,6.5
;   extruderExtraRestartDistance,0
;   extruderRetractionZLift,0
;   extruderRetractionSpeed,1800
;   extruderUseCoasting,0
;   extruderCoastingDistance,0.2
;   extruderUseWipe,0
;   extruderWipeDistance,4
;   primaryExtruder,0
;   layerHeight,0.2
;   topSolidLayers,5
;   bottomSolidLayers,4
;   perimeterOutlines,3
;   printPerimetersInsideOut,1
;   startPointOption,2
;   startPointOriginX,0
;   startPointOriginY,500
;   sequentialIslands,0
;   spiralVaseMode,0
;   firstLayerHeightPercentage,90
;   firstLayerWidthPercentage,110
;   firstLayerUnderspeed,0.25
;   useRaft,0
;   raftExtruder,0
;   raftTopLayers,3
;   raftBaseLayers,2
;   raftOffset,3
;   raftSeparationDistance,0.14
;   raftTopInfill,100
;   aboveRaftSpeedMultiplier,0.3
;   useSkirt,1
;   skirtExtruder,0
;   skirtLayers,1
;   skirtOutlines,3
;   skirtOffset,0
;   usePrimePillar,0
;   primePillarExtruder,999
;   primePillarWidth,12
;   primePillarLocation,7
;   primePillarSpeedMultiplier,1
;   useOozeShield,0
;   oozeShieldExtruder,999
;   oozeShieldOffset,2
;   oozeShieldOutlines,1
;   oozeShieldSidewallShape,1
;   oozeShieldSidewallAngle,30
;   oozeShieldSpeedMultiplier,1
;   infillExtruder,0
;   internalInfillPattern,Rectilinear
;   externalInfillPattern,Rectilinear
;   infillPercentage,50
;   outlineOverlapPercentage,30
;   infillExtrusionWidthPercentage,125
;   minInfillLength,5
;   infillLayerInterval,1
;   internalInfillAngles,45,-45
;   overlapInternalInfillAngles,0
;   externalInfillAngles,45,-45
;   generateSupport,0
;   supportExtruder,0
;   supportInfillPercentage,30
;   supportExtraInflation,0
;   supportBaseLayers,0
;   denseSupportExtruder,0
;   denseSupportLayers,0
;   denseSupportInfillPercentage,70
;   supportLayerInterval,1
;   supportHorizontalPartOffset,0.4
;   supportUpperSeparationLayers,1
;   supportLowerSeparationLayers,1
;   supportType,0
;   supportGridSpacing,4.5
;   maxOverhangAngle,45
;   supportAngles,0
;   temperatureName,Primary Extruder,Heated Bed
;   temperatureNumber,0,0
;   temperatureSetpointCount,3,2
;   temperatureSetpointLayers,1,2,3,1,2
;   temperatureSetpointTemperatures,210,200,190,65,60
;   temperatureStabilizeAtStartup,1,1
;   temperatureHeatedBed,0,1
;   temperatureRelayBetweenLayers,0,0
;   temperatureRelayBetweenLoops,0,0
;   fanLayers,1,2
;   fanSpeeds,0,100
;   blipFanToFullPower,1
;   adjustSpeedForCooling,1
;   minSpeedLayerTime,15
;   minCoolingSpeedSlowdown,50
;   increaseFanForCooling,0
;   minFanLayerTime,45
;   maxCoolingFanSpeed,100
;   increaseFanForBridging,1
;   bridgingFanSpeed,100
;   use5D,1
;   relativeEdistances,0
;   allowEaxisZeroing,1
;   independentExtruderAxes,0
;   includeM10123,0
;   stickySupport,1
;   applyToolheadOffsets,0
;   gcodeXoffset,0
;   gcodeYoffset,0
;   gcodeZoffset,0
;   overrideMachineDefinition,1
;   machineTypeOverride,0
;   strokeXoverride,300
;   strokeYoverride,300
;   strokeZoverride,400
;   originOffsetXoverride,0
;   originOffsetYoverride,0
;   originOffsetZoverride,0
;   homeXdirOverride,-1
;   homeYdirOverride,-1
;   homeZdirOverride,-1
;   flipXoverride,1
;   flipYoverride,-1
;   flipZoverride,1
;   toolheadOffsets,0,0|0,0|0,0|0,0|0,0|0,0
;   overrideFirmwareConfiguration,0
;   firmwareTypeOverride,RepRap (Marlin/Repetier/Sprinter)
;   GPXconfigOverride,r2
;   baudRateOverride,250000
;   overridePrinterModels,1
;   printerModelsOverride
;   startingGcode,;Init 181010,;G28 ; home all axes,;G1 Z5 F3000 ; lift,;G92 E0 ; reset extrusion distance,,;From Cura 181010,; start_gcode,M117 Start Clean	; Indicate nozzle clean in progress on LCD,;,M104 S[extruder0_temperature] ,M109 S[extruder0_temperature] ,M109 R[extruder0_temperature] ,;,M107		; Turn layer fan off,G21		; Set to metric [change to G20 if you want Imperial],G90	 	; Force coordinates to be absolute relative to the origin,G28		; Home X/Y/Z axis,;,G1 X3 Y1 Z15 F9000	; Move safe Z height to shear strings,G0 X1 Y1 Z0.2 F9000	; Move in 1mm from edge and up [z] 0.2mm,G92 E0		; Set extruder to [0] zero,G1 X100 E12 F500	; Extrude 30mm filiment along X axis 100mm long to prime and clean the nozzle,G92 E0		; Reset extruder to [0] zero end of cleaning run,G1 E-1 F500		; Retract filiment by 1 mm to reduce string effect,G1 X180 F4000		; quick wipe away from the filament line / purge,M117 End Clean		; Indicate nozzle clean in progress on LCD,;,M117 PRINTING...	; Start msg,; Begin printing with sliced GCode after here,;
;   layerChangeGcode,
;   retractionGcode,
;   toolChangeGcode,
;   endingGcode,;,; init 181010,;,;M107 ; Fan off,;G1 E-1 F300 ; Retract the filament a bit before lifting the nozzle,;M104 S0 ; turn off extruder,;M140 S0 ; turn off bed,;G91 ; Relative positioning,;G28 X0 Y0 ; Move X/Y to min endstops so the head is out of teh way,;M84 ; disable motors,;G90 ; Absolute positioning,;M117 Print ready...,,;,;From Cura 181010,;,; end_gcode,G92 E0		; zero the extruded length,G1 E-5 F9000		; retract,M104 S0		; turn off temperature,M140 S0		; turn off bed,G91		; relative positioning,G1 E-1 F300		; retract the filament a bit before lifting the nozzle to release some of the pressure,G1 Z+20 E-5 X-20 Y-20 F7200	; move Z up a bit and retract filament even more,G1 X320 Y150 F10000	; move right mid,M107		; turn off layer fan,M84		; disable motors,G90		; absolute positioning,M117 IMPRESSION TERMINEE	; end msg,;,;EOF
;   exportFileFormat,gcode
;   celebration,0
;   celebrationSong,Star Wars
;   postProcessing,
;   defaultSpeed,4200
;   outlineUnderspeed,0.5
;   solidInfillUnderspeed,0.8
;   supportUnderspeed,0.8
;   rapidXYspeed,6000
;   rapidZspeed,1002
;   minBridgingArea,50
;   bridgingExtraInflation,0
;   bridgingExtrusionMultiplier,0.85
;   bridgingSpeedMultiplier,1.05
;   useFixedBridgingAngle,0
;   fixedBridgingAngle,0
;   applyBridgingToPerimeters,0
;   filamentDiameters,1.75|1.75|1.75|1.75|1.75|1.75
;   filamentPricesPerKg,30|46|46|46|46|46
;   filamentDensities,1.25|1.25|1.25|1.25|1.25|1.25
;   useMinPrintHeight,0
;   minPrintHeight,0
;   useMaxPrintHeight,0
;   maxPrintHeight,9
;   useDiaphragm,0
;   diaphragmLayerInterval,20
;   robustSlicing,1
;   mergeAllIntoSolid,0
;   onlyRetractWhenCrossingOutline,1
;   retractBetweenLayers,1
;   useRetractionMinTravel,1
;   retractionMinTravel,3
;   retractWhileWiping,1
;   onlyWipeOutlines,1
;   avoidCrossingOutline,1
;   maxMovementDetourFactor,3
;   toolChangeRetractionDistance,12
;   toolChangeExtraRestartDistance,-0.5
;   toolChangeRetractionSpeed,600
;   externalThinWallType,0
;   internalThinWallType,2
;   thinWallAllowedOverlapPercentage,15
;   singleExtrusionMinLength,1
;   singleExtrusionMinPrintingWidthPercentage,50
;   singleExtrusionMaxPrintingWidthPercentage,200
;   singleExtrusionEndpointExtension,0.2
;   horizontalSizeCompensation,0
G90
M82
M106 S255
G4 P500
M106 S0
M140 S65
M190 S65
;Init 181010
;G28 ; home all axes
;G1 Z5 F3000 ; lift
;G92 E0 ; reset extrusion distance
;From Cura 181010
; start_gcode
M117 Start Clean	; Indicate nozzle clean in progress on LCD
;
M104 S210 
M109 S210 
M109 R210 
;
M107		; Turn layer fan off
G21		; Set to metric [change to G20 if you want Imperial]
G90	 	; Force coordinates to be absolute relative to the origin
G28		; Home X/Y/Z axis
;
G1 X3 Y1 Z15 F9000	; Move safe Z height to shear strings
G0 X1 Y1 Z0.2 F9000	; Move in 1mm from edge and up [z] 0.2mm
G92 E0		; Set extruder to [0] zero
G1 X100 E12 F500	; Extrude 30mm filiment along X axis 100mm long to prime and clean the nozzle
G92 E0		; Reset extruder to [0] zero end of cleaning run
G1 E-1 F500		; Retract filiment by 1 mm to reduce string effect
G1 X180 F4000		; quick wipe away from the filament line / purge
M117 End Clean		; Indicate nozzle clean in progress on LCD
;
M117 PRINTING...	; Start msg
; Begin printing with sliced GCode after here
;
G92 E0
G1 E-6.5000 F1800
G1 Z0.180 F1002
; process Tevo Tornado
; layer 1, Z = 0.180
T0
; tool H0.200 W0.440
; skirt
G1 X131.919 Y143.810 F6000
G1 E0.0000 F540
G92 E0
G1 X132.579 Y143.250 E0.0317 F1050
G1 X132.622 Y143.217 E0.0337
G1 X133.339 Y142.731 E0.0654
G1 X133.385 Y142.703 E0.0674
G1 X134.151 Y142.297 E0.0990
G1 X134.200 Y142.274 E0.1010
G1 X135.005 Y141.954 E0.1327
G1 X135.056 Y141.936 E0.1347
G1 X135.891 Y141.705 E0.1664
G1 X135.944 Y141.693 E0.1684
G1 X136.799 Y141.553 E0.2001
G1 X136.852 Y141.547 E0.2021
G1 X137.704 Y141.501 E0.2333
G1 X137.731 Y141.500 E0.2342
G1 X170.159 Y141.500 E1.4206
G1 X170.744 Y142.086 E1.4510
G1 X170.744 Y157.914 E2.0301
G1 X170.159 Y158.500 E2.0604
G1 X164.288 Y158.500 E2.2751
G1 X163.735 Y158.046 E2.3013
G1 X163.559 Y157.161 E2.3344
G1 X163.420 Y156.672 E2.3529
G1 X163.247 Y156.214 E2.3709
G1 X163.043 Y155.791 E2.3880
G1 X162.820 Y155.420 E2.4039
G1 X162.429 Y154.925 E2.4270
G1 X162.015 Y154.552 E2.4473
G1 X161.589 Y154.294 E2.4655
G1 X161.166 Y154.145 E2.4820
G1 X160.740 Y154.097 E2.4977
G1 X160.320 Y154.146 E2.5131
G1 X159.895 Y154.296 E2.5296
G1 X159.470 Y154.555 E2.5478
G1 X159.056 Y154.930 E2.5682
G1 X158.669 Y155.420 E2.5911
G1 X158.446 Y155.791 E2.6069
G1 X158.242 Y156.214 E2.6241
G1 X158.069 Y156.672 E2.6420
G1 X157.930 Y157.161 E2.6606
G1 X157.754 Y158.046 E2.6937
G1 X157.201 Y158.500 E2.7198
G1 X137.731 Y158.500 E3.4321
G1 X137.704 Y158.499 E3.4331
G1 X136.852 Y158.453 E3.4643
G1 X136.799 Y158.447 E3.4663
G1 X135.944 Y158.307 E3.4980
G1 X135.891 Y158.295 E3.5000
G1 X135.056 Y158.064 E3.5317
G1 X135.005 Y158.046 E3.5337
G1 X134.200 Y157.726 E3.5654
G1 X134.151 Y157.703 E3.5673
G1 X133.385 Y157.297 E3.5990
G1 X133.339 Y157.269 E3.6010
G1 X132.622 Y156.783 E3.6327
G1 X132.579 Y156.750 E3.6347
G1 X131.919 Y156.190 E3.6664
G1 X131.879 Y156.152 E3.6684
G1 X131.284 Y155.523 E3.7001
G1 X131.249 Y155.482 E3.7020
G1 X130.724 Y154.793 E3.7337
G1 X130.694 Y154.748 E3.7357
G1 X130.247 Y154.005 E3.7674
G1 X130.222 Y153.958 E3.7694
G1 X129.858 Y153.171 E3.8011
G1 X129.838 Y153.121 E3.8031
G1 X129.562 Y152.300 E3.8348
G1 X129.547 Y152.248 E3.8367
G1 X129.361 Y151.402 E3.8684
G1 X129.352 Y151.348 E3.8704
G1 X129.258 Y150.487 E3.9021
G1 X129.255 Y150.433 E3.9041
G1 X129.255 Y149.567 E3.9358
G1 X129.258 Y149.513 E3.9378
G1 X129.352 Y148.652 E3.9695
G1 X129.361 Y148.598 E3.9715
G1 X129.547 Y147.752 E4.0031
G1 X129.562 Y147.700 E4.0051
G1 X129.838 Y146.879 E4.0368
G1 X129.858 Y146.829 E4.0388
G1 X130.222 Y146.042 E4.0705
G1 X130.247 Y145.995 E4.0725
G1 X130.694 Y145.252 E4.1042
G1 X130.724 Y145.207 E4.1062
G1 X131.249 Y144.518 E4.1378
G1 X131.284 Y144.477 E4.1398
G1 X131.879 Y143.848 E4.1715
G1 X131.919 Y143.810 E4.1735
G1 X132.186 Y144.108 F6000
G92 E0
G1 X132.830 Y143.561 E0.0309 F1050
G1 X132.856 Y143.542 E0.0321
G1 X133.555 Y143.068 E0.0630
G1 X133.582 Y143.051 E0.0642
G1 X134.329 Y142.655 E0.0951
G1 X134.358 Y142.642 E0.0963
G1 X135.143 Y142.329 E0.1272
G1 X135.174 Y142.319 E0.1284
G1 X135.987 Y142.093 E0.1593
G1 X136.019 Y142.086 E0.1604
G1 X136.853 Y141.949 E0.1913
G1 X136.885 Y141.946 E0.1925
G1 X137.720 Y141.900 E0.2231
G1 X137.736 Y141.900 E0.2237
G1 X169.993 Y141.900 E1.4039
G1 X170.344 Y142.251 E1.4221
G1 X170.344 Y157.749 E1.9890
G1 X169.993 Y158.100 E2.0072
G1 X164.431 Y158.100 E2.2107
G1 X164.100 Y157.828 E2.2264
G1 X163.948 Y157.067 E2.2548
G1 X163.800 Y156.547 E2.2746
G1 X163.615 Y156.056 E2.2938
G1 X163.396 Y155.600 E2.3123
G1 X163.149 Y155.192 E2.3297
G1 X162.721 Y154.650 E2.3550
G1 X162.255 Y154.230 E2.3780
G1 X161.761 Y153.930 E2.3991
G1 X161.255 Y153.753 E2.4187
G1 X160.739 Y153.694 E2.4377
G1 X160.229 Y153.754 E2.4565
G1 X159.723 Y153.933 E2.4761
G1 X159.230 Y154.233 E2.4973
G1 X158.763 Y154.656 E2.5203
G1 X158.340 Y155.192 E2.5453
G1 X158.093 Y155.600 E2.5627
G1 X157.874 Y156.056 E2.5812
G1 X157.689 Y156.547 E2.6004
G1 X157.541 Y157.067 E2.6202
G1 X157.389 Y157.828 E2.6486
G1 X157.058 Y158.100 E2.6643
G1 X137.736 Y158.100 E3.3712
G1 X137.720 Y158.100 E3.3718
G1 X136.885 Y158.054 E3.4024
G1 X136.853 Y158.051 E3.4036
G1 X136.019 Y157.914 E3.4345
G1 X135.987 Y157.907 E3.4357
G1 X135.174 Y157.681 E3.4666
G1 X135.143 Y157.671 E3.4678
G1 X134.358 Y157.358 E3.4987
G1 X134.329 Y157.345 E3.4999
G1 X133.582 Y156.949 E3.5308
G1 X133.555 Y156.932 E3.5319
G1 X132.856 Y156.458 E3.5628
G1 X132.830 Y156.439 E3.5640
G1 X132.186 Y155.892 E3.5949
G1 X132.162 Y155.869 E3.5961
G1 X131.582 Y155.256 E3.6270
G1 X131.560 Y155.231 E3.6282
G1 X131.049 Y154.559 E3.6591
G1 X131.031 Y154.532 E3.6603
G1 X130.596 Y153.808 E3.6912
G1 X130.580 Y153.780 E3.6924
G1 X130.226 Y153.013 E3.7233
G1 X130.214 Y152.983 E3.7245
G1 X129.944 Y152.183 E3.7554
G1 X129.935 Y152.151 E3.7566
G1 X129.754 Y151.326 E3.7875
G1 X129.749 Y151.294 E3.7887
G1 X129.657 Y150.455 E3.8196
G1 X129.655 Y150.422 E3.8207
G1 X129.655 Y149.578 E3.8516
G1 X129.657 Y149.545 E3.8528
G1 X129.749 Y148.706 E3.8837
G1 X129.754 Y148.674 E3.8849
G1 X129.935 Y147.849 E3.9158
G1 X129.944 Y147.817 E3.9170
G1 X130.214 Y147.017 E3.9479
G1 X130.226 Y146.987 E3.9491
G1 X130.580 Y146.220 E3.9800
G1 X130.596 Y146.192 E3.9812
G1 X131.031 Y145.468 E4.0121
G1 X131.049 Y145.441 E4.0133
G1 X131.560 Y144.769 E4.0442
G1 X131.581 Y144.744 E4.0454
G1 X132.162 Y144.131 E4.0763
G1 X132.186 Y144.108 E4.0775
G1 X132.453 Y144.406 F6000
G92 E0
G1 X133.080 Y143.873 E0.0301 F1050
G1 X133.089 Y143.867 E0.0305
G1 X133.770 Y143.405 E0.0606
G1 X133.779 Y143.399 E0.0610
G1 X134.506 Y143.014 E0.0911
G1 X134.516 Y143.009 E0.0915
G1 X135.281 Y142.705 E0.1216
G1 X135.291 Y142.701 E0.1220
G1 X136.084 Y142.481 E0.1521
G1 X136.095 Y142.479 E0.1525
G1 X136.907 Y142.346 E0.1826
G1 X136.917 Y142.345 E0.1830
G1 X137.736 Y142.300 E0.2130
G1 X137.742 Y142.300 E0.2132
G1 X169.827 Y142.300 E1.3871
G1 X169.944 Y142.417 E1.3932
G1 X169.944 Y157.583 E1.9480
G1 X169.827 Y157.700 E1.9541
G1 X164.574 Y157.700 E2.1463
G1 X164.464 Y157.609 E2.1515
G1 X164.337 Y156.973 E2.1752
G1 X164.181 Y156.422 E2.1962
G1 X163.983 Y155.898 E2.2167
G1 X163.748 Y155.410 E2.2365
G1 X163.479 Y154.963 E2.2556
G1 X163.014 Y154.376 E2.2830
G1 X162.494 Y153.907 E2.3086
G1 X161.933 Y153.567 E2.3326
G1 X161.345 Y153.360 E2.3554
G1 X160.738 Y153.292 E2.3778
G1 X160.138 Y153.362 E2.3999
G1 X159.550 Y153.570 E2.4227
G1 X158.989 Y153.912 E2.4467
G1 X158.470 Y154.381 E2.4723
G1 X158.010 Y154.963 E2.4995
G1 X157.741 Y155.410 E2.5185
G1 X157.506 Y155.898 E2.5384
G1 X157.308 Y156.422 E2.5588
G1 X157.152 Y156.973 E2.5798
G1 X157.025 Y157.609 E2.6036
G1 X156.914 Y157.700 E2.6088
G1 X137.742 Y157.700 E3.3102
G1 X137.736 Y157.700 E3.3104
G1 X136.917 Y157.655 E3.3404
G1 X136.907 Y157.654 E3.3408
G1 X136.095 Y157.521 E3.3710
G1 X136.084 Y157.519 E3.3714
G1 X135.291 Y157.299 E3.4015
G1 X135.281 Y157.295 E3.4019
G1 X134.516 Y156.991 E3.4320
G1 X134.506 Y156.986 E3.4324
G1 X133.779 Y156.601 E3.4625
G1 X133.770 Y156.595 E3.4629
G1 X133.089 Y156.133 E3.4930
G1 X133.080 Y156.127 E3.4934
G1 X132.453 Y155.594 E3.5235
G1 X132.445 Y155.586 E3.5239
G1 X131.879 Y154.989 E3.5540
G1 X131.872 Y154.981 E3.5544
G1 X131.374 Y154.326 E3.5845
G1 X131.368 Y154.317 E3.5849
G1 X130.944 Y153.612 E3.6150
G1 X130.939 Y153.602 E3.6154
G1 X130.593 Y152.855 E3.6455
G1 X130.589 Y152.845 E3.6459
G1 X130.327 Y152.065 E3.6760
G1 X130.324 Y152.055 E3.6764
G1 X130.147 Y151.251 E3.7065
G1 X130.145 Y151.240 E3.7069
G1 X130.056 Y150.422 E3.7370
G1 X130.055 Y150.411 E3.7374
G1 X130.055 Y149.589 E3.7675
G1 X130.056 Y149.578 E3.7679
G1 X130.145 Y148.760 E3.7980
G1 X130.147 Y148.749 E3.7984
G1 X130.324 Y147.945 E3.8285
G1 X130.327 Y147.935 E3.8289
G1 X130.589 Y147.155 E3.8590
G1 X130.593 Y147.145 E3.8594
G1 X130.939 Y146.398 E3.8895
G1 X130.944 Y146.388 E3.8899
G1 X131.368 Y145.683 E3.9200
