; G-Code generated by Simplify3D(R) Version 4.1.2
; Aug 29, 2019 at 8:05:48 AM
; Settings Summary
;   processName,Process1
;   applyToModels,EiffelTower_part_A
;   profileName,101 Tevo Tornado (experimental)
;   profileVersion,2019-08-25 17:34:33
;   baseProfile,Creality CR-10(2)
;   printMaterial,PLA
;   printQuality,Medium
;   printExtruders,
;   extruderName,Primary Extruder
;   extruderToolheadNumber,0
;   extruderDiameter,0.4
;   extruderAutoWidth,0
;   extruderWidth,0.35
;   extrusionMultiplier,0.95
;   extruderUseRetract,1
;   extruderRetractionDistance,6
;   extruderExtraRestartDistance,0
;   extruderRetractionZLift,0.3
;   extruderRetractionSpeed,3000
;   extruderUseCoasting,0
;   extruderCoastingDistance,0.2
;   extruderUseWipe,0
;   extruderWipeDistance,4
;   primaryExtruder,0
;   layerHeight,0.15
;   topSolidLayers,4
;   bottomSolidLayers,3
;   perimeterOutlines,3
;   printPerimetersInsideOut,0
;   startPointOption,3
;   startPointOriginX,0
;   startPointOriginY,300
;   sequentialIslands,0
;   spiralVaseMode,0
;   firstLayerHeightPercentage,120
;   firstLayerWidthPercentage,100
;   firstLayerUnderspeed,0.5
;   useRaft,0
;   raftExtruder,0
;   raftTopLayers,3
;   raftBaseLayers,2
;   raftOffset,3
;   raftSeparationDistance,0.14
;   raftTopInfill,100
;   aboveRaftSpeedMultiplier,0.3
;   useSkirt,1
;   skirtExtruder,0
;   skirtLayers,1
;   skirtOutlines,3
;   skirtOffset,2
;   usePrimePillar,0
;   primePillarExtruder,999
;   primePillarWidth,12
;   primePillarLocation,7
;   primePillarSpeedMultiplier,1
;   useOozeShield,0
;   oozeShieldExtruder,999
;   oozeShieldOffset,2
;   oozeShieldOutlines,1
;   oozeShieldSidewallShape,1
;   oozeShieldSidewallAngle,30
;   oozeShieldSpeedMultiplier,1
;   infillExtruder,0
;   internalInfillPattern,Rectilinear
;   externalInfillPattern,Rectilinear
;   infillPercentage,15
;   outlineOverlapPercentage,15
;   infillExtrusionWidthPercentage,100
;   minInfillLength,5
;   infillLayerInterval,1
;   internalInfillAngles,45,-45
;   overlapInternalInfillAngles,0
;   externalInfillAngles,45,-45
;   generateSupport,0
;   supportExtruder,0
;   supportInfillPercentage,30
;   supportExtraInflation,0
;   supportBaseLayers,0
;   denseSupportExtruder,0
;   denseSupportLayers,0
;   denseSupportInfillPercentage,70
;   supportLayerInterval,1
;   supportHorizontalPartOffset,0.4
;   supportUpperSeparationLayers,1
;   supportLowerSeparationLayers,1
;   supportType,0
;   supportGridSpacing,4.5
;   maxOverhangAngle,45
;   supportAngles,0
;   temperatureName,Primary Extruder,Heated Bed
;   temperatureNumber,0,0
;   temperatureSetpointCount,2,1
;   temperatureSetpointLayers,1,2,1
;   temperatureSetpointTemperatures,210,205,50
;   temperatureStabilizeAtStartup,1,1
;   temperatureHeatedBed,0,1
;   fanLayers,1,2
;   fanSpeeds,0,100
;   blipFanToFullPower,0
;   adjustSpeedForCooling,1
;   minSpeedLayerTime,15
;   minCoolingSpeedSlowdown,50
;   increaseFanForCooling,1
;   minFanLayerTime,25
;   maxCoolingFanSpeed,100
;   increaseFanForBridging,1
;   bridgingFanSpeed,100
;   use5D,1
;   relativeEdistances,0
;   allowEaxisZeroing,1
;   independentExtruderAxes,0
;   includeM10123,0
;   stickySupport,1
;   applyToolheadOffsets,0
;   gcodeXoffset,0
;   gcodeYoffset,0
;   gcodeZoffset,0
;   overrideMachineDefinition,1
;   machineTypeOverride,0
;   strokeXoverride,300
;   strokeYoverride,300
;   strokeZoverride,400
;   originOffsetXoverride,0
;   originOffsetYoverride,0
;   originOffsetZoverride,0
;   homeXdirOverride,-1
;   homeYdirOverride,-1
;   homeZdirOverride,-1
;   flipXoverride,1
;   flipYoverride,-1
;   flipZoverride,1
;   toolheadOffsets,0,0|0,0|0,0|0,0|0,0|0,0
;   overrideFirmwareConfiguration,1
;   firmwareTypeOverride,RepRap (Marlin/Repetier/Sprinter)
;   GPXconfigOverride,r2
;   baudRateOverride,250000
;   overridePrinterModels,1
;   printerModelsOverride
;   startingGcode,;Init 181010,;G28 			; Home all axes,;G1 Z5 F3000 ; lift,;G92 E0			; Reset extrusion distance,,; // From Cura 181010,; // Update 190823 (GueroLoco),; // Start_gcode,M117 *Start Clean*		; Indicate nozzle clean in progress on LCD,;,M104 S[extruder0_temperature] ,M109 S[extruder0_temperature] ,M109 R[extruder0_temperature] ,;,M107			; Turn layer fan off,G21			; Set to metric [change to G20 if you want Imperial],G90			; Force coordinates to be absolute relative to the origin,G28			; Home X/Y/Z axis,;,;G1 X3 Y1 Z15 F9000		; Move safe Z height to shear strings,;G0 X1 Y1 Z0.2 F9000		; Move in 1mm from edge and up [z] 0.2mm,;G92 E0			; Set extruder to [0] zero,;G1 X100 E12 F500		; Extrude 30mm filiment along X axis 100mm long to prime and clean the nozzle,;G92 E0			; Reset extruder to [0] zero end of cleaning run,;G1 E-1 F500			; Retract filiment by 1 mm to reduce string effect,;G1 X180 F4000		; Quick wipe away from the filament line / purge,;,G92 E0			; Set Extruder to 0 ,G1 X0 Y0 F2000		; Move X and Y to 0 with speed 2000 (mm/min),G1 Z0.1 F1000		; Move Z to 0.1,G1 X8.0 F2000		; Move X to 8.0,G1 Y60.0 E4.0 F1000.0		; Prime - Move Y to 60 and Extruder with 4.0,G1 Y100.0 E8.5 F1000.0		; Prime - Move Y to 100 and Extruder with 8.5,G92 E0			; Set extruder to 0,M117 *End Clean*		; Indicate nozzle clean in progress on LCD,G1 Z5 F3000			; Lift - Move Z to 5,; ,M117 *Printing...*		; start msg,; // Begin printing with sliced GCode after here,;
;   layerChangeGcode,
;   retractionGcode,
;   toolChangeGcode,
;   endingGcode,;,; init 181010,;,;M107 			; Fan off,;G1 E-1 F300 			; Retract the filament a bit before lifting the nozzle,;M104 S0 			; Turn off extruder,;M140 S0 			; Turn off bed,;G91			; Relative positioning,;G28 X0 Y0 			; Move X/Y to min endstops so the head is out of teh way,;M84 			; Disable motors,;G90 			; Absolute positioning,;M117 Print ready...,,;,; // From Cura 181010,; // End_gcode,G92 E0			; Zero the extruded length,G1 E-30 F300			; Retract E -30,M106 S0			; Turn off cooling fan,M104 S0			; Turn off temperature,M140 S0		     	; Turn off bed,G91			; Relative positioning,G1 E-1 F300			; Retract the filament a bit before lifting the nozzle to release some of the pressure,G1 Z+20 E-5 X-20 Y-20 F7200	; Move Z up a bit and retract filament even more,G1 X0 Y150 F10000		; Move right min,M107			; Turn off layer fan,M84			; Disable motors,G90			; Absolute positioning,M117 *The-End* 		; End msg,;,
;   exportFileFormat,gcode
;   celebration,0
;   celebrationSong,Star Wars
;   postProcessing,
;   defaultSpeed,1800
;   outlineUnderspeed,0.5
;   solidInfillUnderspeed,0.8
;   supportUnderspeed,0.8
;   rapidXYspeed,6000
;   rapidZspeed,1002
;   minBridgingArea,50
;   bridgingExtraInflation,0.2
;   bridgingExtrusionMultiplier,1
;   bridgingSpeedMultiplier,0.6
;   useFixedBridgingAngle,0
;   fixedBridgingAngle,0
;   applyBridgingToPerimeters,0
;   filamentDiameters,1.75|1.75|1.75|1.75|1.75|1.75
;   filamentPricesPerKg,30|46|46|46|46|46
;   filamentDensities,1.25|1.25|1.25|1.25|1.25|1.25
;   useMinPrintHeight,0
;   minPrintHeight,0
;   useMaxPrintHeight,0
;   maxPrintHeight,9
;   useDiaphragm,0
;   diaphragmLayerInterval,20
;   robustSlicing,1
;   mergeAllIntoSolid,0
;   onlyRetractWhenCrossingOutline,1
;   retractBetweenLayers,1
;   useRetractionMinTravel,0
;   retractionMinTravel,3
;   retractWhileWiping,0
;   onlyWipeOutlines,1
;   avoidCrossingOutline,0
;   maxMovementDetourFactor,3
;   toolChangeRetractionDistance,12
;   toolChangeExtraRestartDistance,-0.5
;   toolChangeRetractionSpeed,600
;   externalThinWallType,1
;   internalThinWallType,1
;   thinWallAllowedOverlapPercentage,15
;   singleExtrusionMinLength,1
;   singleExtrusionMinPrintingWidthPercentage,50
;   singleExtrusionMaxPrintingWidthPercentage,200
;   singleExtrusionEndpointExtension,0.2
;   horizontalSizeCompensation,0
G90
M82
M106 S0
M140 S50
M190 S50
;Init 181010
;G28 			; Home all axes
;G1 Z5 F3000 ; lift
;G92 E0			; Reset extrusion distance
; // From Cura 181010
; // Update 190823 (GueroLoco)
; // Start_gcode
M117 *Start Clean*		; Indicate nozzle clean in progress on LCD
;
M104 S210 
M109 S210 
M109 R210 
;
M107			; Turn layer fan off
G21			; Set to metric [change to G20 if you want Imperial]
G90			; Force coordinates to be absolute relative to the origin
G28			; Home X/Y/Z axis
;
;G1 X3 Y1 Z15 F9000		; Move safe Z height to shear strings
;G0 X1 Y1 Z0.2 F9000		; Move in 1mm from edge and up [z] 0.2mm
;G92 E0			; Set extruder to [0] zero
;G1 X100 E12 F500		; Extrude 30mm filiment along X axis 100mm long to prime and clean the nozzle
;G92 E0			; Reset extruder to [0] zero end of cleaning run
;G1 E-1 F500			; Retract filiment by 1 mm to reduce string effect
;G1 X180 F4000		; Quick wipe away from the filament line / purge
;
G92 E0			; Set Extruder to 0 
G1 X0 Y0 F2000		; Move X and Y to 0 with speed 2000 (mm/min)
G1 Z0.1 F1000		; Move Z to 0.1
G1 X8.0 F2000		; Move X to 8.0
G1 Y60.0 E4.0 F1000.0		; Prime - Move Y to 60 and Extruder with 4.0
G1 Y100.0 E8.5 F1000.0		; Prime - Move Y to 100 and Extruder with 8.5
G92 E0			; Set extruder to 0
M117 *End Clean*		; Indicate nozzle clean in progress on LCD
G1 Z5 F3000			; Lift - Move Z to 5
; 
M117 *Printing...*		; start msg
; // Begin printing with sliced GCode after here
;
; process Process1
; layer 1, Z = 0.180
T0
G92 E0.0000
G1 E-6.0000 F3000
; feature skirt
; tool H0.180 W0.350
G1 Z0.300 F1002
G1 X131.107 Y168.897 F6000
G1 Z0.180 F1002
G1 E0.0000 F3000
G92 E0.0000
G1 X130.785 Y168.557 E0.0117 F900
G1 X130.656 Y168.399 E0.0167
G1 X130.166 Y167.705 E0.0379
G1 X129.984 Y167.351 E0.0478
G1 X129.728 Y166.624 E0.0670
G1 X129.658 Y166.331 E0.0745
G1 X129.579 Y165.725 E0.0897
G1 X129.567 Y165.540 E0.0943
G1 X129.564 Y134.478 E0.8672
G1 X129.572 Y134.326 E0.8710
G1 X129.630 Y133.783 E0.8845
G1 X129.692 Y133.491 E0.8920
G1 X129.877 Y132.919 E0.9069
G1 X129.962 Y132.713 E0.9125
G1 X130.182 Y132.278 E0.9246
G1 X130.301 Y132.083 E0.9303
G1 X130.666 Y131.579 E0.9458
G1 X130.777 Y131.444 E0.9501
G1 X131.221 Y130.966 E0.9664
G1 X131.337 Y130.854 E0.9704
G1 X131.634 Y130.599 E0.9801
G1 X131.882 Y130.427 E0.9876
G1 X132.918 Y129.861 E1.0170
G1 X133.410 Y129.698 E1.0299
G1 X134.251 Y129.579 E1.0510
G1 X134.452 Y129.565 E1.0560
G1 X165.527 Y129.564 E1.8293
G1 X165.688 Y129.573 E1.8333
G1 X166.155 Y129.625 E1.8450
G1 X166.433 Y129.685 E1.8521
G1 X167.382 Y129.989 E1.8769
G1 X167.813 Y130.211 E1.8889
G1 X168.572 Y130.784 E1.9126
G1 X168.756 Y130.949 E1.9187
G1 X169.408 Y131.645 E1.9425
G1 X169.635 Y131.966 E1.9522
G1 X170.175 Y133.005 E1.9814
G1 X170.328 Y133.500 E1.9943
G1 X170.424 Y134.294 E2.0142
G1 X170.435 Y134.466 E2.0185
G1 X170.436 Y165.517 E2.7911
G1 X170.429 Y165.658 E2.7946
G1 X170.373 Y166.225 E2.8088
G1 X170.293 Y166.578 E2.8178
G1 X169.960 Y167.492 E2.8420
G1 X169.736 Y167.893 E2.8534
G1 X169.125 Y168.668 E2.8780
G1 X168.966 Y168.839 E2.8838
G1 X168.315 Y169.434 E2.9057
G1 X168.062 Y169.619 E2.9135
G1 X167.755 Y169.796 E2.9224
G1 X167.637 Y169.857 E2.9257
G1 X166.787 Y170.247 E2.9489
G1 X166.300 Y170.374 E2.9615
G1 X165.621 Y170.429 E2.9784
G1 X165.505 Y170.434 E2.9813
G1 X134.417 Y170.434 E3.7549
G1 X134.148 Y170.409 E3.7616
G1 X133.599 Y170.305 E3.7755
G1 X133.413 Y170.256 E3.7803
G1 X132.424 Y169.927 E3.8062
G1 X131.910 Y169.628 E3.8210
G1 X131.190 Y168.978 E3.8451
G1 X131.107 Y168.897 E3.8480
G92 E0.0000
G1 E-6.0000 F3000
G1 Z0.480 F1002
G1 X131.357 Y168.652 F6000
G1 Z0.180 F1002
G1 E0.0000 F3000
G92 E0.0000
G1 X131.048 Y168.325 E0.0112 F900
G1 X130.935 Y168.187 E0.0156
G1 X130.466 Y167.523 E0.0359
G1 X130.306 Y167.212 E0.0446
G1 X130.064 Y166.525 E0.0627
G1 X130.002 Y166.267 E0.0693
G1 X129.928 Y165.691 E0.0837
G1 X129.917 Y165.529 E0.0878
G1 X129.914 Y134.487 E0.8602
G1 X129.921 Y134.354 E0.8635
G1 X129.976 Y133.838 E0.8764
G1 X130.030 Y133.581 E0.8829
G1 X130.206 Y133.040 E0.8971
G1 X130.280 Y132.858 E0.9020
G1 X130.488 Y132.448 E0.9134
G1 X130.592 Y132.277 E0.9184
G1 X130.943 Y131.793 E0.9333
G1 X131.041 Y131.674 E0.9371
G1 X131.470 Y131.212 E0.9528
G1 X131.573 Y131.113 E0.9564
G1 X131.848 Y130.876 E0.9654
G1 X132.066 Y130.726 E0.9720
G1 X133.058 Y130.184 E1.0001
G1 X133.491 Y130.040 E1.0115
G1 X134.288 Y129.928 E1.0315
G1 X134.464 Y129.915 E1.0359
G1 X165.518 Y129.914 E1.8086
G1 X165.659 Y129.922 E1.8121
G1 X166.098 Y129.971 E1.8231
G1 X166.343 Y130.023 E1.8293
G1 X167.248 Y130.313 E1.8530
G1 X167.626 Y130.509 E1.8636
G1 X168.349 Y131.054 E1.8861
G1 X168.510 Y131.199 E1.8915
G1 X169.136 Y131.867 E1.9143
G1 X169.336 Y132.149 E1.9229
G1 X169.850 Y133.138 E1.9506
G1 X169.985 Y133.573 E1.9619
G1 X170.076 Y134.326 E1.9808
G1 X170.085 Y134.477 E1.9846
G1 X170.086 Y165.509 E2.7567
G1 X170.080 Y165.633 E2.7598
G1 X170.027 Y166.169 E2.7732
G1 X169.957 Y166.479 E2.7811
G1 X169.641 Y167.346 E2.8041
G1 X169.444 Y167.698 E2.8141
G1 X168.859 Y168.440 E2.8377
G1 X168.719 Y168.591 E2.8428
G1 X168.093 Y169.163 E2.8639
G1 X167.871 Y169.325 E2.8707
G1 X167.587 Y169.489 E2.8789
G1 X167.483 Y169.542 E2.8818
G1 X166.669 Y169.916 E2.9041
G1 X166.241 Y170.028 E2.9151
G1 X165.600 Y170.080 E2.9311
G1 X165.498 Y170.084 E2.9336
G1 X134.433 Y170.084 E3.7066
G1 X134.197 Y170.062 E3.7125
G1 X133.676 Y169.963 E3.7257
G1 X133.512 Y169.921 E3.7299
G1 X132.569 Y169.606 E3.7546
G1 X132.117 Y169.343 E3.7676
G1 X131.429 Y168.723 E3.7907
G1 X131.357 Y168.652 E3.7932
G92 E0.0000
G1 E-6.0000 F3000
G1 Z0.480 F1002
G1 X131.606 Y168.407 F6000
G1 Z0.180 F1002
G1 E0.0000 F3000
G92 E0.0000
G1 X131.311 Y168.094 E0.0107 F900
G1 X131.214 Y167.975 E0.0145
G1 X130.766 Y167.341 E0.0338
G1 X130.628 Y167.073 E0.0413
G1 X130.400 Y166.426 E0.0584
G1 X130.347 Y166.204 E0.0641
G1 X130.276 Y165.657 E0.0778
G1 X130.267 Y165.517 E0.0813
G1 X130.264 Y134.496 E0.8532
G1 X130.270 Y134.382 E0.8560
G1 X130.322 Y133.893 E0.8683
G1 X130.369 Y133.672 E0.8739
G1 X130.535 Y133.160 E0.8873
G1 X130.599 Y133.004 E0.8915
G1 X130.794 Y132.619 E0.9022
G1 X130.884 Y132.471 E0.9065
G1 X131.220 Y132.007 E0.9208
G1 X131.304 Y131.905 E0.9241
G1 X131.720 Y131.457 E0.9393
G1 X131.808 Y131.372 E0.9423
G1 X132.063 Y131.154 E0.9507
G1 X132.250 Y131.024 E0.9563
G1 X133.198 Y130.506 E0.9832
G1 X133.571 Y130.382 E0.9930
G1 X134.324 Y130.276 E1.0119
G1 X134.477 Y130.265 E1.0157
G1 X165.508 Y130.264 E1.7879
G1 X165.629 Y130.271 E1.7909
G1 X166.042 Y130.317 E1.8012
G1 X166.253 Y130.362 E1.8066
G1 X167.113 Y130.637 E1.8291
G1 X167.438 Y130.806 E1.8382
G1 X168.126 Y131.325 E1.8596
G1 X168.265 Y131.449 E1.8643
G1 X168.864 Y132.089 E1.8861
G1 X169.036 Y132.331 E1.8935
G1 X169.525 Y133.272 E1.9198
G1 X169.641 Y133.646 E1.9296
G1 X169.727 Y134.357 E1.9474
G1 X169.735 Y134.488 E1.9507
G1 X169.736 Y165.500 E2.7223
G1 X169.731 Y165.607 E2.7250
G1 X169.681 Y166.113 E2.7377
G1 X169.620 Y166.380 E2.7445
G1 X169.321 Y167.200 E2.7662
G1 X169.152 Y167.503 E2.7748
G1 X168.593 Y168.213 E2.7973
G1 X168.473 Y168.342 E2.8017
G1 X167.871 Y168.892 E2.8220
G1 X167.680 Y169.032 E2.8279
G1 X167.419 Y169.182 E2.8354
G1 X167.330 Y169.228 E2.8379
G1 X166.551 Y169.585 E2.8592
G1 X166.182 Y169.681 E2.8687
G1 X165.579 Y169.730 E2.8837
G1 X165.491 Y169.734 E2.8859
G1 X134.450 Y169.734 E3.6583
G1 X134.247 Y169.715 E3.6634
G1 X133.753 Y169.622 E3.6759
G1 X133.611 Y169.585 E3.6795
G1 X132.714 Y169.286 E3.7031
G1 X132.325 Y169.059 E3.7143
G1 X131.669 Y168.468 E3.7362
G1 X131.606 Y168.407 E3.7384
G92 E0.0000
G1 E-6.0000 F3000
; feature outer perimeter
G1 Z0.480 F1002
G1 X133.280 Y166.756 F6000
G1 Z0.180 F1002
G1 E0.0000 F3000
G92 E0.0000
G1 X133.079 Y166.543 E0.0073 F450
G1 X132.844 Y166.238 E0.0169
G1 X132.790 Y166.138 E0.0197
G1 X132.661 Y165.771 E0.0294
G1 X132.617 Y165.436 E0.0378
G1 X132.614 Y134.562 E0.8060
G1 X132.645 Y134.271 E0.8133
G1 X132.740 Y133.977 E0.8210
G1 X132.846 Y133.768 E0.8268
G1 X133.078 Y133.448 E0.8367
G1 X133.393 Y133.109 E0.8482
G1 X133.493 Y133.023 E0.8515
G1 X134.130 Y132.675 E0.8695
G1 X134.290 Y132.643 E0.8736
G1 X134.562 Y132.615 E0.8804
G1 X165.437 Y132.614 E1.6486
G1 X165.656 Y132.638 E1.6541
G1 X166.194 Y132.811 E1.6682
G1 X166.625 Y133.135 E1.6816
G1 X167.031 Y133.569 E1.6964
G1 X167.335 Y134.154 E1.7128
G1 X167.385 Y134.564 E1.7231
G1 X167.386 Y165.438 E2.4913
G1 X167.358 Y165.724 E2.4985
