; G-Code generated by Simplify3D(R) Version 4.0.1
; Aug 23, 2019 at 10:42:36 AM
; Settings Summary
;   processName,Process1
;   applyToModels,T-Nuts-M5_v1,T-Nuts_M3_Profil_4040,T-Nuts-bslot3030
;   profileName,101 Tevo Tornado (experimental)
;   profileVersion,2019-08-23 09:59:51
;   baseProfile,Creality CR-10(2)
;   printMaterial,PLA
;   printQuality,Medium
;   printExtruders,
;   extruderName,Primary Extruder
;   extruderToolheadNumber,0
;   extruderDiameter,0.4
;   extruderAutoWidth,0
;   extruderWidth,0.35
;   extrusionMultiplier,0.95
;   extruderUseRetract,1
;   extruderRetractionDistance,6
;   extruderExtraRestartDistance,0
;   extruderRetractionZLift,0.3
;   extruderRetractionSpeed,3000
;   extruderUseCoasting,0
;   extruderCoastingDistance,0.2
;   extruderUseWipe,0
;   extruderWipeDistance,4
;   primaryExtruder,0
;   layerHeight,0.15
;   topSolidLayers,4
;   bottomSolidLayers,3
;   perimeterOutlines,3
;   printPerimetersInsideOut,0
;   startPointOption,3
;   startPointOriginX,0
;   startPointOriginY,300
;   sequentialIslands,0
;   spiralVaseMode,0
;   firstLayerHeightPercentage,120
;   firstLayerWidthPercentage,100
;   firstLayerUnderspeed,0.5
;   useRaft,0
;   raftExtruder,0
;   raftTopLayers,3
;   raftBaseLayers,2
;   raftOffset,3
;   raftSeparationDistance,0.14
;   raftTopInfill,100
;   aboveRaftSpeedMultiplier,0.3
;   useSkirt,1
;   skirtExtruder,0
;   skirtLayers,1
;   skirtOutlines,3
;   skirtOffset,2
;   usePrimePillar,0
;   primePillarExtruder,999
;   primePillarWidth,12
;   primePillarLocation,7
;   primePillarSpeedMultiplier,1
;   useOozeShield,0
;   oozeShieldExtruder,999
;   oozeShieldOffset,2
;   oozeShieldOutlines,1
;   oozeShieldSidewallShape,1
;   oozeShieldSidewallAngle,30
;   oozeShieldSpeedMultiplier,1
;   infillExtruder,0
;   internalInfillPattern,Rectilinear
;   externalInfillPattern,Rectilinear
;   infillPercentage,15
;   outlineOverlapPercentage,15
;   infillExtrusionWidthPercentage,100
;   minInfillLength,5
;   infillLayerInterval,1
;   internalInfillAngles,45,-45
;   overlapInternalInfillAngles,0
;   externalInfillAngles,45,-45
;   generateSupport,0
;   supportExtruder,0
;   supportInfillPercentage,30
;   supportExtraInflation,0
;   supportBaseLayers,0
;   denseSupportExtruder,0
;   denseSupportLayers,0
;   denseSupportInfillPercentage,70
;   supportLayerInterval,1
;   supportHorizontalPartOffset,0.4
;   supportUpperSeparationLayers,1
;   supportLowerSeparationLayers,1
;   supportType,0
;   supportGridSpacing,4.5
;   maxOverhangAngle,45
;   supportAngles,0
;   temperatureName,Primary Extruder,Heated Bed
;   temperatureNumber,0,0
;   temperatureSetpointCount,2,1
;   temperatureSetpointLayers,1,2,1
;   temperatureSetpointTemperatures,210,205,50
;   temperatureStabilizeAtStartup,1,1
;   temperatureHeatedBed,0,1
;   temperatureRelayBetweenLayers,0,0
;   temperatureRelayBetweenLoops,0,0
;   fanLayers,1,2
;   fanSpeeds,0,100
;   blipFanToFullPower,0
;   adjustSpeedForCooling,1
;   minSpeedLayerTime,15
;   minCoolingSpeedSlowdown,50
;   increaseFanForCooling,1
;   minFanLayerTime,25
;   maxCoolingFanSpeed,100
;   increaseFanForBridging,1
;   bridgingFanSpeed,100
;   use5D,1
;   relativeEdistances,0
;   allowEaxisZeroing,1
;   independentExtruderAxes,0
;   includeM10123,0
;   stickySupport,1
;   applyToolheadOffsets,0
;   gcodeXoffset,0
;   gcodeYoffset,0
;   gcodeZoffset,0
;   overrideMachineDefinition,1
;   machineTypeOverride,0
;   strokeXoverride,300
;   strokeYoverride,300
;   strokeZoverride,400
;   originOffsetXoverride,0
;   originOffsetYoverride,0
;   originOffsetZoverride,0
;   homeXdirOverride,-1
;   homeYdirOverride,-1
;   homeZdirOverride,-1
;   flipXoverride,1
;   flipYoverride,-1
;   flipZoverride,1
;   toolheadOffsets,0,0|0,0|0,0|0,0|0,0|0,0
;   overrideFirmwareConfiguration,1
;   firmwareTypeOverride,RepRap (Marlin/Repetier/Sprinter)
;   GPXconfigOverride,r2
;   baudRateOverride,250000
;   overridePrinterModels,1
;   printerModelsOverride
;   startingGcode,;Init 181010,;G28 			; Home all axes,;G1 Z5 F3000 ; lift,;G92 E0			; Reset extrusion distance,,; // From Cura 181010,; // Update 190823 (GueroLoco),; // Start_gcode,M117 *Start Clean*		; Indicate nozzle clean in progress on LCD,;,M104 S[extruder0_temperature] ,M109 S[extruder0_temperature] ,M109 R[extruder0_temperature] ,;,M107			; Turn layer fan off,G21			; Set to metric [change to G20 if you want Imperial],G90			; Force coordinates to be absolute relative to the origin,G28			; Home X/Y/Z axis,;,;G1 X3 Y1 Z15 F9000		; Move safe Z height to shear strings,;G0 X1 Y1 Z0.2 F9000		; Move in 1mm from edge and up [z] 0.2mm,;G92 E0			; Set extruder to [0] zero,;G1 X100 E12 F500		; Extrude 30mm filiment along X axis 100mm long to prime and clean the nozzle,;G1 x8.0 Y100 E12 F500		; Extrude 30mm filiment along Y axis 100mm long to prime and clean the nozzle,;G92 E0			; Reset extruder to [0] zero end of cleaning run,;G1 E-1 F500			; Retract filiment by 1 mm to reduce string effect,;G1 X180 F4000		; Quick wipe away from the filament line / purge,;G1 Y180 F4000		; Quick wipe away from the filament line / purge,;,G92 E0			; Set Extruder to 0 ,G1 X0 Y0 F2000		; Move X and Y to 0 with speed 2000 (mm/min),G1 Z0.1 F1000		; Move Z to 0.1,G1 X8.0 F2000		; Move X to 8.0,G1 Y60.0 E4.0 F1000.0		; Prime - Move Y to 60 and Extruder with 4.0,G1 Y100.0 E8.5 F1000.0		; Prime - Move Y to 100 and Extruder with 8.5,G92 E0			; Set extruder to 0,M117 *End Clean*		; Indicate nozzle clean in progress on LCD,G1 Z5 F3000			; Lift - Move Z to 5,; ,M117 *Printing...*		; start msg,; // Begin printing with sliced GCode after here,;
;   layerChangeGcode,
;   retractionGcode,
;   toolChangeGcode,
;   endingGcode,;,; init 181010,;,;M107 			; Fan off,;G1 E-1 F300 			; Retract the filament a bit before lifting the nozzle,;M104 S0 			; Turn off extruder,;M140 S0 			; Turn off bed,;G91			; Relative positioning,;G28 X0 Y0 			; Move X/Y to min endstops so the head is out of teh way,;M84 			; Disable motors,;G90 			; Absolute positioning,;M117 Print ready...,,;,; // From Cura 181010,; // End_gcode,G92 E0			; Zero the extruded length,G1 E-5 F9000			; Retract E -5,M106 S0			; Turn off cooling fan,M104 S0			; Turn off temperature,M140 S0		     	; Turn off bed,G91			; Relative positioning,G1 E-1 F300			; Retract the filament a bit before lifting the nozzle to release some of the pressure,G1 Z+20 E-5 X-20 Y-20 F7200	; Move Z up a bit and retract filament even more,G1 X0 Y150 F10000		; Move right min,M107			; Turn off layer fan,M84			; Disable motors,G90			; Absolute positioning,M117 *The-End* 		; End msg
;   exportFileFormat,gcode
;   celebration,0
;   celebrationSong,Star Wars
;   postProcessing,
;   defaultSpeed,1800
;   outlineUnderspeed,0.5
;   solidInfillUnderspeed,0.8
;   supportUnderspeed,0.8
;   rapidXYspeed,6000
;   rapidZspeed,1002
;   minBridgingArea,50
;   bridgingExtraInflation,0.2
;   bridgingExtrusionMultiplier,1
;   bridgingSpeedMultiplier,0.6
;   useFixedBridgingAngle,0
;   fixedBridgingAngle,0
;   applyBridgingToPerimeters,0
;   filamentDiameters,1.75|1.75|1.75|1.75|1.75|1.75
;   filamentPricesPerKg,30|46|46|46|46|46
;   filamentDensities,1.25|1.25|1.25|1.25|1.25|1.25
;   useMinPrintHeight,0
;   minPrintHeight,0
;   useMaxPrintHeight,0
;   maxPrintHeight,9
;   useDiaphragm,0
;   diaphragmLayerInterval,20
;   robustSlicing,1
;   mergeAllIntoSolid,0
;   onlyRetractWhenCrossingOutline,1
;   retractBetweenLayers,1
;   useRetractionMinTravel,0
;   retractionMinTravel,3
;   retractWhileWiping,0
;   onlyWipeOutlines,1
;   avoidCrossingOutline,0
;   maxMovementDetourFactor,3
;   toolChangeRetractionDistance,12
;   toolChangeExtraRestartDistance,-0.5
;   toolChangeRetractionSpeed,600
;   externalThinWallType,1
;   internalThinWallType,1
;   thinWallAllowedOverlapPercentage,15
;   singleExtrusionMinLength,1
;   singleExtrusionMinPrintingWidthPercentage,50
;   singleExtrusionMaxPrintingWidthPercentage,200
;   singleExtrusionEndpointExtension,0.2
;   horizontalSizeCompensation,0
G90
M82
M106 S0
M140 S50
M190 S50
;Init 181010
;G28 			; Home all axes
;G1 Z5 F3000 ; lift
;G92 E0			; Reset extrusion distance
; // From Cura 181010
; // Update 190823 (GueroLoco)
; // Start_gcode
M117 *Start Clean*		; Indicate nozzle clean in progress on LCD
;
M104 S210 
M109 S210 
M109 R210 
;
M107			; Turn layer fan off
G21			; Set to metric [change to G20 if you want Imperial]
G90			; Force coordinates to be absolute relative to the origin
G28			; Home X/Y/Z axis
;
;G1 X3 Y1 Z15 F9000		; Move safe Z height to shear strings
;G0 X1 Y1 Z0.2 F9000		; Move in 1mm from edge and up [z] 0.2mm
;G92 E0			; Set extruder to [0] zero
;G1 X100 E12 F500		; Extrude 30mm filiment along X axis 100mm long to prime and clean the nozzle
;G1 x8.0 Y100 E12 F500		; Extrude 30mm filiment along Y axis 100mm long to prime and clean the nozzle
;G92 E0			; Reset extruder to [0] zero end of cleaning run
;G1 E-1 F500			; Retract filiment by 1 mm to reduce string effect
;G1 X180 F4000		; Quick wipe away from the filament line / purge
;G1 Y180 F4000		; Quick wipe away from the filament line / purge
;
G92 E0			; Set Extruder to 0 
G1 X0 Y0 F2000		; Move X and Y to 0 with speed 2000 (mm/min)
G1 Z0.1 F1000		; Move Z to 0.1
G1 X8.0 F2000		; Move X to 8.0
G1 Y60.0 E4.0 F1000.0		; Prime - Move Y to 60 and Extruder with 4.0
G1 Y100.0 E8.5 F1000.0		; Prime - Move Y to 100 and Extruder with 8.5
G92 E0			; Set extruder to 0
M117 *End Clean*		; Indicate nozzle clean in progress on LCD
G1 Z5 F3000			; Lift - Move Z to 5
; 
M117 *Printing...*		; start msg
; // Begin printing with sliced GCode after here
;
G92 E0
G1 E-6.0000 F3000
G1 Z0.480 F1002
; process Process1
; layer 1, Z = 0.180
T0
; tool H0.180 W0.350
; skirt
G1 X139.238 Y91.894 F6000
G1 Z0.180 F1002
G1 E0.0000 F900
G92 E0
G1 X139.286 Y91.826 E0.0021 F900
G1 X139.589 Y91.475 E0.0136
G1 X139.649 Y91.418 E0.0157
G1 X140.139 Y91.031 E0.0312
G1 X140.215 Y90.983 E0.0335
G1 X140.665 Y90.758 E0.0460
G1 X140.749 Y90.727 E0.0482
G1 X141.368 Y90.564 E0.0641
G1 X141.423 Y90.553 E0.0655
G1 X141.734 Y90.513 E0.0733
G1 X141.790 Y90.510 E0.0747
G1 X142.785 Y90.510 E0.0995
G1 X144.136 Y89.145 E0.1473
G1 X144.460 Y89.010 E0.1560
G1 X150.698 Y89.010 E0.3112
G1 X151.024 Y89.147 E0.3200
G1 X152.448 Y90.606 E0.3707
G1 X152.497 Y90.731 E0.3741
G1 X152.929 Y90.729 E0.3848
G1 X152.968 Y90.730 E0.3858
G1 X153.184 Y90.749 E0.3912
G1 X153.223 Y90.754 E0.3922
G1 X154.134 Y90.914 E0.4152
G1 X154.263 Y90.958 E0.4186
G1 X154.937 Y91.312 E0.4375
G1 X154.995 Y91.355 E0.4393
G1 X155.250 Y91.459 E0.4462
G1 X155.453 Y91.625 E0.4527
G1 X156.279 Y92.862 E0.4897
G1 X156.354 Y93.113 E0.4962
G1 X156.319 Y99.150 E0.6464
G1 X156.185 Y99.469 E0.6551
G1 X154.769 Y100.877 E0.7048
G1 X154.449 Y101.010 E0.7134
G1 X150.606 Y101.010 E0.8090
G1 X150.284 Y100.876 E0.8177
G1 X149.004 Y99.596 E0.8627
G1 X147.724 Y100.876 E0.9078
G1 X147.402 Y101.010 E0.9164
G1 X143.700 Y101.010 E1.0086
G1 X143.526 Y100.974 E1.0130
G1 X142.606 Y100.579 E1.0379
G1 X142.460 Y100.477 E1.0423
G1 X139.064 Y96.900 E1.1650
G1 X138.975 Y96.759 E1.1692
G1 X138.628 Y95.891 E1.1925
G1 X138.597 Y95.727 E1.1966
G1 X138.597 Y93.788 E1.2449
G1 X138.598 Y93.753 E1.2457
G1 X138.613 Y93.560 E1.2505
G1 X138.617 Y93.526 E1.2514
G1 X138.692 Y93.060 E1.2631
G1 X138.712 Y92.983 E1.2651
G1 X138.860 Y92.564 E1.2762
G1 X138.893 Y92.492 E1.2782
G1 X139.238 Y91.894 E1.2953
G1 X143.153 Y135.503 F6000
G92 E0
G1 X152.958 Y135.503 E0.2440 F900
G1 X153.279 Y135.636 E0.2526
G1 X154.697 Y137.054 E0.3025
G1 X154.830 Y137.375 E0.3112
G1 X154.830 Y139.514 E0.3644
G1 X157.151 Y139.523 E0.4221
G1 X157.227 Y139.531 E0.4241
G1 X157.651 Y139.608 E0.4348
G1 X157.725 Y139.628 E0.4367
G1 X158.354 Y139.862 E0.4534
G1 X158.405 Y139.885 E0.4548
G1 X158.683 Y140.032 E0.4626
G1 X158.731 Y140.061 E0.4640
G1 X159.125 Y140.339 E0.4760
G1 X159.161 Y140.367 E0.4771
G1 X159.350 Y140.532 E0.4834
G1 X159.383 Y140.564 E0.4845
G1 X159.712 Y140.916 E0.4965
G1 X159.747 Y140.960 E0.4979
G1 X159.930 Y141.216 E0.5057
G1 X159.960 Y141.263 E0.5071
G1 X160.250 Y141.803 E0.5224
G1 X160.273 Y141.854 E0.5238
G1 X160.385 Y142.148 E0.5316
G1 X160.402 Y142.202 E0.5330
G1 X160.514 Y142.671 E0.5450
G1 X160.522 Y142.716 E0.5461
G1 X160.555 Y142.965 E0.5524
G1 X160.559 Y143.010 E0.5535
G1 X160.572 Y143.460 E0.5647
G1 X160.571 Y143.505 E0.5658
G1 X160.552 Y143.756 E0.5721
G1 X160.546 Y143.801 E0.5732
G1 X160.467 Y144.244 E0.5844
G1 X160.457 Y144.288 E0.5856
G1 X160.387 Y144.530 E0.5918
G1 X160.372 Y144.573 E0.5929
G1 X160.163 Y145.091 E0.6068
G1 X160.124 Y145.165 E0.6089
G1 X159.870 Y145.558 E0.6206
G1 X159.818 Y145.623 E0.6227
G1 X155.356 Y150.255 E0.7827
G1 X155.342 Y150.270 E0.7832
G1 X155.258 Y150.348 E0.7860
G1 X155.243 Y150.362 E0.7865
G1 X154.822 Y150.724 E0.8004
G1 X154.806 Y150.737 E0.8009
G1 X154.715 Y150.809 E0.8038
G1 X154.698 Y150.821 E0.8043
G1 X154.244 Y151.142 E0.8181
G1 X154.226 Y151.154 E0.8186
G1 X154.129 Y151.216 E0.8215
G1 X154.111 Y151.227 E0.8220
G1 X153.615 Y151.510 E0.8362
G1 X153.593 Y151.523 E0.8369
G1 X153.463 Y151.587 E0.8405
G1 X153.439 Y151.598 E0.8411
G1 X152.685 Y151.918 E0.8615
G1 X152.655 Y151.929 E0.8623
G1 X152.491 Y151.986 E0.8666
G1 X152.461 Y151.995 E0.8674
G1 X151.586 Y152.226 E0.8900
G1 X151.530 Y152.237 E0.8914
G1 X151.216 Y152.278 E0.8993
G1 X151.159 Y152.282 E0.9007
G1 X145.490 Y152.277 E1.0417
G1 X145.462 Y152.276 E1.0424
G1 X145.306 Y152.266 E1.0463
G1 X145.279 Y152.263 E1.0470
G1 X144.539 Y152.167 E1.0656
G1 X144.505 Y152.162 E1.0664
G1 X144.319 Y152.123 E1.0711
G1 X144.286 Y152.114 E1.0720
G1 X143.569 Y151.905 E1.0906
G1 X143.542 Y151.896 E1.0913
G1 X143.394 Y151.842 E1.0952
G1 X143.367 Y151.831 E1.0959
G1 X142.887 Y151.620 E1.1090
G1 X142.867 Y151.610 E1.1095
G1 X142.754 Y151.553 E1.1127
G1 X142.734 Y151.542 E1.1133
G1 X142.278 Y151.283 E1.1263
G1 X142.254 Y151.268 E1.1270
G1 X142.122 Y151.181 E1.1309
G1 X142.099 Y151.164 E1.1317
G1 X141.516 Y150.723 E1.1498
G1 X141.494 Y150.706 E1.1505
G1 X141.374 Y150.603 E1.1545
G1 X141.353 Y150.583 E1.1552
G1 X141.009 Y150.245 E1.1672
G1 X141.002 Y150.238 E1.1674
G1 X140.965 Y150.200 E1.1688
G1 X140.958 Y150.192 E1.1690
G1 X136.761 Y145.686 E1.3222
G1 X136.738 Y145.659 E1.3231
G1 X136.614 Y145.501 E1.3281
G1 X136.593 Y145.472 E1.3290
G1 X136.289 Y145.013 E1.3427
G1 X136.259 Y144.961 E1.3442
G1 X136.113 Y144.657 E1.3526
G1 X136.091 Y144.601 E1.3541
G1 X135.940 Y144.130 E1.3664
G1 X135.928 Y144.083 E1.3676
G1 X135.875 Y143.817 E1.3743
G1 X135.868 Y143.769 E1.3756
G1 X135.825 Y143.276 E1.3879
G1 X135.824 Y143.216 E1.3894
G1 X135.841 Y142.877 E1.3978
G1 X135.849 Y142.817 E1.3993
G1 X135.966 Y142.206 E1.4148
G1 X135.982 Y142.147 E1.4163
G1 X136.092 Y141.826 E1.4248
G1 X136.115 Y141.770 E1.4263
G1 X136.339 Y141.328 E1.4386
G1 X136.363 Y141.286 E1.4398
G1 X136.511 Y141.060 E1.4465
G1 X136.540 Y141.021 E1.4477
G1 X136.833 Y140.665 E1.4592
G1 X136.866 Y140.630 E1.4604
G1 X137.061 Y140.441 E1.4672
G1 X137.097 Y140.409 E1.4684
G1 X137.489 Y140.107 E1.4807
G1 X137.539 Y140.073 E1.4822
G1 X137.833 Y139.904 E1.4906
G1 X137.888 Y139.878 E1.4921
G1 X138.525 Y139.623 E1.5092
G1 X138.605 Y139.599 E1.5113
G1 X139.062 Y139.511 E1.5229
G1 X139.145 Y139.503 E1.5249
G1 X141.280 Y139.503 E1.5781
G1 X141.280 Y137.375 E1.6310
G1 X141.414 Y137.054 E1.6397
G1 X142.831 Y135.636 E1.6896
G1 X143.153 Y135.503 E1.6982
G92 E0
G1 E-6.0000 F3000
G1 Z0.480 F1002
G1 X143.051 Y185.569 F6000
G1 Z0.180 F1002
G1 E0.0000 F3000
G92 E0
G1 X152.311 Y185.569 E0.2304 F900
G1 X152.632 Y185.702 E0.2391
G1 X154.050 Y187.120 E0.2890
G1 X154.183 Y187.441 E0.2976
G1 X154.183 Y189.387 E0.3460
G1 X158.280 Y189.387 E0.4480
G1 X158.601 Y189.520 E0.4566
G1 X160.019 Y190.938 E0.5065
G1 X160.152 Y191.259 E0.5152
G1 X160.152 Y195.382 E0.6178
G1 X160.119 Y195.551 E0.6220
G1 X159.748 Y196.445 E0.6461
G1 X159.653 Y196.588 E0.6504
G1 X154.680 Y201.560 E0.8254
G1 X154.537 Y201.656 E0.8297
G1 X153.643 Y202.027 E0.8538
G1 X153.474 Y202.060 E0.8580
G1 X141.888 Y202.060 E1.1463
G1 X141.719 Y202.027 E1.1506
G1 X140.824 Y201.656 E1.1747
G1 X140.681 Y201.560 E1.1790
