; G-Code generated by Simplify3D(R) Version 4.0.1
; Aug 27, 2019 at 1:25:50 PM
; Settings Summary
;   processName,Process1
;   applyToModels,YMotorSecondMount_flat_rescaled,Y_MOUNT_TEVO_TORNADO_FINAL_v1
;   profileName,102 Tevo Tornado (experimental)
;   profileVersion,2019-08-25 17:34:35
;   baseProfile,Creality CR-10(2)
;   printMaterial,PLA
;   printQuality,Medium
;   printExtruders,
;   extruderName,Primary Extruder
;   extruderToolheadNumber,0
;   extruderDiameter,0.4
;   extruderAutoWidth,0
;   extruderWidth,0.35
;   extrusionMultiplier,0.95
;   extruderUseRetract,1
;   extruderRetractionDistance,6
;   extruderExtraRestartDistance,0
;   extruderRetractionZLift,0.3
;   extruderRetractionSpeed,3000
;   extruderUseCoasting,0
;   extruderCoastingDistance,0.2
;   extruderUseWipe,0
;   extruderWipeDistance,4
;   primaryExtruder,0
;   layerHeight,0.15
;   topSolidLayers,4
;   bottomSolidLayers,3
;   perimeterOutlines,3
;   printPerimetersInsideOut,0
;   startPointOption,3
;   startPointOriginX,0
;   startPointOriginY,300
;   sequentialIslands,0
;   spiralVaseMode,0
;   firstLayerHeightPercentage,120
;   firstLayerWidthPercentage,100
;   firstLayerUnderspeed,0.5
;   useRaft,0
;   raftExtruder,0
;   raftTopLayers,3
;   raftBaseLayers,2
;   raftOffset,3
;   raftSeparationDistance,0.14
;   raftTopInfill,100
;   aboveRaftSpeedMultiplier,0.3
;   useSkirt,1
;   skirtExtruder,0
;   skirtLayers,1
;   skirtOutlines,3
;   skirtOffset,2
;   usePrimePillar,0
;   primePillarExtruder,999
;   primePillarWidth,12
;   primePillarLocation,7
;   primePillarSpeedMultiplier,1
;   useOozeShield,0
;   oozeShieldExtruder,999
;   oozeShieldOffset,2
;   oozeShieldOutlines,1
;   oozeShieldSidewallShape,1
;   oozeShieldSidewallAngle,30
;   oozeShieldSpeedMultiplier,1
;   infillExtruder,0
;   internalInfillPattern,Rectilinear
;   externalInfillPattern,Rectilinear
;   infillPercentage,15
;   outlineOverlapPercentage,15
;   infillExtrusionWidthPercentage,100
;   minInfillLength,5
;   infillLayerInterval,1
;   internalInfillAngles,45,-45
;   overlapInternalInfillAngles,0
;   externalInfillAngles,45,-45
;   generateSupport,1
;   supportExtruder,0
;   supportInfillPercentage,30
;   supportExtraInflation,0
;   supportBaseLayers,0
;   denseSupportExtruder,0
;   denseSupportLayers,0
;   denseSupportInfillPercentage,70
;   supportLayerInterval,1
;   supportHorizontalPartOffset,0.4
;   supportUpperSeparationLayers,1
;   supportLowerSeparationLayers,1
;   supportType,1
;   supportGridSpacing,4.5
;   maxOverhangAngle,45
;   supportAngles,0
;   temperatureName,Primary Extruder,Heated Bed
;   temperatureNumber,0,0
;   temperatureSetpointCount,2,1
;   temperatureSetpointLayers,1,2,1
;   temperatureSetpointTemperatures,210,205,50
;   temperatureStabilizeAtStartup,1,1
;   temperatureHeatedBed,0,1
;   temperatureRelayBetweenLayers,0,0
;   temperatureRelayBetweenLoops,0,0
;   fanLayers,1,2
;   fanSpeeds,0,100
;   blipFanToFullPower,0
;   adjustSpeedForCooling,1
;   minSpeedLayerTime,15
;   minCoolingSpeedSlowdown,50
;   increaseFanForCooling,1
;   minFanLayerTime,25
;   maxCoolingFanSpeed,100
;   increaseFanForBridging,1
;   bridgingFanSpeed,100
;   use5D,1
;   relativeEdistances,0
;   allowEaxisZeroing,1
;   independentExtruderAxes,0
;   includeM10123,0
;   stickySupport,1
;   applyToolheadOffsets,0
;   gcodeXoffset,0
;   gcodeYoffset,0
;   gcodeZoffset,0
;   overrideMachineDefinition,1
;   machineTypeOverride,0
;   strokeXoverride,300
;   strokeYoverride,300
;   strokeZoverride,400
;   originOffsetXoverride,0
;   originOffsetYoverride,0
;   originOffsetZoverride,0
;   homeXdirOverride,-1
;   homeYdirOverride,-1
;   homeZdirOverride,-1
;   flipXoverride,1
;   flipYoverride,-1
;   flipZoverride,1
;   toolheadOffsets,0,0|0,0|0,0|0,0|0,0|0,0
;   overrideFirmwareConfiguration,0
;   firmwareTypeOverride,RepRap (Marlin/Repetier/Sprinter)
;   GPXconfigOverride,r2
;   baudRateOverride,250000
;   overridePrinterModels,1
;   printerModelsOverride
;   startingGcode,;Init 181010,;G28 			; Home all axes,;G1 Z5 F3000 ; lift,;G92 E0			; Reset extrusion distance,,; // From Cura 181010,; // Update 190823 (GueroLoco),; // Start_gcode,M117 *Start Clean*		; Indicate nozzle clean in progress on LCD,;,M104 S[extruder0_temperature] ,M109 S[extruder0_temperature] ,M109 R[extruder0_temperature] ,;,M107			; Turn layer fan off,G21			; Set to metric [change to G20 if you want Imperial],G90			; Force coordinates to be absolute relative to the origin,G28			; Home X/Y/Z axis,;,;G1 X3 Y1 Z15 F9000		; Move safe Z height to shear strings,;G0 X1 Y1 Z0.2 F9000		; Move in 1mm from edge and up [z] 0.2mm,;G92 E0			; Set extruder to [0] zero,;G1 X100 E12 F500		; Extrude 30mm filiment along X axis 100mm long to prime and clean the nozzle,;G92 E0			; Reset extruder to [0] zero end of cleaning run,;G1 E-1 F500			; Retract filiment by 1 mm to reduce string effect,;G1 X180 F4000		; Quick wipe away from the filament line / purge,;,G92 E0			; Set Extruder to 0 ,G1 X0 Y0 F2000		; Move X and Y to 0 with speed 2000 (mm/min),G1 Z0.1 F1000		; Move Z to 0.1,G1 X8.0 F2000		; Move X to 8.0,G1 Y60.0 E4.0 F1000.0		; Prime - Move Y to 60 and Extruder with 4.0,G1 Y100.0 E8.5 F1000.0		; Prime - Move Y to 100 and Extruder with 8.5,G92 E0			; Set extruder to 0,M117 *End Clean*		; Indicate nozzle clean in progress on LCD,G1 Z5 F3000			; Lift - Move Z to 5,; ,M117 *Printing...*		; start msg,; // Begin printing with sliced GCode after here,;
;   layerChangeGcode,
;   retractionGcode,
;   toolChangeGcode,
;   endingGcode,;,; init 181010,;,;M107 			; Fan off,;G1 E-1 F300 			; Retract the filament a bit before lifting the nozzle,;M104 S0 			; Turn off extruder,;M140 S0 			; Turn off bed,;G91			; Relative positioning,;G28 X0 Y0 			; Move X/Y to min endstops so the head is out of teh way,;M84 			; Disable motors,;G90 			; Absolute positioning,;M117 Print ready...,,;,; // From Cura 181010,; // End_gcode,G92 E0			; Zero the extruded length,G1 E-30 F300			; Retract E -30,M106 S0			; Turn off cooling fan,M104 S0			; Turn off temperature,M140 S0		     	; Turn off bed,G91			; Relative positioning,G1 E-1 F300			; Retract the filament a bit before lifting the nozzle to release some of the pressure,G1 Z+20 E-5 X-20 Y-20 F7200	; Move Z up a bit and retract filament even more,G1 X320 Y150 F10000		; Move right mid,M107			; Turn off layer fan,M84			; Disable motors,G90			; Absolute positioning,M117 *The-End* 		; End msg,;
;   exportFileFormat,gcode
;   celebration,0
;   celebrationSong,Star Wars
;   postProcessing,
;   defaultSpeed,1800
;   outlineUnderspeed,0.5
;   solidInfillUnderspeed,0.8
;   supportUnderspeed,0.8
;   rapidXYspeed,6000
;   rapidZspeed,1002
;   minBridgingArea,50
;   bridgingExtraInflation,0.2
;   bridgingExtrusionMultiplier,1
;   bridgingSpeedMultiplier,0.6
;   useFixedBridgingAngle,0
;   fixedBridgingAngle,0
;   applyBridgingToPerimeters,0
;   filamentDiameters,1.75|1.75|1.75|1.75|1.75|1.75
;   filamentPricesPerKg,30|46|46|46|46|46
;   filamentDensities,1.25|1.25|1.25|1.25|1.25|1.25
;   useMinPrintHeight,0
;   minPrintHeight,0
;   useMaxPrintHeight,0
;   maxPrintHeight,9
;   useDiaphragm,0
;   diaphragmLayerInterval,20
;   robustSlicing,1
;   mergeAllIntoSolid,0
;   onlyRetractWhenCrossingOutline,1
;   retractBetweenLayers,1
;   useRetractionMinTravel,0
;   retractionMinTravel,3
;   retractWhileWiping,0
;   onlyWipeOutlines,1
;   avoidCrossingOutline,0
;   maxMovementDetourFactor,3
;   toolChangeRetractionDistance,12
;   toolChangeExtraRestartDistance,-0.5
;   toolChangeRetractionSpeed,600
;   externalThinWallType,1
;   internalThinWallType,1
;   thinWallAllowedOverlapPercentage,15
;   singleExtrusionMinLength,1
;   singleExtrusionMinPrintingWidthPercentage,50
;   singleExtrusionMaxPrintingWidthPercentage,200
;   singleExtrusionEndpointExtension,0.2
;   horizontalSizeCompensation,0
G90
M82
M106 S0
M140 S50
M190 S50
;Init 181010
;G28 			; Home all axes
;G1 Z5 F3000 ; lift
;G92 E0			; Reset extrusion distance
; // From Cura 181010
; // Update 190823 (GueroLoco)
; // Start_gcode
M117 *Start Clean*		; Indicate nozzle clean in progress on LCD
;
M104 S210 
M109 S210 
M109 R210 
;
M107			; Turn layer fan off
G21			; Set to metric [change to G20 if you want Imperial]
G90			; Force coordinates to be absolute relative to the origin
G28			; Home X/Y/Z axis
;
;G1 X3 Y1 Z15 F9000		; Move safe Z height to shear strings
;G0 X1 Y1 Z0.2 F9000		; Move in 1mm from edge and up [z] 0.2mm
;G92 E0			; Set extruder to [0] zero
;G1 X100 E12 F500		; Extrude 30mm filiment along X axis 100mm long to prime and clean the nozzle
;G92 E0			; Reset extruder to [0] zero end of cleaning run
;G1 E-1 F500			; Retract filiment by 1 mm to reduce string effect
;G1 X180 F4000		; Quick wipe away from the filament line / purge
;
G92 E0			; Set Extruder to 0 
G1 X0 Y0 F2000		; Move X and Y to 0 with speed 2000 (mm/min)
G1 Z0.1 F1000		; Move Z to 0.1
G1 X8.0 F2000		; Move X to 8.0
G1 Y60.0 E4.0 F1000.0		; Prime - Move Y to 60 and Extruder with 4.0
G1 Y100.0 E8.5 F1000.0		; Prime - Move Y to 100 and Extruder with 8.5
G92 E0			; Set extruder to 0
M117 *End Clean*		; Indicate nozzle clean in progress on LCD
G1 Z5 F3000			; Lift - Move Z to 5
; 
M117 *Printing...*		; start msg
; // Begin printing with sliced GCode after here
;
G92 E0
G1 E-6.0000 F3000
G1 Z0.480 F1002
; process Process1
; layer 1, Z = 0.180
T0
; tool H0.180 W0.350
; skirt
G1 X109.770 Y107.976 F6000
G1 Z0.180 F1002
G1 E0.0000 F900
G92 E0
G1 X111.187 Y106.558 E0.0499 F900
G1 X111.509 Y106.425 E0.0586
G1 X151.333 Y106.425 E1.0495
G1 X151.377 Y106.396 E1.0508
G1 X151.819 Y106.361 E1.0618
G1 X151.963 Y106.425 E1.0658
G1 X152.850 Y106.425 E1.0878
G1 X153.171 Y106.558 E1.0965
G1 X154.589 Y107.976 E1.1464
G1 X154.722 Y108.298 E1.1550
G1 X154.722 Y108.510 E1.1603
G1 X154.803 Y108.657 E1.1645
G1 X154.843 Y108.760 E1.1672
G1 X154.997 Y109.356 E1.1825
G1 X155.010 Y109.465 E1.1853
G1 X155.010 Y115.135 E1.3264
G1 X154.997 Y115.244 E1.3291
G1 X154.844 Y115.840 E1.3444
G1 X154.803 Y115.943 E1.3472
G1 X154.722 Y116.090 E1.3513
G1 X154.722 Y116.303 E1.3566
G1 X154.589 Y116.624 E1.3653
G1 X153.171 Y118.042 E1.4152
G1 X152.850 Y118.175 E1.4238
G1 X152.281 Y118.175 E1.4380
G1 X152.127 Y118.268 E1.4425
G1 X151.654 Y118.274 E1.4542
G1 X151.479 Y118.175 E1.4592
G1 X111.509 Y118.175 E2.4538
G1 X111.187 Y118.042 E2.4625
G1 X109.770 Y116.624 E2.5123
G1 X109.636 Y116.303 E2.5210
G1 X109.636 Y108.298 E2.7202
G1 X109.770 Y107.976 E2.7289
G1 X157.753 Y104.328 F6000
G92 E0
G1 X157.886 Y104.006 E0.0087 F900
G1 X159.304 Y102.588 E0.0586
G1 X159.625 Y102.455 E0.0672
G1 X162.253 Y102.455 E0.1326
G1 X162.253 Y99.828 E0.1980
G1 X162.386 Y99.506 E0.2066
G1 X163.804 Y98.088 E0.2565
G1 X164.125 Y97.955 E0.2652
G1 X189.070 Y97.955 E0.8859
G1 X189.392 Y98.088 E0.8945
G1 X190.810 Y99.506 E0.9444
G1 X190.943 Y99.828 E0.9531
G1 X190.943 Y111.273 E1.2379
G1 X190.810 Y111.594 E1.2465
G1 X190.104 Y112.300 E1.2714
G1 X190.810 Y113.006 E1.2962
G1 X190.943 Y113.328 E1.3049
G1 X190.943 Y124.773 E1.5897
G1 X190.810 Y125.094 E1.5983
G1 X189.392 Y126.512 E1.6482
G1 X189.070 Y126.645 E1.6569
G1 X164.125 Y126.645 E2.2776
G1 X163.804 Y126.512 E2.2862
G1 X162.386 Y125.094 E2.3361
G1 X162.253 Y124.773 E2.3448
G1 X162.253 Y122.145 E2.4102
G1 X159.625 Y122.145 E2.4755
G1 X159.304 Y122.012 E2.4842
G1 X157.886 Y120.594 E2.5341
G1 X157.753 Y120.273 E2.5428
G1 X157.753 Y104.328 E2.9395
G1 X167.263 Y147.703 F6000
G92 E0
G1 X192.208 Y147.703 E0.6207 F900
G1 X192.529 Y147.837 E0.6294
G1 X193.947 Y149.254 E0.6792
G1 X194.080 Y149.576 E0.6879
G1 X194.080 Y165.521 E1.0847
G1 X193.947 Y165.842 E1.0933
G1 X192.529 Y167.260 E1.1432
G1 X192.208 Y167.393 E1.1519
G1 X162.763 Y167.393 E1.8845
G1 X162.441 Y167.260 E1.8932
G1 X161.024 Y165.842 E1.9431
G1 X160.890 Y165.521 E1.9518
G1 X160.890 Y154.076 E2.2365
G1 X161.024 Y153.754 E2.2452
G1 X162.441 Y152.337 E2.2951
G1 X162.763 Y152.203 E2.3038
G1 X165.390 Y152.203 E2.3691
G1 X165.390 Y149.576 E2.4345
G1 X165.524 Y149.254 E2.4432
G1 X166.941 Y147.837 E2.4931
G1 X167.263 Y147.703 E2.5017
G1 X157.727 Y157.669 F6000
G92 E0
G1 X157.861 Y157.990 E0.0087 F900
G1 X157.861 Y158.206 E0.0140
G1 X157.940 Y158.350 E0.0181
G1 X157.980 Y158.452 E0.0209
G1 X158.133 Y159.048 E0.0362
G1 X158.147 Y159.157 E0.0389
G1 X158.147 Y164.828 E0.1800
G1 X158.133 Y164.937 E0.1827
G1 X157.980 Y165.533 E0.1981
G1 X157.939 Y165.636 E0.2008
G1 X157.861 Y165.779 E0.2049
G1 X157.861 Y165.994 E0.2102
G1 X157.727 Y166.316 E0.2189
G1 X156.310 Y167.734 E0.2688
G1 X155.988 Y167.867 E0.2774
G1 X114.648 Y167.867 E1.3061
G1 X114.326 Y167.734 E1.3148
G1 X112.908 Y166.316 E1.3647
G1 X112.775 Y165.995 E1.3733
G1 X112.775 Y157.990 E1.5725
G1 X112.908 Y157.668 E1.5812
G1 X114.326 Y156.251 E1.6310
G1 X114.648 Y156.117 E1.6397
G1 X155.988 Y156.118 E2.6684
G1 X156.310 Y156.251 E2.6770
G1 X157.727 Y157.669 E2.7269
G1 X157.431 Y157.867 F6000
G92 E0
G1 X157.511 Y158.060 E0.0052 F900
G1 X157.511 Y158.296 E0.0111
G1 X157.622 Y158.499 E0.0168
G1 X157.647 Y158.561 E0.0185
G1 X157.789 Y159.114 E0.0327
G1 X157.797 Y159.179 E0.0343
G1 X157.797 Y164.806 E0.1743
G1 X157.789 Y164.871 E0.1760
G1 X157.646 Y165.425 E0.1902
G1 X157.622 Y165.486 E0.1919
G1 X157.511 Y165.689 E0.1976
G1 X157.511 Y165.925 E0.2035
G1 X157.431 Y166.118 E0.2087
G1 X156.111 Y167.437 E0.2551
G1 X155.919 Y167.517 E0.2603
G1 X114.717 Y167.517 E1.2855
G1 X114.524 Y167.437 E1.2907
G1 X113.205 Y166.118 E1.3371
G1 X113.125 Y165.925 E1.3423
G1 X113.125 Y158.060 E1.5380
G1 X113.205 Y157.867 E1.5432
G1 X114.524 Y156.547 E1.5897
G1 X114.717 Y156.467 E1.5948
G1 X155.919 Y156.468 E2.6200
G1 X156.111 Y156.548 E2.6252
G1 X157.431 Y157.867 E2.6717
G1 X161.240 Y154.146 F6000
G92 E0
G1 X161.320 Y153.953 E0.0052 F900
G1 X162.640 Y152.633 E0.0516
G1 X162.832 Y152.553 E0.0568
G1 X165.740 Y152.553 E0.1292
G1 X165.740 Y149.646 E0.2015
G1 X165.820 Y149.453 E0.2067
G1 X167.140 Y148.133 E0.2532
G1 X167.333 Y148.053 E0.2583
G1 X192.138 Y148.053 E0.8756
G1 X192.331 Y148.133 E0.8808
G1 X193.650 Y149.453 E0.9272
G1 X193.730 Y149.646 E0.9324
G1 X193.730 Y165.451 E1.3257
G1 X193.650 Y165.644 E1.3309
G1 X192.331 Y166.963 E1.3773
G1 X192.138 Y167.043 E1.3825
G1 X162.832 Y167.043 E2.1117
G1 X162.640 Y166.963 E2.1169
G1 X161.320 Y165.644 E2.1633
G1 X161.240 Y165.451 E2.1685
G1 X161.240 Y154.146 E2.4498
G1 X164.195 Y126.295 F6000
G92 E0
G1 X164.002 Y126.215 E0.0052 F900
G1 X162.683 Y124.896 E0.0516
G1 X162.603 Y124.703 E0.0568
G1 X162.603 Y121.795 E0.1292
G1 X159.695 Y121.795 E0.2015
G1 X159.502 Y121.715 E0.2067
G1 X158.183 Y120.396 E0.2531
G1 X158.103 Y120.203 E0.2583
G1 X158.103 Y104.397 E0.6516
G1 X158.183 Y104.204 E0.6568
G1 X159.502 Y102.885 E0.7033
G1 X159.695 Y102.805 E0.7085
G1 X162.603 Y102.805 E0.7808
G1 X162.603 Y99.897 E0.8532
G1 X162.683 Y99.704 E0.8584
G1 X164.002 Y98.385 E0.9048
G1 X164.195 Y98.305 E0.9100
G1 X189.001 Y98.305 E1.5272
G1 X189.194 Y98.385 E1.5324
G1 X190.513 Y99.704 E1.5788
G1 X190.593 Y99.897 E1.5840
G1 X190.593 Y111.203 E1.8654
G1 X190.513 Y111.396 E1.8705
G1 X189.609 Y112.300 E1.9024
G1 X190.513 Y113.204 E1.9342
G1 X190.593 Y113.397 E1.9394
G1 X190.593 Y124.703 E2.2207
G1 X190.513 Y124.896 E2.2259
G1 X189.194 Y126.215 E2.2723
G1 X189.001 Y126.295 E2.2775
G1 X164.195 Y126.295 E2.8948
G1 X154.292 Y116.426 F6000
G92 E0
G1 X152.973 Y117.745 E0.0464 F900
G1 X152.780 Y117.825 E0.0516
G1 X152.184 Y117.825 E0.0665
G1 X152.027 Y117.919 E0.0710
G1 X151.744 Y117.923 E0.0781
G1 X151.571 Y117.825 E0.0830
G1 X111.579 Y117.825 E1.0781
G1 X111.386 Y117.745 E1.0833
G1 X110.066 Y116.426 E1.1297
G1 X109.986 Y116.233 E1.1349
G1 X109.986 Y108.367 E1.3307
G1 X110.066 Y108.174 E1.3359
G1 X111.386 Y106.855 E1.3823
G1 X111.579 Y106.775 E1.3875
G1 X151.436 Y106.775 E2.3792
G1 X151.493 Y106.738 E2.3809
G1 X151.759 Y106.717 E2.3876
G1 X151.889 Y106.775 E2.3911
G1 X152.780 Y106.775 E2.4133
G1 X152.973 Y106.855 E2.4185
G1 X154.292 Y108.174 E2.4649
G1 X154.372 Y108.367 E2.4701
G1 X154.372 Y108.600 E2.4759
G1 X154.486 Y108.806 E2.4817
G1 X154.510 Y108.868 E2.4834
G1 X154.652 Y109.421 E2.4976
G1 X154.660 Y109.487 E2.4993
