; G-Code generated by Simplify3D(R) Version 4.0.1
; Aug 22, 2019 at 11:21:14 AM
; Settings Summary
;   processName,011 Tevo Tornado Process1 
;   applyToModels,Y-Axis_Motor_Support
;   profileName,101 Tevo Tornado (experimental)
;   profileVersion,2019-01-06 13:21:30
;   baseProfile,Creality CR-10(2)
;   printMaterial,PLA
;   printQuality,Medium
;   printExtruders,
;   extruderName,Primary Extruder
;   extruderToolheadNumber,0
;   extruderDiameter,0.4
;   extruderAutoWidth,0
;   extruderWidth,0.35
;   extrusionMultiplier,0.95
;   extruderUseRetract,1
;   extruderRetractionDistance,6
;   extruderExtraRestartDistance,0
;   extruderRetractionZLift,0.3
;   extruderRetractionSpeed,3000
;   extruderUseCoasting,0
;   extruderCoastingDistance,0.2
;   extruderUseWipe,0
;   extruderWipeDistance,4
;   primaryExtruder,0
;   layerHeight,0.15
;   topSolidLayers,4
;   bottomSolidLayers,3
;   perimeterOutlines,3
;   printPerimetersInsideOut,0
;   startPointOption,3
;   startPointOriginX,0
;   startPointOriginY,300
;   sequentialIslands,0
;   spiralVaseMode,0
;   firstLayerHeightPercentage,120
;   firstLayerWidthPercentage,100
;   firstLayerUnderspeed,0.5
;   useRaft,0
;   raftExtruder,0
;   raftTopLayers,3
;   raftBaseLayers,2
;   raftOffset,3
;   raftSeparationDistance,0.14
;   raftTopInfill,100
;   aboveRaftSpeedMultiplier,0.3
;   useSkirt,1
;   skirtExtruder,0
;   skirtLayers,1
;   skirtOutlines,3
;   skirtOffset,2
;   usePrimePillar,0
;   primePillarExtruder,999
;   primePillarWidth,12
;   primePillarLocation,7
;   primePillarSpeedMultiplier,1
;   useOozeShield,0
;   oozeShieldExtruder,999
;   oozeShieldOffset,2
;   oozeShieldOutlines,1
;   oozeShieldSidewallShape,1
;   oozeShieldSidewallAngle,30
;   oozeShieldSpeedMultiplier,1
;   infillExtruder,0
;   internalInfillPattern,Rectilinear
;   externalInfillPattern,Rectilinear
;   infillPercentage,15
;   outlineOverlapPercentage,15
;   infillExtrusionWidthPercentage,100
;   minInfillLength,5
;   infillLayerInterval,1
;   internalInfillAngles,45,-45
;   overlapInternalInfillAngles,0
;   externalInfillAngles,45,-45
;   generateSupport,0
;   supportExtruder,0
;   supportInfillPercentage,30
;   supportExtraInflation,0
;   supportBaseLayers,0
;   denseSupportExtruder,0
;   denseSupportLayers,0
;   denseSupportInfillPercentage,70
;   supportLayerInterval,1
;   supportHorizontalPartOffset,0.4
;   supportUpperSeparationLayers,1
;   supportLowerSeparationLayers,1
;   supportType,0
;   supportGridSpacing,4.5
;   maxOverhangAngle,45
;   supportAngles,0
;   temperatureName,Primary Extruder,Heated Bed
;   temperatureNumber,0,0
;   temperatureSetpointCount,2,1
;   temperatureSetpointLayers,1,2,1
;   temperatureSetpointTemperatures,210,205,50
;   temperatureStabilizeAtStartup,1,1
;   temperatureHeatedBed,0,1
;   temperatureRelayBetweenLayers,0,0
;   temperatureRelayBetweenLoops,0,0
;   fanLayers,1,2
;   fanSpeeds,0,100
;   blipFanToFullPower,0
;   adjustSpeedForCooling,1
;   minSpeedLayerTime,15
;   minCoolingSpeedSlowdown,50
;   increaseFanForCooling,1
;   minFanLayerTime,25
;   maxCoolingFanSpeed,100
;   increaseFanForBridging,1
;   bridgingFanSpeed,100
;   use5D,1
;   relativeEdistances,0
;   allowEaxisZeroing,1
;   independentExtruderAxes,0
;   includeM10123,0
;   stickySupport,1
;   applyToolheadOffsets,0
;   gcodeXoffset,0
;   gcodeYoffset,0
;   gcodeZoffset,0
;   overrideMachineDefinition,1
;   machineTypeOverride,0
;   strokeXoverride,300
;   strokeYoverride,300
;   strokeZoverride,400
;   originOffsetXoverride,0
;   originOffsetYoverride,0
;   originOffsetZoverride,0
;   homeXdirOverride,-1
;   homeYdirOverride,-1
;   homeZdirOverride,-1
;   flipXoverride,1
;   flipYoverride,-1
;   flipZoverride,1
;   toolheadOffsets,0,0|0,0|0,0|0,0|0,0|0,0
;   overrideFirmwareConfiguration,0
;   firmwareTypeOverride,RepRap (Marlin/Repetier/Sprinter)
;   GPXconfigOverride,r2
;   baudRateOverride,250000
;   overridePrinterModels,1
;   printerModelsOverride
;   startingGcode,;Init 181010,;G28 ; home all axes,;G1 Z5 F3000 ; lift,;G92 E0 ; reset extrusion distance,,;From Cura 181010,; start_gcode,M117 Start Clean	; Indicate nozzle clean in progress on LCD,;,M104 S[extruder0_temperature] ,M109 S[extruder0_temperature] ,M109 R[extruder0_temperature] ,;,M107		; Turn layer fan off,G21		; Set to metric [change to G20 if you want Imperial],G90	 	; Force coordinates to be absolute relative to the origin,G28		; Home X/Y/Z axis,;,G1 X3 Y1 Z15 F9000	; Move safe Z height to shear strings,G0 X1 Y1 Z0.2 F9000	; Move in 1mm from edge and up [z] 0.2mm,G92 E0		; Set extruder to [0] zero,G1 X100 E12 F500	; Extrude 30mm filiment along X axis 100mm long to prime and clean the nozzle,G92 E0		; Reset extruder to [0] zero end of cleaning run,G1 E-1 F500		; Retract filiment by 1 mm to reduce string effect,G1 X180 F4000	; quick wipe away from the filament line / purge,M117 End Clean	; Indicate nozzle clean in progress on LCD,;,M117 Printing...	; start msg,; Begin printing with sliced GCode after here,;
;   layerChangeGcode,
;   retractionGcode,
;   toolChangeGcode,
;   endingGcode,;,; init 181010,;,;M107 ; Fan off,;G1 E-1 F300 ; Retract the filament a bit before lifting the nozzle,;M104 S0 ; turn off extruder,;M140 S0 ; turn off bed,;G91 ; Relative positioning,;G28 X0 Y0 ; Move X/Y to min endstops so the head is out of teh way,;M84 ; disable motors,;G90 ; Absolute positioning,;M117 Print ready...,,;,;From Cura 181010,;,; end_gcode,G92 E0		     ; zero the extruded length,G1 E-5 F9000		     ; retract,M104 S0		     ; turn off temperature,M140 S0		     ; turn off bed,G91		     ; relative positioning,G1 E-1 F300		     ; retract the filament a bit before lifting the nozzle to release some of the pressure,G1 Z+20 E-5 X-20 Y-20 F7200  ; move Z up a bit and retract filament even more,G1 X320 Y150 F10000             ; move right mid,M107		     ; turn off layer fan,M84		     ; disable motors,G90		     ; absolute positioning,M117 IMPRESSION TERMINEE  ; end msg,;,;EOF
;   exportFileFormat,gcode
;   celebration,0
;   celebrationSong,Star Wars
;   postProcessing,
;   defaultSpeed,1800
;   outlineUnderspeed,0.5
;   solidInfillUnderspeed,0.8
;   supportUnderspeed,0.8
;   rapidXYspeed,6000
;   rapidZspeed,1002
;   minBridgingArea,5
;   bridgingExtraInflation,0.2
;   bridgingExtrusionMultiplier,1
;   bridgingSpeedMultiplier,0.6
;   useFixedBridgingAngle,0
;   fixedBridgingAngle,0
;   applyBridgingToPerimeters,0
;   filamentDiameters,1.75|1.75|1.75|1.75|1.75|1.75
;   filamentPricesPerKg,30|46|46|46|46|46
;   filamentDensities,1.25|1.25|1.25|1.25|1.25|1.25
;   useMinPrintHeight,0
;   minPrintHeight,0
;   useMaxPrintHeight,0
;   maxPrintHeight,9
;   useDiaphragm,0
;   diaphragmLayerInterval,20
;   robustSlicing,1
;   mergeAllIntoSolid,0
;   onlyRetractWhenCrossingOutline,1
;   retractBetweenLayers,1
;   useRetractionMinTravel,0
;   retractionMinTravel,3
;   retractWhileWiping,0
;   onlyWipeOutlines,1
;   avoidCrossingOutline,0
;   maxMovementDetourFactor,3
;   toolChangeRetractionDistance,12
;   toolChangeExtraRestartDistance,-0.5
;   toolChangeRetractionSpeed,600
;   externalThinWallType,1
;   internalThinWallType,1
;   thinWallAllowedOverlapPercentage,15
;   singleExtrusionMinLength,1
;   singleExtrusionMinPrintingWidthPercentage,50
;   singleExtrusionMaxPrintingWidthPercentage,200
;   singleExtrusionEndpointExtension,0.2
;   horizontalSizeCompensation,0
G90
M82
M106 S0
M140 S50
M190 S50
;Init 181010
;G28 ; home all axes
;G1 Z5 F3000 ; lift
;G92 E0 ; reset extrusion distance
;From Cura 181010
; start_gcode
M117 Start Clean	; Indicate nozzle clean in progress on LCD
;
M104 S210 
M109 S210 
M109 R210 
;
M107		; Turn layer fan off
G21		; Set to metric [change to G20 if you want Imperial]
G90	 	; Force coordinates to be absolute relative to the origin
G28		; Home X/Y/Z axis
;
G1 X3 Y1 Z15 F9000	; Move safe Z height to shear strings
G0 X1 Y1 Z0.2 F9000	; Move in 1mm from edge and up [z] 0.2mm
G92 E0		; Set extruder to [0] zero
G1 X100 E12 F500	; Extrude 30mm filiment along X axis 100mm long to prime and clean the nozzle
G92 E0		; Reset extruder to [0] zero end of cleaning run
G1 E-1 F500		; Retract filiment by 1 mm to reduce string effect
G1 X180 F4000	; quick wipe away from the filament line / purge
M117 End Clean	; Indicate nozzle clean in progress on LCD
;
M117 Printing...	; start msg
; Begin printing with sliced GCode after here
;
G92 E0
G1 E-6.0000 F3000
G1 Z0.480 F1002
; process 011 Tevo Tornado Process1 
; layer 1, Z = 0.180
T0
; tool H0.180 W0.350
; skirt
G1 X105.569 Y119.877 F6000
G1 Z0.180 F1002
G1 E0.0000 F900
G92 E0
G1 X105.676 Y119.791 E0.0034 F900
G1 X105.696 Y119.777 E0.0040
G1 X106.722 Y119.048 E0.0353
G1 X106.742 Y119.035 E0.0359
G1 X106.858 Y118.962 E0.0393
G1 X106.879 Y118.950 E0.0399
G1 X107.980 Y118.341 E0.0713
G1 X108.002 Y118.330 E0.0719
G1 X108.125 Y118.270 E0.0753
G1 X108.148 Y118.260 E0.0759
G1 X109.310 Y117.779 E0.1072
G1 X109.333 Y117.770 E0.1078
G1 X109.462 Y117.725 E0.1112
G1 X109.486 Y117.717 E0.1118
G1 X110.695 Y117.369 E0.1431
G1 X110.718 Y117.363 E0.1437
G1 X110.852 Y117.333 E0.1471
G1 X110.876 Y117.328 E0.1477
G1 X112.116 Y117.117 E0.1790
G1 X112.140 Y117.114 E0.1797
G1 X112.276 Y117.098 E0.1831
G1 X112.301 Y117.096 E0.1837
G1 X113.523 Y117.028 E0.2141
G1 X113.535 Y117.027 E0.2144
G1 X113.604 Y117.025 E0.2161
G1 X113.616 Y117.025 E0.2164
G1 X159.884 Y117.025 E1.3677
G1 X159.897 Y117.025 E1.3680
G1 X159.965 Y117.027 E1.3697
G1 X159.978 Y117.028 E1.3701
G1 X161.208 Y117.097 E1.4007
G1 X161.232 Y117.099 E1.4013
G1 X161.369 Y117.115 E1.4047
G1 X161.393 Y117.118 E1.4054
G1 X162.641 Y117.332 E1.4369
G1 X162.665 Y117.336 E1.4375
G1 X162.800 Y117.367 E1.4409
G1 X162.823 Y117.373 E1.4415
G1 X164.039 Y117.726 E1.4730
G1 X164.063 Y117.734 E1.4736
G1 X164.193 Y117.779 E1.4771
G1 X164.216 Y117.788 E1.4777
G1 X165.378 Y118.273 E1.5090
G1 X165.398 Y118.282 E1.5096
G1 X165.511 Y118.336 E1.5127
G1 X165.531 Y118.346 E1.5132
G1 X166.434 Y118.836 E1.5388
G1 X166.451 Y118.846 E1.5393
G1 X166.546 Y118.903 E1.5420
G1 X166.563 Y118.914 E1.5425
G1 X167.412 Y119.480 E1.5679
G1 X167.428 Y119.491 E1.5684
G1 X167.516 Y119.556 E1.5711
G1 X167.531 Y119.568 E1.5716
G1 X168.308 Y120.194 E1.5964
G1 X168.324 Y120.207 E1.5969
G1 X168.407 Y120.281 E1.5997
G1 X168.422 Y120.294 E1.6002
G1 X169.186 Y121.034 E1.6267
G1 X169.200 Y121.049 E1.6272
G1 X169.280 Y121.134 E1.6301
G1 X169.293 Y121.149 E1.6306
G1 X169.985 Y121.960 E1.6571
G1 X169.998 Y121.976 E1.6576
G1 X170.069 Y122.068 E1.6605
G1 X170.081 Y122.084 E1.6610
G1 X170.694 Y122.960 E1.6876
G1 X170.706 Y122.978 E1.6882
G1 X170.772 Y123.082 E1.6912
G1 X170.783 Y123.101 E1.6918
G1 X171.363 Y124.137 E1.7213
G1 X171.374 Y124.157 E1.7219
G1 X171.431 Y124.274 E1.7251
G1 X171.440 Y124.295 E1.7257
G1 X171.909 Y125.389 E1.7553
G1 X171.917 Y125.411 E1.7559
G1 X171.962 Y125.532 E1.7591
G1 X171.969 Y125.554 E1.7597
G1 X172.316 Y126.684 E1.7891
G1 X172.322 Y126.703 E1.7896
G1 X172.350 Y126.812 E1.7924
G1 X172.354 Y126.831 E1.7929
G1 X172.532 Y127.683 E1.8145
G1 X172.535 Y127.698 E1.8149
G1 X172.550 Y127.785 E1.8171
G1 X172.552 Y127.800 E1.8175
G1 X172.656 Y128.569 E1.8368
G1 X172.658 Y128.588 E1.8373
G1 X172.668 Y128.690 E1.8398
G1 X172.669 Y128.709 E1.8403
G1 X172.723 Y129.787 E1.8671
G1 X172.723 Y129.798 E1.8674
G1 X172.725 Y129.859 E1.8689
G1 X172.725 Y129.870 E1.8692
G1 X172.725 Y134.925 E1.9950
G1 X191.399 Y134.925 E2.4597
G1 X191.417 Y134.925 E2.4601
G1 X191.515 Y134.929 E2.4625
G1 X191.533 Y134.930 E2.4630
G1 X192.484 Y135.007 E2.4867
G1 X192.519 Y135.012 E2.4876
G1 X192.714 Y135.043 E2.4925
G1 X192.748 Y135.050 E2.4934
G1 X193.723 Y135.291 E2.5184
G1 X193.757 Y135.301 E2.5192
G1 X193.943 Y135.364 E2.5241
G1 X193.976 Y135.376 E2.5250
G1 X194.899 Y135.771 E2.5500
G1 X194.931 Y135.786 E2.5509
G1 X195.106 Y135.878 E2.5558
G1 X195.136 Y135.895 E2.5567
G1 X195.983 Y136.432 E2.5816
G1 X196.011 Y136.452 E2.5825
G1 X196.167 Y136.569 E2.5873
G1 X196.194 Y136.591 E2.5882
G1 X196.926 Y137.240 E2.6125
G1 X196.951 Y137.263 E2.6134
G1 X197.082 Y137.399 E2.6181
G1 X197.105 Y137.425 E2.6189
G1 X197.713 Y138.161 E2.6427
G1 X197.733 Y138.187 E2.6435
G1 X197.841 Y138.340 E2.6482
G1 X197.859 Y138.369 E2.6490
G1 X198.347 Y139.188 E2.6727
G1 X198.363 Y139.217 E2.6736
G1 X198.447 Y139.385 E2.6782
G1 X198.460 Y139.416 E2.6791
G1 X198.817 Y140.300 E2.7028
G1 X198.829 Y140.332 E2.7036
G1 X198.885 Y140.510 E2.7083
G1 X198.894 Y140.542 E2.7091
G1 X199.112 Y141.471 E2.7329
G1 X199.118 Y141.504 E2.7337
G1 X199.147 Y141.689 E2.7383
G1 X199.151 Y141.722 E2.7392
G1 X199.224 Y142.674 E2.7629
G1 X199.225 Y142.708 E2.7638
G1 X199.225 Y142.897 E2.7685
G1 X199.224 Y142.931 E2.7693
G1 X199.147 Y143.903 E2.7936
G1 X199.143 Y143.937 E2.7945
G1 X199.113 Y144.126 E2.7992
G1 X199.106 Y144.160 E2.8001
G1 X198.878 Y145.109 E2.8244
G1 X198.869 Y145.142 E2.8252
G1 X198.810 Y145.325 E2.8300
G1 X198.798 Y145.357 E2.8308
G1 X198.425 Y146.259 E2.8551
G1 X198.410 Y146.290 E2.8560
G1 X198.323 Y146.460 E2.8607
G1 X198.306 Y146.490 E2.8616
G1 X197.796 Y147.323 E2.8859
G1 X197.777 Y147.351 E2.8867
G1 X197.665 Y147.506 E2.8915
G1 X197.643 Y147.533 E2.8924
G1 X197.009 Y148.276 E2.9167
G1 X196.986 Y148.301 E2.9175
G1 X196.851 Y148.436 E2.9223
G1 X196.826 Y148.459 E2.9231
G1 X196.083 Y149.093 E2.9474
G1 X196.056 Y149.115 E2.9483
G1 X195.901 Y149.227 E2.9530
G1 X195.873 Y149.246 E2.9539
G1 X195.040 Y149.756 E2.9782
G1 X195.011 Y149.773 E2.9790
G1 X194.840 Y149.860 E2.9838
G1 X194.809 Y149.875 E2.9847
G1 X193.907 Y150.248 E3.0089
G1 X193.875 Y150.260 E3.0098
G1 X193.692 Y150.319 E3.0146
G1 X193.659 Y150.328 E3.0154
G1 X192.710 Y150.556 E3.0397
G1 X192.677 Y150.563 E3.0406
G1 X192.487 Y150.593 E3.0453
G1 X192.453 Y150.597 E3.0462
G1 X191.528 Y150.670 E3.0693
G1 X191.511 Y150.671 E3.0697
G1 X191.415 Y150.675 E3.0721
G1 X191.398 Y150.675 E3.0725
G1 X177.603 Y150.675 E3.4158
G1 X177.105 Y150.855 E3.4289
G1 X176.290 Y151.237 E3.4514
G1 X175.513 Y151.693 E3.4738
G1 X174.781 Y152.218 E3.4962
G1 X174.100 Y152.808 E3.5186
G1 X173.483 Y153.451 E3.5408
G1 X172.921 Y154.156 E3.5632
G1 X172.420 Y154.916 E3.5859
G1 X172.002 Y155.702 E3.6080
G1 X171.649 Y156.542 E3.6307
G1 X171.379 Y157.400 E3.6531
G1 X171.192 Y158.259 E3.6749
G1 X171.022 Y159.852 E3.7148
G1 X171.020 Y159.867 E3.7152
G1 X171.008 Y159.953 E3.7174
G1 X171.005 Y159.969 E3.7177
G1 X170.687 Y161.740 E3.7625
G1 X170.684 Y161.755 E3.7629
G1 X170.665 Y161.840 E3.7651
G1 X170.662 Y161.855 E3.7655
G1 X170.218 Y163.599 E3.8102
G1 X170.213 Y163.614 E3.8106
G1 X170.189 Y163.698 E3.8128
G1 X170.184 Y163.713 E3.8132
G1 X169.617 Y165.420 E3.8579
G1 X169.612 Y165.435 E3.8583
G1 X169.582 Y165.517 E3.8605
G1 X169.576 Y165.531 E3.8609
G1 X168.888 Y167.194 E3.9057
G1 X168.882 Y167.208 E3.9060
G1 X168.846 Y167.287 E3.9082
G1 X168.840 Y167.301 E3.9086
G1 X168.048 Y168.885 E3.9526
G1 X168.043 Y168.895 E3.9529
G1 X168.013 Y168.952 E3.9545
G1 X168.008 Y168.961 E3.9548
G1 X167.573 Y169.730 E3.9768
G1 X167.567 Y169.740 E3.9771
G1 X167.533 Y169.797 E3.9787
G1 X167.526 Y169.807 E3.9790
G1 X166.531 Y171.361 E4.0249
G1 X166.523 Y171.375 E4.0253
G1 X166.471 Y171.448 E4.0276
G1 X166.462 Y171.462 E4.0280
G1 X165.348 Y172.948 E4.0742
G1 X165.338 Y172.961 E4.0746
G1 X165.282 Y173.031 E4.0768
G1 X165.271 Y173.043 E4.0772
G1 X164.051 Y174.444 E4.1234
G1 X164.040 Y174.455 E4.1238
G1 X163.979 Y174.521 E4.1261
G1 X163.968 Y174.532 E4.1265
G1 X162.651 Y175.836 E4.1726
G1 X162.641 Y175.846 E4.1729
G1 X162.582 Y175.901 E4.1749
G1 X162.571 Y175.911 E4.1753
G1 X161.455 Y176.878 E4.2120
G1 X161.446 Y176.885 E4.2123
G1 X161.396 Y176.926 E4.2139
G1 X161.387 Y176.934 E4.2142
G1 X160.459 Y177.656 E4.2435
G1 X160.452 Y177.662 E4.2437
G1 X160.410 Y177.692 E4.2450
G1 X160.403 Y177.698 E4.2452
G1 X159.581 Y178.284 E4.2704
G1 X159.571 Y178.291 E4.2707
G1 X159.516 Y178.328 E4.2723
G1 X159.506 Y178.334 E4.2726
G1 X158.058 Y179.251 E4.3153
G1 X158.046 Y179.259 E4.3156
G1 X157.974 Y179.301 E4.3177
G1 X157.961 Y179.309 E4.3181
G1 X156.446 Y180.129 E4.3609
G1 X156.433 Y180.136 E4.3613
G1 X156.358 Y180.173 E4.3634
G1 X156.345 Y180.179 E4.3637
