; G-Code generated by Simplify3D(R) Version 4.1.2
; Oct 6, 2020 at 7:48:06 PM
; Settings Summary
;   processName,Process1
;   applyToModels,SupportJC
;   profileName,A04-04-35s Tevo Tornado
;   profileVersion,2020-07-14 00:02:25
;   baseProfile,Creality CR-10(2)
;   printMaterial,PLA
;   printQuality,Medium
;   printExtruders,
;   extruderName,Primary Extruder
;   extruderToolheadNumber,0
;   extruderDiameter,0.4
;   extruderAutoWidth,0
;   extruderWidth,0.35
;   extrusionMultiplier,0.95
;   extruderUseRetract,1
;   extruderRetractionDistance,4
;   extruderExtraRestartDistance,0
;   extruderRetractionZLift,0.3
;   extruderRetractionSpeed,3000
;   extruderUseCoasting,1
;   extruderCoastingDistance,0.8
;   extruderUseWipe,0
;   extruderWipeDistance,4
;   primaryExtruder,0
;   layerHeight,0.15
;   topSolidLayers,4
;   bottomSolidLayers,3
;   perimeterOutlines,3
;   printPerimetersInsideOut,0
;   startPointOption,1
;   startPointOriginX,0
;   startPointOriginY,300
;   sequentialIslands,0
;   spiralVaseMode,0
;   firstLayerHeightPercentage,120
;   firstLayerWidthPercentage,100
;   firstLayerUnderspeed,0.35
;   useRaft,0
;   raftExtruder,0
;   raftTopLayers,3
;   raftBaseLayers,2
;   raftOffset,3
;   raftSeparationDistance,0.14
;   raftTopInfill,100
;   aboveRaftSpeedMultiplier,0.3
;   useSkirt,1
;   skirtExtruder,0
;   skirtLayers,1
;   skirtOutlines,3
;   skirtOffset,2
;   usePrimePillar,0
;   primePillarExtruder,999
;   primePillarWidth,12
;   primePillarLocation,7
;   primePillarSpeedMultiplier,1
;   useOozeShield,0
;   oozeShieldExtruder,999
;   oozeShieldOffset,2
;   oozeShieldOutlines,1
;   oozeShieldSidewallShape,1
;   oozeShieldSidewallAngle,30
;   oozeShieldSpeedMultiplier,1
;   infillExtruder,0
;   internalInfillPattern,Rectilinear
;   externalInfillPattern,Rectilinear
;   infillPercentage,35
;   outlineOverlapPercentage,15
;   infillExtrusionWidthPercentage,100
;   minInfillLength,5
;   infillLayerInterval,1
;   internalInfillAngles,45,-45
;   overlapInternalInfillAngles,0
;   externalInfillAngles,45,-45
;   generateSupport,1
;   supportExtruder,0
;   supportInfillPercentage,30
;   supportExtraInflation,0
;   supportBaseLayers,0
;   denseSupportExtruder,0
;   denseSupportLayers,0
;   denseSupportInfillPercentage,70
;   supportLayerInterval,1
;   supportHorizontalPartOffset,0.4
;   supportUpperSeparationLayers,1
;   supportLowerSeparationLayers,1
;   supportType,1
;   supportGridSpacing,4.5
;   maxOverhangAngle,45
;   supportAngles,0
;   temperatureName,Primary Extruder,Heated Bed
;   temperatureNumber,0,0
;   temperatureSetpointCount,1,1
;   temperatureSetpointLayers,1,1
;   temperatureSetpointTemperatures,215,55
;   temperatureStabilizeAtStartup,1,1
;   temperatureHeatedBed,0,1
;   fanLayers,1,2
;   fanSpeeds,0,100
;   blipFanToFullPower,0
;   adjustSpeedForCooling,1
;   minSpeedLayerTime,15
;   minCoolingSpeedSlowdown,50
;   increaseFanForCooling,1
;   minFanLayerTime,25
;   maxCoolingFanSpeed,100
;   increaseFanForBridging,1
;   bridgingFanSpeed,100
;   use5D,1
;   relativeEdistances,0
;   allowEaxisZeroing,1
;   independentExtruderAxes,0
;   includeM10123,0
;   stickySupport,1
;   applyToolheadOffsets,0
;   gcodeXoffset,0
;   gcodeYoffset,0
;   gcodeZoffset,0
;   overrideMachineDefinition,1
;   machineTypeOverride,0
;   strokeXoverride,300
;   strokeYoverride,300
;   strokeZoverride,400
;   originOffsetXoverride,0
;   originOffsetYoverride,0
;   originOffsetZoverride,0
;   homeXdirOverride,-1
;   homeYdirOverride,-1
;   homeZdirOverride,-1
;   flipXoverride,1
;   flipYoverride,-1
;   flipZoverride,1
;   toolheadOffsets,0,0|0,0|0,0|0,0|0,0|0,0
;   overrideFirmwareConfiguration,1
;   firmwareTypeOverride,RepRap (Marlin/Repetier/Sprinter)
;   GPXconfigOverride,r2
;   baudRateOverride,250000
;   overridePrinterModels,1
;   printerModelsOverride
;   startingGcode,;,; -]H.P.B[- MarshMalloW  ,; $VER: StartScript 1.02 (26.12.2019) MarshMalloW,;,; Begin Startcode,;,M117 *Preheat*     	; Preheat,;extruder0_temperature,M104 S[extruder0_temperature]  ,M109 S[extruder0_temperature] ,M109 R[extruder0_temperature] ,;,M117 *Auto-leveling*     	; Auto-leveling,M107                   	; Turn layer fan off,G21                    	; Set to metric [change to G20 if you want Imperial],G90                    	; Force coordinates to be absolute relative to the origin,G28                    	; Home X/Y/Z axis,G29                    	; Auto-leveling (BL-Touch),;,M117 *Start Clean*     	; Indicate nozzle clean in progress on LCD,G92 E0                 	; Set Extruder to 0 ,G1 X0 Y0 F2000         	; Move X and Y to 0 with speed 2000 (mm/min),G1 Z0.1 F1000          	; Move Z to   0.1 with speed 1000 (mm/min),G1 X8.0 F2000          	; Move X to   8.0 with speed 2000 (mm/min),G1 Y60.0 E4.0 F1000.0  	; Move Y to  60 and Extruder with 4.0 with speed 1000 (mm/min),G1 Y100.0 E8.5 F1000.0 	; Move Y to 100 and Extruder with 8.5 with speed 1000 (mm/min),G92 E0                 	; Set extruder to 0,G1 X16.0 F3000         	; Move X to 16.0 with speed 3000 (mm/min),G1 Y60.0 F3000         	; Move Y to 60.0 with speed 3000 (mm/min),M117 *End Clean*       	; Indicate nozzle clean in progress on LCD,G1 Z5 F3000            	; Move Z to  5.0 with speed 3000 (mm/min),G1 X20.0 F3000         	; Move X to 20.0 with speed 3000 (mm/min),G1 Y20.0 F3000         	; Move Y to 20.0 with speed 3000 (mm/min),; ,M117 *Printing...*     	; Start printing msg on LCD,;,; End Startcode,;,; Begin printing with sliced GCode after here,;
;   layerChangeGcode,
;   retractionGcode,
;   toolChangeGcode,
;   endingGcode,;,; init 181010,;,;M107 			; Fan off,;G1 E-1 F300 			; Retract the filament a bit before lifting the nozzle,;M104 S0 			; Turn off extruder,;M140 S0 			; Turn off bed,;G91			; Relative positioning,;G28 X0 Y0 			; Move X/Y to min endstops so the head is out of teh way,;M84 			; Disable motors,;G90 			; Absolute positioning,;M117 Print ready...,,;,; // From Cura 181010,; // End_gcode,G92 E0			; Zero the extruded length,;G1 E-30 F300		; Retract E -30,M106 S0			; Turn off cooling fan,M104 S0			; Turn off temperature,M140 S0		     	; Turn off bed,G91			; Relative positioning,G1 E-1 F300			; Retract the filament a bit before lifting the nozzle to release some of the pressure,G1 Z+20 E-5 X-20 Y-20 F7200	; Move Z up a bit and retract filament even more,G1 X0 Y150 F10000		; Move right min,M107			; Turn off layer fan,M84			; Disable motors,G90			; Absolute positioning,M117 *The-End* 		; End msg,;,
;   exportFileFormat,gcode
;   celebration,0
;   celebrationSong,Star Wars
;   postProcessing,|{REPLACE "; layer " "M117 INDICATOR-Layer"}|{REPLACE ", Z = " "\n; Z="}
;   defaultSpeed,1800
;   outlineUnderspeed,0.5
;   solidInfillUnderspeed,0.8
;   supportUnderspeed,0.8
;   rapidXYspeed,6000
;   rapidZspeed,1002
;   minBridgingArea,50
;   bridgingExtraInflation,0.2
;   bridgingExtrusionMultiplier,1
;   bridgingSpeedMultiplier,0.6
;   useFixedBridgingAngle,0
;   fixedBridgingAngle,0
;   applyBridgingToPerimeters,0
;   filamentDiameters,1.75|1.75|1.75|1.75|1.75|1.75
;   filamentPricesPerKg,30|46|46|46|46|46
;   filamentDensities,1.25|1.25|1.25|1.25|1.25|1.25
;   useMinPrintHeight,0
;   minPrintHeight,0
;   useMaxPrintHeight,0
;   maxPrintHeight,9
;   useDiaphragm,0
;   diaphragmLayerInterval,20
;   robustSlicing,1
;   mergeAllIntoSolid,0
;   onlyRetractWhenCrossingOutline,1
;   retractBetweenLayers,0
;   useRetractionMinTravel,0
;   retractionMinTravel,3
;   retractWhileWiping,0
;   onlyWipeOutlines,1
;   avoidCrossingOutline,1
;   maxMovementDetourFactor,3
;   toolChangeRetractionDistance,12
;   toolChangeExtraRestartDistance,-0.5
;   toolChangeRetractionSpeed,600
;   externalThinWallType,1
;   internalThinWallType,1
;   thinWallAllowedOverlapPercentage,10
;   singleExtrusionMinLength,1
;   singleExtrusionMinPrintingWidthPercentage,50
;   singleExtrusionMaxPrintingWidthPercentage,200
;   singleExtrusionEndpointExtension,0.2
;   horizontalSizeCompensation,0
G90
M82
M106 S0
M140 S55
M190 S55
;
; -]H.P.B[- MarshMalloW  
; $VER: StartScript 1.02 (26.12.2019) MarshMalloW
;
; Begin Startcode
;
M117 *Preheat*     	; Preheat
;extruder0_temperature
M104 S215  
M109 S215 
M109 R215 
;
M117 *Auto-leveling*     	; Auto-leveling
M107                   	; Turn layer fan off
G21                    	; Set to metric [change to G20 if you want Imperial]
G90                    	; Force coordinates to be absolute relative to the origin
G28                    	; Home X/Y/Z axis
G29                    	; Auto-leveling (BL-Touch)
;
M117 *Start Clean*     	; Indicate nozzle clean in progress on LCD
G92 E0                 	; Set Extruder to 0 
G1 X0 Y0 F2000         	; Move X and Y to 0 with speed 2000 (mm/min)
G1 Z0.1 F1000          	; Move Z to   0.1 with speed 1000 (mm/min)
G1 X8.0 F2000          	; Move X to   8.0 with speed 2000 (mm/min)
G1 Y60.0 E4.0 F1000.0  	; Move Y to  60 and Extruder with 4.0 with speed 1000 (mm/min)
G1 Y100.0 E8.5 F1000.0 	; Move Y to 100 and Extruder with 8.5 with speed 1000 (mm/min)
G92 E0                 	; Set extruder to 0
G1 X16.0 F3000         	; Move X to 16.0 with speed 3000 (mm/min)
G1 Y60.0 F3000         	; Move Y to 60.0 with speed 3000 (mm/min)
M117 *End Clean*       	; Indicate nozzle clean in progress on LCD
G1 Z5 F3000            	; Move Z to  5.0 with speed 3000 (mm/min)
G1 X20.0 F3000         	; Move X to 20.0 with speed 3000 (mm/min)
G1 Y20.0 F3000         	; Move Y to 20.0 with speed 3000 (mm/min)
; 
M117 *Printing...*     	; Start printing msg on LCD
;
; End Startcode
;
; Begin printing with sliced GCode after here
;
; process Process1
M117 INDICATOR-Layer1
; Z=0.180
T0
G92 E0.0000
G1 E-4.0000 F3000
; feature skirt
; tool H0.180 W0.350
G1 Z0.300 F1002
G1 X162.431 Y80.115 F6000
G1 Z0.180 F1002
G1 E0.0000 F3000
G92 E0.0000
G1 X163.561 Y80.242 E0.0283 F630
G1 X163.876 Y80.314 E0.0363
G1 X165.026 Y80.716 E0.0667
G1 X165.317 Y80.856 E0.0747
G1 X166.349 Y81.505 E0.1050
G1 X166.602 Y81.706 E0.1131
G1 X167.463 Y82.568 E0.1434
G1 X167.665 Y82.820 E0.1514
G1 X168.313 Y83.852 E0.1817
G1 X168.453 Y84.143 E0.1898
G1 X168.856 Y85.293 E0.2201
G1 X168.928 Y85.608 E0.2281
G1 X169.055 Y86.739 E0.2564
G1 X169.064 Y86.900 E0.2605
G1 X169.064 Y98.061 E0.5382
G1 X169.055 Y98.222 E0.5422
G1 X168.928 Y99.353 E0.5705
G1 X168.856 Y99.668 E0.5785
G1 X168.453 Y100.818 E0.6089
G1 X168.313 Y101.109 E0.6169
G1 X167.665 Y102.141 E0.6472
G1 X167.463 Y102.393 E0.6553
G1 X166.602 Y103.255 E0.6856
G1 X166.349 Y103.456 E0.6936
G1 X165.317 Y104.105 E0.7239
G1 X165.026 Y104.245 E0.7320
G1 X163.876 Y104.647 E0.7623
G1 X163.561 Y104.719 E0.7703
G1 X162.431 Y104.846 E0.7987
G1 X162.270 Y104.856 E0.8027
G1 X129.108 Y104.856 E1.6278
G1 X128.947 Y104.846 E1.6318
G1 X127.817 Y104.719 E1.6601
G1 X127.502 Y104.647 E1.6682
G1 X126.351 Y104.245 E1.6985
G1 X126.061 Y104.105 E1.7065
G1 X125.029 Y103.456 E1.7369
G1 X124.776 Y103.255 E1.7449
G1 X123.915 Y102.393 E1.7752
G1 X123.713 Y102.141 E1.7832
G1 X123.065 Y101.109 E1.8136
G1 X122.925 Y100.818 E1.8216
G1 X122.522 Y99.668 E1.8519
G1 X122.450 Y99.353 E1.8600
G1 X122.323 Y98.222 E1.8883
G1 X122.314 Y98.061 E1.8923
G1 X122.314 Y86.900 E2.1700
G1 X122.323 Y86.739 E2.1740
G1 X122.450 Y85.608 E2.2023
G1 X122.522 Y85.293 E2.2104
G1 X122.925 Y84.143 E2.2407
G1 X123.065 Y83.852 E2.2487
G1 X123.713 Y82.820 E2.2791
G1 X123.915 Y82.568 E2.2871
G1 X124.776 Y81.706 E2.3174
G1 X125.029 Y81.505 E2.3254
G1 X126.061 Y80.856 E2.3558
G1 X126.352 Y80.716 E2.3638
G1 X127.502 Y80.314 E2.3941
G1 X127.817 Y80.242 E2.4022
G1 X128.947 Y80.115 E2.4305
G1 X129.108 Y80.106 E2.4345
G1 X162.270 Y80.106 E3.2596
G1 X162.431 Y80.115 E3.2636
G92 E0.0000
G1 E-4.0000 F3000
G1 Z0.480 F1002
G1 X162.179 Y83.156 F6000
G1 X157.782 Y83.156
G1 X129.275 Y101.806
G1 X129.199 Y101.806
G1 X128.338 Y101.709
G1 X127.530 Y101.426
G1 X126.230 Y103.798
G1 Z0.180 F1002
G1 E0.0000 F3000
G92 E0.0000
G1 X125.232 Y103.170 E0.0293 F630
G1 X125.010 Y102.994 E0.0364
G1 X124.176 Y102.160 E0.0657
G1 X123.999 Y101.938 E0.0728
G1 X123.372 Y100.939 E0.1021
G1 X123.249 Y100.684 E0.1092
G1 X122.859 Y99.571 E0.1385
G1 X122.796 Y99.294 E0.1456
G1 X122.672 Y98.193 E0.1732
G1 X122.664 Y98.051 E0.1767
G1 X122.664 Y86.910 E0.4539
G1 X122.672 Y86.768 E0.4575
G1 X122.796 Y85.667 E0.4851
G1 X122.859 Y85.390 E0.4921
G1 X123.249 Y84.277 E0.5215
G1 X123.372 Y84.022 E0.5285
G1 X123.999 Y83.023 E0.5579
G1 X124.176 Y82.801 E0.5649
G1 X125.010 Y81.968 E0.5943
G1 X125.232 Y81.791 E0.6013
G1 X126.230 Y81.163 E0.6307
G1 X126.486 Y81.040 E0.6377
G1 X127.599 Y80.651 E0.6671
G1 X127.875 Y80.588 E0.6741
G1 X128.977 Y80.463 E0.7017
G1 X129.118 Y80.456 E0.7052
G1 X162.260 Y80.456 E1.5299
G1 X162.401 Y80.463 E1.5334
G1 X163.503 Y80.588 E1.5610
G1 X163.779 Y80.651 E1.5680
G1 X164.892 Y81.040 E1.5974
G1 X165.148 Y81.163 E1.6044
G1 X166.146 Y81.791 E1.6338
G1 X166.368 Y81.968 E1.6408
G1 X167.202 Y82.801 E1.6702
G1 X167.379 Y83.023 E1.6772
G1 X168.006 Y84.022 E1.7066
G1 X168.129 Y84.277 E1.7136
G1 X168.519 Y85.390 E1.7430
G1 X168.582 Y85.667 E1.7500
G1 X168.706 Y86.768 E1.7776
G1 X168.714 Y86.910 E1.7811
G1 X168.714 Y98.051 E2.0584
G1 X168.706 Y98.193 E2.0619
G1 X168.582 Y99.294 E2.0895
G1 X168.519 Y99.571 E2.0965
G1 X168.129 Y100.684 E2.1259
G1 X168.006 Y100.939 E2.1329
G1 X167.379 Y101.938 E2.1623
G1 X167.202 Y102.160 E2.1693
G1 X166.368 Y102.994 E2.1987
G1 X166.146 Y103.170 E2.2057
G1 X165.148 Y103.798 E2.2351
G1 X164.892 Y103.921 E2.2422
G1 X163.779 Y104.310 E2.2715
G1 X163.503 Y104.373 E2.2786
G1 X162.401 Y104.498 E2.3061
G1 X162.260 Y104.506 E2.3097
G1 X129.118 Y104.506 E3.1343
G1 X128.977 Y104.498 E3.1378
G1 X127.875 Y104.373 E3.1654
G1 X127.599 Y104.310 E3.1725
G1 X126.486 Y103.921 E3.2018
G1 X126.230 Y103.798 E3.2089
G92 E0.0000
G1 E-4.0000 F3000
G1 Z0.480 F1002
G1 X127.530 Y101.426 F6000
G1 X128.338 Y101.709
G1 X129.199 Y101.806
G1 X130.861 Y101.806
G1 X165.981 Y86.696
G1 X165.917 Y86.130
G1 X168.236 Y85.726
G1 Z0.180 F1002
G1 E0.0000 F3000
G92 E0.0000
G1 X168.357 Y86.798 E0.0268 F630
G1 X168.364 Y86.919 E0.0299
G1 X168.364 Y98.042 E0.3066
G1 X168.357 Y98.163 E0.3097
G1 X168.236 Y99.236 E0.3365
G1 X168.182 Y99.474 E0.3426
G1 X167.805 Y100.550 E0.3710
G1 X167.699 Y100.770 E0.3770
G1 X167.093 Y101.735 E0.4054
G1 X166.941 Y101.926 E0.4115
G1 X166.135 Y102.732 E0.4398
G1 X165.944 Y102.884 E0.4459
G1 X164.978 Y103.491 E0.4743
G1 X164.758 Y103.597 E0.4804
G1 X163.682 Y103.974 E0.5087
G1 X163.444 Y104.028 E0.5148
G1 X162.372 Y104.149 E0.5417
G1 X162.250 Y104.156 E0.5447
G1 X129.128 Y104.156 E1.3689
G1 X129.006 Y104.149 E1.3719
G1 X127.934 Y104.028 E1.3987
G1 X127.696 Y103.974 E1.4048
G1 X126.620 Y103.597 E1.4332
G1 X126.400 Y103.491 E1.4393
G1 X125.434 Y102.884 E1.4676
G1 X125.243 Y102.732 E1.4737
G1 X124.437 Y101.926 E1.5021
G1 X124.285 Y101.735 E1.5082
G1 X123.678 Y100.770 E1.5365
G1 X123.572 Y100.550 E1.5426
G1 X123.196 Y99.474 E1.5710
G1 X123.142 Y99.236 E1.5771
G1 X123.021 Y98.163 E1.6039
G1 X123.014 Y98.042 E1.6069
G1 X123.014 Y86.919 E1.8837
G1 X123.021 Y86.798 E1.8867
G1 X123.142 Y85.726 E1.9136
G1 X123.196 Y85.487 E1.9196
G1 X123.572 Y84.411 E1.9480
G1 X123.678 Y84.191 E1.9541
G1 X124.285 Y83.226 E1.9825
G1 X124.437 Y83.035 E1.9885
G1 X125.243 Y82.229 E2.0169
G1 X125.434 Y82.077 E2.0230
G1 X126.400 Y81.470 E2.0513
G1 X126.620 Y81.364 E2.0574
G1 X127.696 Y80.988 E2.0858
G1 X127.934 Y80.933 E2.0919
G1 X129.006 Y80.812 E2.1187
G1 X129.128 Y80.806 E2.1218
G1 X162.250 Y80.806 E2.9459
G1 X162.372 Y80.812 E2.9490
G1 X163.444 Y80.933 E2.9758
G1 X163.682 Y80.988 E2.9819
G1 X164.758 Y81.364 E3.0102
G1 X164.978 Y81.470 E3.0163
G1 X165.944 Y82.077 E3.0447
G1 X166.135 Y82.229 E3.0508
G1 X166.941 Y83.035 E3.0791
G1 X167.093 Y83.226 E3.0852
G1 X167.699 Y84.191 E3.1136
G1 X167.805 Y84.411 E3.1197
G1 X168.182 Y85.487 E3.1480
G1 X168.236 Y85.726 E3.1541
G92 E0.0000
G1 E-4.0000 F3000
; feature outer perimeter
G1 Z0.480 F1002
G1 X165.917 Y86.130 F6000
G1 X165.767 Y85.702
G1 X125.744 Y85.321
G1 Z0.180 F1002
G1 E0.0000 F3000
G92 E0.0000
G1 X126.199 Y84.596 E0.0213 F315
G1 X126.805 Y83.991 E0.0426
G1 X127.530 Y83.535 E0.0639
