; G-Code generated by Simplify3D(R) Version 4.1.2
; Oct 10, 2020 at 11:37:35 AM
; Settings Summary
;   processName,Process1
;   applyToModels,SupportJC
;   profileName,A04-04-35s Tevo Tornado
;   profileVersion,2020-07-14 00:02:25
;   baseProfile,Creality CR-10(2)
;   printMaterial,PLA
;   printQuality,Medium
;   printExtruders,
;   extruderName,Primary Extruder
;   extruderToolheadNumber,0
;   extruderDiameter,0.4
;   extruderAutoWidth,0
;   extruderWidth,0.35
;   extrusionMultiplier,0.95
;   extruderUseRetract,1
;   extruderRetractionDistance,4
;   extruderExtraRestartDistance,0
;   extruderRetractionZLift,0.3
;   extruderRetractionSpeed,3000
;   extruderUseCoasting,1
;   extruderCoastingDistance,0.8
;   extruderUseWipe,0
;   extruderWipeDistance,4
;   primaryExtruder,0
;   layerHeight,0.15
;   topSolidLayers,4
;   bottomSolidLayers,3
;   perimeterOutlines,3
;   printPerimetersInsideOut,0
;   startPointOption,1
;   startPointOriginX,0
;   startPointOriginY,300
;   sequentialIslands,0
;   spiralVaseMode,0
;   firstLayerHeightPercentage,120
;   firstLayerWidthPercentage,100
;   firstLayerUnderspeed,0.35
;   useRaft,0
;   raftExtruder,0
;   raftTopLayers,3
;   raftBaseLayers,2
;   raftOffset,3
;   raftSeparationDistance,0.14
;   raftTopInfill,100
;   aboveRaftSpeedMultiplier,0.3
;   useSkirt,1
;   skirtExtruder,0
;   skirtLayers,1
;   skirtOutlines,3
;   skirtOffset,2
;   usePrimePillar,0
;   primePillarExtruder,999
;   primePillarWidth,12
;   primePillarLocation,7
;   primePillarSpeedMultiplier,1
;   useOozeShield,0
;   oozeShieldExtruder,999
;   oozeShieldOffset,2
;   oozeShieldOutlines,1
;   oozeShieldSidewallShape,1
;   oozeShieldSidewallAngle,30
;   oozeShieldSpeedMultiplier,1
;   infillExtruder,0
;   internalInfillPattern,Rectilinear
;   externalInfillPattern,Rectilinear
;   infillPercentage,35
;   outlineOverlapPercentage,15
;   infillExtrusionWidthPercentage,100
;   minInfillLength,5
;   infillLayerInterval,1
;   internalInfillAngles,45,-45
;   overlapInternalInfillAngles,0
;   externalInfillAngles,45,-45
;   generateSupport,1
;   supportExtruder,0
;   supportInfillPercentage,30
;   supportExtraInflation,0
;   supportBaseLayers,0
;   denseSupportExtruder,0
;   denseSupportLayers,0
;   denseSupportInfillPercentage,70
;   supportLayerInterval,1
;   supportHorizontalPartOffset,0.4
;   supportUpperSeparationLayers,1
;   supportLowerSeparationLayers,1
;   supportType,1
;   supportGridSpacing,4.5
;   maxOverhangAngle,45
;   supportAngles,0
;   temperatureName,Primary Extruder,Heated Bed
;   temperatureNumber,0,0
;   temperatureSetpointCount,1,1
;   temperatureSetpointLayers,1,1
;   temperatureSetpointTemperatures,215,55
;   temperatureStabilizeAtStartup,1,1
;   temperatureHeatedBed,0,1
;   fanLayers,1,2
;   fanSpeeds,0,100
;   blipFanToFullPower,0
;   adjustSpeedForCooling,1
;   minSpeedLayerTime,15
;   minCoolingSpeedSlowdown,50
;   increaseFanForCooling,1
;   minFanLayerTime,25
;   maxCoolingFanSpeed,100
;   increaseFanForBridging,1
;   bridgingFanSpeed,100
;   use5D,1
;   relativeEdistances,0
;   allowEaxisZeroing,1
;   independentExtruderAxes,0
;   includeM10123,0
;   stickySupport,1
;   applyToolheadOffsets,0
;   gcodeXoffset,0
;   gcodeYoffset,0
;   gcodeZoffset,0
;   overrideMachineDefinition,1
;   machineTypeOverride,0
;   strokeXoverride,300
;   strokeYoverride,300
;   strokeZoverride,400
;   originOffsetXoverride,0
;   originOffsetYoverride,0
;   originOffsetZoverride,0
;   homeXdirOverride,-1
;   homeYdirOverride,-1
;   homeZdirOverride,-1
;   flipXoverride,1
;   flipYoverride,-1
;   flipZoverride,1
;   toolheadOffsets,0,0|0,0|0,0|0,0|0,0|0,0
;   overrideFirmwareConfiguration,1
;   firmwareTypeOverride,RepRap (Marlin/Repetier/Sprinter)
;   GPXconfigOverride,r2
;   baudRateOverride,250000
;   overridePrinterModels,1
;   printerModelsOverride
;   startingGcode,;,; -]H.P.B[- MarshMalloW  ,; $VER: StartScript 1.02 (26.12.2019) MarshMalloW,;,; Begin Startcode,;,M117 *Preheat*     	; Preheat,;extruder0_temperature,M104 S[extruder0_temperature]  ,M109 S[extruder0_temperature] ,M109 R[extruder0_temperature] ,;,M117 *Auto-leveling*     	; Auto-leveling,M107                   	; Turn layer fan off,G21                    	; Set to metric [change to G20 if you want Imperial],G90                    	; Force coordinates to be absolute relative to the origin,G28                    	; Home X/Y/Z axis,G29                    	; Auto-leveling (BL-Touch),;,M117 *Start Clean*     	; Indicate nozzle clean in progress on LCD,G92 E0                 	; Set Extruder to 0 ,G1 X0 Y0 F2000         	; Move X and Y to 0 with speed 2000 (mm/min),G1 Z0.1 F1000          	; Move Z to   0.1 with speed 1000 (mm/min),G1 X8.0 F2000          	; Move X to   8.0 with speed 2000 (mm/min),G1 Y60.0 E4.0 F1000.0  	; Move Y to  60 and Extruder with 4.0 with speed 1000 (mm/min),G1 Y100.0 E8.5 F1000.0 	; Move Y to 100 and Extruder with 8.5 with speed 1000 (mm/min),G92 E0                 	; Set extruder to 0,G1 X16.0 F3000         	; Move X to 16.0 with speed 3000 (mm/min),G1 Y60.0 F3000         	; Move Y to 60.0 with speed 3000 (mm/min),M117 *End Clean*       	; Indicate nozzle clean in progress on LCD,G1 Z5 F3000            	; Move Z to  5.0 with speed 3000 (mm/min),G1 X20.0 F3000         	; Move X to 20.0 with speed 3000 (mm/min),G1 Y20.0 F3000         	; Move Y to 20.0 with speed 3000 (mm/min),; ,M117 *Printing...*     	; Start printing msg on LCD,;,; End Startcode,;,; Begin printing with sliced GCode after here,;
;   layerChangeGcode,
;   retractionGcode,
;   toolChangeGcode,
;   endingGcode,;,; init 181010,;,;M107 			; Fan off,;G1 E-1 F300 			; Retract the filament a bit before lifting the nozzle,;M104 S0 			; Turn off extruder,;M140 S0 			; Turn off bed,;G91			; Relative positioning,;G28 X0 Y0 			; Move X/Y to min endstops so the head is out of teh way,;M84 			; Disable motors,;G90 			; Absolute positioning,;M117 Print ready...,,;,; // From Cura 181010,; // End_gcode,G92 E0			; Zero the extruded length,;G1 E-30 F300		; Retract E -30,M106 S0			; Turn off cooling fan,M104 S0			; Turn off temperature,M140 S0		     	; Turn off bed,G91			; Relative positioning,G1 E-1 F300			; Retract the filament a bit before lifting the nozzle to release some of the pressure,G1 Z+20 E-5 X-20 Y-20 F7200	; Move Z up a bit and retract filament even more,G1 X0 Y150 F10000		; Move right min,M107			; Turn off layer fan,M84			; Disable motors,G90			; Absolute positioning,M117 *The-End* 		; End msg,;,
;   exportFileFormat,gcode
;   celebration,0
;   celebrationSong,Star Wars
;   postProcessing,|{REPLACE "; layer " "M117 INDICATOR-Layer"}|{REPLACE ", Z = " "\n; Z="}
;   defaultSpeed,1800
;   outlineUnderspeed,0.5
;   solidInfillUnderspeed,0.8
;   supportUnderspeed,0.8
;   rapidXYspeed,6000
;   rapidZspeed,1002
;   minBridgingArea,50
;   bridgingExtraInflation,0.2
;   bridgingExtrusionMultiplier,1
;   bridgingSpeedMultiplier,0.6
;   useFixedBridgingAngle,0
;   fixedBridgingAngle,0
;   applyBridgingToPerimeters,0
;   filamentDiameters,1.75|1.75|1.75|1.75|1.75|1.75
;   filamentPricesPerKg,30|46|46|46|46|46
;   filamentDensities,1.25|1.25|1.25|1.25|1.25|1.25
;   useMinPrintHeight,0
;   minPrintHeight,0
;   useMaxPrintHeight,0
;   maxPrintHeight,9
;   useDiaphragm,0
;   diaphragmLayerInterval,20
;   robustSlicing,1
;   mergeAllIntoSolid,0
;   onlyRetractWhenCrossingOutline,1
;   retractBetweenLayers,0
;   useRetractionMinTravel,0
;   retractionMinTravel,3
;   retractWhileWiping,0
;   onlyWipeOutlines,1
;   avoidCrossingOutline,1
;   maxMovementDetourFactor,3
;   toolChangeRetractionDistance,12
;   toolChangeExtraRestartDistance,-0.5
;   toolChangeRetractionSpeed,600
;   externalThinWallType,1
;   internalThinWallType,1
;   thinWallAllowedOverlapPercentage,10
;   singleExtrusionMinLength,1
;   singleExtrusionMinPrintingWidthPercentage,50
;   singleExtrusionMaxPrintingWidthPercentage,200
;   singleExtrusionEndpointExtension,0.2
;   horizontalSizeCompensation,0
G90
M82
M106 S0
M140 S55
M190 S55
;
; -]H.P.B[- MarshMalloW  
; $VER: StartScript 1.02 (26.12.2019) MarshMalloW
;
; Begin Startcode
;
M117 *Preheat*     	; Preheat
;extruder0_temperature
M104 S215  
M109 S215 
M109 R215 
;
M117 *Auto-leveling*     	; Auto-leveling
M107                   	; Turn layer fan off
G21                    	; Set to metric [change to G20 if you want Imperial]
G90                    	; Force coordinates to be absolute relative to the origin
G28                    	; Home X/Y/Z axis
G29                    	; Auto-leveling (BL-Touch)
;
M117 *Start Clean*     	; Indicate nozzle clean in progress on LCD
G92 E0                 	; Set Extruder to 0 
G1 X0 Y0 F2000         	; Move X and Y to 0 with speed 2000 (mm/min)
G1 Z0.1 F1000          	; Move Z to   0.1 with speed 1000 (mm/min)
G1 X8.0 F2000          	; Move X to   8.0 with speed 2000 (mm/min)
G1 Y60.0 E4.0 F1000.0  	; Move Y to  60 and Extruder with 4.0 with speed 1000 (mm/min)
G1 Y100.0 E8.5 F1000.0 	; Move Y to 100 and Extruder with 8.5 with speed 1000 (mm/min)
G92 E0                 	; Set extruder to 0
G1 X16.0 F3000         	; Move X to 16.0 with speed 3000 (mm/min)
G1 Y60.0 F3000         	; Move Y to 60.0 with speed 3000 (mm/min)
M117 *End Clean*       	; Indicate nozzle clean in progress on LCD
G1 Z5 F3000            	; Move Z to  5.0 with speed 3000 (mm/min)
G1 X20.0 F3000         	; Move X to 20.0 with speed 3000 (mm/min)
G1 Y20.0 F3000         	; Move Y to 20.0 with speed 3000 (mm/min)
; 
M117 *Printing...*     	; Start printing msg on LCD
;
; End Startcode
;
; Begin printing with sliced GCode after here
;
; process Process1
M117 INDICATOR-Layer1
; Z=0.180
T0
G92 E0.0000
G1 E-4.0000 F3000
; feature skirt
; tool H0.180 W0.350
G1 Z0.300 F1002
G1 X170.259 Y88.276 F6000
G1 Z0.180 F1002
G1 E0.0000 F3000
G92 E0.0000
G1 X171.390 Y88.403 E0.0283 F630
G1 X171.705 Y88.475 E0.0363
G1 X172.855 Y88.877 E0.0667
G1 X173.146 Y89.017 E0.0747
G1 X174.178 Y89.666 E0.1050
G1 X174.430 Y89.867 E0.1131
G1 X175.292 Y90.729 E0.1434
G1 X175.493 Y90.981 E0.1514
G1 X176.142 Y92.013 E0.1817
G1 X176.282 Y92.304 E0.1898
G1 X176.684 Y93.454 E0.2201
G1 X176.756 Y93.769 E0.2281
G1 X176.884 Y94.900 E0.2565
G1 X176.893 Y95.061 E0.2605
G1 X176.893 Y106.222 E0.5382
G1 X176.884 Y106.383 E0.5422
G1 X176.756 Y107.514 E0.5705
G1 X176.684 Y107.829 E0.5786
G1 X176.282 Y108.979 E0.6089
G1 X176.142 Y109.270 E0.6169
G1 X175.493 Y110.302 E0.6472
G1 X175.292 Y110.554 E0.6553
G1 X174.430 Y111.416 E0.6856
G1 X174.178 Y111.617 E0.6936
G1 X173.146 Y112.266 E0.7239
G1 X172.855 Y112.406 E0.7320
G1 X171.705 Y112.808 E0.7623
G1 X171.390 Y112.880 E0.7703
G1 X170.259 Y113.007 E0.7987
G1 X170.098 Y113.017 E0.8027
G1 X136.937 Y113.017 E1.6278
G1 X136.776 Y113.007 E1.6318
G1 X135.645 Y112.880 E1.6601
G1 X135.330 Y112.808 E1.6682
G1 X134.180 Y112.406 E1.6985
G1 X133.889 Y112.266 E1.7065
G1 X132.857 Y111.617 E1.7369
G1 X132.605 Y111.416 E1.7449
G1 X131.743 Y110.554 E1.7752
G1 X131.542 Y110.302 E1.7832
G1 X130.894 Y109.270 E1.8136
G1 X130.753 Y108.979 E1.8216
G1 X130.351 Y107.829 E1.8519
G1 X130.279 Y107.514 E1.8600
G1 X130.152 Y106.383 E1.8883
G1 X130.143 Y106.222 E1.8923
G1 X130.143 Y95.061 E2.1700
G1 X130.152 Y94.900 E2.1740
G1 X130.279 Y93.769 E2.2023
G1 X130.351 Y93.454 E2.2104
G1 X130.753 Y92.304 E2.2407
G1 X130.894 Y92.013 E2.2487
G1 X131.542 Y90.981 E2.2791
G1 X131.743 Y90.729 E2.2871
G1 X132.605 Y89.867 E2.3174
G1 X132.857 Y89.666 E2.3254
G1 X133.889 Y89.017 E2.3558
G1 X134.180 Y88.877 E2.3638
G1 X135.330 Y88.475 E2.3941
G1 X135.645 Y88.403 E2.4022
G1 X136.776 Y88.276 E2.4305
G1 X136.937 Y88.267 E2.4345
G1 X170.098 Y88.267 E3.2596
G1 X170.259 Y88.276 E3.2636
G92 E0.0000
G1 E-4.0000 F3000
G1 Z0.480 F1002
G1 X170.008 Y91.317 F6000
G1 X165.611 Y91.317
G1 X137.104 Y109.967
G1 X137.028 Y109.967
G1 X136.167 Y109.870
G1 X135.359 Y109.587
G1 X134.059 Y111.959
G1 Z0.180 F1002
G1 E0.0000 F3000
G92 E0.0000
G1 X133.060 Y111.331 E0.0293 F630
G1 X132.839 Y111.155 E0.0364
G1 X132.005 Y110.321 E0.0657
G1 X131.828 Y110.099 E0.0728
G1 X131.200 Y109.100 E0.1021
G1 X131.077 Y108.845 E0.1092
G1 X130.688 Y107.732 E0.1385
G1 X130.625 Y107.455 E0.1456
G1 X130.501 Y106.354 E0.1732
G1 X130.493 Y106.212 E0.1767
G1 X130.493 Y95.071 E0.4539
G1 X130.501 Y94.929 E0.4575
G1 X130.625 Y93.828 E0.4850
G1 X130.688 Y93.551 E0.4921
G1 X131.077 Y92.438 E0.5215
G1 X131.200 Y92.183 E0.5285
G1 X131.828 Y91.184 E0.5579
G1 X132.005 Y90.962 E0.5649
G1 X132.839 Y90.128 E0.5943
G1 X133.060 Y89.952 E0.6013
G1 X134.059 Y89.324 E0.6307
G1 X134.314 Y89.201 E0.6377
G1 X135.428 Y88.812 E0.6671
G1 X135.704 Y88.749 E0.6741
G1 X136.805 Y88.624 E0.7017
G1 X136.947 Y88.617 E0.7052
G1 X170.089 Y88.617 E1.5299
G1 X170.230 Y88.624 E1.5334
G1 X171.331 Y88.749 E1.5610
G1 X171.608 Y88.812 E1.5680
G1 X172.721 Y89.201 E1.5974
G1 X172.977 Y89.324 E1.6044
G1 X173.975 Y89.952 E1.6338
G1 X174.197 Y90.128 E1.6408
G1 X175.031 Y90.962 E1.6702
G1 X175.208 Y91.184 E1.6772
G1 X175.835 Y92.183 E1.7066
G1 X175.958 Y92.438 E1.7136
G1 X176.348 Y93.551 E1.7430
G1 X176.411 Y93.828 E1.7500
G1 X176.535 Y94.929 E1.7776
G1 X176.543 Y95.071 E1.7811
G1 X176.543 Y106.212 E2.0584
G1 X176.535 Y106.354 E2.0619
G1 X176.411 Y107.455 E2.0895
G1 X176.348 Y107.732 E2.0965
G1 X175.958 Y108.845 E2.1259
G1 X175.835 Y109.100 E2.1329
G1 X175.208 Y110.099 E2.1623
G1 X175.031 Y110.321 E2.1693
G1 X174.197 Y111.155 E2.1987
G1 X173.975 Y111.331 E2.2057
G1 X172.977 Y111.959 E2.2351
G1 X172.721 Y112.082 E2.2422
G1 X171.608 Y112.471 E2.2715
G1 X171.331 Y112.534 E2.2786
G1 X170.230 Y112.659 E2.3061
G1 X170.089 Y112.667 E2.3097
G1 X136.947 Y112.667 E3.1343
G1 X136.805 Y112.659 E3.1378
G1 X135.704 Y112.534 E3.1654
G1 X135.428 Y112.471 E3.1725
G1 X134.314 Y112.082 E3.2018
G1 X134.059 Y111.959 E3.2089
G92 E0.0000
G1 E-4.0000 F3000
G1 Z0.480 F1002
G1 X135.359 Y109.587 F6000
G1 X136.167 Y109.870
G1 X137.028 Y109.967
G1 X138.690 Y109.967
G1 X173.810 Y94.857
G1 X173.746 Y94.291
G1 X176.065 Y93.887
G1 Z0.180 F1002
G1 E0.0000 F3000
G92 E0.0000
G1 X176.186 Y94.959 E0.0268 F630
G1 X176.193 Y95.080 E0.0299
G1 X176.193 Y106.203 E0.3066
G1 X176.186 Y106.324 E0.3097
G1 X176.065 Y107.397 E0.3365
G1 X176.011 Y107.635 E0.3426
G1 X175.634 Y108.711 E0.3710
G1 X175.528 Y108.931 E0.3770
G1 X174.922 Y109.896 E0.4054
G1 X174.769 Y110.087 E0.4115
G1 X173.963 Y110.893 E0.4398
G1 X173.772 Y111.045 E0.4459
G1 X172.807 Y111.652 E0.4743
G1 X172.587 Y111.758 E0.4804
G1 X171.511 Y112.135 E0.5087
G1 X171.273 Y112.189 E0.5148
G1 X170.201 Y112.310 E0.5417
G1 X170.079 Y112.317 E0.5447
G1 X136.957 Y112.317 E1.3689
G1 X136.835 Y112.310 E1.3719
G1 X135.763 Y112.189 E1.3987
G1 X135.525 Y112.135 E1.4048
G1 X134.449 Y111.758 E1.4332
G1 X134.228 Y111.652 E1.4393
G1 X133.263 Y111.045 E1.4676
G1 X133.072 Y110.893 E1.4737
G1 X132.266 Y110.087 E1.5021
G1 X132.114 Y109.896 E1.5082
G1 X131.507 Y108.931 E1.5365
G1 X131.401 Y108.711 E1.5426
G1 X131.025 Y107.635 E1.5710
G1 X130.970 Y107.396 E1.5771
G1 X130.850 Y106.324 E1.6039
G1 X130.843 Y106.203 E1.6069
G1 X130.843 Y95.081 E1.8837
G1 X130.850 Y94.959 E1.8867
G1 X130.970 Y93.887 E1.9136
G1 X131.025 Y93.648 E1.9196
G1 X131.401 Y92.572 E1.9480
G1 X131.507 Y92.352 E1.9541
G1 X132.114 Y91.387 E1.9825
G1 X132.266 Y91.196 E1.9885
G1 X133.072 Y90.390 E2.0169
G1 X133.263 Y90.238 E2.0230
G1 X134.228 Y89.631 E2.0513
G1 X134.449 Y89.525 E2.0574
G1 X135.525 Y89.148 E2.0858
G1 X135.763 Y89.094 E2.0919
G1 X136.835 Y88.973 E2.1187
G1 X136.957 Y88.967 E2.1218
G1 X170.079 Y88.967 E2.9459
G1 X170.201 Y88.973 E2.9490
G1 X171.273 Y89.094 E2.9758
G1 X171.511 Y89.148 E2.9819
G1 X172.587 Y89.525 E3.0102
G1 X172.807 Y89.631 E3.0163
G1 X173.772 Y90.238 E3.0447
G1 X173.963 Y90.390 E3.0508
G1 X174.769 Y91.196 E3.0791
G1 X174.922 Y91.387 E3.0852
G1 X175.528 Y92.352 E3.1136
G1 X175.634 Y92.572 E3.1197
G1 X176.011 Y93.648 E3.1480
G1 X176.065 Y93.887 E3.1541
G92 E0.0000
G1 E-4.0000 F3000
; feature outer perimeter
G1 Z0.480 F1002
G1 X173.746 Y94.291 F6000
G1 X173.596 Y93.863
G1 X133.572 Y93.482
G1 Z0.180 F1002
G1 E0.0000 F3000
G92 E0.0000
G1 X134.028 Y92.757 E0.0213 F315
G1 X134.634 Y92.152 E0.0426
