; G-Code generated by Simplify3D(R) Version 4.1.2
; Apr 29, 2022 at 11:03:02 PM
; Settings Summary
;   processName,Process1
;   applyToModels,SupportAm?thyste-Am?thysteBleuePied
;   profileName,A10-04-15 Tevo Tornado
;   profileVersion,2020-12-06 16:18:07
;   baseProfile,Creality CR-10(2)
;   printMaterial,PLA
;   printQuality,Medium
;   printExtruders,
;   extruderName,Primary Extruder
;   extruderToolheadNumber,0
;   extruderDiameter,0.4
;   extruderAutoWidth,0
;   extruderWidth,0.35
;   extrusionMultiplier,0.95
;   extruderUseRetract,1
;   extruderRetractionDistance,4
;   extruderExtraRestartDistance,0
;   extruderRetractionZLift,0.1
;   extruderRetractionSpeed,6000
;   extruderUseCoasting,1
;   extruderCoastingDistance,0.4
;   extruderUseWipe,1
;   extruderWipeDistance,5
;   primaryExtruder,0
;   layerHeight,0.15
;   topSolidLayers,5
;   bottomSolidLayers,4
;   perimeterOutlines,3
;   printPerimetersInsideOut,0
;   startPointOption,1
;   startPointOriginX,0
;   startPointOriginY,300
;   sequentialIslands,0
;   spiralVaseMode,0
;   firstLayerHeightPercentage,120
;   firstLayerWidthPercentage,100
;   firstLayerUnderspeed,0.4
;   useRaft,0
;   raftExtruder,0
;   raftTopLayers,3
;   raftBaseLayers,2
;   raftOffset,3
;   raftSeparationDistance,0.14
;   raftTopInfill,100
;   aboveRaftSpeedMultiplier,0.3
;   useSkirt,1
;   skirtExtruder,0
;   skirtLayers,1
;   skirtOutlines,2
;   skirtOffset,3
;   usePrimePillar,0
;   primePillarExtruder,999
;   primePillarWidth,12
;   primePillarLocation,7
;   primePillarSpeedMultiplier,1
;   useOozeShield,0
;   oozeShieldExtruder,999
;   oozeShieldOffset,2
;   oozeShieldOutlines,1
;   oozeShieldSidewallShape,1
;   oozeShieldSidewallAngle,30
;   oozeShieldSpeedMultiplier,1
;   infillExtruder,0
;   internalInfillPattern,Rectilinear
;   externalInfillPattern,Rectilinear
;   infillPercentage,15
;   outlineOverlapPercentage,15
;   infillExtrusionWidthPercentage,100
;   minInfillLength,5
;   infillLayerInterval,1
;   internalInfillAngles,45,-45
;   overlapInternalInfillAngles,0
;   externalInfillAngles,45,-45
;   generateSupport,0
;   supportExtruder,0
;   supportInfillPercentage,30
;   supportExtraInflation,0
;   supportBaseLayers,0
;   denseSupportExtruder,0
;   denseSupportLayers,0
;   denseSupportInfillPercentage,70
;   supportLayerInterval,1
;   supportHorizontalPartOffset,0.4
;   supportUpperSeparationLayers,1
;   supportLowerSeparationLayers,1
;   supportType,0
;   supportGridSpacing,4.5
;   maxOverhangAngle,45
;   supportAngles,0
;   temperatureName,Primary Extruder,Heated Bed
;   temperatureNumber,0,0
;   temperatureSetpointCount,2,2
;   temperatureSetpointLayers,1,2,1,2
;   temperatureSetpointTemperatures,215,210,55,50
;   temperatureStabilizeAtStartup,1,1
;   temperatureHeatedBed,0,1
;   fanLayers,1,2
;   fanSpeeds,0,100
;   blipFanToFullPower,0
;   adjustSpeedForCooling,1
;   minSpeedLayerTime,15
;   minCoolingSpeedSlowdown,20
;   increaseFanForCooling,1
;   minFanLayerTime,25
;   maxCoolingFanSpeed,100
;   increaseFanForBridging,1
;   bridgingFanSpeed,100
;   use5D,1
;   relativeEdistances,0
;   allowEaxisZeroing,1
;   independentExtruderAxes,0
;   includeM10123,0
;   stickySupport,1
;   applyToolheadOffsets,0
;   gcodeXoffset,0
;   gcodeYoffset,0
;   gcodeZoffset,0
;   overrideMachineDefinition,1
;   machineTypeOverride,0
;   strokeXoverride,300
;   strokeYoverride,300
;   strokeZoverride,400
;   originOffsetXoverride,0
;   originOffsetYoverride,0
;   originOffsetZoverride,0
;   homeXdirOverride,-1
;   homeYdirOverride,-1
;   homeZdirOverride,-1
;   flipXoverride,1
;   flipYoverride,-1
;   flipZoverride,1
;   toolheadOffsets,0,0|0,0|0,0|0,0|0,0|0,0
;   overrideFirmwareConfiguration,1
;   firmwareTypeOverride,RepRap (Marlin/Repetier/Sprinter)
;   GPXconfigOverride,r2
;   baudRateOverride,250000
;   overridePrinterModels,1
;   printerModelsOverride
;   startingGcode,;,; -]H.P.B[- MarshMalloW  ,; $VER: StartScript 1.02 (26.12.2019) MarshMalloW,;,; Begin Startcode,;,M117 *Preheat*     	; Preheat,;extruder0_temperature,M104 S[extruder0_temperature]  ,M109 S[extruder0_temperature] ,M109 R[extruder0_temperature] ,;,M117 *Auto-leveling*     	; Auto-leveling,M107                   	; Turn layer fan off,G21                    	; Set to metric [change to G20 if you want Imperial],G90                    	; Force coordinates to be absolute relative to the origin,G28                    	; Home X/Y/Z axis,G29                    	; Auto-leveling (BL-Touch),;,M117 *Start Clean*     	; Indicate nozzle clean in progress on LCD,G92 E0                 	; Set Extruder to 0 ,G1 X0 Y0 F2000         	; Move X and Y to 0 with speed 2000 (mm/min),G1 Z0.1 F1000          	; Move Z to   0.1 with speed 1000 (mm/min),G1 X8.0 F2000          	; Move X to   8.0 with speed 2000 (mm/min),G1 Y60.0 E4.0 F1000.0  	; Move Y to  60 and Extruder with 4.0 with speed 1000 (mm/min),G1 Y100.0 E8.5 F1000.0 	; Move Y to 100 and Extruder with 8.5 with speed 1000 (mm/min),G92 E0                 	; Set extruder to 0,G1 X16.0 F3000         	; Move X to 16.0 with speed 3000 (mm/min),G1 Y60.0 F3000         	; Move Y to 60.0 with speed 3000 (mm/min),M117 *End Clean*       	; Indicate nozzle clean in progress on LCD,G1 Z5 F3000            	; Move Z to  5.0 with speed 3000 (mm/min),G1 X20.0 F3000         	; Move X to 20.0 with speed 3000 (mm/min),G1 Y20.0 F3000         	; Move Y to 20.0 with speed 3000 (mm/min),; ,M117 *Printing...*     	; Start printing msg on LCD,;,; End Startcode,;,; Begin printing with sliced GCode after here,;
;   layerChangeGcode,
;   retractionGcode,
;   toolChangeGcode,
;   endingGcode,;,; init 181010,;,;M107 			; Fan off,;G1 E-1 F300 			; Retract the filament a bit before lifting the nozzle,;M104 S0 			; Turn off extruder,;M140 S0 			; Turn off bed,;G91			; Relative positioning,;G28 X0 Y0 			; Move X/Y to min endstops so the head is out of teh way,;M84 			; Disable motors,;G90 			; Absolute positioning,;M117 Print ready...,,;,; // From Cura 181010,; // End_gcode,G92 E0			; Zero the extruded length,;G1 E-30 F300		; Retract E -30,M106 S0			; Turn off cooling fan,M104 S0			; Turn off temperature,M140 S0		     	; Turn off bed,G91			; Relative positioning,G1 E-1 F300			; Retract the filament a bit before lifting the nozzle to release some of the pressure,G1 Z+20 E-5 X-20 Y-20 F7200	; Move Z up a bit and retract filament even more,G1 X0 Y150 F10000		; Move right min,M107			; Turn off layer fan,M84			; Disable motors,G90			; Absolute positioning,M117 *The-End* 		; End msg,;,
;   exportFileFormat,gcode
;   celebration,0
;   celebrationSong,Star Wars
;   postProcessing,|{REPLACE "; layer " "M117 INDICATOR-Layer"}|{REPLACE ", Z = " "\n; Z="}
;   defaultSpeed,2400
;   outlineUnderspeed,0.6
;   solidInfillUnderspeed,0.8
;   supportUnderspeed,0.8
;   rapidXYspeed,3600
;   rapidZspeed,900
;   minBridgingArea,50
;   bridgingExtraInflation,0.2
;   bridgingExtrusionMultiplier,1
;   bridgingSpeedMultiplier,0.6
;   useFixedBridgingAngle,0
;   fixedBridgingAngle,0
;   applyBridgingToPerimeters,0
;   filamentDiameters,1.75|1.75|1.75|1.75|1.75|1.75
;   filamentPricesPerKg,30|46|46|46|46|46
;   filamentDensities,1.25|1.25|1.25|1.25|1.25|1.25
;   useMinPrintHeight,0
;   minPrintHeight,0
;   useMaxPrintHeight,0
;   maxPrintHeight,50
;   useDiaphragm,0
;   diaphragmLayerInterval,20
;   robustSlicing,1
;   mergeAllIntoSolid,0
;   onlyRetractWhenCrossingOutline,1
;   retractBetweenLayers,1
;   useRetractionMinTravel,0
;   retractionMinTravel,3
;   retractWhileWiping,1
;   onlyWipeOutlines,1
;   avoidCrossingOutline,1
;   maxMovementDetourFactor,3
;   toolChangeRetractionDistance,12
;   toolChangeExtraRestartDistance,-0.5
;   toolChangeRetractionSpeed,600
;   externalThinWallType,1
;   internalThinWallType,1
;   thinWallAllowedOverlapPercentage,20
;   singleExtrusionMinLength,1
;   singleExtrusionMinPrintingWidthPercentage,50
;   singleExtrusionMaxPrintingWidthPercentage,200
;   singleExtrusionEndpointExtension,0.2
;   horizontalSizeCompensation,0
G90
M82
M106 S0
M140 S55
M190 S55
;
; -]H.P.B[- MarshMalloW  
; $VER: StartScript 1.02 (26.12.2019) MarshMalloW
;
; Begin Startcode
;
M117 *Preheat*     	; Preheat
;extruder0_temperature
M104 S215  
M109 S215 
M109 R215 
;
M117 *Auto-leveling*     	; Auto-leveling
M107                   	; Turn layer fan off
G21                    	; Set to metric [change to G20 if you want Imperial]
G90                    	; Force coordinates to be absolute relative to the origin
G28                    	; Home X/Y/Z axis
G29                    	; Auto-leveling (BL-Touch)
;
M117 *Start Clean*     	; Indicate nozzle clean in progress on LCD
G92 E0                 	; Set Extruder to 0 
G1 X0 Y0 F2000         	; Move X and Y to 0 with speed 2000 (mm/min)
G1 Z0.1 F1000          	; Move Z to   0.1 with speed 1000 (mm/min)
G1 X8.0 F2000          	; Move X to   8.0 with speed 2000 (mm/min)
G1 Y60.0 E4.0 F1000.0  	; Move Y to  60 and Extruder with 4.0 with speed 1000 (mm/min)
G1 Y100.0 E8.5 F1000.0 	; Move Y to 100 and Extruder with 8.5 with speed 1000 (mm/min)
G92 E0                 	; Set extruder to 0
G1 X16.0 F3000         	; Move X to 16.0 with speed 3000 (mm/min)
G1 Y60.0 F3000         	; Move Y to 60.0 with speed 3000 (mm/min)
M117 *End Clean*       	; Indicate nozzle clean in progress on LCD
G1 Z5 F3000            	; Move Z to  5.0 with speed 3000 (mm/min)
G1 X20.0 F3000         	; Move X to 20.0 with speed 3000 (mm/min)
G1 Y20.0 F3000         	; Move Y to 20.0 with speed 3000 (mm/min)
; 
M117 *Printing...*     	; Start printing msg on LCD
;
; End Startcode
;
; Begin printing with sliced GCode after here
;
; process Process1
M117 INDICATOR-Layer1
; Z=0.180
T0
G92 E0.0000
G1 E-4.0000 F6000
; feature skirt
; tool H0.180 W0.350
G1 Z0.180 F900
G1 X153.997 Y154.142 F3600
G1 E0.0000 F6000
G92 E0.0000
G1 X155.154 Y154.237 E0.0289 F960
G1 X155.425 Y154.280 E0.0357
G1 X156.546 Y154.552 E0.0644
G1 X156.793 Y154.631 E0.0709
G1 X157.866 Y155.066 E0.0997
G1 X158.031 Y155.143 E0.1042
G1 X158.631 Y155.461 E0.1211
G1 X158.738 Y155.523 E0.1242
G1 X159.332 Y155.894 E0.1416
G1 X159.458 Y155.981 E0.1454
G1 X160.334 Y156.640 E0.1727
G1 X160.464 Y156.748 E0.1769
G1 X161.354 Y157.563 E0.2069
G1 X161.441 Y157.648 E0.2099
G1 X161.944 Y158.176 E0.2281
G1 X161.996 Y158.234 E0.2300
G1 X162.499 Y158.811 E0.2491
G1 X162.562 Y158.888 E0.2516
G1 X163.380 Y159.942 E0.2848
G1 X163.449 Y160.037 E0.2877
G1 X164.350 Y161.372 E0.3277
G1 X164.404 Y161.456 E0.3302
G1 X165.165 Y162.734 E0.3672
G1 X165.206 Y162.807 E0.3693
G1 X166.027 Y164.349 E0.4128
G1 X166.060 Y164.414 E0.4146
G1 X166.776 Y165.905 E0.4558
G1 X166.802 Y165.963 E0.4574
G1 X167.567 Y167.715 E0.5049
G1 X167.586 Y167.760 E0.5061
G1 X179.285 Y196.708 E1.2830
G1 X179.297 Y196.739 E1.2839
G1 X179.901 Y198.319 E1.3259
G1 X179.920 Y198.373 E1.3274
G1 X180.448 Y199.900 E1.3676
G1 X180.466 Y199.955 E1.3690
G1 X180.790 Y201.005 E1.3964
G1 X180.811 Y201.078 E1.3983
G1 X181.254 Y202.770 E1.4418
G1 X181.281 Y202.895 E1.4450
G1 X181.609 Y204.661 E1.4897
G1 X181.628 Y204.789 E1.4929
G1 X181.726 Y205.676 E1.5151
G1 X181.736 Y205.822 E1.5187
G1 X181.774 Y207.177 E1.5525
G1 X181.771 Y207.342 E1.5566
G1 X181.726 Y208.020 E1.5735
G1 X181.711 Y208.165 E1.5771
G1 X181.593 Y208.953 E1.5969
G1 X181.557 Y209.133 E1.6015
G1 X181.370 Y209.856 E1.6201
G1 X181.308 Y210.050 E1.6251
G1 X181.053 Y210.714 E1.6428
G1 X180.954 Y210.926 E1.6487
G1 X180.609 Y211.559 E1.6666
G1 X180.489 Y211.748 E1.6722
G1 X180.146 Y212.222 E1.6867
G1 X180.004 Y212.393 E1.6923
G1 X179.544 Y212.884 E1.7090
G1 X179.339 Y213.070 E1.7159
G1 X178.711 Y213.558 E1.7357
G1 X178.440 Y213.731 E1.7437
G1 X177.533 Y214.201 E1.7691
G1 X177.232 Y214.323 E1.7772
G1 X176.298 Y214.606 E1.8015
G1 X176.092 Y214.655 E1.8067
G1 X175.492 Y214.760 E1.8219
G1 X175.337 Y214.780 E1.8258
G1 X174.528 Y214.849 E1.8460
G1 X174.395 Y214.855 E1.8493
G1 X173.837 Y214.861 E1.8632
G1 X173.759 Y214.860 E1.8651
G1 X134.759 Y213.490 E2.8361
G1 X134.648 Y213.482 E2.8389
G1 X133.503 Y213.369 E2.8675
G1 X133.375 Y213.352 E2.8708
G1 X132.429 Y213.188 E2.8946
G1 X132.286 Y213.157 E2.8983
G1 X131.330 Y212.908 E2.9229
G1 X131.153 Y212.851 E2.9275
G1 X130.239 Y212.507 E2.9518
G1 X130.042 Y212.419 E2.9572
G1 X129.264 Y212.012 E2.9790
G1 X129.058 Y211.885 E2.9850
G1 X128.368 Y211.393 E3.0061
G1 X128.204 Y211.261 E3.0114
G1 X127.863 Y210.951 E3.0228
G1 X127.771 Y210.860 E3.0261
G1 X127.448 Y210.520 E3.0377
G1 X127.305 Y210.349 E3.0433
G1 X126.836 Y209.708 E3.0630
G1 X126.685 Y209.461 E3.0702
G1 X126.305 Y208.710 E3.0912
G1 X126.201 Y208.454 E3.0980
G1 X125.953 Y207.686 E3.1181
G1 X125.894 Y207.444 E3.1243
G1 X125.755 Y206.633 E3.1448
G1 X125.732 Y206.422 E3.1501
G1 X125.695 Y205.674 E3.1687
G1 X125.695 Y205.500 E3.1730
G1 X125.733 Y204.746 E3.1918
G1 X125.748 Y204.586 E3.1958
G1 X125.866 Y203.752 E3.2168
G1 X125.892 Y203.610 E3.2204
G1 X126.085 Y202.761 E3.2420
G1 X126.115 Y202.646 E3.2450
G1 X126.360 Y201.824 E3.2663
G1 X126.393 Y201.726 E3.2689
G1 X141.795 Y159.393 E4.3898
G1 X141.839 Y159.284 E4.3927
G1 X142.110 Y158.670 E4.4095
G1 X142.214 Y158.468 E4.4151
G1 X142.606 Y157.820 E4.4340
G1 X142.748 Y157.619 E4.4401
G1 X143.186 Y157.080 E4.4574
G1 X143.333 Y156.921 E4.4628
G1 X143.827 Y156.447 E4.4798
G1 X143.982 Y156.315 E4.4848
G1 X144.502 Y155.920 E4.5011
G1 X144.669 Y155.807 E4.5061
G1 X145.331 Y155.415 E4.5253
G1 X145.500 Y155.327 E4.5300
G1 X146.155 Y155.029 E4.5479
G1 X146.305 Y154.969 E4.5519
G1 X146.998 Y154.728 E4.5702
G1 X147.122 Y154.690 E4.5734
G1 X147.745 Y154.524 E4.5894
G1 X147.867 Y154.496 E4.5926
G1 X148.687 Y154.339 E4.6133
G1 X148.841 Y154.316 E4.6172
G1 X150.280 Y154.170 E4.6532
G1 X150.445 Y154.161 E4.6573
G1 X153.841 Y154.136 E4.7418
G1 X153.997 Y154.142 E4.7457
G92 E0.0000
G1 E-4.0000 F6000
G1 Z0.280 F900
G1 X153.785 Y157.837 F3600
G1 X152.714 Y157.837
G1 X134.674 Y209.767
G1 X133.937 Y209.694
G1 X133.544 Y213.022
G1 Z0.180 F900
G1 E0.0000 F6000
G92 E0.0000
G1 X133.428 Y213.006 E0.0029 F960
G1 X132.496 Y212.844 E0.0264
G1 X132.367 Y212.816 E0.0297
G1 X131.427 Y212.571 E0.0539
G1 X131.268 Y212.521 E0.0581
G1 X130.372 Y212.184 E0.0819
G1 X130.195 Y212.104 E0.0867
G1 X129.437 Y211.707 E0.1080
G1 X129.251 Y211.593 E0.1134
G1 X128.579 Y211.114 E0.1339
G1 X128.432 Y210.995 E0.1386
G1 X128.104 Y210.696 E0.1497
G1 X128.020 Y210.614 E0.1526
G1 X127.710 Y210.287 E0.1638
G1 X127.581 Y210.133 E0.1688
G1 X127.127 Y209.513 E0.1880
G1 X126.991 Y209.290 E0.1945
G1 X126.624 Y208.564 E0.2147
G1 X126.530 Y208.334 E0.2209
G1 X126.290 Y207.590 E0.2403
G1 X126.237 Y207.372 E0.2459
G1 X126.102 Y206.584 E0.2658
G1 X126.081 Y206.394 E0.2706
G1 X126.045 Y205.665 E0.2887
G1 X126.045 Y205.508 E0.2926
G1 X126.082 Y204.771 E0.3110
G1 X126.096 Y204.628 E0.3146
G1 X126.212 Y203.808 E0.3352
G1 X126.235 Y203.680 E0.3384
G1 X126.425 Y202.844 E0.3597
G1 X126.452 Y202.740 E0.3624
G1 X126.694 Y201.929 E0.3835
G1 X126.723 Y201.841 E0.3858
G1 X142.122 Y159.518 E1.5064
G1 X142.161 Y159.420 E1.5091
G1 X142.425 Y158.821 E1.5253
G1 X142.520 Y158.640 E1.5304
G1 X142.900 Y158.011 E1.5487
G1 X143.027 Y157.831 E1.5542
G1 X143.451 Y157.309 E1.5709
G1 X143.583 Y157.166 E1.5758
G1 X144.062 Y156.706 E1.5923
G1 X144.201 Y156.587 E1.5969
G1 X144.705 Y156.205 E1.6126
G1 X144.856 Y156.103 E1.6171
G1 X145.502 Y155.721 E1.6358
G1 X145.654 Y155.642 E1.6401
G1 X146.292 Y155.351 E1.6575
G1 X146.428 Y155.297 E1.6611
G1 X147.106 Y155.061 E1.6790
G1 X147.219 Y155.026 E1.6820
G1 X147.829 Y154.864 E1.6977
G1 X147.939 Y154.838 E1.7005
G1 X148.745 Y154.684 E1.7209
G1 X148.884 Y154.664 E1.7244
G1 X150.307 Y154.519 E1.7600
G1 X150.456 Y154.511 E1.7637
G1 X153.835 Y154.486 E1.8478
G1 X153.976 Y154.492 E1.8513
G1 X155.112 Y154.584 E1.8796
G1 X155.356 Y154.624 E1.8858
G1 X156.451 Y154.889 E1.9138
G1 X156.674 Y154.960 E1.9196
G1 X157.726 Y155.387 E1.9479
G1 X157.875 Y155.456 E1.9520
G1 X158.461 Y155.767 E1.9685
G1 X158.558 Y155.823 E1.9713
G1 X159.140 Y156.187 E1.9883
G1 X159.253 Y156.265 E1.9918
G1 X160.117 Y156.915 E2.0187
G1 X160.234 Y157.012 E2.0225
G1 X161.113 Y157.817 E2.0521
