; G-Code generated by Simplify3D(R) Version 4.1.2
; Apr 29, 2022 at 10:58:43 PM
; Settings Summary
;   processName,Process1
;   applyToModels,Model1,Model2,SupportAm?thyste-Am?thysteBleueSupport
;   profileName,A10-04-15 Tevo Tornado
;   profileVersion,2020-12-06 16:18:07
;   baseProfile,Creality CR-10(2)
;   printMaterial,PLA
;   printQuality,Medium
;   printExtruders,
;   extruderName,Primary Extruder
;   extruderToolheadNumber,0
;   extruderDiameter,0.4
;   extruderAutoWidth,0
;   extruderWidth,0.35
;   extrusionMultiplier,0.95
;   extruderUseRetract,1
;   extruderRetractionDistance,4
;   extruderExtraRestartDistance,0
;   extruderRetractionZLift,0.1
;   extruderRetractionSpeed,6000
;   extruderUseCoasting,1
;   extruderCoastingDistance,0.4
;   extruderUseWipe,1
;   extruderWipeDistance,5
;   primaryExtruder,0
;   layerHeight,0.15
;   topSolidLayers,5
;   bottomSolidLayers,4
;   perimeterOutlines,3
;   printPerimetersInsideOut,0
;   startPointOption,1
;   startPointOriginX,0
;   startPointOriginY,300
;   sequentialIslands,0
;   spiralVaseMode,0
;   firstLayerHeightPercentage,120
;   firstLayerWidthPercentage,100
;   firstLayerUnderspeed,0.4
;   useRaft,0
;   raftExtruder,0
;   raftTopLayers,3
;   raftBaseLayers,2
;   raftOffset,3
;   raftSeparationDistance,0.14
;   raftTopInfill,100
;   aboveRaftSpeedMultiplier,0.3
;   useSkirt,1
;   skirtExtruder,0
;   skirtLayers,1
;   skirtOutlines,2
;   skirtOffset,3
;   usePrimePillar,0
;   primePillarExtruder,999
;   primePillarWidth,12
;   primePillarLocation,7
;   primePillarSpeedMultiplier,1
;   useOozeShield,0
;   oozeShieldExtruder,999
;   oozeShieldOffset,2
;   oozeShieldOutlines,1
;   oozeShieldSidewallShape,1
;   oozeShieldSidewallAngle,30
;   oozeShieldSpeedMultiplier,1
;   infillExtruder,0
;   internalInfillPattern,Rectilinear
;   externalInfillPattern,Rectilinear
;   infillPercentage,15
;   outlineOverlapPercentage,15
;   infillExtrusionWidthPercentage,100
;   minInfillLength,5
;   infillLayerInterval,1
;   internalInfillAngles,45,-45
;   overlapInternalInfillAngles,0
;   externalInfillAngles,45,-45
;   generateSupport,0
;   supportExtruder,0
;   supportInfillPercentage,30
;   supportExtraInflation,0
;   supportBaseLayers,0
;   denseSupportExtruder,0
;   denseSupportLayers,0
;   denseSupportInfillPercentage,70
;   supportLayerInterval,1
;   supportHorizontalPartOffset,0.4
;   supportUpperSeparationLayers,1
;   supportLowerSeparationLayers,1
;   supportType,0
;   supportGridSpacing,4.5
;   maxOverhangAngle,45
;   supportAngles,0
;   temperatureName,Primary Extruder,Heated Bed
;   temperatureNumber,0,0
;   temperatureSetpointCount,2,2
;   temperatureSetpointLayers,1,2,1,2
;   temperatureSetpointTemperatures,215,210,55,50
;   temperatureStabilizeAtStartup,1,1
;   temperatureHeatedBed,0,1
;   fanLayers,1,2
;   fanSpeeds,0,100
;   blipFanToFullPower,0
;   adjustSpeedForCooling,1
;   minSpeedLayerTime,15
;   minCoolingSpeedSlowdown,20
;   increaseFanForCooling,1
;   minFanLayerTime,25
;   maxCoolingFanSpeed,100
;   increaseFanForBridging,1
;   bridgingFanSpeed,100
;   use5D,1
;   relativeEdistances,0
;   allowEaxisZeroing,1
;   independentExtruderAxes,0
;   includeM10123,0
;   stickySupport,1
;   applyToolheadOffsets,0
;   gcodeXoffset,0
;   gcodeYoffset,0
;   gcodeZoffset,0
;   overrideMachineDefinition,1
;   machineTypeOverride,0
;   strokeXoverride,300
;   strokeYoverride,300
;   strokeZoverride,400
;   originOffsetXoverride,0
;   originOffsetYoverride,0
;   originOffsetZoverride,0
;   homeXdirOverride,-1
;   homeYdirOverride,-1
;   homeZdirOverride,-1
;   flipXoverride,1
;   flipYoverride,-1
;   flipZoverride,1
;   toolheadOffsets,0,0|0,0|0,0|0,0|0,0|0,0
;   overrideFirmwareConfiguration,1
;   firmwareTypeOverride,RepRap (Marlin/Repetier/Sprinter)
;   GPXconfigOverride,r2
;   baudRateOverride,250000
;   overridePrinterModels,1
;   printerModelsOverride
;   startingGcode,;,; -]H.P.B[- MarshMalloW  ,; $VER: StartScript 1.02 (26.12.2019) MarshMalloW,;,; Begin Startcode,;,M117 *Preheat*     	; Preheat,;extruder0_temperature,M104 S[extruder0_temperature]  ,M109 S[extruder0_temperature] ,M109 R[extruder0_temperature] ,;,M117 *Auto-leveling*     	; Auto-leveling,M107                   	; Turn layer fan off,G21                    	; Set to metric [change to G20 if you want Imperial],G90                    	; Force coordinates to be absolute relative to the origin,G28                    	; Home X/Y/Z axis,G29                    	; Auto-leveling (BL-Touch),;,M117 *Start Clean*     	; Indicate nozzle clean in progress on LCD,G92 E0                 	; Set Extruder to 0 ,G1 X0 Y0 F2000         	; Move X and Y to 0 with speed 2000 (mm/min),G1 Z0.1 F1000          	; Move Z to   0.1 with speed 1000 (mm/min),G1 X8.0 F2000          	; Move X to   8.0 with speed 2000 (mm/min),G1 Y60.0 E4.0 F1000.0  	; Move Y to  60 and Extruder with 4.0 with speed 1000 (mm/min),G1 Y100.0 E8.5 F1000.0 	; Move Y to 100 and Extruder with 8.5 with speed 1000 (mm/min),G92 E0                 	; Set extruder to 0,G1 X16.0 F3000         	; Move X to 16.0 with speed 3000 (mm/min),G1 Y60.0 F3000         	; Move Y to 60.0 with speed 3000 (mm/min),M117 *End Clean*       	; Indicate nozzle clean in progress on LCD,G1 Z5 F3000            	; Move Z to  5.0 with speed 3000 (mm/min),G1 X20.0 F3000         	; Move X to 20.0 with speed 3000 (mm/min),G1 Y20.0 F3000         	; Move Y to 20.0 with speed 3000 (mm/min),; ,M117 *Printing...*     	; Start printing msg on LCD,;,; End Startcode,;,; Begin printing with sliced GCode after here,;
;   layerChangeGcode,
;   retractionGcode,
;   toolChangeGcode,
;   endingGcode,;,; init 181010,;,;M107 			; Fan off,;G1 E-1 F300 			; Retract the filament a bit before lifting the nozzle,;M104 S0 			; Turn off extruder,;M140 S0 			; Turn off bed,;G91			; Relative positioning,;G28 X0 Y0 			; Move X/Y to min endstops so the head is out of teh way,;M84 			; Disable motors,;G90 			; Absolute positioning,;M117 Print ready...,,;,; // From Cura 181010,; // End_gcode,G92 E0			; Zero the extruded length,;G1 E-30 F300		; Retract E -30,M106 S0			; Turn off cooling fan,M104 S0			; Turn off temperature,M140 S0		     	; Turn off bed,G91			; Relative positioning,G1 E-1 F300			; Retract the filament a bit before lifting the nozzle to release some of the pressure,G1 Z+20 E-5 X-20 Y-20 F7200	; Move Z up a bit and retract filament even more,G1 X0 Y150 F10000		; Move right min,M107			; Turn off layer fan,M84			; Disable motors,G90			; Absolute positioning,M117 *The-End* 		; End msg,;,
;   exportFileFormat,gcode
;   celebration,0
;   celebrationSong,Star Wars
;   postProcessing,|{REPLACE "; layer " "M117 INDICATOR-Layer"}|{REPLACE ", Z = " "\n; Z="}
;   defaultSpeed,2400
;   outlineUnderspeed,0.6
;   solidInfillUnderspeed,0.8
;   supportUnderspeed,0.8
;   rapidXYspeed,3600
;   rapidZspeed,900
;   minBridgingArea,50
;   bridgingExtraInflation,0.2
;   bridgingExtrusionMultiplier,1
;   bridgingSpeedMultiplier,0.6
;   useFixedBridgingAngle,0
;   fixedBridgingAngle,0
;   applyBridgingToPerimeters,0
;   filamentDiameters,1.75|1.75|1.75|1.75|1.75|1.75
;   filamentPricesPerKg,30|46|46|46|46|46
;   filamentDensities,1.25|1.25|1.25|1.25|1.25|1.25
;   useMinPrintHeight,0
;   minPrintHeight,0
;   useMaxPrintHeight,0
;   maxPrintHeight,50
;   useDiaphragm,0
;   diaphragmLayerInterval,20
;   robustSlicing,1
;   mergeAllIntoSolid,0
;   onlyRetractWhenCrossingOutline,1
;   retractBetweenLayers,1
;   useRetractionMinTravel,0
;   retractionMinTravel,3
;   retractWhileWiping,1
;   onlyWipeOutlines,1
;   avoidCrossingOutline,1
;   maxMovementDetourFactor,3
;   toolChangeRetractionDistance,12
;   toolChangeExtraRestartDistance,-0.5
;   toolChangeRetractionSpeed,600
;   externalThinWallType,1
;   internalThinWallType,1
;   thinWallAllowedOverlapPercentage,20
;   singleExtrusionMinLength,1
;   singleExtrusionMinPrintingWidthPercentage,50
;   singleExtrusionMaxPrintingWidthPercentage,200
;   singleExtrusionEndpointExtension,0.2
;   horizontalSizeCompensation,0
G90
M82
M106 S0
M140 S55
M190 S55
;
; -]H.P.B[- MarshMalloW  
; $VER: StartScript 1.02 (26.12.2019) MarshMalloW
;
; Begin Startcode
;
M117 *Preheat*     	; Preheat
;extruder0_temperature
M104 S215  
M109 S215 
M109 R215 
;
M117 *Auto-leveling*     	; Auto-leveling
M107                   	; Turn layer fan off
G21                    	; Set to metric [change to G20 if you want Imperial]
G90                    	; Force coordinates to be absolute relative to the origin
G28                    	; Home X/Y/Z axis
G29                    	; Auto-leveling (BL-Touch)
;
M117 *Start Clean*     	; Indicate nozzle clean in progress on LCD
G92 E0                 	; Set Extruder to 0 
G1 X0 Y0 F2000         	; Move X and Y to 0 with speed 2000 (mm/min)
G1 Z0.1 F1000          	; Move Z to   0.1 with speed 1000 (mm/min)
G1 X8.0 F2000          	; Move X to   8.0 with speed 2000 (mm/min)
G1 Y60.0 E4.0 F1000.0  	; Move Y to  60 and Extruder with 4.0 with speed 1000 (mm/min)
G1 Y100.0 E8.5 F1000.0 	; Move Y to 100 and Extruder with 8.5 with speed 1000 (mm/min)
G92 E0                 	; Set extruder to 0
G1 X16.0 F3000         	; Move X to 16.0 with speed 3000 (mm/min)
G1 Y60.0 F3000         	; Move Y to 60.0 with speed 3000 (mm/min)
M117 *End Clean*       	; Indicate nozzle clean in progress on LCD
G1 Z5 F3000            	; Move Z to  5.0 with speed 3000 (mm/min)
G1 X20.0 F3000         	; Move X to 20.0 with speed 3000 (mm/min)
G1 Y20.0 F3000         	; Move Y to 20.0 with speed 3000 (mm/min)
; 
M117 *Printing...*     	; Start printing msg on LCD
;
; End Startcode
;
; Begin printing with sliced GCode after here
;
; process Process1
M117 INDICATOR-Layer1
; Z=0.180
T0
G92 E0.0000
G1 E-4.0000 F6000
; feature skirt
; tool H0.180 W0.350
G1 Z0.180 F900
G1 X154.968 Y135.445 F3600
G1 E0.0000 F6000
G92 E0.0000
G1 X155.147 Y135.455 E0.0045 F960
G1 X155.958 Y135.540 E0.0247
G1 X156.106 Y135.562 E0.0285
G1 X157.143 Y135.760 E0.0547
G1 X157.291 Y135.795 E0.0585
G1 X158.132 Y136.033 E0.0803
G1 X158.251 Y136.071 E0.0834
G1 X159.017 Y136.348 E0.1036
G1 X159.128 Y136.392 E0.1066
G1 X159.944 Y136.751 E0.1288
G1 X160.049 Y136.801 E0.1317
G1 X160.848 Y137.217 E0.1541
G1 X160.973 Y137.288 E0.1577
G1 X162.275 Y138.108 E0.1960
G1 X162.407 Y138.199 E0.2000
G1 X163.649 Y139.149 E0.2389
G1 X163.738 Y139.222 E0.2417
G1 X164.506 Y139.893 E0.2671
G1 X164.567 Y139.949 E0.2692
G1 X165.362 Y140.712 E0.2966
G1 X165.421 Y140.771 E0.2987
G1 X166.322 Y141.721 E0.3313
G1 X166.378 Y141.783 E0.3333
G1 X167.311 Y142.865 E0.3689
G1 X167.363 Y142.929 E0.3709
G1 X168.421 Y144.277 E0.4136
G1 X168.471 Y144.344 E0.4156
G1 X169.648 Y146.002 E0.4662
G1 X169.686 Y146.057 E0.4679
G1 X170.482 Y147.272 E0.5040
G1 X170.518 Y147.331 E0.5058
G1 X171.977 Y149.761 E0.5763
G1 X172.007 Y149.814 E0.5778
G1 X172.756 Y151.165 E0.6162
G1 X172.776 Y151.201 E0.6173
G1 X173.672 Y152.913 E0.6654
G1 X173.691 Y152.949 E0.6664
G1 X174.577 Y154.741 E0.7161
G1 X174.601 Y154.792 E0.7175
G1 X176.238 Y158.383 E0.8157
G1 X176.256 Y158.425 E0.8168
G1 X177.168 Y160.571 E0.8749
G1 X177.180 Y160.600 E0.8757
G1 X200.473 Y218.243 E2.4226
G1 X200.479 Y218.259 E2.4231
G1 X201.245 Y220.211 E2.4752
G1 X201.260 Y220.249 E2.4762
G1 X202.338 Y223.190 E2.5542
G1 X202.359 Y223.252 E2.5558
G1 X203.317 Y226.204 E2.6330
G1 X203.335 Y226.262 E2.6346
G1 X203.910 Y228.267 E2.6865
G1 X203.925 Y228.325 E2.6880
G1 X204.320 Y229.905 E2.7285
G1 X204.333 Y229.962 E2.7299
G1 X204.694 Y231.644 E2.7727
G1 X204.707 Y231.709 E2.7744
G1 X204.966 Y233.186 E2.8117
G1 X204.981 Y233.284 E2.8142
G1 X205.232 Y235.409 E2.8674
G1 X205.242 Y235.531 E2.8705
G1 X205.319 Y237.153 E2.9109
G1 X205.321 Y237.290 E2.9143
G1 X205.275 Y238.825 E2.9525
G1 X205.269 Y238.929 E2.9551
G1 X205.212 Y239.565 E2.9710
G1 X205.198 Y239.679 E2.9738
G1 X205.021 Y240.822 E3.0026
G1 X204.989 Y240.980 E3.0066
G1 X204.696 Y242.151 E3.0367
G1 X204.636 Y242.343 E3.0417
G1 X204.202 Y243.498 E3.0724
G1 X204.116 Y243.693 E3.0777
G1 X203.679 Y244.531 E3.1012
G1 X203.594 Y244.677 E3.1054
G1 X203.238 Y245.225 E3.1216
G1 X203.146 Y245.353 E3.1256
G1 X202.670 Y245.959 E3.1447
G1 X202.545 Y246.102 E3.1495
G1 X201.944 Y246.718 E3.1709
G1 X201.777 Y246.868 E3.1765
G1 X200.972 Y247.507 E3.2020
G1 X200.798 Y247.629 E3.2073
G1 X200.090 Y248.063 E3.2280
G1 X199.934 Y248.148 E3.2324
G1 X199.185 Y248.510 E3.2531
G1 X199.038 Y248.572 E3.2571
G1 X198.329 Y248.838 E3.2759
G1 X198.186 Y248.885 E3.2797
G1 X197.316 Y249.129 E3.3022
G1 X197.184 Y249.161 E3.3055
G1 X196.284 Y249.340 E3.3284
G1 X196.117 Y249.365 E3.3326
G1 X194.663 Y249.513 E3.3689
G1 X194.513 Y249.521 E3.3727
G1 X193.373 Y249.540 E3.4010
G1 X193.284 Y249.539 E3.4033
G1 X116.004 Y246.846 E5.3273
G1 X115.876 Y246.837 E5.3306
G1 X114.019 Y246.636 E5.3770
G1 X113.929 Y246.623 E5.3793
G1 X112.653 Y246.418 E5.4115
G1 X112.555 Y246.399 E5.4139
G1 X111.052 Y246.068 E5.4522
G1 X110.947 Y246.042 E5.4549
G1 X109.917 Y245.748 E5.4816
G1 X109.825 Y245.718 E5.4840
G1 X108.916 Y245.404 E5.5079
G1 X108.820 Y245.367 E5.5105
G1 X107.969 Y245.016 E5.5334
G1 X107.868 Y244.970 E5.5361
G1 X107.050 Y244.571 E5.5588
G1 X106.913 Y244.496 E5.5627
G1 X105.789 Y243.817 E5.5953
G1 X105.647 Y243.722 E5.5996
G1 X104.962 Y243.211 E5.6209
G1 X104.854 Y243.124 E5.6243
G1 X104.269 Y242.612 E5.6437
G1 X104.164 Y242.512 E5.6473
G1 X103.598 Y241.928 E5.6675
G1 X103.495 Y241.812 E5.6714
G1 X102.987 Y241.184 E5.6915
G1 X102.892 Y241.056 E5.6954
G1 X102.444 Y240.388 E5.7154
G1 X102.361 Y240.252 E5.7194
G1 X101.978 Y239.552 E5.7393
G1 X101.915 Y239.424 E5.7428
G1 X101.633 Y238.792 E5.7600
G1 X101.567 Y238.621 E5.7646
G1 X101.172 Y237.413 E5.7962
G1 X101.114 Y237.186 E5.8020
G1 X100.860 Y235.815 E5.8367
G1 X100.837 Y235.649 E5.8409
G1 X100.766 Y234.850 E5.8609
G1 X100.759 Y234.710 E5.8644
G1 X100.747 Y233.403 E5.8969
G1 X100.754 Y233.236 E5.9010
G1 X100.888 Y231.688 E5.9397
G1 X100.902 Y231.570 E5.9427
G1 X101.033 Y230.723 E5.9640
G1 X101.051 Y230.623 E5.9665
G1 X101.393 Y229.028 E6.0071
G1 X101.420 Y228.920 E6.0099
G1 X101.829 Y227.465 E6.0475
G1 X101.869 Y227.339 E6.0508
G1 X132.367 Y143.549 E8.2695
G1 X132.408 Y143.447 E8.2722
G1 X132.872 Y142.382 E8.3011
G1 X132.972 Y142.187 E8.3066
G1 X133.613 Y141.107 E8.3379
G1 X133.734 Y140.928 E8.3432
G1 X134.381 Y140.092 E8.3695
G1 X134.525 Y139.928 E8.3750
G1 X135.391 Y139.055 E8.4056
G1 X135.533 Y138.926 E8.4103
G1 X136.162 Y138.417 E8.4305
G1 X136.262 Y138.343 E8.4336
G1 X136.776 Y137.983 E8.4492
G1 X136.881 Y137.915 E8.4523
G1 X137.617 Y137.475 E8.4736
G1 X137.737 Y137.409 E8.4770
G1 X138.501 Y137.029 E8.4983
G1 X138.596 Y136.986 E8.5009
G1 X139.142 Y136.753 E8.5156
G1 X139.250 Y136.711 E8.5185
G1 X140.335 Y136.331 E8.5471
G1 X140.468 Y136.290 E8.5506
G1 X141.594 Y135.993 E8.5795
G1 X141.696 Y135.970 E8.5822
G1 X142.564 Y135.796 E8.6042
G1 X142.678 Y135.777 E8.6071
G1 X144.300 Y135.560 E8.6478
G1 X144.409 Y135.549 E8.6505
G1 X145.659 Y135.461 E8.6817
G1 X145.739 Y135.458 E8.6837
G1 X147.064 Y135.425 E8.7167
G1 X147.112 Y135.425 E8.7179
G1 X154.968 Y135.445 E8.9133
G92 E0.0000
G1 E-4.0000 F6000
G1 Z0.280 F900
G1 X154.857 Y139.145 F3600
G1 X154.262 Y139.125
G1 X153.610 Y139.125
G1 X115.254 Y243.057
G1 X115.009 Y243.032
G1 X114.470 Y242.963
G1 X114.062 Y246.288
G1 Z0.180 F900
G1 E0.0000 F6000
G92 E0.0000
G1 X113.980 Y246.277 E0.0021 F960
G1 X112.714 Y246.073 E0.0340
G1 X112.625 Y246.056 E0.0362
G1 X111.133 Y245.728 E0.0742
G1 X111.038 Y245.704 E0.0767
G1 X110.018 Y245.412 E0.1031
G1 X109.935 Y245.386 E0.1052
G1 X109.035 Y245.075 E0.1289
G1 X108.949 Y245.042 E0.1312
G1 X108.108 Y244.695 E0.1539
G1 X108.016 Y244.654 E0.1563
G1 X107.210 Y244.260 E0.1787
G1 X107.087 Y244.192 E0.1822
G1 X105.977 Y243.522 E0.2144
G1 X105.849 Y243.436 E0.2183
G1 X105.176 Y242.935 E0.2391
G1 X105.079 Y242.856 E0.2422
G1 X104.505 Y242.354 E0.2612
G1 X104.410 Y242.263 E0.2645
G1 X103.855 Y241.690 E0.2844
G1 X103.762 Y241.585 E0.2878
G1 X103.263 Y240.970 E0.3076
G1 X103.179 Y240.855 E0.3111
G1 X102.739 Y240.199 E0.3307
G1 X102.665 Y240.077 E0.3343
G1 X102.289 Y239.390 E0.3538
