; G-Code generated by Simplify3D(R) Version 4.1.2
; Apr 30, 2022 at 10:10:04 AM
; Settings Summary
;   processName,Process1
;   applyToModels,SupportAm?thyste-Am?thysteBruneBotBrune02
;   profileName,A10-04-25 Tevo Tornado
;   profileVersion,2020-12-21 16:13:06
;   baseProfile,Creality CR-10(2)
;   printMaterial,PLA
;   printQuality,Medium
;   printExtruders,
;   extruderName,Primary Extruder
;   extruderToolheadNumber,0
;   extruderDiameter,0.4
;   extruderAutoWidth,0
;   extruderWidth,0.35
;   extrusionMultiplier,0.95
;   extruderUseRetract,1
;   extruderRetractionDistance,4
;   extruderExtraRestartDistance,0
;   extruderRetractionZLift,0.1
;   extruderRetractionSpeed,6000
;   extruderUseCoasting,1
;   extruderCoastingDistance,0.4
;   extruderUseWipe,1
;   extruderWipeDistance,5
;   primaryExtruder,0
;   layerHeight,0.15
;   topSolidLayers,5
;   bottomSolidLayers,4
;   perimeterOutlines,3
;   printPerimetersInsideOut,0
;   startPointOption,1
;   startPointOriginX,0
;   startPointOriginY,300
;   sequentialIslands,0
;   spiralVaseMode,0
;   firstLayerHeightPercentage,120
;   firstLayerWidthPercentage,100
;   firstLayerUnderspeed,0.4
;   useRaft,0
;   raftExtruder,0
;   raftTopLayers,3
;   raftBaseLayers,2
;   raftOffset,3
;   raftSeparationDistance,0.14
;   raftTopInfill,100
;   aboveRaftSpeedMultiplier,0.3
;   useSkirt,1
;   skirtExtruder,0
;   skirtLayers,1
;   skirtOutlines,2
;   skirtOffset,3
;   usePrimePillar,0
;   primePillarExtruder,999
;   primePillarWidth,12
;   primePillarLocation,7
;   primePillarSpeedMultiplier,1
;   useOozeShield,0
;   oozeShieldExtruder,999
;   oozeShieldOffset,2
;   oozeShieldOutlines,1
;   oozeShieldSidewallShape,1
;   oozeShieldSidewallAngle,30
;   oozeShieldSpeedMultiplier,1
;   infillExtruder,0
;   internalInfillPattern,Rectilinear
;   externalInfillPattern,Rectilinear
;   infillPercentage,25
;   outlineOverlapPercentage,15
;   infillExtrusionWidthPercentage,100
;   minInfillLength,5
;   infillLayerInterval,1
;   internalInfillAngles,45,-45
;   overlapInternalInfillAngles,0
;   externalInfillAngles,45,-45
;   generateSupport,0
;   supportExtruder,0
;   supportInfillPercentage,30
;   supportExtraInflation,0
;   supportBaseLayers,0
;   denseSupportExtruder,0
;   denseSupportLayers,0
;   denseSupportInfillPercentage,70
;   supportLayerInterval,1
;   supportHorizontalPartOffset,0.4
;   supportUpperSeparationLayers,1
;   supportLowerSeparationLayers,1
;   supportType,0
;   supportGridSpacing,4.5
;   maxOverhangAngle,45
;   supportAngles,0
;   temperatureName,Primary Extruder,Heated Bed
;   temperatureNumber,0,0
;   temperatureSetpointCount,2,2
;   temperatureSetpointLayers,1,2,1,2
;   temperatureSetpointTemperatures,215,210,55,50
;   temperatureStabilizeAtStartup,1,1
;   temperatureHeatedBed,0,1
;   fanLayers,1,2
;   fanSpeeds,0,100
;   blipFanToFullPower,0
;   adjustSpeedForCooling,1
;   minSpeedLayerTime,15
;   minCoolingSpeedSlowdown,20
;   increaseFanForCooling,1
;   minFanLayerTime,25
;   maxCoolingFanSpeed,100
;   increaseFanForBridging,1
;   bridgingFanSpeed,100
;   use5D,1
;   relativeEdistances,0
;   allowEaxisZeroing,1
;   independentExtruderAxes,0
;   includeM10123,0
;   stickySupport,1
;   applyToolheadOffsets,0
;   gcodeXoffset,0
;   gcodeYoffset,0
;   gcodeZoffset,0
;   overrideMachineDefinition,1
;   machineTypeOverride,0
;   strokeXoverride,300
;   strokeYoverride,300
;   strokeZoverride,400
;   originOffsetXoverride,0
;   originOffsetYoverride,0
;   originOffsetZoverride,0
;   homeXdirOverride,-1
;   homeYdirOverride,-1
;   homeZdirOverride,-1
;   flipXoverride,1
;   flipYoverride,-1
;   flipZoverride,1
;   toolheadOffsets,0,0|0,0|0,0|0,0|0,0|0,0
;   overrideFirmwareConfiguration,1
;   firmwareTypeOverride,RepRap (Marlin/Repetier/Sprinter)
;   GPXconfigOverride,r2
;   baudRateOverride,250000
;   overridePrinterModels,1
;   printerModelsOverride
;   startingGcode,;,; -]H.P.B[- MarshMalloW  ,; $VER: StartScript 1.02 (26.12.2019) MarshMalloW,;,; Begin Startcode,;,M117 *Preheat*     	; Preheat,;extruder0_temperature,M104 S[extruder0_temperature]  ,M109 S[extruder0_temperature] ,M109 R[extruder0_temperature] ,;,M117 *Auto-leveling*     	; Auto-leveling,M107                   	; Turn layer fan off,G21                    	; Set to metric [change to G20 if you want Imperial],G90                    	; Force coordinates to be absolute relative to the origin,G28                    	; Home X/Y/Z axis,G29                    	; Auto-leveling (BL-Touch),;,M117 *Start Clean*     	; Indicate nozzle clean in progress on LCD,G92 E0                 	; Set Extruder to 0 ,G1 X0 Y0 F2000         	; Move X and Y to 0 with speed 2000 (mm/min),G1 Z0.1 F1000          	; Move Z to   0.1 with speed 1000 (mm/min),G1 X8.0 F2000          	; Move X to   8.0 with speed 2000 (mm/min),G1 Y60.0 E4.0 F1000.0  	; Move Y to  60 and Extruder with 4.0 with speed 1000 (mm/min),G1 Y100.0 E8.5 F1000.0 	; Move Y to 100 and Extruder with 8.5 with speed 1000 (mm/min),G92 E0                 	; Set extruder to 0,G1 X16.0 F3000         	; Move X to 16.0 with speed 3000 (mm/min),G1 Y60.0 F3000         	; Move Y to 60.0 with speed 3000 (mm/min),M117 *End Clean*       	; Indicate nozzle clean in progress on LCD,G1 Z5 F3000            	; Move Z to  5.0 with speed 3000 (mm/min),G1 X20.0 F3000         	; Move X to 20.0 with speed 3000 (mm/min),G1 Y20.0 F3000         	; Move Y to 20.0 with speed 3000 (mm/min),; ,M117 *Printing...*     	; Start printing msg on LCD,;,; End Startcode,;,; Begin printing with sliced GCode after here,;
;   layerChangeGcode,
;   retractionGcode,
;   toolChangeGcode,
;   endingGcode,;,; init 181010,;,;M107 			; Fan off,;G1 E-1 F300 			; Retract the filament a bit before lifting the nozzle,;M104 S0 			; Turn off extruder,;M140 S0 			; Turn off bed,;G91			; Relative positioning,;G28 X0 Y0 			; Move X/Y to min endstops so the head is out of teh way,;M84 			; Disable motors,;G90 			; Absolute positioning,;M117 Print ready...,,;,; // From Cura 181010,; // End_gcode,G92 E0			; Zero the extruded length,;G1 E-30 F300		; Retract E -30,M106 S0			; Turn off cooling fan,M104 S0			; Turn off temperature,M140 S0		     	; Turn off bed,G91			; Relative positioning,G1 E-1 F300			; Retract the filament a bit before lifting the nozzle to release some of the pressure,G1 Z+20 E-5 X-20 Y-20 F7200	; Move Z up a bit and retract filament even more,G1 X0 Y150 F10000		; Move right min,M107			; Turn off layer fan,M84			; Disable motors,G90			; Absolute positioning,M117 *The-End* 		; End msg,;,
;   exportFileFormat,gcode
;   celebration,0
;   celebrationSong,Star Wars
;   postProcessing,|{REPLACE "; layer " "M117 INDICATOR-Layer"}|{REPLACE ", Z = " "\n; Z="}
;   defaultSpeed,2400
;   outlineUnderspeed,0.6
;   solidInfillUnderspeed,0.8
;   supportUnderspeed,0.8
;   rapidXYspeed,3600
;   rapidZspeed,900
;   minBridgingArea,50
;   bridgingExtraInflation,0.2
;   bridgingExtrusionMultiplier,1
;   bridgingSpeedMultiplier,0.6
;   useFixedBridgingAngle,0
;   fixedBridgingAngle,0
;   applyBridgingToPerimeters,0
;   filamentDiameters,1.75|1.75|1.75|1.75|1.75|1.75
;   filamentPricesPerKg,30|46|46|46|46|46
;   filamentDensities,1.25|1.25|1.25|1.25|1.25|1.25
;   useMinPrintHeight,0
;   minPrintHeight,0
;   useMaxPrintHeight,0
;   maxPrintHeight,50
;   useDiaphragm,0
;   diaphragmLayerInterval,20
;   robustSlicing,1
;   mergeAllIntoSolid,0
;   onlyRetractWhenCrossingOutline,1
;   retractBetweenLayers,1
;   useRetractionMinTravel,0
;   retractionMinTravel,3
;   retractWhileWiping,1
;   onlyWipeOutlines,1
;   avoidCrossingOutline,1
;   maxMovementDetourFactor,3
;   toolChangeRetractionDistance,12
;   toolChangeExtraRestartDistance,-0.5
;   toolChangeRetractionSpeed,600
;   externalThinWallType,1
;   internalThinWallType,1
;   thinWallAllowedOverlapPercentage,20
;   singleExtrusionMinLength,1
;   singleExtrusionMinPrintingWidthPercentage,50
;   singleExtrusionMaxPrintingWidthPercentage,200
;   singleExtrusionEndpointExtension,0.2
;   horizontalSizeCompensation,0
G90
M82
M106 S0
M140 S55
M190 S55
;
; -]H.P.B[- MarshMalloW  
; $VER: StartScript 1.02 (26.12.2019) MarshMalloW
;
; Begin Startcode
;
M117 *Preheat*     	; Preheat
;extruder0_temperature
M104 S215  
M109 S215 
M109 R215 
;
M117 *Auto-leveling*     	; Auto-leveling
M107                   	; Turn layer fan off
G21                    	; Set to metric [change to G20 if you want Imperial]
G90                    	; Force coordinates to be absolute relative to the origin
G28                    	; Home X/Y/Z axis
G29                    	; Auto-leveling (BL-Touch)
;
M117 *Start Clean*     	; Indicate nozzle clean in progress on LCD
G92 E0                 	; Set Extruder to 0 
G1 X0 Y0 F2000         	; Move X and Y to 0 with speed 2000 (mm/min)
G1 Z0.1 F1000          	; Move Z to   0.1 with speed 1000 (mm/min)
G1 X8.0 F2000          	; Move X to   8.0 with speed 2000 (mm/min)
G1 Y60.0 E4.0 F1000.0  	; Move Y to  60 and Extruder with 4.0 with speed 1000 (mm/min)
G1 Y100.0 E8.5 F1000.0 	; Move Y to 100 and Extruder with 8.5 with speed 1000 (mm/min)
G92 E0                 	; Set extruder to 0
G1 X16.0 F3000         	; Move X to 16.0 with speed 3000 (mm/min)
G1 Y60.0 F3000         	; Move Y to 60.0 with speed 3000 (mm/min)
M117 *End Clean*       	; Indicate nozzle clean in progress on LCD
G1 Z5 F3000            	; Move Z to  5.0 with speed 3000 (mm/min)
G1 X20.0 F3000         	; Move X to 20.0 with speed 3000 (mm/min)
G1 Y20.0 F3000         	; Move Y to 20.0 with speed 3000 (mm/min)
; 
M117 *Printing...*     	; Start printing msg on LCD
;
; End Startcode
;
; Begin printing with sliced GCode after here
;
; process Process1
M117 INDICATOR-Layer1
; Z=0.180
T0
G92 E0.0000
G1 E-4.0000 F6000
; feature skirt
; tool H0.180 W0.350
G1 Z0.180 F900
G1 X179.248 Y193.535 F3600
G1 E0.0000 F6000
G92 E0.0000
G1 X179.248 Y216.455 E0.5703 F960
G1 X177.183 Y218.520 E0.6430
G1 X114.263 Y218.520 E2.2086
G1 X112.198 Y216.455 E2.2813
G1 X112.198 Y193.535 E2.8516
G1 X114.263 Y191.470 E2.9243
G1 X177.183 Y191.470 E4.4899
G1 X179.248 Y193.535 E4.5625
G92 E0.0000
G1 E-4.0000 F6000
G1 Z0.280 F900
G1 X175.548 Y195.170 F3600
G1 X174.460 Y195.170
G1 X116.912 Y214.820
G1 X115.898 Y214.820
G1 X112.548 Y216.310
G1 Z0.180 F900
G1 E0.0000 F6000
G92 E0.0000
G1 X112.548 Y193.680 E0.5631 F960
G1 X114.408 Y191.820 E0.6286
G1 X177.038 Y191.820 E2.1870
G1 X178.898 Y193.680 E2.2524
G1 X178.898 Y216.310 E2.8155
G1 X177.038 Y218.170 E2.8810
G1 X114.408 Y218.170 E4.4394
G1 X112.548 Y216.310 E4.5048
G92 E0.0000
G1 E-4.0000 F6000
; feature outer perimeter
G1 Z0.280 F900
G1 X175.548 Y214.820 F3600
G1 Z0.180 F900
G1 E0.0000 F6000
G92 E0.0000
G1 X115.898 Y214.820 E1.4843 F576
G1 X115.898 Y195.170 E1.9732
G1 X175.548 Y195.170 E3.4575
G1 X175.548 Y214.420 E3.9364
G1 X175.548 Y214.820 F576
G1 X170.548 Y214.820 F576
; feature inner perimeter
G1 X175.198 Y214.470 F3600
G92 E0.0000
G1 X116.248 Y214.470 E1.4668 F768
G1 X116.248 Y195.520 E1.9384
G1 X175.198 Y195.520 E3.4052
G1 X175.198 Y214.070 E3.8668
G1 X175.198 Y214.470 F768
G1 X174.848 Y214.120 F3600
G92 E0.0000
G1 X116.598 Y214.120 E1.4494 F768
G1 X116.598 Y195.870 E1.9035
G1 X174.848 Y195.870 E3.3529
G1 X174.848 Y213.720 E3.7971
G1 X174.848 Y214.120 F768
; feature solid layer
G1 X174.514 Y196.167 F3600
G92 E0.0000
G1 X174.551 Y196.204 E0.0013 F768
G1 X174.551 Y196.699 E0.0136
G1 X174.019 Y196.167 E0.0323
G1 X173.524 Y196.167 E0.0446
G1 X174.551 Y197.194 E0.0808
G1 X174.551 Y197.689 E0.0931
G1 X173.029 Y196.167 E0.1467
G1 X172.534 Y196.167 E0.1590
G1 X174.551 Y198.184 E0.2299
G1 X174.551 Y198.679 E0.2423
G1 X172.039 Y196.167 E0.3306
G1 X171.544 Y196.167 E0.3430
G1 X174.551 Y199.174 E0.4488
G1 X174.551 Y199.669 E0.4611
G1 X171.049 Y196.167 E0.5843
G1 X170.554 Y196.167 E0.5966
G1 X174.551 Y200.164 E0.7373
G1 X174.551 Y200.659 E0.7496
G1 X170.059 Y196.167 E0.9076
G1 X169.564 Y196.167 E0.9200
G1 X174.551 Y201.154 E1.0954
G1 X174.551 Y201.649 E1.1077
G1 X169.069 Y196.167 E1.3006
G1 X168.574 Y196.167 E1.3130
G1 X174.551 Y202.144 E1.5233
G1 X174.551 Y202.639 E1.5356
G1 X168.079 Y196.167 E1.7633
G1 X167.584 Y196.167 E1.7756
G1 X174.551 Y203.134 E2.0208
G1 X174.551 Y203.629 E2.0331
G1 X167.089 Y196.167 E2.2957
G1 X166.594 Y196.167 E2.3080
G1 X174.551 Y204.124 E2.5880
G1 X174.551 Y204.619 E2.6003
G1 X166.099 Y196.167 E2.8977
G1 X165.604 Y196.167 E2.9100
G1 X174.551 Y205.114 E3.2248
G1 X174.551 Y205.609 E3.2371
G1 X165.109 Y196.167 E3.5694
G1 X164.614 Y196.167 E3.5817
G1 X174.551 Y206.104 E3.9314
G1 X174.551 Y206.599 E3.9437
G1 X164.119 Y196.167 E4.3107
G1 X163.624 Y196.167 E4.3231
G1 X174.551 Y207.094 E4.7076
G1 X174.551 Y207.589 E4.7199
G1 X163.129 Y196.167 E5.1218
G1 X162.634 Y196.167 E5.1341
G1 X174.551 Y208.084 E5.5534
G1 X174.551 Y208.579 E5.5657
G1 X162.139 Y196.167 E6.0025
G1 X161.644 Y196.167 E6.0148
G1 X174.551 Y209.073 E6.4690
G1 X174.551 Y209.568 E6.4813
G1 X161.149 Y196.167 E6.9529
G1 X160.654 Y196.167 E6.9652
G1 X174.551 Y210.063 E7.4542
G1 X174.551 Y210.558 E7.4665
G1 X160.159 Y196.167 E7.9729
G1 X159.664 Y196.167 E7.9852
G1 X174.551 Y211.053 E8.5091
G1 X174.551 Y211.548 E8.5214
G1 X159.169 Y196.167 E9.0626
G1 X158.674 Y196.167 E9.0750
G1 X174.551 Y212.043 E9.6336
G1 X174.551 Y212.538 E9.6459
G1 X158.180 Y196.167 E10.2220
G1 X157.685 Y196.167 E10.2344
G1 X174.551 Y213.033 E10.8279
G1 X174.551 Y213.528 E10.8402
G1 X157.190 Y196.167 E11.4511
G1 X156.695 Y196.167 E11.4634
G1 X174.350 Y213.822 E12.0847
G1 X173.855 Y213.822 E12.0970
G1 X156.200 Y196.167 E12.7183
G1 X155.705 Y196.167 E12.7306
G1 X173.360 Y213.822 E13.3519
G1 X172.865 Y213.822 E13.3642
G1 X155.210 Y196.167 E13.9855
G1 X154.715 Y196.167 E13.9978
G1 X172.370 Y213.822 E14.6190
G1 X171.875 Y213.822 E14.6314
G1 X154.220 Y196.167 E15.2526
G1 X153.725 Y196.167 E15.2649
G1 X171.380 Y213.822 E15.8862
G1 X170.885 Y213.822 E15.8985
G1 X153.230 Y196.167 E16.5198
G1 X152.735 Y196.167 E16.5321
G1 X170.390 Y213.822 E17.1534
G1 X169.895 Y213.822 E17.1657
G1 X152.240 Y196.167 E17.7870
G1 X151.745 Y196.167 E17.7993
G1 X169.400 Y213.822 E18.4206
G1 X168.905 Y213.822 E18.4329
G1 X151.250 Y196.167 E19.0541
G1 X150.755 Y196.167 E19.0665
G1 X168.410 Y213.822 E19.6877
G1 X167.915 Y213.822 E19.7001
G1 X150.260 Y196.167 E20.3213
G1 X149.765 Y196.167 E20.3336
G1 X167.420 Y213.822 E20.9549
G1 X166.925 Y213.822 E20.9672
G1 X149.270 Y196.167 E21.5885
G1 X148.775 Y196.167 E21.6008
G1 X166.430 Y213.822 E22.2221
G1 X165.935 Y213.822 E22.2344
G1 X148.280 Y196.167 E22.8557
G1 X147.785 Y196.167 E22.8680
G1 X165.440 Y213.822 E23.4893
G1 X164.945 Y213.822 E23.5016
G1 X147.290 Y196.167 E24.1228
G1 X146.795 Y196.167 E24.1352
G1 X164.450 Y213.822 E24.7564
G1 X163.955 Y213.822 E24.7687
G1 X146.300 Y196.167 E25.3900
G1 X145.805 Y196.167 E25.4023
G1 X163.460 Y213.822 E26.0236
G1 X162.965 Y213.822 E26.0359
G1 X145.310 Y196.167 E26.6572
G1 X144.815 Y196.167 E26.6695
G1 X162.470 Y213.822 E27.2908
G1 X161.975 Y213.822 E27.3031
G1 X144.320 Y196.167 E27.9244
G1 X143.825 Y196.167 E27.9367
G1 X161.480 Y213.822 E28.5580
G1 X160.985 Y213.822 E28.5703
G1 X143.330 Y196.167 E29.1915
G1 X142.835 Y196.167 E29.2039
G1 X160.490 Y213.822 E29.8251
G1 X159.995 Y213.822 E29.8374
G1 X142.340 Y196.167 E30.4587
G1 X141.845 Y196.167 E30.4710
G1 X159.500 Y213.822 E31.0923
G1 X159.005 Y213.822 E31.1046
G1 X141.350 Y196.167 E31.7259
G1 X140.855 Y196.167 E31.7382
G1 X158.510 Y213.822 E32.3595
G1 X158.015 Y213.822 E32.3718
G1 X140.360 Y196.167 E32.9931
G1 X139.865 Y196.167 E33.0054
G1 X157.520 Y213.822 E33.6267
G1 X157.025 Y213.822 E33.6390
G1 X139.370 Y196.167 E34.2602
G1 X138.876 Y196.167 E34.2726
G1 X156.531 Y213.822 E34.8938
G1 X156.036 Y213.822 E34.9061
G1 X138.381 Y196.167 E35.5274
G1 X137.886 Y196.167 E35.5397
G1 X155.541 Y213.822 E36.1610
G1 X155.046 Y213.822 E36.1733
G1 X137.391 Y196.167 E36.7946
G1 X136.896 Y196.167 E36.8069
G1 X154.551 Y213.822 E37.4282
G1 X154.056 Y213.822 E37.4405
G1 X136.401 Y196.167 E38.0618
G1 X135.906 Y196.167 E38.0741
G1 X153.561 Y213.822 E38.6953
G1 X153.066 Y213.822 E38.7077
G1 X135.411 Y196.167 E39.3289
G1 X134.916 Y196.167 E39.3413
