; G-Code generated by Simplify3D(R) Version 4.0.1
; Dec 9, 2018 at 4:37:10 PM
; Settings Summary
;   processName,Tevo Tornado
;   applyToModels,Fixation Tube V7.15-1P
;   profileName,007 Tevo Tornado (experimental) 06-03
;   profileVersion,2018-12-06 16:07:00
;   baseProfile,Creality CR-10(2)
;   printMaterial,PLA
;   printQuality,Medium
;   printExtruders,
;   extruderName,Primary Extruder
;   extruderToolheadNumber,0
;   extruderDiameter,0.4
;   extruderAutoWidth,0
;   extruderWidth,0.4
;   extrusionMultiplier,1
;   extruderUseRetract,1
;   extruderRetractionDistance,6.5
;   extruderExtraRestartDistance,0
;   extruderRetractionZLift,0
;   extruderRetractionSpeed,1800
;   extruderUseCoasting,0
;   extruderCoastingDistance,0.2
;   extruderUseWipe,0
;   extruderWipeDistance,4
;   primaryExtruder,0
;   layerHeight,0.2
;   topSolidLayers,5
;   bottomSolidLayers,4
;   perimeterOutlines,3
;   printPerimetersInsideOut,1
;   startPointOption,2
;   startPointOriginX,0
;   startPointOriginY,500
;   sequentialIslands,0
;   spiralVaseMode,0
;   firstLayerHeightPercentage,90
;   firstLayerWidthPercentage,110
;   firstLayerUnderspeed,0.25
;   useRaft,0
;   raftExtruder,0
;   raftTopLayers,3
;   raftBaseLayers,2
;   raftOffset,3
;   raftSeparationDistance,0.14
;   raftTopInfill,100
;   aboveRaftSpeedMultiplier,0.3
;   useSkirt,1
;   skirtExtruder,0
;   skirtLayers,1
;   skirtOutlines,2
;   skirtOffset,4
;   usePrimePillar,0
;   primePillarExtruder,999
;   primePillarWidth,12
;   primePillarLocation,7
;   primePillarSpeedMultiplier,1
;   useOozeShield,0
;   oozeShieldExtruder,999
;   oozeShieldOffset,2
;   oozeShieldOutlines,1
;   oozeShieldSidewallShape,1
;   oozeShieldSidewallAngle,30
;   oozeShieldSpeedMultiplier,1
;   infillExtruder,0
;   internalInfillPattern,Rectilinear
;   externalInfillPattern,Rectilinear
;   infillPercentage,20
;   outlineOverlapPercentage,30
;   infillExtrusionWidthPercentage,125
;   minInfillLength,5
;   infillLayerInterval,1
;   internalInfillAngles,45,-45
;   overlapInternalInfillAngles,0
;   externalInfillAngles,45,-45
;   generateSupport,0
;   supportExtruder,0
;   supportInfillPercentage,30
;   supportExtraInflation,0
;   supportBaseLayers,0
;   denseSupportExtruder,0
;   denseSupportLayers,0
;   denseSupportInfillPercentage,70
;   supportLayerInterval,1
;   supportHorizontalPartOffset,0.4
;   supportUpperSeparationLayers,1
;   supportLowerSeparationLayers,1
;   supportType,0
;   supportGridSpacing,4.5
;   maxOverhangAngle,45
;   supportAngles,0
;   temperatureName,Primary Extruder,Heated Bed
;   temperatureNumber,0,0
;   temperatureSetpointCount,3,2
;   temperatureSetpointLayers,1,2,3,1,2
;   temperatureSetpointTemperatures,210,200,190,65,60
;   temperatureStabilizeAtStartup,1,1
;   temperatureHeatedBed,0,1
;   temperatureRelayBetweenLayers,0,0
;   temperatureRelayBetweenLoops,0,0
;   fanLayers,1,3
;   fanSpeeds,0,100
;   blipFanToFullPower,1
;   adjustSpeedForCooling,1
;   minSpeedLayerTime,15
;   minCoolingSpeedSlowdown,50
;   increaseFanForCooling,0
;   minFanLayerTime,45
;   maxCoolingFanSpeed,100
;   increaseFanForBridging,1
;   bridgingFanSpeed,100
;   use5D,1
;   relativeEdistances,0
;   allowEaxisZeroing,1
;   independentExtruderAxes,0
;   includeM10123,0
;   stickySupport,1
;   applyToolheadOffsets,0
;   gcodeXoffset,0
;   gcodeYoffset,0
;   gcodeZoffset,0
;   overrideMachineDefinition,1
;   machineTypeOverride,0
;   strokeXoverride,300
;   strokeYoverride,300
;   strokeZoverride,400
;   originOffsetXoverride,0
;   originOffsetYoverride,0
;   originOffsetZoverride,0
;   homeXdirOverride,-1
;   homeYdirOverride,-1
;   homeZdirOverride,-1
;   flipXoverride,1
;   flipYoverride,-1
;   flipZoverride,1
;   toolheadOffsets,0,0|0,0|0,0|0,0|0,0|0,0
;   overrideFirmwareConfiguration,0
;   firmwareTypeOverride,RepRap (Marlin/Repetier/Sprinter)
;   GPXconfigOverride,r2
;   baudRateOverride,250000
;   overridePrinterModels,1
;   printerModelsOverride
;   startingGcode,;Init 181010,;G28 ; home all axes,;G1 Z5 F3000 ; lift,;G92 E0 ; reset extrusion distance,,;From Cura 181010,; start_gcode,M117 Start Clean	; Indicate nozzle clean in progress on LCD,;,M104 S[extruder0_temperature] ,M109 S[extruder0_temperature] ,M109 R[extruder0_temperature] ,;,M107		; Turn layer fan off,G21		; Set to metric [change to G20 if you want Imperial],G90	 	; Force coordinates to be absolute relative to the origin,G28		; Home X/Y/Z axis,;,G1 X3 Y1 Z15 F9000	; Move safe Z height to shear strings,G0 X1 Y1 Z0.2 F9000	; Move in 1mm from edge and up [z] 0.2mm,G92 E0		; Set extruder to [0] zero,G1 X100 E12 F500	; Extrude 30mm filiment along X axis 100mm long to prime and clean the nozzle,G92 E0		; Reset extruder to [0] zero end of cleaning run,G1 E-1 F500		; Retract filiment by 1 mm to reduce string effect,G1 X180 F4000		; quick wipe away from the filament line / purge,M117 End Clean		; Indicate nozzle clean in progress on LCD,;,M117 PRINTING...		; start msg,; Begin printing with sliced GCode after here,;
;   layerChangeGcode,
;   retractionGcode,
;   toolChangeGcode,
;   endingGcode,;,; init 181010,;,;M107 ; Fan off,;G1 E-1 F300 ; Retract the filament a bit before lifting the nozzle,;M104 S0 ; turn off extruder,;M140 S0 ; turn off bed,;G91 ; Relative positioning,;G28 X0 Y0 ; Move X/Y to min endstops so the head is out of teh way,;M84 ; disable motors,;G90 ; Absolute positioning,;M117 Print ready...,,;,;From Cura 181010,;,; end_gcode,G92 E0		; zero the extruded length,G1 E-5 F9000		; retract,M104 S0		; turn off temperature,M140 S0		; turn off bed,G91		; relative positioning,G1 E-1 F300		; retract the filament a bit before lifting the nozzle to release some of the pressure,G1 Z+20 E-5 X-20 Y-20 F7200	; move Z up a bit and retract filament even more,G1 X320 Y150 F10000	; move right mid,M107		; turn off layer fan,M84		; disable motors,G90		; absolute positioning,M117 IMPRESSION TERMINEE	; end msg,;,;EOF
;   exportFileFormat,gcode
;   celebration,0
;   celebrationSong,Star Wars
;   postProcessing,
;   defaultSpeed,4200
;   outlineUnderspeed,0.5
;   solidInfillUnderspeed,0.8
;   supportUnderspeed,0.8
;   rapidXYspeed,6000
;   rapidZspeed,1002
;   minBridgingArea,50
;   bridgingExtraInflation,0
;   bridgingExtrusionMultiplier,0.85
;   bridgingSpeedMultiplier,1.05
;   useFixedBridgingAngle,0
;   fixedBridgingAngle,0
;   applyBridgingToPerimeters,0
;   filamentDiameters,1.75|1.75|1.75|1.75|1.75|1.75
;   filamentPricesPerKg,30|46|46|46|46|46
;   filamentDensities,1.25|1.25|1.25|1.25|1.25|1.25
;   useMinPrintHeight,0
;   minPrintHeight,0
;   useMaxPrintHeight,0
;   maxPrintHeight,9
;   useDiaphragm,0
;   diaphragmLayerInterval,20
;   robustSlicing,1
;   mergeAllIntoSolid,0
;   onlyRetractWhenCrossingOutline,1
;   retractBetweenLayers,1
;   useRetractionMinTravel,1
;   retractionMinTravel,3
;   retractWhileWiping,1
;   onlyWipeOutlines,1
;   avoidCrossingOutline,1
;   maxMovementDetourFactor,3
;   toolChangeRetractionDistance,12
;   toolChangeExtraRestartDistance,-0.5
;   toolChangeRetractionSpeed,600
;   externalThinWallType,0
;   internalThinWallType,2
;   thinWallAllowedOverlapPercentage,15
;   singleExtrusionMinLength,1
;   singleExtrusionMinPrintingWidthPercentage,50
;   singleExtrusionMaxPrintingWidthPercentage,200
;   singleExtrusionEndpointExtension,0.2
;   horizontalSizeCompensation,0
G90
M82
M106 S255
G4 P500
M106 S0
M140 S65
M190 S65
;Init 181010
;G28 ; home all axes
;G1 Z5 F3000 ; lift
;G92 E0 ; reset extrusion distance
;From Cura 181010
; start_gcode
M117 Start Clean	; Indicate nozzle clean in progress on LCD
;
M104 S210 
M109 S210 
M109 R210 
;
M107		; Turn layer fan off
G21		; Set to metric [change to G20 if you want Imperial]
G90	 	; Force coordinates to be absolute relative to the origin
G28		; Home X/Y/Z axis
;
G1 X3 Y1 Z15 F9000	; Move safe Z height to shear strings
G0 X1 Y1 Z0.2 F9000	; Move in 1mm from edge and up [z] 0.2mm
G92 E0		; Set extruder to [0] zero
G1 X100 E12 F500	; Extrude 30mm filiment along X axis 100mm long to prime and clean the nozzle
G92 E0		; Reset extruder to [0] zero end of cleaning run
G1 E-1 F500		; Retract filiment by 1 mm to reduce string effect
G1 X180 F4000		; quick wipe away from the filament line / purge
M117 End Clean		; Indicate nozzle clean in progress on LCD
;
M117 PRINTING...		; start msg
; Begin printing with sliced GCode after here
;
G92 E0
G1 E-6.5000 F1800
G1 Z0.180 F1002
; process Tevo Tornado
; layer 1, Z = 0.180
T0
; tool H0.200 W0.440
; skirt
G1 X142.169 Y126.294 F6000
G1 E0.0000 F540
G92 E0
G1 X142.339 Y126.196 E0.0072 F1050
G1 X145.421 Y125.587 E0.1221
G1 X145.430 Y125.585 E0.1225
G1 X145.566 Y125.563 E0.1275
G1 X145.576 Y125.561 E0.1279
G1 X146.946 Y125.380 E0.1784
G1 X146.954 Y125.380 E0.1787
G1 X147.067 Y125.368 E0.1829
G1 X147.075 Y125.367 E0.1832
G1 X148.440 Y125.260 E0.2333
G1 X148.448 Y125.259 E0.2336
G1 X148.559 Y125.253 E0.2376
G1 X148.567 Y125.253 E0.2379
G1 X149.928 Y125.217 E0.2877
G1 X149.936 Y125.217 E0.2880
G1 X150.049 Y125.217 E0.2921
G1 X150.056 Y125.217 E0.2924
G1 X151.432 Y125.253 E0.3428
G1 X151.440 Y125.253 E0.3431
G1 X151.552 Y125.259 E0.3472
G1 X151.560 Y125.260 E0.3475
G1 X152.925 Y125.367 E0.3976
G1 X152.933 Y125.368 E0.3979
G1 X153.046 Y125.380 E0.4020
G1 X153.054 Y125.380 E0.4023
G1 X154.424 Y125.561 E0.4529
G1 X154.434 Y125.563 E0.4532
G1 X154.570 Y125.585 E0.4583
G1 X154.579 Y125.587 E0.4586
G1 X157.661 Y126.196 E0.5736
G1 X157.832 Y126.294 E0.5807
G1 X159.749 Y128.449 E0.6863
G1 X159.826 Y128.630 E0.6935
G1 X160.046 Y131.417 E0.7958
G1 X160.287 Y133.255 E0.8636
G1 X160.625 Y135.077 E0.9314
G1 X161.058 Y136.879 E0.9992
G1 X161.584 Y138.656 E1.0670
G1 X162.203 Y140.403 E1.1348
G1 X162.912 Y142.115 E1.2026
G1 X163.710 Y143.788 E1.2704
G1 X164.594 Y145.416 E1.3382
G1 X165.563 Y146.996 E1.4060
G1 X166.612 Y148.524 E1.4738
G1 X167.740 Y149.994 E1.5416
G1 X168.944 Y151.403 E1.6094
G1 X170.220 Y152.748 E1.6772
G1 X171.564 Y154.023 E1.7450
G1 X172.973 Y155.227 E1.8128
G1 X174.443 Y156.355 E1.8806
G1 X176.721 Y157.920 E1.9817
G1 X176.839 Y158.077 E1.9889
G1 X177.746 Y160.817 E2.0945
G1 X177.746 Y161.014 E2.1017
G1 X176.737 Y163.968 E2.2159
G1 X176.734 Y163.977 E2.2163
G1 X176.686 Y164.106 E2.2213
G1 X176.682 Y164.115 E2.2216
G1 X176.156 Y165.386 E2.2720
G1 X176.153 Y165.393 E2.2722
G1 X176.107 Y165.495 E2.2763
G1 X176.104 Y165.502 E2.2766
G1 X175.512 Y166.743 E2.3269
G1 X175.509 Y166.750 E2.3272
G1 X175.457 Y166.851 E2.3314
G1 X175.454 Y166.858 E2.3317
G1 X174.803 Y168.056 E2.3815
G1 X174.800 Y168.062 E2.3818
G1 X174.744 Y168.159 E2.3859
G1 X174.740 Y168.166 E2.3862
G1 X174.021 Y169.339 E2.4365
G1 X174.017 Y169.346 E2.4368
G1 X173.956 Y169.441 E2.4409
G1 X173.951 Y169.447 E2.4412
G1 X173.179 Y170.571 E2.4911
G1 X173.174 Y170.577 E2.4914
G1 X173.108 Y170.668 E2.4955
G1 X173.104 Y170.674 E2.4958
G1 X172.259 Y171.776 E2.5466
G1 X172.252 Y171.784 E2.5469
G1 X172.163 Y171.893 E2.5521
G1 X172.156 Y171.901 E2.5525
G1 X170.052 Y174.300 E2.6692
G1 X169.883 Y174.398 E2.6764
G1 X167.059 Y174.979 E2.7819
G1 X166.865 Y174.955 E2.7890
G1 X164.399 Y173.779 E2.8890
G1 X162.687 Y173.070 E2.9568
G1 X160.939 Y172.452 E3.0246
G1 X159.165 Y171.926 E3.0923
G1 X157.360 Y171.492 E3.1602
G1 X155.538 Y171.155 E3.2280
G1 X153.701 Y170.912 E3.2958
G1 X151.853 Y170.767 E3.3636
G1 X150.001 Y170.719 E3.4314
G1 X148.148 Y170.767 E3.4992
G1 X146.301 Y170.912 E3.5670
G1 X144.463 Y171.155 E3.6348
G1 X142.641 Y171.492 E3.7026
G1 X140.845 Y171.924 E3.7702
G1 X139.062 Y172.451 E3.8383
G1 X137.314 Y173.070 E3.9061
G1 X135.602 Y173.779 E3.9739
G1 X133.135 Y174.955 E4.0739
G1 X132.941 Y174.979 E4.0810
G1 X130.117 Y174.398 E4.1865
G1 X129.948 Y174.300 E4.1937
G1 X127.844 Y171.901 E4.3104
G1 X127.837 Y171.894 E4.3108
G1 X127.748 Y171.785 E4.3159
G1 X127.742 Y171.777 E4.3163
G1 X126.900 Y170.680 E4.3668
G1 X126.896 Y170.674 E4.3671
G1 X126.829 Y170.583 E4.3713
G1 X126.825 Y170.576 E4.3715
G1 X126.062 Y169.467 E4.4208
G1 X126.058 Y169.461 E4.4211
G1 X125.998 Y169.368 E4.4251
G1 X125.994 Y169.361 E4.4254
G1 X125.278 Y168.195 E4.4755
G1 X125.274 Y168.189 E4.4757
G1 X125.218 Y168.091 E4.4799
G1 X125.214 Y168.085 E4.4801
G1 X124.559 Y166.881 E4.5303
G1 X124.555 Y166.874 E4.5305
G1 X124.504 Y166.774 E4.5347
G1 X124.500 Y166.767 E4.5350
G1 X123.910 Y165.532 E4.5850
G1 X123.907 Y165.525 E4.5853
G1 X123.861 Y165.423 E4.5894
G1 X123.858 Y165.416 E4.5897
G1 X123.319 Y164.118 E4.6411
G1 X123.316 Y164.109 E4.6415
G1 X123.266 Y163.978 E4.6466
G1 X123.263 Y163.969 E4.6469
G1 X122.254 Y161.013 E4.7612
G1 X122.254 Y160.817 E4.7684
G1 X123.161 Y158.077 E4.8740
G1 X123.279 Y157.920 E4.8812
G1 X125.557 Y156.355 E4.9823
G1 X127.030 Y155.224 E5.0502
G1 X128.436 Y154.023 E5.1179
G1 X129.780 Y152.748 E5.1857
G1 X131.056 Y151.403 E5.2535
G1 X132.260 Y149.994 E5.3213
G1 X133.388 Y148.524 E5.3891
G1 X134.438 Y146.996 E5.4569
G1 X135.406 Y145.416 E5.5247
G1 X136.287 Y143.793 E5.5923
G1 X137.086 Y142.119 E5.6601
G1 X137.797 Y140.402 E5.7281
G1 X138.416 Y138.656 E5.7959
G1 X138.942 Y136.879 E5.8637
G1 X139.371 Y135.094 E5.9309
G1 X139.713 Y133.254 E5.9993
G1 X139.955 Y131.417 E6.0671
G1 X140.174 Y128.630 E6.1694
G1 X140.251 Y128.449 E6.1766
G1 X142.169 Y126.294 E6.2821
G1 X142.424 Y126.608 F6000
G92 E0
G1 X142.481 Y126.576 E0.0024 F1050
G1 X145.495 Y125.980 E0.1148
G1 X145.498 Y125.979 E0.1149
G1 X145.628 Y125.958 E0.1197
G1 X145.631 Y125.957 E0.1199
G1 X146.996 Y125.777 E0.1702
G1 X146.998 Y125.777 E0.1703
G1 X147.106 Y125.766 E0.1743
G1 X147.109 Y125.765 E0.1744
G1 X148.469 Y125.659 E0.2243
G1 X148.471 Y125.659 E0.2244
G1 X148.578 Y125.653 E0.2283
G1 X148.580 Y125.653 E0.2284
G1 X149.936 Y125.617 E0.2780
G1 X149.939 Y125.617 E0.2781
G1 X150.046 Y125.617 E0.2820
G1 X150.049 Y125.617 E0.2821
G1 X151.419 Y125.653 E0.3323
G1 X151.421 Y125.653 E0.3323
G1 X151.528 Y125.659 E0.3363
G1 X151.531 Y125.659 E0.3364
G1 X152.891 Y125.765 E0.3863
G1 X152.894 Y125.766 E0.3864
G1 X153.002 Y125.777 E0.3903
G1 X153.004 Y125.777 E0.3904
G1 X154.369 Y125.957 E0.4408
G1 X154.372 Y125.958 E0.4409
G1 X154.502 Y125.979 E0.4457
G1 X154.505 Y125.980 E0.4458
G1 X157.519 Y126.576 E0.5583
G1 X157.576 Y126.609 E0.5607
G1 X159.407 Y128.666 E0.6614
G1 X159.433 Y128.727 E0.6638
G1 X159.648 Y131.459 E0.7641
G1 X159.892 Y133.317 E0.8327
G1 X160.234 Y135.160 E0.9012
G1 X160.671 Y136.982 E0.9698
G1 X161.204 Y138.780 E1.0384
G1 X161.829 Y140.546 E1.1069
G1 X162.546 Y142.278 E1.1755
G1 X163.353 Y143.969 E1.2441
G1 X164.247 Y145.616 E1.3126
G1 X165.227 Y147.214 E1.3812
G1 X166.288 Y148.759 E1.4498
G1 X167.429 Y150.246 E1.5184
G1 X168.647 Y151.671 E1.5869
G1 X169.937 Y153.030 E1.6555
G1 X171.296 Y154.321 E1.7241
G1 X172.721 Y155.538 E1.7926
G1 X174.208 Y156.679 E1.8612
G1 X176.440 Y158.213 E1.9603
G1 X176.480 Y158.265 E1.9627
G1 X177.346 Y160.881 E2.0635
G1 X177.346 Y160.946 E2.0659
G1 X176.360 Y163.836 E2.1776
G1 X176.359 Y163.839 E2.1777
G1 X176.312 Y163.962 E2.1825
G1 X176.311 Y163.965 E2.1827
G1 X175.787 Y165.230 E2.2328
G1 X175.786 Y165.232 E2.2329
G1 X175.743 Y165.330 E2.2368
G1 X175.742 Y165.332 E2.2369
G1 X175.152 Y166.569 E2.2870
G1 X175.151 Y166.571 E2.2871
G1 X175.102 Y166.667 E2.2910
G1 X175.101 Y166.670 E2.2911
G1 X174.453 Y167.862 E2.3408
G1 X174.452 Y167.865 E2.3409
G1 X174.399 Y167.957 E2.3448
G1 X174.397 Y167.959 E2.3449
G1 X173.682 Y169.128 E2.3950
G1 X173.680 Y169.130 E2.3951
G1 X173.621 Y169.221 E2.3990
G1 X173.620 Y169.223 E2.3991
G1 X172.851 Y170.342 E2.4488
G1 X172.849 Y170.344 E2.4489
G1 X172.786 Y170.431 E2.4528
G1 X172.785 Y170.433 E2.4529
G1 X171.943 Y171.530 E2.5035
G1 X171.941 Y171.533 E2.5037
G1 X171.856 Y171.637 E2.5086
G1 X171.853 Y171.640 E2.5087
G1 X169.795 Y173.987 E2.6229
G1 X169.738 Y174.020 E2.6253
G1 X167.043 Y174.574 E2.7260
G1 X166.978 Y174.566 E2.7284
G1 X164.562 Y173.413 E2.8263
G1 X162.830 Y172.697 E2.8949
G1 X161.063 Y172.071 E2.9635
G1 X159.269 Y171.540 E3.0319
G1 X157.443 Y171.101 E3.1007
G1 X155.600 Y170.759 E3.1692
G1 X153.743 Y170.514 E3.2378
G1 X151.874 Y170.368 E3.3063
G1 X150.001 Y170.318 E3.3749
G1 X148.127 Y170.368 E3.4435
G1 X146.259 Y170.514 E3.5120
G1 X144.400 Y170.759 E3.5806
