; G-Code generated by Simplify3D(R) Version 4.0.1
; Dec 5, 2018 at 12:28:09 PM
; Settings Summary
;   processName,Tevo Tornado 01
;   applyToModels,Fixation Tube V7.15_1P
;   profileName,002 Tevo Tornado S3D_01
;   profileVersion,2018-12-05 12:26:14
;   baseProfile,Default(2)
;   printMaterial,PLA
;   printQuality,Medium
;   printExtruders,
;   extruderName,Primary Extruder
;   extruderToolheadNumber,0
;   extruderDiameter,0.35
;   extruderAutoWidth,0
;   extruderWidth,0.4
;   extrusionMultiplier,0.9
;   extruderUseRetract,1
;   extruderRetractionDistance,6.5
;   extruderExtraRestartDistance,0
;   extruderRetractionZLift,0
;   extruderRetractionSpeed,1800
;   extruderUseCoasting,0
;   extruderCoastingDistance,0.2
;   extruderUseWipe,0
;   extruderWipeDistance,5
;   primaryExtruder,0
;   layerHeight,0.2
;   topSolidLayers,5
;   bottomSolidLayers,3
;   perimeterOutlines,2
;   printPerimetersInsideOut,1
;   startPointOption,2
;   startPointOriginX,0
;   startPointOriginY,0
;   sequentialIslands,0
;   spiralVaseMode,0
;   firstLayerHeightPercentage,90
;   firstLayerWidthPercentage,100
;   firstLayerUnderspeed,0.5
;   useRaft,0
;   raftExtruder,0
;   raftTopLayers,3
;   raftBaseLayers,2
;   raftOffset,3
;   raftSeparationDistance,0.14
;   raftTopInfill,100
;   aboveRaftSpeedMultiplier,0.3
;   useSkirt,1
;   skirtExtruder,0
;   skirtLayers,1
;   skirtOutlines,2
;   skirtOffset,4
;   usePrimePillar,0
;   primePillarExtruder,999
;   primePillarWidth,12
;   primePillarLocation,7
;   primePillarSpeedMultiplier,1
;   useOozeShield,0
;   oozeShieldExtruder,999
;   oozeShieldOffset,2
;   oozeShieldOutlines,1
;   oozeShieldSidewallShape,1
;   oozeShieldSidewallAngle,30
;   oozeShieldSpeedMultiplier,1
;   infillExtruder,0
;   internalInfillPattern,Rectilinear
;   externalInfillPattern,Rectilinear
;   infillPercentage,20
;   outlineOverlapPercentage,30
;   infillExtrusionWidthPercentage,125
;   minInfillLength,5
;   infillLayerInterval,1
;   internalInfillAngles,45,-45
;   overlapInternalInfillAngles,0
;   externalInfillAngles,45,-45
;   generateSupport,0
;   supportExtruder,0
;   supportInfillPercentage,30
;   supportExtraInflation,0
;   supportBaseLayers,0
;   denseSupportExtruder,0
;   denseSupportLayers,0
;   denseSupportInfillPercentage,70
;   supportLayerInterval,1
;   supportHorizontalPartOffset,0.3
;   supportUpperSeparationLayers,1
;   supportLowerSeparationLayers,1
;   supportType,0
;   supportGridSpacing,4
;   maxOverhangAngle,45
;   supportAngles,0
;   temperatureName,Primary Extruder,Heated Bed
;   temperatureNumber,0,0
;   temperatureSetpointCount,3,2
;   temperatureSetpointLayers,1,2,3,1,2
;   temperatureSetpointTemperatures,205,200,190,65,60
;   temperatureStabilizeAtStartup,1,1
;   temperatureHeatedBed,0,1
;   temperatureRelayBetweenLayers,0,0
;   temperatureRelayBetweenLoops,0,0
;   fanLayers,1,2
;   fanSpeeds,0,100
;   blipFanToFullPower,1
;   adjustSpeedForCooling,1
;   minSpeedLayerTime,15
;   minCoolingSpeedSlowdown,20
;   increaseFanForCooling,1
;   minFanLayerTime,45
;   maxCoolingFanSpeed,100
;   increaseFanForBridging,1
;   bridgingFanSpeed,100
;   use5D,1
;   relativeEdistances,0
;   allowEaxisZeroing,1
;   independentExtruderAxes,0
;   includeM10123,0
;   stickySupport,1
;   applyToolheadOffsets,0
;   gcodeXoffset,0
;   gcodeYoffset,0
;   gcodeZoffset,0
;   overrideMachineDefinition,1
;   machineTypeOverride,0
;   strokeXoverride,300
;   strokeYoverride,300
;   strokeZoverride,400
;   originOffsetXoverride,0
;   originOffsetYoverride,0
;   originOffsetZoverride,0
;   homeXdirOverride,-1
;   homeYdirOverride,-1
;   homeZdirOverride,-1
;   flipXoverride,1
;   flipYoverride,-1
;   flipZoverride,1
;   toolheadOffsets,0,0|0,0|0,0|0,0|0,0|0,0
;   overrideFirmwareConfiguration,0
;   firmwareTypeOverride,RepRap (Marlin/Repetier/Sprinter)
;   GPXconfigOverride,r2
;   baudRateOverride,115200
;   overridePrinterModels,0
;   printerModelsOverride
;   startingGcode,G28                        ; home all axes,G1 Z5 F3000          ; lift,G1 X20 Y20 F1500 ; avoid binder clips,G1 Z0.2 F3000       ; get ready to prime,G92 E0                   ; reset extrusion distance,G1 X120 E10 F600 ; prime nozzle,G1 X150 F5000      ; quick wipe,M117 IMPRESSION...
;   layerChangeGcode,
;   retractionGcode,
;   toolChangeGcode,
;   endingGcode,M104 S0 ; turn off extruder,M140 S0 ; turn off bed,M84 ; disable motors,,G28 X0   ; home x axis,M106 S0 ; turn off cooling fan,M104 S0 ; turn off extruder,M140 S0 ; turn off bed,M84        ; disable motors,M117 IMPRESSION TERMINEE
;   exportFileFormat,gcode
;   celebration,0
;   celebrationSong,Star Wars
;   postProcessing,
;   defaultSpeed,4800
;   outlineUnderspeed,0.5
;   solidInfillUnderspeed,0.8
;   supportUnderspeed,0.8
;   rapidXYspeed,7200
;   rapidZspeed,1002
;   minBridgingArea,50
;   bridgingExtraInflation,0
;   bridgingExtrusionMultiplier,0.85
;   bridgingSpeedMultiplier,1.05
;   useFixedBridgingAngle,0
;   fixedBridgingAngle,0
;   applyBridgingToPerimeters,0
;   filamentDiameters,1.75|1.75|1.75|1.75|1.75|1.75
;   filamentPricesPerKg,30|46|46|46|46|46
;   filamentDensities,1.25|1.25|1.25|1.25|1.25|1.25
;   useMinPrintHeight,0
;   minPrintHeight,0
;   useMaxPrintHeight,0
;   maxPrintHeight,0
;   useDiaphragm,0
;   diaphragmLayerInterval,20
;   robustSlicing,1
;   mergeAllIntoSolid,0
;   onlyRetractWhenCrossingOutline,1
;   retractBetweenLayers,1
;   useRetractionMinTravel,1
;   retractionMinTravel,3
;   retractWhileWiping,1
;   onlyWipeOutlines,1
;   avoidCrossingOutline,1
;   maxMovementDetourFactor,3
;   toolChangeRetractionDistance,12
;   toolChangeExtraRestartDistance,-0.5
;   toolChangeRetractionSpeed,600
;   externalThinWallType,0
;   internalThinWallType,2
;   thinWallAllowedOverlapPercentage,15
;   singleExtrusionMinLength,1
;   singleExtrusionMinPrintingWidthPercentage,50
;   singleExtrusionMaxPrintingWidthPercentage,200
;   singleExtrusionEndpointExtension,0.2
;   horizontalSizeCompensation,0
G90
M82
M106 S255
G4 P500
M106 S0
M140 S65
M190 S65
M104 S205 T0
M109 S205 T0
G28                        ; home all axes
G1 Z5 F3000          ; lift
G1 X20 Y20 F1500 ; avoid binder clips
G1 Z0.2 F3000       ; get ready to prime
G92 E0                   ; reset extrusion distance
G1 X120 E10 F600 ; prime nozzle
G1 X150 F5000      ; quick wipe
M117 IMPRESSION...
G92 E0
G1 E-6.5000 F1800
G1 Z0.180 F1002
; process Tevo Tornado 01
; layer 1, Z = 0.180
T0
; tool H0.200 W0.400
; skirt
G1 X142.169 Y126.293 F7200
G1 E0.0000 F540
G92 E0
G1 X142.340 Y126.196 E0.0059 F2400
G1 X145.427 Y125.586 E0.1001
G1 X145.437 Y125.584 E0.1004
G1 X145.573 Y125.562 E0.1045
G1 X145.582 Y125.560 E0.1048
G1 X146.953 Y125.380 E0.1462
G1 X146.961 Y125.379 E0.1464
G1 X147.076 Y125.367 E0.1499
G1 X147.084 Y125.366 E0.1501
G1 X148.466 Y125.259 E0.1916
G1 X148.473 Y125.258 E0.1918
G1 X148.586 Y125.253 E0.1952
G1 X148.594 Y125.252 E0.1954
G1 X149.969 Y125.218 E0.2366
G1 X149.977 Y125.218 E0.2369
G1 X150.090 Y125.218 E0.2402
G1 X150.098 Y125.218 E0.2405
G1 X151.465 Y125.256 E0.2814
G1 X151.473 Y125.256 E0.2817
G1 X151.583 Y125.262 E0.2849
G1 X151.590 Y125.262 E0.2852
G1 X152.932 Y125.368 E0.3255
G1 X152.940 Y125.368 E0.3257
G1 X153.053 Y125.380 E0.3291
G1 X153.061 Y125.381 E0.3293
G1 X154.431 Y125.562 E0.3707
G1 X154.440 Y125.564 E0.3710
G1 X154.576 Y125.586 E0.3751
G1 X154.585 Y125.588 E0.3754
G1 X157.661 Y126.196 E0.4693
G1 X157.832 Y126.294 E0.4751
G1 X159.749 Y128.449 E0.5615
G1 X159.826 Y128.630 E0.5674
G1 X160.046 Y131.417 E0.6510
G1 X160.287 Y133.255 E0.7065
G1 X160.625 Y135.077 E0.7620
G1 X161.058 Y136.879 E0.8175
G1 X161.584 Y138.656 E0.8730
G1 X162.203 Y140.403 E0.9284
G1 X162.912 Y142.115 E0.9839
G1 X163.711 Y143.789 E1.0394
G1 X164.597 Y145.422 E1.0950
G1 X165.563 Y146.996 E1.1503
G1 X166.612 Y148.524 E1.2058
G1 X167.741 Y149.995 E1.2613
G1 X168.944 Y151.403 E1.3168
G1 X170.221 Y152.749 E1.3723
G1 X171.564 Y154.023 E1.4277
G1 X172.974 Y155.227 E1.4832
G1 X174.444 Y156.355 E1.5387
G1 X176.721 Y157.920 E1.6214
G1 X176.839 Y158.077 E1.6273
G1 X177.746 Y160.817 E1.7137
G1 X177.746 Y161.014 E1.7195
G1 X176.737 Y163.969 E1.8130
G1 X176.734 Y163.978 E1.8133
G1 X176.685 Y164.107 E1.8174
G1 X176.682 Y164.116 E1.8177
G1 X176.150 Y165.398 E1.8593
G1 X176.147 Y165.405 E1.8595
G1 X176.101 Y165.509 E1.8629
G1 X176.097 Y165.516 E1.8631
G1 X175.500 Y166.766 E1.9046
G1 X175.496 Y166.773 E1.9048
G1 X175.446 Y166.873 E1.9082
G1 X175.442 Y166.879 E1.9084
G1 X174.796 Y168.069 E1.9489
G1 X174.792 Y168.076 E1.9492
G1 X174.736 Y168.172 E1.9525
G1 X174.732 Y168.179 E1.9527
G1 X174.021 Y169.340 E1.9935
G1 X174.017 Y169.347 E1.9937
G1 X173.955 Y169.442 E1.9971
G1 X173.951 Y169.448 E1.9974
G1 X173.171 Y170.581 E2.0385
G1 X173.167 Y170.588 E2.0388
G1 X173.101 Y170.679 E2.0421
G1 X173.096 Y170.685 E2.0424
G1 X172.254 Y171.782 E2.0838
G1 X172.248 Y171.790 E2.0841
G1 X172.159 Y171.898 E2.0883
G1 X172.152 Y171.906 E2.0886
G1 X170.052 Y174.300 E2.1839
G1 X169.883 Y174.398 E2.1898
G1 X167.059 Y174.979 E2.2760
G1 X166.865 Y174.955 E2.2819
G1 X164.398 Y173.779 E2.3637
G1 X162.686 Y173.070 E2.4192
G1 X160.939 Y172.452 E2.4746
G1 X159.162 Y171.925 E2.5301
G1 X157.359 Y171.492 E2.5856
G1 X155.537 Y171.155 E2.6411
G1 X153.700 Y170.912 E2.6966
G1 X151.853 Y170.767 E2.7520
G1 X150.000 Y170.719 E2.8075
G1 X148.147 Y170.767 E2.8630
G1 X146.300 Y170.912 E2.9185
G1 X144.463 Y171.155 E2.9739
G1 X142.640 Y171.492 E3.0294
G1 X140.839 Y171.925 E3.0849
G1 X139.061 Y172.451 E3.1404
G1 X137.314 Y173.070 E3.1959
G1 X135.602 Y173.779 E3.2513
G1 X133.135 Y174.955 E3.3331
G1 X132.940 Y174.979 E3.3390
G1 X130.117 Y174.398 E3.4253
G1 X129.947 Y174.299 E3.4312
G1 X127.840 Y171.896 E3.5269
G1 X127.833 Y171.888 E3.5272
G1 X127.744 Y171.779 E3.5314
G1 X127.738 Y171.772 E3.5317
G1 X126.896 Y170.674 E3.5731
G1 X126.891 Y170.668 E3.5733
G1 X126.825 Y170.577 E3.5767
G1 X126.821 Y170.570 E3.5769
G1 X126.045 Y169.442 E3.6179
G1 X126.041 Y169.435 E3.6181
G1 X125.980 Y169.341 E3.6215
G1 X125.976 Y169.334 E3.6217
G1 X125.260 Y168.166 E3.6627
G1 X125.256 Y168.159 E3.6630
G1 X125.200 Y168.062 E3.6663
G1 X125.196 Y168.055 E3.6666
G1 X124.543 Y166.852 E3.7075
G1 X124.540 Y166.845 E3.7078
G1 X124.489 Y166.745 E3.7111
G1 X124.485 Y166.738 E3.7114
G1 X123.896 Y165.502 E3.7524
G1 X123.893 Y165.495 E3.7526
G1 X123.847 Y165.392 E3.7560
G1 X123.844 Y165.385 E3.7562
G1 X123.315 Y164.108 E3.7976
G1 X123.312 Y164.099 E3.7979
G1 X123.263 Y163.970 E3.8020
G1 X123.260 Y163.961 E3.8023
G1 X122.255 Y161.010 E3.8956
G1 X122.255 Y160.814 E3.9014
G1 X123.163 Y158.076 E3.9878
G1 X123.281 Y157.919 E3.9937
G1 X125.557 Y156.355 E4.0763
G1 X127.030 Y155.225 E4.1319
G1 X128.440 Y154.019 E4.1875
G1 X129.791 Y152.736 E4.2432
G1 X131.056 Y151.403 E4.2982
G1 X132.260 Y149.994 E4.3537
G1 X133.388 Y148.524 E4.4092
G1 X134.444 Y146.986 E4.4650
G1 X135.406 Y145.416 E4.5201
G1 X136.290 Y143.788 E4.5756
G1 X137.088 Y142.115 E4.6311
G1 X137.797 Y140.403 E4.6866
G1 X138.416 Y138.656 E4.7420
G1 X138.942 Y136.879 E4.7975
G1 X139.375 Y135.077 E4.8530
G1 X139.713 Y133.248 E4.9087
G1 X139.955 Y131.417 E4.9639
G1 X140.174 Y128.630 E5.0477
G1 X140.251 Y128.449 E5.0535
G1 X142.169 Y126.293 E5.1399
G1 X142.425 Y126.608 F7200
G92 E0
G1 X142.481 Y126.575 E0.0020 F2400
G1 X145.502 Y125.979 E0.0941
G1 X145.505 Y125.978 E0.0942
G1 X145.635 Y125.957 E0.0981
G1 X145.638 Y125.956 E0.0982
G1 X147.003 Y125.777 E0.1395
G1 X147.006 Y125.776 E0.1395
G1 X147.115 Y125.765 E0.1428
G1 X147.117 Y125.765 E0.1429
G1 X148.494 Y125.658 E0.1842
G1 X148.496 Y125.658 E0.1843
G1 X148.604 Y125.652 E0.1875
G1 X148.606 Y125.652 E0.1876
G1 X149.977 Y125.618 E0.2286
G1 X149.979 Y125.618 E0.2287
G1 X150.087 Y125.618 E0.2319
G1 X150.090 Y125.618 E0.2320
G1 X151.452 Y125.655 E0.2728
G1 X151.454 Y125.655 E0.2729
G1 X151.559 Y125.661 E0.2760
G1 X151.562 Y125.661 E0.2761
G1 X152.898 Y125.766 E0.3162
G1 X152.900 Y125.767 E0.3163
G1 X153.008 Y125.778 E0.3195
G1 X153.011 Y125.778 E0.3196
G1 X154.375 Y125.959 E0.3608
G1 X154.378 Y125.959 E0.3609
G1 X154.508 Y125.980 E0.3648
G1 X154.511 Y125.981 E0.3649
G1 X157.520 Y126.576 E0.4567
G1 X157.576 Y126.609 E0.4587
G1 X159.407 Y128.666 E0.5411
G1 X159.433 Y128.727 E0.5431
G1 X159.648 Y131.459 E0.6251
G1 X159.892 Y133.317 E0.6813
G1 X160.234 Y135.160 E0.7374
G1 X160.671 Y136.982 E0.7935
G1 X161.204 Y138.780 E0.8496
G1 X161.829 Y140.546 E0.9057
G1 X162.547 Y142.278 E0.9618
G1 X163.354 Y143.971 E1.0179
G1 X164.251 Y145.622 E1.0742
G1 X165.227 Y147.214 E1.1301
G1 X166.288 Y148.759 E1.1862
G1 X167.430 Y150.247 E1.2423
G1 X168.646 Y151.671 E1.2984
G1 X169.938 Y153.032 E1.3545
G1 X171.296 Y154.321 E1.4106
G1 X172.722 Y155.538 E1.4667
G1 X174.209 Y156.679 E1.5228
G1 X176.440 Y158.213 E1.6039
G1 X176.480 Y158.265 E1.6058
G1 X177.346 Y160.881 E1.6883
G1 X177.346 Y160.946 E1.6903
G1 X176.360 Y163.836 E1.7817
G1 X176.359 Y163.839 E1.7818
G1 X176.312 Y163.962 E1.7857
G1 X176.311 Y163.965 E1.7858
G1 X175.782 Y165.242 E1.8272
G1 X175.781 Y165.245 E1.8273
G1 X175.736 Y165.344 E1.8305
G1 X175.735 Y165.346 E1.8306
G1 X175.140 Y166.591 E1.8719
G1 X175.139 Y166.594 E1.8720
G1 X175.091 Y166.688 E1.8752
G1 X175.089 Y166.691 E1.8752
G1 X174.446 Y167.875 E1.9156
G1 X174.444 Y167.878 E1.9157
G1 X174.391 Y167.970 E1.9189
G1 X174.390 Y167.972 E1.9189
G1 X173.681 Y169.129 E1.9595
G1 X173.680 Y169.131 E1.9596
G1 X173.621 Y169.221 E1.9629
G1 X173.619 Y169.224 E1.9629
G1 X172.843 Y170.352 E2.0039
G1 X172.842 Y170.354 E2.0040
G1 X172.779 Y170.441 E2.0072
G1 X172.777 Y170.443 E2.0073
G1 X171.939 Y171.536 E2.0485
G1 X171.936 Y171.538 E2.0486
G1 X171.851 Y171.642 E2.0526
G1 X171.849 Y171.644 E2.0527
G1 X169.794 Y173.987 E2.1460
G1 X169.738 Y174.020 E2.1480
G1 X167.043 Y174.574 E2.2303
G1 X166.978 Y174.566 E2.2323
G1 X164.561 Y173.413 E2.3124
G1 X162.829 Y172.696 E2.3685
G1 X161.063 Y172.071 E2.4246
G1 X159.265 Y171.539 E2.4808
G1 X157.443 Y171.101 E2.5369
G1 X155.600 Y170.759 E2.5930
G1 X153.742 Y170.514 E2.6491
G1 X151.874 Y170.368 E2.7052
G1 X150.000 Y170.318 E2.7613
G1 X148.126 Y170.368 E2.8174
G1 X146.258 Y170.514 E2.8735
G1 X144.400 Y170.759 E2.9296
G1 X142.557 Y171.101 E2.9857
G1 X140.735 Y171.539 E3.0418
G1 X138.937 Y172.071 E3.0979
G1 X137.170 Y172.697 E3.1540
G1 X135.439 Y173.413 E3.2101
G1 X133.022 Y174.566 E3.2903
G1 X132.957 Y174.574 E3.2922
G1 X130.261 Y174.019 E3.3746
G1 X130.205 Y173.986 E3.3766
G1 X128.143 Y171.635 E3.4702
G1 X128.141 Y171.632 E3.4703
G1 X128.055 Y171.528 E3.4743
G1 X128.053 Y171.526 E3.4744
G1 X127.215 Y170.433 E3.5156
G1 X127.214 Y170.431 E3.5157
G1 X127.150 Y170.344 E3.5189
G1 X127.149 Y170.342 E3.5190
G1 X126.377 Y169.217 E3.5598
G1 X126.375 Y169.215 E3.5599
G1 X126.317 Y169.125 E3.5631
G1 X126.315 Y169.123 E3.5632
G1 X125.603 Y167.959 E3.6041
G1 X125.601 Y167.957 E3.6041
G1 X125.548 Y167.864 E3.6074
G1 X125.546 Y167.862 E3.6074
G1 X124.896 Y166.664 E3.6482
G1 X124.895 Y166.661 E3.6483
G1 X124.846 Y166.566 E3.6515
G1 X124.845 Y166.563 E3.6516
G1 X124.258 Y165.332 E3.6924
G1 X124.257 Y165.330 E3.6925
G1 X124.214 Y165.232 E3.6957
G1 X124.213 Y165.230 E3.6958
G1 X123.686 Y163.958 E3.7370
G1 X123.685 Y163.955 E3.7371
G1 X123.639 Y163.832 E3.7410
G1 X123.637 Y163.829 E3.7411
G1 X122.655 Y160.943 E3.8324
G1 X122.655 Y160.878 E3.8343
G1 X123.522 Y158.264 E3.9168
G1 X123.561 Y158.212 E3.9187
G1 X125.792 Y156.679 E3.9997
G1 X127.281 Y155.535 E4.0559
G1 X128.708 Y154.317 E4.1121
G1 X130.074 Y153.019 E4.1685
G1 X131.353 Y151.671 E4.2241
G1 X132.571 Y150.246 E4.2803
G1 X133.711 Y148.759 E4.3363
G1 X134.780 Y147.204 E4.3928
G1 X135.753 Y145.616 E4.4486
G1 X136.647 Y143.969 E4.5047
G1 X137.454 Y142.278 E4.5608
G1 X138.171 Y140.546 E4.6169
G1 X138.796 Y138.779 E4.6730
G1 X139.329 Y136.982 E4.7291
G1 X139.766 Y135.160 E4.7852
G1 X140.109 Y133.311 E4.8415
G1 X140.353 Y131.459 E4.8974
G1 X140.568 Y128.726 E4.9794
G1 X140.593 Y128.666 E4.9814
G1 X142.425 Y126.608 E5.0639
G92 E0
G1 E-6.5000 F1800
; inner perimeter
G1 X144.831 Y130.586 F7200
G1 X144.975 Y130.552 F7200
G1 X145.210 Y130.915 F7200
G1 E0.0000 F1800
G92 E0
G1 X146.345 Y130.705 E0.0345 F1800
G1 X147.559 Y130.545 E0.0712
G1 X148.796 Y130.449 E0.1083
