; G-Code generated by Simplify3D(R) Version 4.0.1
; Dec 14, 2018 at 3:14:09 PM
; Settings Summary
;   processName,Tevo Tornado 01
;   applyToModels,Y_MOUNT_TEVO_TORNADO_FINAL_v1
;   profileName,007 Tevo Tornado (experimental) 06-03 (modified)
;   profileVersion,2018-12-12 22:23:31
;   baseProfile,Creality CR-10(2)
;   printMaterial,PLA
;   printQuality,Medium
;   printExtruders,
;   extruderName,Primary Extruder
;   extruderToolheadNumber,0
;   extruderDiameter,0.4
;   extruderAutoWidth,0
;   extruderWidth,0.4
;   extrusionMultiplier,1
;   extruderUseRetract,1
;   extruderRetractionDistance,6.5
;   extruderExtraRestartDistance,0
;   extruderRetractionZLift,0
;   extruderRetractionSpeed,1800
;   extruderUseCoasting,0
;   extruderCoastingDistance,0.2
;   extruderUseWipe,0
;   extruderWipeDistance,4
;   primaryExtruder,0
;   layerHeight,0.2
;   topSolidLayers,5
;   bottomSolidLayers,4
;   perimeterOutlines,3
;   printPerimetersInsideOut,1
;   startPointOption,2
;   startPointOriginX,0
;   startPointOriginY,500
;   sequentialIslands,0
;   spiralVaseMode,0
;   firstLayerHeightPercentage,90
;   firstLayerWidthPercentage,110
;   firstLayerUnderspeed,0.25
;   useRaft,0
;   raftExtruder,0
;   raftTopLayers,3
;   raftBaseLayers,2
;   raftOffset,3
;   raftSeparationDistance,0.14
;   raftTopInfill,100
;   aboveRaftSpeedMultiplier,0.3
;   useSkirt,1
;   skirtExtruder,0
;   skirtLayers,1
;   skirtOutlines,3
;   skirtOffset,0
;   usePrimePillar,0
;   primePillarExtruder,999
;   primePillarWidth,12
;   primePillarLocation,7
;   primePillarSpeedMultiplier,1
;   useOozeShield,0
;   oozeShieldExtruder,999
;   oozeShieldOffset,2
;   oozeShieldOutlines,1
;   oozeShieldSidewallShape,1
;   oozeShieldSidewallAngle,30
;   oozeShieldSpeedMultiplier,1
;   infillExtruder,0
;   internalInfillPattern,Rectilinear
;   externalInfillPattern,Rectilinear
;   infillPercentage,50
;   outlineOverlapPercentage,30
;   infillExtrusionWidthPercentage,125
;   minInfillLength,5
;   infillLayerInterval,1
;   internalInfillAngles,45,-45
;   overlapInternalInfillAngles,0
;   externalInfillAngles,45,-45
;   generateSupport,1
;   supportExtruder,0
;   supportInfillPercentage,30
;   supportExtraInflation,0
;   supportBaseLayers,0
;   denseSupportExtruder,0
;   denseSupportLayers,0
;   denseSupportInfillPercentage,70
;   supportLayerInterval,1
;   supportHorizontalPartOffset,0.4
;   supportUpperSeparationLayers,1
;   supportLowerSeparationLayers,1
;   supportType,0
;   supportGridSpacing,4.5
;   maxOverhangAngle,45
;   supportAngles,0
;   temperatureName,Primary Extruder,Heated Bed
;   temperatureNumber,0,0
;   temperatureSetpointCount,3,2
;   temperatureSetpointLayers,1,2,3,1,2
;   temperatureSetpointTemperatures,210,200,190,65,60
;   temperatureStabilizeAtStartup,1,1
;   temperatureHeatedBed,0,1
;   temperatureRelayBetweenLayers,0,0
;   temperatureRelayBetweenLoops,0,0
;   fanLayers,1,2
;   fanSpeeds,0,100
;   blipFanToFullPower,1
;   adjustSpeedForCooling,1
;   minSpeedLayerTime,15
;   minCoolingSpeedSlowdown,50
;   increaseFanForCooling,0
;   minFanLayerTime,45
;   maxCoolingFanSpeed,100
;   increaseFanForBridging,1
;   bridgingFanSpeed,100
;   use5D,1
;   relativeEdistances,0
;   allowEaxisZeroing,1
;   independentExtruderAxes,0
;   includeM10123,0
;   stickySupport,1
;   applyToolheadOffsets,0
;   gcodeXoffset,0
;   gcodeYoffset,0
;   gcodeZoffset,0
;   overrideMachineDefinition,1
;   machineTypeOverride,0
;   strokeXoverride,300
;   strokeYoverride,300
;   strokeZoverride,400
;   originOffsetXoverride,0
;   originOffsetYoverride,0
;   originOffsetZoverride,0
;   homeXdirOverride,-1
;   homeYdirOverride,-1
;   homeZdirOverride,-1
;   flipXoverride,1
;   flipYoverride,-1
;   flipZoverride,1
;   toolheadOffsets,0,0|0,0|0,0|0,0|0,0|0,0
;   overrideFirmwareConfiguration,0
;   firmwareTypeOverride,RepRap (Marlin/Repetier/Sprinter)
;   GPXconfigOverride,r2
;   baudRateOverride,250000
;   overridePrinterModels,1
;   printerModelsOverride
;   startingGcode,;Init 181010,;G28 ; home all axes,;G1 Z5 F3000 ; lift,;G92 E0 ; reset extrusion distance,,;From Cura 181010,; start_gcode,M117 Start Clean	; Indicate nozzle clean in progress on LCD,;,M104 S[extruder0_temperature] ,M109 S[extruder0_temperature] ,M109 R[extruder0_temperature] ,;,M107		; Turn layer fan off,G21		; Set to metric [change to G20 if you want Imperial],G90	 	; Force coordinates to be absolute relative to the origin,G28		; Home X/Y/Z axis,;,G1 X3 Y1 Z15 F9000	; Move safe Z height to shear strings,G0 X1 Y1 Z0.2 F9000	; Move in 1mm from edge and up [z] 0.2mm,G92 E0		; Set extruder to [0] zero,G1 X100 E12 F500	; Extrude 30mm filiment along X axis 100mm long to prime and clean the nozzle,G92 E0		; Reset extruder to [0] zero end of cleaning run,G1 E-1 F500		; Retract filiment by 1 mm to reduce string effect,G1 X180 F4000		; quick wipe away from the filament line / purge,M117 End Clean		; Indicate nozzle clean in progress on LCD,;,M117 PRINTING...	; Start msg,; Begin printing with sliced GCode after here,;
;   layerChangeGcode,
;   retractionGcode,
;   toolChangeGcode,
;   endingGcode,;,; init 181010,;,;M107 ; Fan off,;G1 E-1 F300 ; Retract the filament a bit before lifting the nozzle,;M104 S0 ; turn off extruder,;M140 S0 ; turn off bed,;G91 ; Relative positioning,;G28 X0 Y0 ; Move X/Y to min endstops so the head is out of teh way,;M84 ; disable motors,;G90 ; Absolute positioning,;M117 Print ready...,,;,;From Cura 181010,;,; end_gcode,G92 E0		; zero the extruded length,G1 E-5 F9000		; retract,M104 S0		; turn off temperature,M140 S0		; turn off bed,G91		; relative positioning,G1 E-1 F300		; retract the filament a bit before lifting the nozzle to release some of the pressure,G1 Z+20 E-5 X-20 Y-20 F7200	; move Z up a bit and retract filament even more,G1 X320 Y150 F10000	; move right mid,M107		; turn off layer fan,M84		; disable motors,G90		; absolute positioning,M117 IMPRESSION TERMINEE	; end msg,;,;EOF
;   exportFileFormat,gcode
;   celebration,0
;   celebrationSong,Star Wars
;   postProcessing,
;   defaultSpeed,4200
;   outlineUnderspeed,0.5
;   solidInfillUnderspeed,0.8
;   supportUnderspeed,0.8
;   rapidXYspeed,6000
;   rapidZspeed,1002
;   minBridgingArea,50
;   bridgingExtraInflation,0
;   bridgingExtrusionMultiplier,0.85
;   bridgingSpeedMultiplier,1.05
;   useFixedBridgingAngle,0
;   fixedBridgingAngle,0
;   applyBridgingToPerimeters,0
;   filamentDiameters,1.75|1.75|1.75|1.75|1.75|1.75
;   filamentPricesPerKg,30|46|46|46|46|46
;   filamentDensities,1.25|1.25|1.25|1.25|1.25|1.25
;   useMinPrintHeight,0
;   minPrintHeight,0
;   useMaxPrintHeight,0
;   maxPrintHeight,9
;   useDiaphragm,0
;   diaphragmLayerInterval,20
;   robustSlicing,1
;   mergeAllIntoSolid,0
;   onlyRetractWhenCrossingOutline,1
;   retractBetweenLayers,1
;   useRetractionMinTravel,1
;   retractionMinTravel,3
;   retractWhileWiping,1
;   onlyWipeOutlines,1
;   avoidCrossingOutline,1
;   maxMovementDetourFactor,3
;   toolChangeRetractionDistance,12
;   toolChangeExtraRestartDistance,-0.5
;   toolChangeRetractionSpeed,600
;   externalThinWallType,0
;   internalThinWallType,2
;   thinWallAllowedOverlapPercentage,15
;   singleExtrusionMinLength,1
;   singleExtrusionMinPrintingWidthPercentage,50
;   singleExtrusionMaxPrintingWidthPercentage,200
;   singleExtrusionEndpointExtension,0.2
;   horizontalSizeCompensation,0
G90
M82
M106 S255
G4 P500
M106 S0
M140 S65
M190 S65
;Init 181010
;G28 ; home all axes
;G1 Z5 F3000 ; lift
;G92 E0 ; reset extrusion distance
;From Cura 181010
; start_gcode
M117 Start Clean	; Indicate nozzle clean in progress on LCD
;
M104 S210 
M109 S210 
M109 R210 
;
M107		; Turn layer fan off
G21		; Set to metric [change to G20 if you want Imperial]
G90	 	; Force coordinates to be absolute relative to the origin
G28		; Home X/Y/Z axis
;
G1 X3 Y1 Z15 F9000	; Move safe Z height to shear strings
G0 X1 Y1 Z0.2 F9000	; Move in 1mm from edge and up [z] 0.2mm
G92 E0		; Set extruder to [0] zero
G1 X100 E12 F500	; Extrude 30mm filiment along X axis 100mm long to prime and clean the nozzle
G92 E0		; Reset extruder to [0] zero end of cleaning run
G1 E-1 F500		; Retract filiment by 1 mm to reduce string effect
G1 X180 F4000		; quick wipe away from the filament line / purge
M117 End Clean		; Indicate nozzle clean in progress on LCD
;
M117 PRINTING...	; Start msg
; Begin printing with sliced GCode after here
;
G92 E0
G1 E-6.5000 F1800
G1 Z0.180 F1002
; process Tevo Tornado 01
; layer 1, Z = 0.180
T0
; tool H0.200 W0.440
; skirt
G1 X111.116 Y128.530 F6000
G1 E0.0000 F540
G92 E0
G1 X157.384 Y128.530 E1.6928 F1050
G1 X157.970 Y129.116 E1.7231
G1 X157.970 Y133.030 E1.8663
G1 X161.884 Y133.030 E2.0095
G1 X162.470 Y133.616 E2.0398
G1 X162.470 Y137.530 E2.1830
G1 X165.896 Y137.530 E2.3084
G1 X165.955 Y137.423 E2.3128
G1 X166.191 Y137.156 E2.3259
G1 X166.327 Y137.048 E2.3322
G1 X166.669 Y136.861 E2.3465
G1 X166.832 Y136.806 E2.3528
G1 X167.146 Y136.756 E2.3644
G1 X167.225 Y136.750 E2.3673
G1 X187.948 Y136.750 E3.1255
G1 X188.534 Y137.336 E3.1558
G1 X188.534 Y142.520 E3.3455
G1 X188.515 Y142.658 E3.3506
G1 X188.408 Y143.032 E3.3648
G1 X188.272 Y143.258 E3.3744
G1 X187.940 Y143.579 E3.3913
G1 X187.818 Y143.666 E3.3968
G1 X187.550 Y143.803 E3.4078
G1 X187.417 Y143.848 E3.4130
G1 X186.892 Y143.949 E3.4325
G1 X186.798 Y143.958 E3.4360
G1 X166.898 Y143.956 E4.1641
G1 X166.384 Y144.470 E4.1906
G1 X162.470 Y144.470 E4.3338
G1 X162.470 Y152.884 E4.6417
G1 X161.884 Y153.470 E4.6720
G1 X157.970 Y153.470 E4.8152
G1 X157.970 Y157.384 E4.9584
G1 X157.384 Y157.970 E4.9887
G1 X153.470 Y157.970 E5.1319
G1 X153.470 Y170.884 E5.6044
G1 X152.884 Y171.470 E5.6347
G1 X111.116 Y171.470 E7.1628
G1 X110.530 Y170.884 E7.1932
G1 X110.530 Y129.116 E8.7213
G1 X111.116 Y128.530 E8.7516
G1 X111.281 Y128.930 F6000
G92 E0
G1 X157.219 Y128.930 E1.6807 F1050
G1 X157.570 Y129.281 E1.6988
G1 X157.570 Y133.430 E1.8506
G1 X161.719 Y133.430 E2.0024
G1 X162.070 Y133.781 E2.0206
G1 X162.070 Y137.930 E2.1724
G1 X166.172 Y137.930 E2.3224
G1 X166.220 Y137.769 E2.3286
G1 X166.284 Y137.655 E2.3334
G1 X166.468 Y137.447 E2.3435
G1 X166.549 Y137.382 E2.3473
G1 X166.831 Y137.229 E2.3591
G1 X166.928 Y137.196 E2.3628
G1 X167.193 Y137.154 E2.3727
G1 X167.240 Y137.150 E2.3744
G1 X187.783 Y137.150 E3.1259
G1 X188.134 Y137.501 E3.1441
G1 X188.134 Y142.492 E3.3267
G1 X188.122 Y142.575 E3.3298
G1 X188.037 Y142.872 E3.3411
G1 X187.956 Y143.007 E3.3468
G1 X187.683 Y143.271 E3.3607
G1 X187.610 Y143.323 E3.3640
G1 X187.394 Y143.434 E3.3729
G1 X187.314 Y143.461 E3.3760
G1 X186.836 Y143.553 E3.3938
G1 X186.779 Y143.558 E3.3959
G1 X166.570 Y143.556 E4.1353
G1 X166.570 Y143.719 E4.1412
G1 X166.219 Y144.070 E4.1594
G1 X162.070 Y144.070 E4.3112
G1 X162.070 Y152.719 E4.6276
G1 X161.719 Y153.070 E4.6458
G1 X157.570 Y153.070 E4.7975
G1 X157.570 Y157.219 E4.9493
G1 X157.219 Y157.570 E4.9675
G1 X153.070 Y157.570 E5.1193
G1 X153.070 Y170.719 E5.6003
G1 X152.719 Y171.070 E5.6185
G1 X111.281 Y171.070 E7.1345
G1 X110.930 Y170.719 E7.1527
G1 X110.930 Y129.281 E8.6688
G1 X111.281 Y128.930 E8.6869
G1 X111.447 Y129.330 F6000
G92 E0
G1 X157.053 Y129.330 E1.6685 F1050
G1 X157.170 Y129.447 E1.6746
G1 X157.170 Y133.830 E1.8349
G1 X161.553 Y133.830 E1.9953
G1 X161.670 Y133.947 E2.0014
G1 X161.670 Y138.330 E2.1617
G1 X166.053 Y138.330 E2.3221
G1 X166.170 Y138.447 E2.3281
G1 X166.170 Y143.553 E2.5149
G1 X166.053 Y143.670 E2.5210
G1 X161.670 Y143.670 E2.6813
G1 X161.670 Y152.553 E3.0063
G1 X161.553 Y152.670 E3.0124
G1 X157.170 Y152.670 E3.1727
G1 X157.170 Y157.053 E3.3331
G1 X157.053 Y157.170 E3.3392
G1 X152.670 Y157.170 E3.4995
G1 X152.670 Y170.553 E3.9891
G1 X152.553 Y170.670 E3.9952
G1 X111.447 Y170.670 E5.4991
G1 X111.330 Y170.553 E5.5052
G1 X111.330 Y129.447 E7.0091
G1 X111.447 Y129.330 E7.0151
G1 X166.507 Y138.207 F6000
G92 E0
G1 X166.591 Y137.926 E0.0107 F1050
G1 X166.612 Y137.888 E0.0123
G1 X166.744 Y137.738 E0.0196
G1 X166.771 Y137.717 E0.0209
G1 X166.992 Y137.596 E0.0301
G1 X167.025 Y137.585 E0.0313
G1 X167.240 Y137.551 E0.0393
G1 X167.256 Y137.550 E0.0399
G1 X187.617 Y137.550 E0.7848
G1 X187.734 Y137.667 E0.7909
G1 X187.734 Y142.464 E0.9664
G1 X187.730 Y142.492 E0.9674
G1 X187.667 Y142.711 E0.9758
G1 X187.640 Y142.756 E0.9777
G1 X187.427 Y142.963 E0.9886
G1 X187.402 Y142.980 E0.9897
G1 X187.238 Y143.064 E0.9964
G1 X187.211 Y143.073 E0.9974
G1 X186.779 Y143.156 E1.0135
G1 X186.760 Y143.158 E1.0142
G1 X166.622 Y143.156 E1.7510
G1 X166.504 Y143.039 E1.7571
G1 X166.503 Y138.235 E1.9328
G1 X166.507 Y138.207 E1.9339
; inner perimeter
G1 X166.918 Y138.270 F6000
G1 X166.918 Y138.411 F6000
G1 X167.803 Y138.850 F6000
G92 E0
G1 X186.434 Y138.850 E0.6816 F788
G1 X186.434 Y141.858 E0.7917
G1 X167.804 Y141.856 E1.4733
G1 X167.803 Y138.850 E1.5833
G1 X167.363 Y138.410 F6000
G92 E0
G1 X186.874 Y138.410 E0.7138 F788
G1 X186.874 Y142.298 E0.8561
G1 X167.364 Y142.296 E1.5699
G1 X167.363 Y138.410 E1.7121
; outer perimeter
G1 X167.281 Y137.970 F6000
G92 E0
G1 X187.314 Y137.970 E0.7329 F525
G1 X187.314 Y142.419 E0.8957
G1 X187.282 Y142.530 E0.8999
G1 X187.277 Y142.536 E0.9002
G1 X187.175 Y142.625 E0.9052
G1 X187.081 Y142.672 E0.9090
G1 X186.852 Y142.731 E0.9177
G1 X186.744 Y142.738 E0.9216
G1 X166.924 Y142.736 E1.6468
G1 X166.923 Y138.270 E1.8102
G1 X166.943 Y138.163 E1.8141
G1 X166.960 Y138.128 E1.8156
G1 X167.025 Y138.055 E1.8192
G1 X167.118 Y137.998 E1.8231
G1 X167.130 Y137.994 E1.8236
G1 X167.281 Y137.970 E1.8292
; solid layer
G1 X168.305 Y141.549 F6000
G92 E0
G1 X168.112 Y141.355 E0.0100 F840
G1 X168.112 Y140.732 E0.0328
G1 X168.928 Y141.549 E0.0750
G1 X169.550 Y141.549 E0.0978
G1 X168.111 Y140.110 E0.1722
G1 X168.111 Y139.487 E0.1950
G1 X170.172 Y141.549 E0.3017
G1 X170.795 Y141.549 E0.3244
G1 X168.404 Y139.158 E0.4481
G1 X169.026 Y139.158 E0.4709
G1 X171.417 Y141.549 E0.5946
G1 X172.039 Y141.549 E0.6173
G1 X169.648 Y139.158 E0.7410
G1 X170.271 Y139.158 E0.7638
G1 X172.662 Y141.549 E0.8875
G1 X173.284 Y141.549 E0.9103
G1 X170.893 Y139.158 E1.0340
G1 X171.515 Y139.158 E1.0568
G1 X173.906 Y141.549 E1.1805
G1 X174.528 Y141.549 E1.2032
G1 X172.137 Y139.158 E1.3269
G1 X172.760 Y139.158 E1.3497
G1 X175.151 Y141.549 E1.4734
G1 X175.773 Y141.549 E1.4962
G1 X173.382 Y139.158 E1.6199
G1 X174.004 Y139.158 E1.6427
G1 X176.395 Y141.549 E1.7664
G1 X177.018 Y141.549 E1.7892
G1 X174.626 Y139.158 E1.9129
G1 X175.249 Y139.158 E1.9356
G1 X177.640 Y141.549 E2.0594
G1 X178.262 Y141.549 E2.0821
G1 X175.871 Y139.158 E2.2059
G1 X176.493 Y139.158 E2.2286
G1 X178.885 Y141.549 E2.3524
G1 X179.507 Y141.549 E2.3751
G1 X177.116 Y139.158 E2.4988
G1 X177.738 Y139.158 E2.5216
G1 X180.129 Y141.549 E2.6453
G1 X180.751 Y141.549 E2.6681
G1 X178.360 Y139.158 E2.7919
G1 X178.982 Y139.158 E2.8146
G1 X181.374 Y141.549 E2.9384
G1 X181.996 Y141.550 E2.9611
G1 X179.605 Y139.158 E3.0849
G1 X180.227 Y139.158 E3.1076
G1 X182.618 Y141.550 E3.2314
G1 X183.241 Y141.550 E3.2541
G1 X180.849 Y139.158 E3.3779
G1 X181.471 Y139.158 E3.4006
G1 X183.863 Y141.550 E3.5244
G1 X184.485 Y141.550 E3.5472
G1 X182.094 Y139.158 E3.6709
G1 X182.716 Y139.158 E3.6937
G1 X185.108 Y141.550 E3.8174
G1 X185.730 Y141.550 E3.8402
G1 X183.338 Y139.158 E3.9640
G1 X183.960 Y139.158 E3.9867
G1 X186.126 Y141.324 E4.0988
G1 X186.126 Y140.701 E4.1215
G1 X184.583 Y139.158 E4.2014
G1 X185.205 Y139.158 E4.2242
G1 X186.126 Y140.079 E4.2718
G1 X186.126 Y139.457 E4.2946
G1 X185.827 Y139.158 E4.3101
G92 E0
G1 E-6.5000 F1800
; support
G1 X152.270 Y170.000 F6000
G1 E0.0000 F1800
G92 E0
G1 X111.730 Y170.000 E1.4832 F840
G1 X111.730 Y168.667 E1.5320
G1 X152.270 Y168.667 E3.0152
G1 X152.270 Y167.333 E3.0640
G1 X111.730 Y167.333 E4.5472
G1 X111.730 Y166.000 E4.5960
G1 X152.270 Y166.000 E6.0792
G1 X152.270 Y164.667 E6.1279
G1 X111.730 Y164.667 E7.6111
G1 X111.730 Y163.333 E7.6599
G1 X152.270 Y163.333 E9.1431
G1 X152.270 Y162.000 E9.1919
G1 X111.730 Y162.000 E10.6751
G1 X111.730 Y160.667 E10.7239
G1 X152.270 Y160.667 E12.2071
G1 X152.270 Y159.333 E12.2559
G1 X111.730 Y159.333 E13.7391
G1 X111.730 Y158.000 E13.7879
G1 X152.270 Y158.000 E15.2711
G1 X152.270 Y156.770 E15.3161
G1 X156.770 Y156.770 E15.4807
