; G-Code generated by Simplify3D(R) Version 4.0.1
; Sep 26, 2019 at 5:00:57 PM
; Settings Summary
;   processName,Process1
;   applyToModels,Tevo Tornado - Support Capteur Optique Filament
;   profileName,101.01 40% Tevo Tornado (experimental) (modified)
;   profileVersion,2019-09-11 12:42:28
;   baseProfile,Creality CR-10(2)
;   printMaterial,PLA
;   printQuality,Medium
;   printExtruders,
;   extruderName,Primary Extruder
;   extruderToolheadNumber,0
;   extruderDiameter,0.4
;   extruderAutoWidth,0
;   extruderWidth,0.35
;   extrusionMultiplier,0.95
;   extruderUseRetract,1
;   extruderRetractionDistance,6
;   extruderExtraRestartDistance,0
;   extruderRetractionZLift,0.3
;   extruderRetractionSpeed,3000
;   extruderUseCoasting,0
;   extruderCoastingDistance,0.2
;   extruderUseWipe,0
;   extruderWipeDistance,4
;   primaryExtruder,0
;   layerHeight,0.15
;   topSolidLayers,4
;   bottomSolidLayers,3
;   perimeterOutlines,3
;   printPerimetersInsideOut,0
;   startPointOption,2
;   startPointOriginX,0
;   startPointOriginY,300
;   sequentialIslands,0
;   spiralVaseMode,0
;   firstLayerHeightPercentage,120
;   firstLayerWidthPercentage,100
;   firstLayerUnderspeed,0.5
;   useRaft,0
;   raftExtruder,0
;   raftTopLayers,3
;   raftBaseLayers,2
;   raftOffset,3
;   raftSeparationDistance,0.14
;   raftTopInfill,100
;   aboveRaftSpeedMultiplier,0.3
;   useSkirt,1
;   skirtExtruder,0
;   skirtLayers,1
;   skirtOutlines,3
;   skirtOffset,2
;   usePrimePillar,0
;   primePillarExtruder,999
;   primePillarWidth,12
;   primePillarLocation,7
;   primePillarSpeedMultiplier,1
;   useOozeShield,0
;   oozeShieldExtruder,999
;   oozeShieldOffset,2
;   oozeShieldOutlines,1
;   oozeShieldSidewallShape,1
;   oozeShieldSidewallAngle,30
;   oozeShieldSpeedMultiplier,1
;   infillExtruder,0
;   internalInfillPattern,Rectilinear
;   externalInfillPattern,Rectilinear
;   infillPercentage,40
;   outlineOverlapPercentage,15
;   infillExtrusionWidthPercentage,100
;   minInfillLength,5
;   infillLayerInterval,1
;   internalInfillAngles,45,-45
;   overlapInternalInfillAngles,0
;   externalInfillAngles,45,-45
;   generateSupport,1
;   supportExtruder,0
;   supportInfillPercentage,30
;   supportExtraInflation,0
;   supportBaseLayers,0
;   denseSupportExtruder,0
;   denseSupportLayers,0
;   denseSupportInfillPercentage,70
;   supportLayerInterval,1
;   supportHorizontalPartOffset,0.4
;   supportUpperSeparationLayers,1
;   supportLowerSeparationLayers,1
;   supportType,0
;   supportGridSpacing,4.5
;   maxOverhangAngle,45
;   supportAngles,0
;   temperatureName,Primary Extruder,Heated Bed
;   temperatureNumber,0,0
;   temperatureSetpointCount,2,1
;   temperatureSetpointLayers,1,2,1
;   temperatureSetpointTemperatures,210,205,50
;   temperatureStabilizeAtStartup,1,1
;   temperatureHeatedBed,0,1
;   temperatureRelayBetweenLayers,0,0
;   temperatureRelayBetweenLoops,0,0
;   fanLayers,1,2
;   fanSpeeds,0,100
;   blipFanToFullPower,0
;   adjustSpeedForCooling,1
;   minSpeedLayerTime,15
;   minCoolingSpeedSlowdown,50
;   increaseFanForCooling,1
;   minFanLayerTime,25
;   maxCoolingFanSpeed,100
;   increaseFanForBridging,1
;   bridgingFanSpeed,100
;   use5D,1
;   relativeEdistances,0
;   allowEaxisZeroing,1
;   independentExtruderAxes,0
;   includeM10123,0
;   stickySupport,1
;   applyToolheadOffsets,0
;   gcodeXoffset,0
;   gcodeYoffset,0
;   gcodeZoffset,0
;   overrideMachineDefinition,1
;   machineTypeOverride,0
;   strokeXoverride,300
;   strokeYoverride,300
;   strokeZoverride,400
;   originOffsetXoverride,0
;   originOffsetYoverride,0
;   originOffsetZoverride,0
;   homeXdirOverride,-1
;   homeYdirOverride,-1
;   homeZdirOverride,-1
;   flipXoverride,1
;   flipYoverride,-1
;   flipZoverride,1
;   toolheadOffsets,0,0|0,0|0,0|0,0|0,0|0,0
;   overrideFirmwareConfiguration,1
;   firmwareTypeOverride,RepRap (Marlin/Repetier/Sprinter)
;   GPXconfigOverride,r2
;   baudRateOverride,250000
;   overridePrinterModels,1
;   printerModelsOverride
;   startingGcode,;Init 181010,;G28 			; Home all axes,;G1 Z5 F3000 ; lift,;G92 E0			; Reset extrusion distance,,; // From Cura 181010,; // Update 190823 (GueroLoco),; // Start_gcode,M117 *Start Clean*		; Indicate nozzle clean in progress on LCD,;,M104 S[extruder0_temperature] ,M109 S[extruder0_temperature] ,M109 R[extruder0_temperature] ,;,M107			; Turn layer fan off,G21			; Set to metric [change to G20 if you want Imperial],G90			; Force coordinates to be absolute relative to the origin,G28			; Home X/Y/Z axis,;,;G1 X3 Y1 Z15 F9000		; Move safe Z height to shear strings,;G0 X1 Y1 Z0.2 F9000		; Move in 1mm from edge and up [z] 0.2mm,;G92 E0			; Set extruder to [0] zero,;G1 X100 E12 F500		; Extrude 30mm filiment along X axis 100mm long to prime and clean the nozzle,;G92 E0			; Reset extruder to [0] zero end of cleaning run,;G1 E-1 F500			; Retract filiment by 1 mm to reduce string effect,;G1 X180 F4000		; Quick wipe away from the filament line / purge,;,G92 E0			; Set Extruder to 0 ,G1 X0 Y0 F2000		; Move X and Y to 0 with speed 2000 (mm/min),G1 Z0.1 F1000		; Move Z to 0.1,G1 X8.0 F2000		; Move X to 8.0,G1 Y60.0 E4.0 F1000.0		; Prime - Move Y to 60 and Extruder with 4.0,G1 Y100.0 E8.5 F1000.0		; Prime - Move Y to 100 and Extruder with 8.5,G92 E0			; Set extruder to 0,M117 *End Clean*		; Indicate nozzle clean in progress on LCD,G1 Z5 F3000			; Lift - Move Z to 5,; ,M117 *Printing...*		; start msg,; // Begin printing with sliced GCode after here,;
;   layerChangeGcode,
;   retractionGcode,
;   toolChangeGcode,
;   endingGcode,;,; init 181010,;,;M107 			; Fan off,;G1 E-1 F300 			; Retract the filament a bit before lifting the nozzle,;M104 S0 			; Turn off extruder,;M140 S0 			; Turn off bed,;G91			; Relative positioning,;G28 X0 Y0 			; Move X/Y to min endstops so the head is out of teh way,;M84 			; Disable motors,;G90 			; Absolute positioning,;M117 Print ready...,,;,; // From Cura 181010,; // End_gcode,G92 E0			; Zero the extruded length,G1 E-30 F300			; Retract E -30,M106 S0			; Turn off cooling fan,M104 S0			; Turn off temperature,M140 S0		     	; Turn off bed,G91			; Relative positioning,G1 E-1 F300			; Retract the filament a bit before lifting the nozzle to release some of the pressure,G1 Z+20 E-5 X-20 Y-20 F7200	; Move Z up a bit and retract filament even more,G1 X0 Y150 F10000		; Move right mid,M107			; Turn off layer fan,M84			; Disable motors,G90			; Absolute positioning,M117 *The-End* 		; End msg,;,
;   exportFileFormat,gcode
;   celebration,0
;   celebrationSong,Star Wars
;   postProcessing,
;   defaultSpeed,1800
;   outlineUnderspeed,0.5
;   solidInfillUnderspeed,0.8
;   supportUnderspeed,0.8
;   rapidXYspeed,6000
;   rapidZspeed,1002
;   minBridgingArea,50
;   bridgingExtraInflation,0.2
;   bridgingExtrusionMultiplier,1
;   bridgingSpeedMultiplier,0.6
;   useFixedBridgingAngle,0
;   fixedBridgingAngle,0
;   applyBridgingToPerimeters,0
;   filamentDiameters,1.75|1.75|1.75|1.75|1.75|1.75
;   filamentPricesPerKg,30|46|46|46|46|46
;   filamentDensities,1.25|1.25|1.25|1.25|1.25|1.25
;   useMinPrintHeight,0
;   minPrintHeight,0
;   useMaxPrintHeight,0
;   maxPrintHeight,9
;   useDiaphragm,0
;   diaphragmLayerInterval,20
;   robustSlicing,1
;   mergeAllIntoSolid,0
;   onlyRetractWhenCrossingOutline,1
;   retractBetweenLayers,1
;   useRetractionMinTravel,0
;   retractionMinTravel,3
;   retractWhileWiping,0
;   onlyWipeOutlines,1
;   avoidCrossingOutline,0
;   maxMovementDetourFactor,3
;   toolChangeRetractionDistance,12
;   toolChangeExtraRestartDistance,-0.5
;   toolChangeRetractionSpeed,600
;   externalThinWallType,1
;   internalThinWallType,1
;   thinWallAllowedOverlapPercentage,15
;   singleExtrusionMinLength,1
;   singleExtrusionMinPrintingWidthPercentage,50
;   singleExtrusionMaxPrintingWidthPercentage,200
;   singleExtrusionEndpointExtension,0.2
;   horizontalSizeCompensation,0
G90
M82
M106 S0
M140 S50
M190 S50
;Init 181010
;G28 			; Home all axes
;G1 Z5 F3000 ; lift
;G92 E0			; Reset extrusion distance
; // From Cura 181010
; // Update 190823 (GueroLoco)
; // Start_gcode
M117 *Start Clean*		; Indicate nozzle clean in progress on LCD
;
M104 S210 
M109 S210 
M109 R210 
;
M107			; Turn layer fan off
G21			; Set to metric [change to G20 if you want Imperial]
G90			; Force coordinates to be absolute relative to the origin
G28			; Home X/Y/Z axis
;
;G1 X3 Y1 Z15 F9000		; Move safe Z height to shear strings
;G0 X1 Y1 Z0.2 F9000		; Move in 1mm from edge and up [z] 0.2mm
;G92 E0			; Set extruder to [0] zero
;G1 X100 E12 F500		; Extrude 30mm filiment along X axis 100mm long to prime and clean the nozzle
;G92 E0			; Reset extruder to [0] zero end of cleaning run
;G1 E-1 F500			; Retract filiment by 1 mm to reduce string effect
;G1 X180 F4000		; Quick wipe away from the filament line / purge
;
G92 E0			; Set Extruder to 0 
G1 X0 Y0 F2000		; Move X and Y to 0 with speed 2000 (mm/min)
G1 Z0.1 F1000		; Move Z to 0.1
G1 X8.0 F2000		; Move X to 8.0
G1 Y60.0 E4.0 F1000.0		; Prime - Move Y to 60 and Extruder with 4.0
G1 Y100.0 E8.5 F1000.0		; Prime - Move Y to 100 and Extruder with 8.5
G92 E0			; Set extruder to 0
M117 *End Clean*		; Indicate nozzle clean in progress on LCD
G1 Z5 F3000			; Lift - Move Z to 5
; 
M117 *Printing...*		; start msg
; // Begin printing with sliced GCode after here
;
G92 E0
G1 E-6.0000 F3000
G1 Z0.480 F1002
; process Process1
; layer 1, Z = 0.180
T0
; tool H0.180 W0.350
; skirt
G1 X101.535 Y128.512 F6000
G1 Z0.180 F1002
G1 E0.0000 F900
G92 E0
G1 X101.845 Y128.287 E0.0095 F900
G1 X101.904 Y128.251 E0.0113
G1 X102.440 Y127.977 E0.0262
G1 X102.503 Y127.951 E0.0279
G1 X102.868 Y127.833 E0.0375
G1 X102.935 Y127.817 E0.0392
G1 X103.435 Y127.737 E0.0518
G1 X103.469 Y127.733 E0.0526
G1 X103.660 Y127.718 E0.0574
G1 X103.694 Y127.717 E0.0583
G1 X191.568 Y127.717 E2.2448
G1 X191.593 Y127.718 E2.2454
G1 X191.729 Y127.725 E2.2488
G1 X191.754 Y127.727 E2.2494
G1 X193.161 Y127.886 E2.2847
G1 X193.210 Y127.894 E2.2859
G1 X193.477 Y127.955 E2.2927
G1 X193.524 Y127.969 E2.2939
G1 X194.925 Y128.459 E2.3309
G1 X194.971 Y128.478 E2.3321
G1 X195.217 Y128.597 E2.3389
G1 X195.260 Y128.620 E2.3401
G1 X196.517 Y129.410 E2.3771
G1 X196.557 Y129.439 E2.3783
G1 X196.771 Y129.609 E2.3851
G1 X196.808 Y129.642 E2.3863
G1 X197.858 Y130.692 E2.4233
G1 X197.891 Y130.729 E2.4245
G1 X198.061 Y130.943 E2.4313
G1 X198.090 Y130.983 E2.4325
G1 X198.880 Y132.240 E2.4695
G1 X198.903 Y132.283 E2.4707
G1 X199.022 Y132.529 E2.4775
G1 X199.041 Y132.575 E2.4787
G1 X199.531 Y133.976 E2.5157
G1 X199.545 Y134.023 E2.5169
G1 X199.606 Y134.290 E2.5237
G1 X199.614 Y134.339 E2.5249
G1 X199.773 Y135.746 E2.5602
G1 X199.775 Y135.771 E2.5608
G1 X199.782 Y135.907 E2.5642
G1 X199.783 Y135.932 E2.5648
G1 X199.783 Y146.618 E2.8307
G1 X199.782 Y146.643 E2.8313
G1 X199.775 Y146.779 E2.8347
G1 X199.773 Y146.804 E2.8353
G1 X199.614 Y148.211 E2.8706
G1 X199.606 Y148.260 E2.8718
G1 X199.545 Y148.527 E2.8786
G1 X199.531 Y148.574 E2.8798
G1 X199.041 Y149.975 E2.9168
G1 X199.022 Y150.021 E2.9180
G1 X198.903 Y150.267 E2.9248
G1 X198.880 Y150.310 E2.9260
G1 X198.090 Y151.567 E2.9630
G1 X198.061 Y151.607 E2.9642
G1 X197.891 Y151.821 E2.9710
G1 X197.858 Y151.858 E2.9722
G1 X196.808 Y152.908 E3.0092
G1 X196.771 Y152.941 E3.0104
G1 X196.557 Y153.111 E3.0172
G1 X196.517 Y153.140 E3.0184
G1 X195.260 Y153.930 E3.0554
G1 X195.217 Y153.953 E3.0566
G1 X194.971 Y154.072 E3.0634
G1 X194.925 Y154.091 E3.0646
G1 X193.524 Y154.581 E3.1016
G1 X193.477 Y154.595 E3.1028
G1 X193.210 Y154.656 E3.1096
G1 X193.161 Y154.664 E3.1108
G1 X191.754 Y154.823 E3.1461
G1 X191.729 Y154.825 E3.1467
G1 X191.593 Y154.832 E3.1501
G1 X191.568 Y154.833 E3.1507
G1 X176.026 Y154.833 E3.5374
G1 X175.048 Y154.942 E3.5619
G1 X174.271 Y155.212 E3.5824
G1 X173.573 Y155.647 E3.6028
G1 X172.874 Y156.338 E3.6273
G1 X172.534 Y156.759 E3.6408
G1 X172.518 Y156.777 E3.6414
G1 X172.427 Y156.878 E3.6448
G1 X172.410 Y156.896 E3.6454
G1 X171.411 Y157.884 E3.6803
G1 X171.374 Y157.917 E3.6816
G1 X171.161 Y158.085 E3.6883
G1 X171.121 Y158.113 E3.6895
G1 X169.870 Y158.892 E3.7262
G1 X169.827 Y158.916 E3.7274
G1 X169.582 Y159.033 E3.7342
G1 X169.536 Y159.051 E3.7354
G1 X168.144 Y159.535 E3.7721
G1 X168.097 Y159.548 E3.7733
G1 X167.832 Y159.608 E3.7801
G1 X167.784 Y159.616 E3.7813
G1 X166.387 Y159.773 E3.8163
G1 X166.362 Y159.775 E3.8169
G1 X166.227 Y159.782 E3.8202
G1 X166.202 Y159.783 E3.8209
G1 X155.104 Y159.783 E4.0970
G1 X155.070 Y159.782 E4.0979
G1 X154.879 Y159.767 E4.1026
G1 X154.845 Y159.763 E4.1035
G1 X154.373 Y159.688 E4.1154
G1 X154.306 Y159.672 E4.1171
G1 X153.941 Y159.553 E4.1266
G1 X153.878 Y159.527 E4.1283
G1 X153.367 Y159.267 E4.1426
G1 X153.308 Y159.231 E4.1443
G1 X152.998 Y159.005 E4.1539
G1 X152.945 Y158.961 E4.1556
G1 X152.540 Y158.555 E4.1699
G1 X152.495 Y158.502 E4.1716
G1 X152.269 Y158.192 E4.1811
G1 X152.233 Y158.133 E4.1828
G1 X151.973 Y157.622 E4.1971
G1 X151.947 Y157.559 E4.1988
G1 X151.828 Y157.194 E4.2084
G1 X151.812 Y157.127 E4.2101
G1 X151.737 Y156.654 E4.2220
G1 X151.733 Y156.620 E4.2228
G1 X151.718 Y156.427 E4.2277
G1 X151.717 Y156.392 E4.2285
G1 X151.725 Y151.279 E4.3557
G1 X121.283 Y151.283 E5.1132
G1 X121.283 Y168.806 E5.5492
G1 X121.282 Y168.840 E5.5501
G1 X121.267 Y169.031 E5.5549
G1 X121.263 Y169.065 E5.5557
G1 X121.183 Y169.565 E5.5683
G1 X121.167 Y169.632 E5.5700
G1 X121.049 Y169.997 E5.5796
G1 X121.023 Y170.060 E5.5813
G1 X120.749 Y170.596 E5.5962
G1 X120.713 Y170.655 E5.5980
G1 X120.488 Y170.965 E5.6075
G1 X120.443 Y171.018 E5.6092
G1 X120.018 Y171.443 E5.6242
G1 X119.965 Y171.488 E5.6259
G1 X119.655 Y171.713 E5.6354
G1 X119.596 Y171.749 E5.6372
G1 X119.060 Y172.023 E5.6521
G1 X118.997 Y172.049 E5.6538
G1 X118.632 Y172.167 E5.6634
G1 X118.565 Y172.184 E5.6651
G1 X118.065 Y172.263 E5.6777
G1 X118.031 Y172.267 E5.6785
G1 X117.840 Y172.282 E5.6833
G1 X117.806 Y172.283 E5.6842
G1 X103.694 Y172.283 E6.0353
G1 X103.660 Y172.282 E6.0362
G1 X103.469 Y172.267 E6.0409
G1 X103.435 Y172.263 E6.0418
G1 X102.935 Y172.184 E6.0544
G1 X102.868 Y172.167 E6.0561
G1 X102.503 Y172.049 E6.0656
G1 X102.440 Y172.023 E6.0673
G1 X101.904 Y171.749 E6.0823
G1 X101.845 Y171.713 E6.0840
G1 X101.535 Y171.488 E6.0936
G1 X101.482 Y171.443 E6.0953
G1 X101.057 Y171.018 E6.1103
G1 X101.012 Y170.965 E6.1120
G1 X100.787 Y170.655 E6.1215
G1 X100.751 Y170.596 E6.1232
G1 X100.477 Y170.060 E6.1382
G1 X100.451 Y169.997 E6.1399
G1 X100.333 Y169.632 E6.1495
G1 X100.316 Y169.565 E6.1512
G1 X100.237 Y169.065 E6.1638
G1 X100.233 Y169.031 E6.1646
G1 X100.218 Y168.840 E6.1694
G1 X100.217 Y168.806 E6.1702
G1 X100.217 Y131.194 E7.1061
G1 X100.218 Y131.160 E7.1070
G1 X100.233 Y130.969 E7.1117
G1 X100.237 Y130.935 E7.1126
G1 X100.317 Y130.435 E7.1252
G1 X100.333 Y130.368 E7.1269
G1 X100.451 Y130.003 E7.1364
G1 X100.477 Y129.940 E7.1381
G1 X100.751 Y129.404 E7.1531
G1 X100.787 Y129.345 E7.1548
G1 X101.012 Y129.035 E7.1644
G1 X101.057 Y128.982 E7.1661
G1 X101.482 Y128.557 E7.1811
G1 X101.535 Y128.512 E7.1828
G1 X101.751 Y128.787 F6000
G92 E0
G1 X102.040 Y128.578 E0.0089 F900
G1 X102.075 Y128.556 E0.0099
G1 X102.587 Y128.295 E0.0242
G1 X102.625 Y128.280 E0.0252
G1 X102.963 Y128.170 E0.0341
G1 X103.003 Y128.160 E0.0351
G1 X103.483 Y128.084 E0.0472
G1 X103.503 Y128.082 E0.0477
G1 X103.680 Y128.068 E0.0521
G1 X103.701 Y128.067 E0.0526
G1 X191.563 Y128.067 E2.2389
G1 X191.578 Y128.067 E2.2392
G1 X191.705 Y128.074 E2.2424
G1 X191.720 Y128.076 E2.2428
G1 X193.112 Y128.233 E2.2776
G1 X193.141 Y128.238 E2.2784
G1 X193.389 Y128.294 E2.2847
G1 X193.417 Y128.302 E2.2854
G1 X194.800 Y128.786 E2.3219
G1 X194.828 Y128.797 E2.3226
G1 X195.056 Y128.908 E2.3289
G1 X195.082 Y128.922 E2.3297
G1 X196.323 Y129.701 E2.3661
G1 X196.347 Y129.718 E2.3669
G1 X196.546 Y129.877 E2.3732
G1 X196.567 Y129.897 E2.3739
G1 X197.603 Y130.933 E2.4104
G1 X197.623 Y130.954 E2.4111
G1 X197.782 Y131.153 E2.4174
G1 X197.799 Y131.177 E2.4182
G1 X198.578 Y132.418 E2.4546
G1 X198.592 Y132.444 E2.4554
G1 X198.703 Y132.672 E2.4617
G1 X198.714 Y132.700 E2.4624
G1 X199.198 Y134.083 E2.4989
G1 X199.206 Y134.111 E2.4996
G1 X199.262 Y134.359 E2.5059
G1 X199.267 Y134.388 E2.5067
