; G-Code generated by Simplify3D(R) Version 4.0.1
; Sep 19, 2019 at 2:21:57 PM
; Settings Summary
;   processName,Process1
;   applyToModels,Tevo Tornado - Support Capteur Optique Filament 5 - Epreuve05
;   profileName,101 Tevo Tornado (experimental)
;   profileVersion,2019-09-11 12:41:58
;   baseProfile,Creality CR-10(2)
;   printMaterial,PLA
;   printQuality,Medium
;   printExtruders,
;   extruderName,Primary Extruder
;   extruderToolheadNumber,0
;   extruderDiameter,0.4
;   extruderAutoWidth,0
;   extruderWidth,0.35
;   extrusionMultiplier,0.95
;   extruderUseRetract,1
;   extruderRetractionDistance,6
;   extruderExtraRestartDistance,0
;   extruderRetractionZLift,0.3
;   extruderRetractionSpeed,3000
;   extruderUseCoasting,0
;   extruderCoastingDistance,0.2
;   extruderUseWipe,0
;   extruderWipeDistance,4
;   primaryExtruder,0
;   layerHeight,0.15
;   topSolidLayers,4
;   bottomSolidLayers,3
;   perimeterOutlines,3
;   printPerimetersInsideOut,0
;   startPointOption,2
;   startPointOriginX,0
;   startPointOriginY,300
;   sequentialIslands,0
;   spiralVaseMode,0
;   firstLayerHeightPercentage,120
;   firstLayerWidthPercentage,100
;   firstLayerUnderspeed,0.5
;   useRaft,0
;   raftExtruder,0
;   raftTopLayers,3
;   raftBaseLayers,2
;   raftOffset,3
;   raftSeparationDistance,0.14
;   raftTopInfill,100
;   aboveRaftSpeedMultiplier,0.3
;   useSkirt,1
;   skirtExtruder,0
;   skirtLayers,1
;   skirtOutlines,3
;   skirtOffset,2
;   usePrimePillar,0
;   primePillarExtruder,999
;   primePillarWidth,12
;   primePillarLocation,7
;   primePillarSpeedMultiplier,1
;   useOozeShield,0
;   oozeShieldExtruder,999
;   oozeShieldOffset,2
;   oozeShieldOutlines,1
;   oozeShieldSidewallShape,1
;   oozeShieldSidewallAngle,30
;   oozeShieldSpeedMultiplier,1
;   infillExtruder,0
;   internalInfillPattern,Rectilinear
;   externalInfillPattern,Rectilinear
;   infillPercentage,15
;   outlineOverlapPercentage,15
;   infillExtrusionWidthPercentage,100
;   minInfillLength,5
;   infillLayerInterval,1
;   internalInfillAngles,45,-45
;   overlapInternalInfillAngles,0
;   externalInfillAngles,45,-45
;   generateSupport,0
;   supportExtruder,0
;   supportInfillPercentage,30
;   supportExtraInflation,0
;   supportBaseLayers,0
;   denseSupportExtruder,0
;   denseSupportLayers,0
;   denseSupportInfillPercentage,70
;   supportLayerInterval,1
;   supportHorizontalPartOffset,0.4
;   supportUpperSeparationLayers,1
;   supportLowerSeparationLayers,1
;   supportType,0
;   supportGridSpacing,4.5
;   maxOverhangAngle,45
;   supportAngles,0
;   temperatureName,Primary Extruder,Heated Bed
;   temperatureNumber,0,0
;   temperatureSetpointCount,2,1
;   temperatureSetpointLayers,1,2,1
;   temperatureSetpointTemperatures,210,205,50
;   temperatureStabilizeAtStartup,1,1
;   temperatureHeatedBed,0,1
;   temperatureRelayBetweenLayers,0,0
;   temperatureRelayBetweenLoops,0,0
;   fanLayers,1,2
;   fanSpeeds,0,100
;   blipFanToFullPower,0
;   adjustSpeedForCooling,1
;   minSpeedLayerTime,15
;   minCoolingSpeedSlowdown,50
;   increaseFanForCooling,1
;   minFanLayerTime,25
;   maxCoolingFanSpeed,100
;   increaseFanForBridging,1
;   bridgingFanSpeed,100
;   use5D,1
;   relativeEdistances,0
;   allowEaxisZeroing,1
;   independentExtruderAxes,0
;   includeM10123,0
;   stickySupport,1
;   applyToolheadOffsets,0
;   gcodeXoffset,0
;   gcodeYoffset,0
;   gcodeZoffset,0
;   overrideMachineDefinition,1
;   machineTypeOverride,0
;   strokeXoverride,300
;   strokeYoverride,300
;   strokeZoverride,400
;   originOffsetXoverride,0
;   originOffsetYoverride,0
;   originOffsetZoverride,0
;   homeXdirOverride,-1
;   homeYdirOverride,-1
;   homeZdirOverride,-1
;   flipXoverride,1
;   flipYoverride,-1
;   flipZoverride,1
;   toolheadOffsets,0,0|0,0|0,0|0,0|0,0|0,0
;   overrideFirmwareConfiguration,1
;   firmwareTypeOverride,RepRap (Marlin/Repetier/Sprinter)
;   GPXconfigOverride,r2
;   baudRateOverride,250000
;   overridePrinterModels,1
;   printerModelsOverride
;   startingGcode,;Init 181010,;G28 			; Home all axes,;G1 Z5 F3000 ; lift,;G92 E0			; Reset extrusion distance,,; // From Cura 181010,; // Update 190823 (GueroLoco),; // Start_gcode,M117 *Start Clean*		; Indicate nozzle clean in progress on LCD,;,M104 S[extruder0_temperature] ,M109 S[extruder0_temperature] ,M109 R[extruder0_temperature] ,;,M107			; Turn layer fan off,G21			; Set to metric [change to G20 if you want Imperial],G90			; Force coordinates to be absolute relative to the origin,G28			; Home X/Y/Z axis,;,;G1 X3 Y1 Z15 F9000		; Move safe Z height to shear strings,;G0 X1 Y1 Z0.2 F9000		; Move in 1mm from edge and up [z] 0.2mm,;G92 E0			; Set extruder to [0] zero,;G1 X100 E12 F500		; Extrude 30mm filiment along X axis 100mm long to prime and clean the nozzle,;G92 E0			; Reset extruder to [0] zero end of cleaning run,;G1 E-1 F500			; Retract filiment by 1 mm to reduce string effect,;G1 X180 F4000		; Quick wipe away from the filament line / purge,;,G92 E0			; Set Extruder to 0 ,G1 X0 Y0 F2000		; Move X and Y to 0 with speed 2000 (mm/min),G1 Z0.1 F1000		; Move Z to 0.1,G1 X8.0 F2000		; Move X to 8.0,G1 Y60.0 E4.0 F1000.0		; Prime - Move Y to 60 and Extruder with 4.0,G1 Y100.0 E8.5 F1000.0		; Prime - Move Y to 100 and Extruder with 8.5,G92 E0			; Set extruder to 0,M117 *End Clean*		; Indicate nozzle clean in progress on LCD,G1 Z5 F3000			; Lift - Move Z to 5,; ,M117 *Printing...*		; start msg,; // Begin printing with sliced GCode after here,;
;   layerChangeGcode,
;   retractionGcode,
;   toolChangeGcode,
;   endingGcode,;,; init 181010,;,;M107 			; Fan off,;G1 E-1 F300 			; Retract the filament a bit before lifting the nozzle,;M104 S0 			; Turn off extruder,;M140 S0 			; Turn off bed,;G91			; Relative positioning,;G28 X0 Y0 			; Move X/Y to min endstops so the head is out of teh way,;M84 			; Disable motors,;G90 			; Absolute positioning,;M117 Print ready...,,;,; // From Cura 181010,; // End_gcode,G92 E0			; Zero the extruded length,G1 E-30 F300			; Retract E -30,M106 S0			; Turn off cooling fan,M104 S0			; Turn off temperature,M140 S0		     	; Turn off bed,G91			; Relative positioning,G1 E-1 F300			; Retract the filament a bit before lifting the nozzle to release some of the pressure,G1 Z+20 E-5 X-20 Y-20 F7200	; Move Z up a bit and retract filament even more,G1 X0 Y150 F10000		; Move right mid,M107			; Turn off layer fan,M84			; Disable motors,G90			; Absolute positioning,M117 *The-End* 		; End msg,;,
;   exportFileFormat,gcode
;   celebration,0
;   celebrationSong,Star Wars
;   postProcessing,
;   defaultSpeed,1800
;   outlineUnderspeed,0.5
;   solidInfillUnderspeed,0.8
;   supportUnderspeed,0.8
;   rapidXYspeed,6000
;   rapidZspeed,1002
;   minBridgingArea,50
;   bridgingExtraInflation,0.2
;   bridgingExtrusionMultiplier,1
;   bridgingSpeedMultiplier,0.6
;   useFixedBridgingAngle,0
;   fixedBridgingAngle,0
;   applyBridgingToPerimeters,0
;   filamentDiameters,1.75|1.75|1.75|1.75|1.75|1.75
;   filamentPricesPerKg,30|46|46|46|46|46
;   filamentDensities,1.25|1.25|1.25|1.25|1.25|1.25
;   useMinPrintHeight,0
;   minPrintHeight,0
;   useMaxPrintHeight,0
;   maxPrintHeight,9
;   useDiaphragm,0
;   diaphragmLayerInterval,20
;   robustSlicing,1
;   mergeAllIntoSolid,0
;   onlyRetractWhenCrossingOutline,1
;   retractBetweenLayers,1
;   useRetractionMinTravel,0
;   retractionMinTravel,3
;   retractWhileWiping,0
;   onlyWipeOutlines,1
;   avoidCrossingOutline,0
;   maxMovementDetourFactor,3
;   toolChangeRetractionDistance,12
;   toolChangeExtraRestartDistance,-0.5
;   toolChangeRetractionSpeed,600
;   externalThinWallType,1
;   internalThinWallType,1
;   thinWallAllowedOverlapPercentage,15
;   singleExtrusionMinLength,1
;   singleExtrusionMinPrintingWidthPercentage,50
;   singleExtrusionMaxPrintingWidthPercentage,200
;   singleExtrusionEndpointExtension,0.2
;   horizontalSizeCompensation,0
G90
M82
M106 S0
M140 S50
M190 S50
;Init 181010
;G28 			; Home all axes
;G1 Z5 F3000 ; lift
;G92 E0			; Reset extrusion distance
; // From Cura 181010
; // Update 190823 (GueroLoco)
; // Start_gcode
M117 *Start Clean*		; Indicate nozzle clean in progress on LCD
;
M104 S210 
M109 S210 
M109 R210 
;
M107			; Turn layer fan off
G21			; Set to metric [change to G20 if you want Imperial]
G90			; Force coordinates to be absolute relative to the origin
G28			; Home X/Y/Z axis
;
;G1 X3 Y1 Z15 F9000		; Move safe Z height to shear strings
;G0 X1 Y1 Z0.2 F9000		; Move in 1mm from edge and up [z] 0.2mm
;G92 E0			; Set extruder to [0] zero
;G1 X100 E12 F500		; Extrude 30mm filiment along X axis 100mm long to prime and clean the nozzle
;G92 E0			; Reset extruder to [0] zero end of cleaning run
;G1 E-1 F500			; Retract filiment by 1 mm to reduce string effect
;G1 X180 F4000		; Quick wipe away from the filament line / purge
;
G92 E0			; Set Extruder to 0 
G1 X0 Y0 F2000		; Move X and Y to 0 with speed 2000 (mm/min)
G1 Z0.1 F1000		; Move Z to 0.1
G1 X8.0 F2000		; Move X to 8.0
G1 Y60.0 E4.0 F1000.0		; Prime - Move Y to 60 and Extruder with 4.0
G1 Y100.0 E8.5 F1000.0		; Prime - Move Y to 100 and Extruder with 8.5
G92 E0			; Set extruder to 0
M117 *End Clean*		; Indicate nozzle clean in progress on LCD
G1 Z5 F3000			; Lift - Move Z to 5
; 
M117 *Printing...*		; start msg
; // Begin printing with sliced GCode after here
;
G92 E0
G1 E-6.0000 F3000
G1 Z0.480 F1002
; process Process1
; layer 1, Z = 0.180
T0
; tool H0.180 W0.350
; skirt
G1 X137.647 Y129.926 F6000
G1 Z0.180 F1002
G1 E0.0000 F900
G92 E0
G1 X139.065 Y128.508 E0.0499 F900
G1 X139.386 Y128.375 E0.0585
G1 X160.614 Y128.375 E0.5868
G1 X160.935 Y128.508 E0.5954
G1 X162.353 Y129.926 E0.6453
G1 X162.486 Y130.248 E0.6540
G1 X162.486 Y149.752 E1.1393
G1 X162.353 Y150.074 E1.1480
G1 X160.935 Y151.492 E1.1979
G1 X160.614 Y151.625 E1.2065
G1 X157.764 Y151.625 E1.2774
G1 X157.764 Y169.752 E1.7285
G1 X157.630 Y170.074 E1.7372
G1 X156.213 Y171.492 E1.7870
G1 X155.891 Y171.625 E1.7957
G1 X139.386 Y171.625 E2.2064
G1 X139.065 Y171.492 E2.2151
G1 X137.647 Y170.074 E2.2649
G1 X137.514 Y169.752 E2.2736
G1 X137.514 Y130.248 E3.2566
G1 X137.647 Y129.926 E3.2653
G1 X137.944 Y130.124 F6000
G92 E0
G1 X139.263 Y128.805 E0.0464 F900
G1 X139.456 Y128.725 E0.0516
G1 X160.544 Y128.725 E0.5764
G1 X160.737 Y128.805 E0.5816
G1 X162.056 Y130.124 E0.6280
G1 X162.136 Y130.317 E0.6332
G1 X162.136 Y149.683 E1.1150
G1 X162.056 Y149.876 E1.1202
G1 X160.737 Y151.195 E1.1667
G1 X160.544 Y151.275 E1.1719
G1 X157.414 Y151.275 E1.2498
G1 X157.414 Y169.683 E1.7078
G1 X157.334 Y169.876 E1.7130
G1 X156.014 Y171.195 E1.7594
G1 X155.822 Y171.275 E1.7646
G1 X139.456 Y171.275 E2.1718
G1 X139.263 Y171.195 E2.1770
G1 X137.944 Y169.876 E2.2235
G1 X137.864 Y169.683 E2.2287
G1 X137.864 Y130.317 E3.2082
G1 X137.944 Y130.124 E3.2134
G1 X138.240 Y130.322 F6000
G92 E0
G1 X139.461 Y129.102 E0.0430 F900
G1 X139.525 Y129.075 E0.0447
G1 X160.475 Y129.075 E0.5660
G1 X160.539 Y129.102 E0.5677
G1 X161.760 Y130.322 E0.6107
G1 X161.786 Y130.387 E0.6124
G1 X161.786 Y149.613 E1.0908
G1 X161.760 Y149.678 E1.0925
G1 X160.539 Y150.898 E1.1355
G1 X160.475 Y150.925 E1.1372
G1 X157.064 Y150.925 E1.2221
G1 X157.064 Y169.613 E1.6871
G1 X157.037 Y169.678 E1.6888
G1 X155.816 Y170.898 E1.7318
G1 X155.752 Y170.925 E1.7335
G1 X139.525 Y170.925 E2.1373
G1 X139.461 Y170.898 E2.1390
G1 X138.240 Y169.678 E2.1820
G1 X138.214 Y169.613 E2.1837
G1 X138.214 Y130.387 E3.1598
G1 X138.240 Y130.322 E3.1615
G92 E0
G1 E-6.0000 F3000
G1 Z0.480 F1002
; outer perimeter
G1 X140.564 Y131.425 F6000
G1 Z0.180 F1002
G1 E0.0000 F3000
G92 E0
G1 X159.436 Y131.425 E0.4696 F450
G1 X159.436 Y148.575 E0.8963
G1 X154.714 Y148.575 E1.0139
G1 X154.714 Y168.575 E1.5115
G1 X140.564 Y168.575 E1.8636
G1 X140.564 Y131.425 E2.7880
; inner perimeter
G1 X140.914 Y131.775 F6000
G92 E0
G1 X159.086 Y131.775 E0.4522 F675
G1 X159.086 Y148.225 E0.8615
G1 X154.364 Y148.225 E0.9790
G1 X154.364 Y152.495 E1.0853
G1 X140.914 Y152.495 E1.4199
G1 X140.914 Y131.775 E1.9355
G1 X140.914 Y156.365 F6000
G92 E0
G1 X154.364 Y156.365 E0.3347 F675
G1 X154.364 Y168.225 E0.6298
G1 X140.914 Y168.225 E0.9645
G1 X140.914 Y156.365 E1.2596
G1 X141.264 Y156.715 F6000
G92 E0
G1 X154.014 Y156.715 E0.3173 F675
G1 X154.014 Y167.875 E0.5949
G1 X141.264 Y167.875 E0.9122
G1 X141.264 Y156.715 E1.1899
G1 X141.264 Y152.145 F6000
G92 E0
G1 X141.264 Y132.125 E0.4982 F675
G1 X158.736 Y132.125 E0.9329
G1 X158.736 Y147.875 E1.3248
G1 X154.014 Y147.875 E1.4423
G1 X154.014 Y152.145 E1.5486
G1 X141.264 Y152.145 E1.8658
; outer perimeter
G1 X141.304 Y152.845 F6000
G92 E0
G1 X141.304 Y156.015 E0.0789 F450
G1 X154.174 Y156.015 E0.3991
G1 X154.174 Y152.845 E0.4780
G1 X141.304 Y152.845 E0.7982
; internal single extrusion
G1 X140.934 Y152.680 F6000
G92 E0
; tool H0.180 W0.383
G1 X140.934 Y156.180 E0.0953 F450
G1 X154.444 Y156.249 F6000
; tool H0.180 W0.350
G92 E0
; tool H0.180 W0.183
G1 X154.444 Y152.611 E0.0473 F450
G92 E0
G1 E-6.0000 F3000
G1 Z0.480 F1002
; tool H0.180 W0.350
; solid layer
G1 X153.548 Y157.012 F6000
G1 Z0.180 F1002
G1 E0.0000 F3000
G92 E0
G1 X153.716 Y157.181 E0.0059 F720
G1 X153.716 Y157.676 E0.0182
G1 X153.053 Y157.012 E0.0416
G1 X152.558 Y157.012 E0.0539
G1 X153.716 Y158.171 E0.0947
G1 X153.716 Y158.666 E0.1070
G1 X152.063 Y157.012 E0.1652
G1 X151.568 Y157.012 E0.1775
G1 X153.716 Y159.161 E0.2531
G1 X153.716 Y159.656 E0.2654
G1 X151.073 Y157.012 E0.3584
G1 X150.578 Y157.012 E0.3707
G1 X153.716 Y160.151 E0.4812
G1 X153.716 Y160.646 E0.4935
G1 X150.083 Y157.012 E0.6213
G1 X149.588 Y157.012 E0.6337
G1 X153.716 Y161.141 E0.7789
G1 X153.716 Y161.636 E0.7912
G1 X149.093 Y157.012 E0.9539
G1 X148.598 Y157.012 E0.9662
G1 X153.716 Y162.131 E1.1464
G1 X153.716 Y162.626 E1.1587
G1 X148.103 Y157.012 E1.3562
G1 X147.608 Y157.012 E1.3685
G1 X153.716 Y163.121 E1.5835
G1 X153.716 Y163.616 E1.5958
G1 X147.113 Y157.012 E1.8281
G1 X146.618 Y157.012 E1.8405
G1 X153.716 Y164.111 E2.0902
G1 X153.716 Y164.606 E2.1025
G1 X146.123 Y157.012 E2.3697
G1 X145.628 Y157.012 E2.3821
G1 X153.716 Y165.101 E2.6667
G1 X153.716 Y165.596 E2.6790
G1 X145.133 Y157.012 E2.9810
G1 X144.638 Y157.012 E2.9933
G1 X153.716 Y166.091 E3.3128
G1 X153.716 Y166.585 E3.3251
G1 X144.143 Y157.012 E3.6620
G1 X143.648 Y157.012 E3.6743
G1 X153.716 Y167.080 E4.0286
G1 X153.716 Y167.575 E4.0409
G1 X143.153 Y157.012 E4.4126
G1 X142.658 Y157.012 E4.4249
G1 X153.223 Y167.577 E4.7967
G1 X152.728 Y167.577 E4.8090
G1 X142.163 Y157.012 E5.1808
G1 X141.668 Y157.012 E5.1931
G1 X152.233 Y167.577 E5.5649
G1 X151.738 Y167.577 E5.5772
G1 X141.561 Y157.400 E5.9353
G1 X141.561 Y157.895 E5.9476
G1 X151.243 Y167.577 E6.2884
G1 X150.748 Y167.577 E6.3007
G1 X141.561 Y158.390 E6.6240
G1 X141.561 Y158.885 E6.6363
G1 X150.253 Y167.577 E6.9422
G1 X149.758 Y167.577 E6.9545
G1 X141.561 Y159.380 E7.2429
G1 X141.561 Y159.875 E7.2552
G1 X149.263 Y167.577 E7.5263
G1 X148.768 Y167.577 E7.5386
G1 X141.561 Y160.370 E7.7922
G1 X141.561 Y160.865 E7.8045
G1 X148.273 Y167.577 E8.0407
G1 X147.779 Y167.577 E8.0531
G1 X141.561 Y161.360 E8.2718
G1 X141.561 Y161.855 E8.2842
G1 X147.284 Y167.577 E8.4855
G1 X146.789 Y167.577 E8.4978
G1 X141.561 Y162.350 E8.6818
G1 X141.561 Y162.845 E8.6941
G1 X146.294 Y167.577 E8.8606
G1 X145.799 Y167.577 E8.8730
G1 X141.561 Y163.340 E9.0221
G1 X141.561 Y163.835 E9.0344
G1 X145.304 Y167.577 E9.1661
G1 X144.809 Y167.577 E9.1784
G1 X141.561 Y164.330 E9.2927
G1 X141.561 Y164.825 E9.3050
G1 X144.314 Y167.577 E9.4019
G1 X143.819 Y167.577 E9.4142
G1 X141.561 Y165.320 E9.4936
G1 X141.561 Y165.815 E9.5059
G1 X143.324 Y167.577 E9.5680
G1 X142.829 Y167.577 E9.5803
G1 X141.561 Y166.310 E9.6249
G1 X141.561 Y166.805 E9.6372
G1 X142.334 Y167.577 E9.6644
G1 X141.839 Y167.577 E9.6767
G1 X141.561 Y167.300 E9.6865
G92 E0
G1 E-6.0000 F3000
G1 Z0.480 F1002
G1 X141.948 Y151.848 F6000
G1 Z0.180 F1002
G1 E0.0000 F3000
G92 E0
G1 X141.561 Y151.461 E0.0136 F720
G1 X141.561 Y150.966 E0.0259
G1 X142.443 Y151.847 E0.0570
G1 X142.938 Y151.847 E0.0693
G1 X141.561 Y150.471 E0.1177
G1 X141.561 Y149.976 E0.1300
G1 X143.433 Y151.847 E0.1959
G1 X143.928 Y151.847 E0.2082
G1 X141.561 Y149.481 E0.2915
G1 X141.561 Y148.986 E0.3038
