; G-Code generated by Simplify3D(R) Version 4.0.1
; Sep 23, 2019 at 4:24:45 PM
; Settings Summary
;   processName,Process1
;   applyToModels,Tevo Tornado - Support Capteur Optique Filament 104
;   profileName,101.01 40% Tevo Tornado (experimental)
;   profileVersion,2019-09-11 12:42:28
;   baseProfile,Creality CR-10(2)
;   printMaterial,PLA
;   printQuality,Medium
;   printExtruders,
;   extruderName,Primary Extruder
;   extruderToolheadNumber,0
;   extruderDiameter,0.4
;   extruderAutoWidth,0
;   extruderWidth,0.35
;   extrusionMultiplier,0.95
;   extruderUseRetract,1
;   extruderRetractionDistance,6
;   extruderExtraRestartDistance,0
;   extruderRetractionZLift,0.3
;   extruderRetractionSpeed,3000
;   extruderUseCoasting,0
;   extruderCoastingDistance,0.2
;   extruderUseWipe,0
;   extruderWipeDistance,4
;   primaryExtruder,0
;   layerHeight,0.15
;   topSolidLayers,4
;   bottomSolidLayers,3
;   perimeterOutlines,3
;   printPerimetersInsideOut,0
;   startPointOption,2
;   startPointOriginX,0
;   startPointOriginY,300
;   sequentialIslands,0
;   spiralVaseMode,0
;   firstLayerHeightPercentage,120
;   firstLayerWidthPercentage,100
;   firstLayerUnderspeed,0.5
;   useRaft,0
;   raftExtruder,0
;   raftTopLayers,3
;   raftBaseLayers,2
;   raftOffset,3
;   raftSeparationDistance,0.14
;   raftTopInfill,100
;   aboveRaftSpeedMultiplier,0.3
;   useSkirt,1
;   skirtExtruder,0
;   skirtLayers,1
;   skirtOutlines,3
;   skirtOffset,2
;   usePrimePillar,0
;   primePillarExtruder,999
;   primePillarWidth,12
;   primePillarLocation,7
;   primePillarSpeedMultiplier,1
;   useOozeShield,0
;   oozeShieldExtruder,999
;   oozeShieldOffset,2
;   oozeShieldOutlines,1
;   oozeShieldSidewallShape,1
;   oozeShieldSidewallAngle,30
;   oozeShieldSpeedMultiplier,1
;   infillExtruder,0
;   internalInfillPattern,Rectilinear
;   externalInfillPattern,Rectilinear
;   infillPercentage,40
;   outlineOverlapPercentage,15
;   infillExtrusionWidthPercentage,100
;   minInfillLength,5
;   infillLayerInterval,1
;   internalInfillAngles,45,-45
;   overlapInternalInfillAngles,0
;   externalInfillAngles,45,-45
;   generateSupport,0
;   supportExtruder,0
;   supportInfillPercentage,30
;   supportExtraInflation,0
;   supportBaseLayers,0
;   denseSupportExtruder,0
;   denseSupportLayers,0
;   denseSupportInfillPercentage,70
;   supportLayerInterval,1
;   supportHorizontalPartOffset,0.4
;   supportUpperSeparationLayers,1
;   supportLowerSeparationLayers,1
;   supportType,0
;   supportGridSpacing,4.5
;   maxOverhangAngle,45
;   supportAngles,0
;   temperatureName,Primary Extruder,Heated Bed
;   temperatureNumber,0,0
;   temperatureSetpointCount,2,1
;   temperatureSetpointLayers,1,2,1
;   temperatureSetpointTemperatures,210,205,50
;   temperatureStabilizeAtStartup,1,1
;   temperatureHeatedBed,0,1
;   temperatureRelayBetweenLayers,0,0
;   temperatureRelayBetweenLoops,0,0
;   fanLayers,1,2
;   fanSpeeds,0,100
;   blipFanToFullPower,0
;   adjustSpeedForCooling,1
;   minSpeedLayerTime,15
;   minCoolingSpeedSlowdown,50
;   increaseFanForCooling,1
;   minFanLayerTime,25
;   maxCoolingFanSpeed,100
;   increaseFanForBridging,1
;   bridgingFanSpeed,100
;   use5D,1
;   relativeEdistances,0
;   allowEaxisZeroing,1
;   independentExtruderAxes,0
;   includeM10123,0
;   stickySupport,1
;   applyToolheadOffsets,0
;   gcodeXoffset,0
;   gcodeYoffset,0
;   gcodeZoffset,0
;   overrideMachineDefinition,1
;   machineTypeOverride,0
;   strokeXoverride,300
;   strokeYoverride,300
;   strokeZoverride,400
;   originOffsetXoverride,0
;   originOffsetYoverride,0
;   originOffsetZoverride,0
;   homeXdirOverride,-1
;   homeYdirOverride,-1
;   homeZdirOverride,-1
;   flipXoverride,1
;   flipYoverride,-1
;   flipZoverride,1
;   toolheadOffsets,0,0|0,0|0,0|0,0|0,0|0,0
;   overrideFirmwareConfiguration,1
;   firmwareTypeOverride,RepRap (Marlin/Repetier/Sprinter)
;   GPXconfigOverride,r2
;   baudRateOverride,250000
;   overridePrinterModels,1
;   printerModelsOverride
;   startingGcode,;Init 181010,;G28 			; Home all axes,;G1 Z5 F3000 ; lift,;G92 E0			; Reset extrusion distance,,; // From Cura 181010,; // Update 190823 (GueroLoco),; // Start_gcode,M117 *Start Clean*		; Indicate nozzle clean in progress on LCD,;,M104 S[extruder0_temperature] ,M109 S[extruder0_temperature] ,M109 R[extruder0_temperature] ,;,M107			; Turn layer fan off,G21			; Set to metric [change to G20 if you want Imperial],G90			; Force coordinates to be absolute relative to the origin,G28			; Home X/Y/Z axis,;,;G1 X3 Y1 Z15 F9000		; Move safe Z height to shear strings,;G0 X1 Y1 Z0.2 F9000		; Move in 1mm from edge and up [z] 0.2mm,;G92 E0			; Set extruder to [0] zero,;G1 X100 E12 F500		; Extrude 30mm filiment along X axis 100mm long to prime and clean the nozzle,;G92 E0			; Reset extruder to [0] zero end of cleaning run,;G1 E-1 F500			; Retract filiment by 1 mm to reduce string effect,;G1 X180 F4000		; Quick wipe away from the filament line / purge,;,G92 E0			; Set Extruder to 0 ,G1 X0 Y0 F2000		; Move X and Y to 0 with speed 2000 (mm/min),G1 Z0.1 F1000		; Move Z to 0.1,G1 X8.0 F2000		; Move X to 8.0,G1 Y60.0 E4.0 F1000.0		; Prime - Move Y to 60 and Extruder with 4.0,G1 Y100.0 E8.5 F1000.0		; Prime - Move Y to 100 and Extruder with 8.5,G92 E0			; Set extruder to 0,M117 *End Clean*		; Indicate nozzle clean in progress on LCD,G1 Z5 F3000			; Lift - Move Z to 5,; ,M117 *Printing...*		; start msg,; // Begin printing with sliced GCode after here,;
;   layerChangeGcode,
;   retractionGcode,
;   toolChangeGcode,
;   endingGcode,;,; init 181010,;,;M107 			; Fan off,;G1 E-1 F300 			; Retract the filament a bit before lifting the nozzle,;M104 S0 			; Turn off extruder,;M140 S0 			; Turn off bed,;G91			; Relative positioning,;G28 X0 Y0 			; Move X/Y to min endstops so the head is out of teh way,;M84 			; Disable motors,;G90 			; Absolute positioning,;M117 Print ready...,,;,; // From Cura 181010,; // End_gcode,G92 E0			; Zero the extruded length,G1 E-30 F300			; Retract E -30,M106 S0			; Turn off cooling fan,M104 S0			; Turn off temperature,M140 S0		     	; Turn off bed,G91			; Relative positioning,G1 E-1 F300			; Retract the filament a bit before lifting the nozzle to release some of the pressure,G1 Z+20 E-5 X-20 Y-20 F7200	; Move Z up a bit and retract filament even more,G1 X0 Y150 F10000		; Move right mid,M107			; Turn off layer fan,M84			; Disable motors,G90			; Absolute positioning,M117 *The-End* 		; End msg,;,
;   exportFileFormat,gcode
;   celebration,0
;   celebrationSong,Star Wars
;   postProcessing,
;   defaultSpeed,1800
;   outlineUnderspeed,0.5
;   solidInfillUnderspeed,0.8
;   supportUnderspeed,0.8
;   rapidXYspeed,6000
;   rapidZspeed,1002
;   minBridgingArea,50
;   bridgingExtraInflation,0.2
;   bridgingExtrusionMultiplier,1
;   bridgingSpeedMultiplier,0.6
;   useFixedBridgingAngle,0
;   fixedBridgingAngle,0
;   applyBridgingToPerimeters,0
;   filamentDiameters,1.75|1.75|1.75|1.75|1.75|1.75
;   filamentPricesPerKg,30|46|46|46|46|46
;   filamentDensities,1.25|1.25|1.25|1.25|1.25|1.25
;   useMinPrintHeight,0
;   minPrintHeight,0
;   useMaxPrintHeight,0
;   maxPrintHeight,9
;   useDiaphragm,0
;   diaphragmLayerInterval,20
;   robustSlicing,1
;   mergeAllIntoSolid,0
;   onlyRetractWhenCrossingOutline,1
;   retractBetweenLayers,1
;   useRetractionMinTravel,0
;   retractionMinTravel,3
;   retractWhileWiping,0
;   onlyWipeOutlines,1
;   avoidCrossingOutline,0
;   maxMovementDetourFactor,3
;   toolChangeRetractionDistance,12
;   toolChangeExtraRestartDistance,-0.5
;   toolChangeRetractionSpeed,600
;   externalThinWallType,1
;   internalThinWallType,1
;   thinWallAllowedOverlapPercentage,15
;   singleExtrusionMinLength,1
;   singleExtrusionMinPrintingWidthPercentage,50
;   singleExtrusionMaxPrintingWidthPercentage,200
;   singleExtrusionEndpointExtension,0.2
;   horizontalSizeCompensation,0
G90
M82
M106 S0
M140 S50
M190 S50
;Init 181010
;G28 			; Home all axes
;G1 Z5 F3000 ; lift
;G92 E0			; Reset extrusion distance
; // From Cura 181010
; // Update 190823 (GueroLoco)
; // Start_gcode
M117 *Start Clean*		; Indicate nozzle clean in progress on LCD
;
M104 S210 
M109 S210 
M109 R210 
;
M107			; Turn layer fan off
G21			; Set to metric [change to G20 if you want Imperial]
G90			; Force coordinates to be absolute relative to the origin
G28			; Home X/Y/Z axis
;
;G1 X3 Y1 Z15 F9000		; Move safe Z height to shear strings
;G0 X1 Y1 Z0.2 F9000		; Move in 1mm from edge and up [z] 0.2mm
;G92 E0			; Set extruder to [0] zero
;G1 X100 E12 F500		; Extrude 30mm filiment along X axis 100mm long to prime and clean the nozzle
;G92 E0			; Reset extruder to [0] zero end of cleaning run
;G1 E-1 F500			; Retract filiment by 1 mm to reduce string effect
;G1 X180 F4000		; Quick wipe away from the filament line / purge
;
G92 E0			; Set Extruder to 0 
G1 X0 Y0 F2000		; Move X and Y to 0 with speed 2000 (mm/min)
G1 Z0.1 F1000		; Move Z to 0.1
G1 X8.0 F2000		; Move X to 8.0
G1 Y60.0 E4.0 F1000.0		; Prime - Move Y to 60 and Extruder with 4.0
G1 Y100.0 E8.5 F1000.0		; Prime - Move Y to 100 and Extruder with 8.5
G92 E0			; Set extruder to 0
M117 *End Clean*		; Indicate nozzle clean in progress on LCD
G1 Z5 F3000			; Lift - Move Z to 5
; 
M117 *Printing...*		; start msg
; // Begin printing with sliced GCode after here
;
G92 E0
G1 E-6.0000 F3000
G1 Z0.480 F1002
; process Process1
; layer 1, Z = 0.180
T0
; tool H0.180 W0.350
; skirt
G1 X101.704 Y128.274 F6000
G1 Z0.180 F1002
G1 E0.0000 F900
G92 E0
G1 X101.744 Y128.246 E0.0012 F900
G1 X102.313 Y127.888 E0.0180
G1 X102.356 Y127.864 E0.0192
G1 X102.603 Y127.745 E0.0260
G1 X102.648 Y127.727 E0.0272
G1 X103.283 Y127.504 E0.0439
G1 X103.330 Y127.491 E0.0452
G1 X103.597 Y127.430 E0.0520
G1 X103.646 Y127.422 E0.0532
G1 X104.246 Y127.354 E0.0682
G1 X104.271 Y127.352 E0.0688
G1 X104.407 Y127.344 E0.0723
G1 X104.432 Y127.344 E0.0729
G1 X191.568 Y127.344 E2.2411
G1 X191.593 Y127.344 E2.2417
G1 X191.729 Y127.352 E2.2451
G1 X191.754 Y127.354 E2.2457
G1 X193.244 Y127.522 E2.2830
G1 X193.293 Y127.530 E2.2842
G1 X193.560 Y127.591 E2.2910
G1 X193.607 Y127.605 E2.2923
G1 X195.087 Y128.123 E2.3313
G1 X195.133 Y128.141 E2.3325
G1 X195.379 Y128.260 E2.3393
G1 X195.422 Y128.284 E2.3405
G1 X196.750 Y129.118 E2.3796
G1 X196.790 Y129.147 E2.3808
G1 X197.004 Y129.318 E2.3876
G1 X197.041 Y129.350 E2.3888
G1 X198.150 Y130.459 E2.4278
G1 X198.182 Y130.496 E2.4291
G1 X198.353 Y130.710 E2.4359
G1 X198.382 Y130.750 E2.4371
G1 X199.216 Y132.078 E2.4761
G1 X199.240 Y132.121 E2.4773
G1 X199.359 Y132.367 E2.4842
G1 X199.377 Y132.413 E2.4854
G1 X199.895 Y133.893 E2.5244
G1 X199.909 Y133.940 E2.5256
G1 X199.970 Y134.207 E2.5324
G1 X199.978 Y134.256 E2.5337
G1 X200.146 Y135.746 E2.5710
G1 X200.148 Y135.771 E2.5716
G1 X200.156 Y135.907 E2.5750
G1 X200.156 Y135.932 E2.5756
G1 X200.156 Y146.618 E2.8415
G1 X200.156 Y146.643 E2.8421
G1 X200.148 Y146.779 E2.8455
G1 X200.146 Y146.804 E2.8461
G1 X199.978 Y148.294 E2.8835
G1 X199.970 Y148.343 E2.8847
G1 X199.909 Y148.610 E2.8915
G1 X199.895 Y148.657 E2.8927
G1 X199.377 Y150.137 E2.9318
G1 X199.358 Y150.183 E2.9330
G1 X199.240 Y150.429 E2.9398
G1 X199.216 Y150.472 E2.9410
G1 X198.382 Y151.800 E2.9800
G1 X198.353 Y151.840 E2.9813
G1 X198.182 Y152.054 E2.9881
G1 X198.150 Y152.091 E2.9893
G1 X197.041 Y153.200 E3.0283
G1 X197.004 Y153.232 E3.0295
G1 X196.790 Y153.403 E3.0363
G1 X196.750 Y153.432 E3.0376
G1 X195.422 Y154.266 E3.0766
G1 X195.379 Y154.290 E3.0778
G1 X195.133 Y154.408 E3.0846
G1 X195.087 Y154.427 E3.0858
G1 X193.607 Y154.945 E3.1249
G1 X193.560 Y154.959 E3.1261
G1 X193.293 Y155.020 E3.1329
G1 X193.244 Y155.028 E3.1341
G1 X191.754 Y155.196 E3.1714
G1 X191.729 Y155.198 E3.1721
G1 X191.593 Y155.206 E3.1755
G1 X191.568 Y155.206 E3.1761
G1 X176.026 Y155.206 E3.5628
G1 X175.131 Y155.306 E3.5852
G1 X174.432 Y155.549 E3.6036
G1 X173.805 Y155.940 E3.6220
G1 X173.164 Y156.573 E3.6444
G1 X172.825 Y156.993 E3.6579
G1 X172.809 Y157.012 E3.6585
G1 X172.718 Y157.113 E3.6619
G1 X172.701 Y157.130 E3.6625
G1 X171.642 Y158.177 E3.6995
G1 X171.605 Y158.210 E3.7007
G1 X171.392 Y158.378 E3.7075
G1 X171.352 Y158.406 E3.7087
G1 X170.030 Y159.229 E3.7475
G1 X169.988 Y159.253 E3.7487
G1 X169.742 Y159.370 E3.7554
G1 X169.697 Y159.388 E3.7566
G1 X168.226 Y159.899 E3.7954
G1 X168.179 Y159.912 E3.7966
G1 X167.914 Y159.972 E3.8034
G1 X167.866 Y159.981 E3.8046
G1 X166.386 Y160.146 E3.8416
G1 X166.362 Y160.148 E3.8422
G1 X166.227 Y160.156 E3.8456
G1 X166.202 Y160.156 E3.8462
G1 X154.854 Y160.156 E4.1286
G1 X154.820 Y160.155 E4.1294
G1 X154.629 Y160.140 E4.1342
G1 X154.595 Y160.136 E4.1351
G1 X154.085 Y160.055 E4.1479
G1 X154.018 Y160.039 E4.1496
G1 X153.653 Y159.921 E4.1592
G1 X153.590 Y159.894 E4.1609
G1 X153.044 Y159.616 E4.1761
G1 X152.985 Y159.580 E4.1778
G1 X152.675 Y159.355 E4.1874
G1 X152.623 Y159.310 E4.1891
G1 X152.190 Y158.877 E4.2043
G1 X152.145 Y158.825 E4.2060
G1 X151.920 Y158.515 E4.2156
G1 X151.884 Y158.456 E4.2173
G1 X151.606 Y157.910 E4.2325
G1 X151.579 Y157.847 E4.2342
G1 X151.461 Y157.482 E4.2438
G1 X151.445 Y157.415 E4.2455
G1 X151.364 Y156.905 E4.2583
G1 X151.360 Y156.871 E4.2592
G1 X151.345 Y156.680 E4.2640
G1 X151.344 Y156.646 E4.2648
G1 X151.344 Y151.656 E4.3890
G1 X121.656 Y151.656 E5.1277
G1 X121.656 Y168.068 E5.5360
G1 X121.656 Y168.093 E5.5367
G1 X121.648 Y168.230 E5.5401
G1 X121.646 Y168.254 E5.5407
G1 X121.578 Y168.854 E5.5557
G1 X121.570 Y168.903 E5.5569
G1 X121.509 Y169.170 E5.5637
G1 X121.496 Y169.217 E5.5650
G1 X121.273 Y169.852 E5.5817
G1 X121.255 Y169.897 E5.5829
G1 X121.136 Y170.144 E5.5897
G1 X121.112 Y170.187 E5.5909
G1 X120.754 Y170.756 E5.6077
G1 X120.726 Y170.796 E5.6089
G1 X120.555 Y171.010 E5.6157
G1 X120.522 Y171.047 E5.6169
G1 X120.047 Y171.522 E5.6337
G1 X120.010 Y171.555 E5.6349
G1 X119.796 Y171.726 E5.6417
G1 X119.756 Y171.754 E5.6429
G1 X119.187 Y172.112 E5.6597
G1 X119.144 Y172.136 E5.6609
G1 X118.897 Y172.255 E5.6677
G1 X118.852 Y172.273 E5.6689
G1 X118.217 Y172.496 E5.6857
G1 X118.170 Y172.509 E5.6869
G1 X117.903 Y172.570 E5.6937
G1 X117.854 Y172.578 E5.6949
G1 X117.254 Y172.646 E5.7099
G1 X117.229 Y172.648 E5.7106
G1 X117.093 Y172.656 E5.7140
G1 X117.068 Y172.656 E5.7146
G1 X104.432 Y172.656 E6.0290
G1 X104.407 Y172.656 E6.0296
G1 X104.271 Y172.648 E6.0330
G1 X104.246 Y172.646 E6.0336
G1 X103.646 Y172.578 E6.0487
G1 X103.597 Y172.570 E6.0499
G1 X103.330 Y172.509 E6.0567
G1 X103.283 Y172.496 E6.0579
G1 X102.648 Y172.273 E6.0747
G1 X102.603 Y172.255 E6.0759
G1 X102.356 Y172.136 E6.0827
G1 X102.313 Y172.112 E6.0839
G1 X101.744 Y171.754 E6.1007
G1 X101.704 Y171.726 E6.1019
G1 X101.490 Y171.555 E6.1087
G1 X101.453 Y171.522 E6.1099
G1 X100.978 Y171.047 E6.1266
G1 X100.945 Y171.010 E6.1279
G1 X100.774 Y170.796 E6.1347
G1 X100.746 Y170.756 E6.1359
G1 X100.388 Y170.187 E6.1526
G1 X100.364 Y170.144 E6.1539
G1 X100.245 Y169.897 E6.1607
G1 X100.227 Y169.852 E6.1619
G1 X100.004 Y169.217 E6.1786
G1 X99.991 Y169.170 E6.1799
G1 X99.930 Y168.903 E6.1867
G1 X99.922 Y168.854 E6.1879
G1 X99.854 Y168.254 E6.2029
G1 X99.852 Y168.230 E6.2035
G1 X99.844 Y168.093 E6.2069
G1 X99.844 Y168.068 E6.2075
G1 X99.844 Y131.932 E7.1067
G1 X99.844 Y131.907 E7.1073
G1 X99.852 Y131.770 E7.1107
G1 X99.854 Y131.746 E7.1113
G1 X99.922 Y131.146 E7.1264
G1 X99.930 Y131.097 E7.1276
G1 X99.991 Y130.830 E7.1344
G1 X100.004 Y130.783 E7.1356
G1 X100.227 Y130.148 E7.1524
G1 X100.245 Y130.103 E7.1536
G1 X100.364 Y129.856 E7.1604
G1 X100.388 Y129.813 E7.1616
G1 X100.746 Y129.244 E7.1784
G1 X100.774 Y129.204 E7.1796
G1 X100.945 Y128.990 E7.1864
G1 X100.978 Y128.953 E7.1876
G1 X101.453 Y128.478 E7.2044
G1 X101.490 Y128.445 E7.2056
G1 X101.704 Y128.274 E7.2124
G1 X101.914 Y128.554 F6000
G92 E0
G1 X101.938 Y128.537 E0.0007 F900
G1 X102.491 Y128.189 E0.0170
G1 X102.517 Y128.175 E0.0177
G1 X102.746 Y128.065 E0.0240
G1 X102.773 Y128.054 E0.0248
G1 X103.389 Y127.838 E0.0410
G1 X103.418 Y127.830 E0.0417
G1 X103.666 Y127.773 E0.0481
G1 X103.695 Y127.768 E0.0488
G1 X104.280 Y127.702 E0.0635
G1 X104.295 Y127.701 E0.0638
G1 X104.422 Y127.694 E0.0670
G1 X104.437 Y127.694 E0.0674
G1 X191.563 Y127.694 E2.2353
