; G-Code generated by Simplify3D(R) Version 4.0.1
; Sep 11, 2019 at 12:43:13 PM
; Settings Summary
;   processName,Process1
;   applyToModels,Epreuve02
;   profileName,101 Tevo Tornado (experimental)
;   profileVersion,2019-09-11 12:41:58
;   baseProfile,Creality CR-10(2)
;   printMaterial,PLA
;   printQuality,Medium
;   printExtruders,
;   extruderName,Primary Extruder
;   extruderToolheadNumber,0
;   extruderDiameter,0.4
;   extruderAutoWidth,0
;   extruderWidth,0.35
;   extrusionMultiplier,0.95
;   extruderUseRetract,1
;   extruderRetractionDistance,6
;   extruderExtraRestartDistance,0
;   extruderRetractionZLift,0.3
;   extruderRetractionSpeed,3000
;   extruderUseCoasting,0
;   extruderCoastingDistance,0.2
;   extruderUseWipe,0
;   extruderWipeDistance,4
;   primaryExtruder,0
;   layerHeight,0.15
;   topSolidLayers,4
;   bottomSolidLayers,3
;   perimeterOutlines,3
;   printPerimetersInsideOut,0
;   startPointOption,3
;   startPointOriginX,0
;   startPointOriginY,300
;   sequentialIslands,0
;   spiralVaseMode,0
;   firstLayerHeightPercentage,120
;   firstLayerWidthPercentage,100
;   firstLayerUnderspeed,0.5
;   useRaft,0
;   raftExtruder,0
;   raftTopLayers,3
;   raftBaseLayers,2
;   raftOffset,3
;   raftSeparationDistance,0.14
;   raftTopInfill,100
;   aboveRaftSpeedMultiplier,0.3
;   useSkirt,1
;   skirtExtruder,0
;   skirtLayers,1
;   skirtOutlines,3
;   skirtOffset,2
;   usePrimePillar,0
;   primePillarExtruder,999
;   primePillarWidth,12
;   primePillarLocation,7
;   primePillarSpeedMultiplier,1
;   useOozeShield,0
;   oozeShieldExtruder,999
;   oozeShieldOffset,2
;   oozeShieldOutlines,1
;   oozeShieldSidewallShape,1
;   oozeShieldSidewallAngle,30
;   oozeShieldSpeedMultiplier,1
;   infillExtruder,0
;   internalInfillPattern,Rectilinear
;   externalInfillPattern,Rectilinear
;   infillPercentage,15
;   outlineOverlapPercentage,15
;   infillExtrusionWidthPercentage,100
;   minInfillLength,5
;   infillLayerInterval,1
;   internalInfillAngles,45,-45
;   overlapInternalInfillAngles,0
;   externalInfillAngles,45,-45
;   generateSupport,0
;   supportExtruder,0
;   supportInfillPercentage,30
;   supportExtraInflation,0
;   supportBaseLayers,0
;   denseSupportExtruder,0
;   denseSupportLayers,0
;   denseSupportInfillPercentage,70
;   supportLayerInterval,1
;   supportHorizontalPartOffset,0.4
;   supportUpperSeparationLayers,1
;   supportLowerSeparationLayers,1
;   supportType,0
;   supportGridSpacing,4.5
;   maxOverhangAngle,45
;   supportAngles,0
;   temperatureName,Primary Extruder,Heated Bed
;   temperatureNumber,0,0
;   temperatureSetpointCount,2,1
;   temperatureSetpointLayers,1,2,1
;   temperatureSetpointTemperatures,210,205,50
;   temperatureStabilizeAtStartup,1,1
;   temperatureHeatedBed,0,1
;   temperatureRelayBetweenLayers,0,0
;   temperatureRelayBetweenLoops,0,0
;   fanLayers,1,2
;   fanSpeeds,0,100
;   blipFanToFullPower,0
;   adjustSpeedForCooling,1
;   minSpeedLayerTime,15
;   minCoolingSpeedSlowdown,50
;   increaseFanForCooling,1
;   minFanLayerTime,25
;   maxCoolingFanSpeed,100
;   increaseFanForBridging,1
;   bridgingFanSpeed,100
;   use5D,1
;   relativeEdistances,0
;   allowEaxisZeroing,1
;   independentExtruderAxes,0
;   includeM10123,0
;   stickySupport,1
;   applyToolheadOffsets,0
;   gcodeXoffset,0
;   gcodeYoffset,0
;   gcodeZoffset,0
;   overrideMachineDefinition,1
;   machineTypeOverride,0
;   strokeXoverride,300
;   strokeYoverride,300
;   strokeZoverride,400
;   originOffsetXoverride,0
;   originOffsetYoverride,0
;   originOffsetZoverride,0
;   homeXdirOverride,-1
;   homeYdirOverride,-1
;   homeZdirOverride,-1
;   flipXoverride,1
;   flipYoverride,-1
;   flipZoverride,1
;   toolheadOffsets,0,0|0,0|0,0|0,0|0,0|0,0
;   overrideFirmwareConfiguration,1
;   firmwareTypeOverride,RepRap (Marlin/Repetier/Sprinter)
;   GPXconfigOverride,r2
;   baudRateOverride,250000
;   overridePrinterModels,1
;   printerModelsOverride
;   startingGcode,;Init 181010,;G28 			; Home all axes,;G1 Z5 F3000 ; lift,;G92 E0			; Reset extrusion distance,,; // From Cura 181010,; // Update 190823 (GueroLoco),; // Start_gcode,M117 *Start Clean*		; Indicate nozzle clean in progress on LCD,;,M104 S[extruder0_temperature] ,M109 S[extruder0_temperature] ,M109 R[extruder0_temperature] ,;,M107			; Turn layer fan off,G21			; Set to metric [change to G20 if you want Imperial],G90			; Force coordinates to be absolute relative to the origin,G28			; Home X/Y/Z axis,;,;G1 X3 Y1 Z15 F9000		; Move safe Z height to shear strings,;G0 X1 Y1 Z0.2 F9000		; Move in 1mm from edge and up [z] 0.2mm,;G92 E0			; Set extruder to [0] zero,;G1 X100 E12 F500		; Extrude 30mm filiment along X axis 100mm long to prime and clean the nozzle,;G92 E0			; Reset extruder to [0] zero end of cleaning run,;G1 E-1 F500			; Retract filiment by 1 mm to reduce string effect,;G1 X180 F4000		; Quick wipe away from the filament line / purge,;,G92 E0			; Set Extruder to 0 ,G1 X0 Y0 F2000		; Move X and Y to 0 with speed 2000 (mm/min),G1 Z0.1 F1000		; Move Z to 0.1,G1 X8.0 F2000		; Move X to 8.0,G1 Y60.0 E4.0 F1000.0		; Prime - Move Y to 60 and Extruder with 4.0,G1 Y100.0 E8.5 F1000.0		; Prime - Move Y to 100 and Extruder with 8.5,G92 E0			; Set extruder to 0,M117 *End Clean*		; Indicate nozzle clean in progress on LCD,G1 Z5 F3000			; Lift - Move Z to 5,; ,M117 *Printing...*		; start msg,; // Begin printing with sliced GCode after here,;
;   layerChangeGcode,
;   retractionGcode,
;   toolChangeGcode,
;   endingGcode,;,; init 181010,;,;M107 			; Fan off,;G1 E-1 F300 			; Retract the filament a bit before lifting the nozzle,;M104 S0 			; Turn off extruder,;M140 S0 			; Turn off bed,;G91			; Relative positioning,;G28 X0 Y0 			; Move X/Y to min endstops so the head is out of teh way,;M84 			; Disable motors,;G90 			; Absolute positioning,;M117 Print ready...,,;,; // From Cura 181010,; // End_gcode,G92 E0			; Zero the extruded length,G1 E-30 F300			; Retract E -30,M106 S0			; Turn off cooling fan,M104 S0			; Turn off temperature,M140 S0		     	; Turn off bed,G91			; Relative positioning,G1 E-1 F300			; Retract the filament a bit before lifting the nozzle to release some of the pressure,G1 Z+20 E-5 X-20 Y-20 F7200	; Move Z up a bit and retract filament even more,G1 X0 Y150 F10000		; Move right mid,M107			; Turn off layer fan,M84			; Disable motors,G90			; Absolute positioning,M117 *The-End* 		; End msg,;,
;   exportFileFormat,gcode
;   celebration,0
;   celebrationSong,Star Wars
;   postProcessing,
;   defaultSpeed,1800
;   outlineUnderspeed,0.5
;   solidInfillUnderspeed,0.8
;   supportUnderspeed,0.8
;   rapidXYspeed,6000
;   rapidZspeed,1002
;   minBridgingArea,50
;   bridgingExtraInflation,0.2
;   bridgingExtrusionMultiplier,1
;   bridgingSpeedMultiplier,0.6
;   useFixedBridgingAngle,0
;   fixedBridgingAngle,0
;   applyBridgingToPerimeters,0
;   filamentDiameters,1.75|1.75|1.75|1.75|1.75|1.75
;   filamentPricesPerKg,30|46|46|46|46|46
;   filamentDensities,1.25|1.25|1.25|1.25|1.25|1.25
;   useMinPrintHeight,0
;   minPrintHeight,0
;   useMaxPrintHeight,0
;   maxPrintHeight,9
;   useDiaphragm,0
;   diaphragmLayerInterval,20
;   robustSlicing,1
;   mergeAllIntoSolid,0
;   onlyRetractWhenCrossingOutline,1
;   retractBetweenLayers,1
;   useRetractionMinTravel,0
;   retractionMinTravel,3
;   retractWhileWiping,0
;   onlyWipeOutlines,1
;   avoidCrossingOutline,0
;   maxMovementDetourFactor,3
;   toolChangeRetractionDistance,12
;   toolChangeExtraRestartDistance,-0.5
;   toolChangeRetractionSpeed,600
;   externalThinWallType,1
;   internalThinWallType,1
;   thinWallAllowedOverlapPercentage,15
;   singleExtrusionMinLength,1
;   singleExtrusionMinPrintingWidthPercentage,50
;   singleExtrusionMaxPrintingWidthPercentage,200
;   singleExtrusionEndpointExtension,0.2
;   horizontalSizeCompensation,0
G90
M82
M106 S0
M140 S50
M190 S50
;Init 181010
;G28 			; Home all axes
;G1 Z5 F3000 ; lift
;G92 E0			; Reset extrusion distance
; // From Cura 181010
; // Update 190823 (GueroLoco)
; // Start_gcode
M117 *Start Clean*		; Indicate nozzle clean in progress on LCD
;
M104 S210 
M109 S210 
M109 R210 
;
M107			; Turn layer fan off
G21			; Set to metric [change to G20 if you want Imperial]
G90			; Force coordinates to be absolute relative to the origin
G28			; Home X/Y/Z axis
;
;G1 X3 Y1 Z15 F9000		; Move safe Z height to shear strings
;G0 X1 Y1 Z0.2 F9000		; Move in 1mm from edge and up [z] 0.2mm
;G92 E0			; Set extruder to [0] zero
;G1 X100 E12 F500		; Extrude 30mm filiment along X axis 100mm long to prime and clean the nozzle
;G92 E0			; Reset extruder to [0] zero end of cleaning run
;G1 E-1 F500			; Retract filiment by 1 mm to reduce string effect
;G1 X180 F4000		; Quick wipe away from the filament line / purge
;
G92 E0			; Set Extruder to 0 
G1 X0 Y0 F2000		; Move X and Y to 0 with speed 2000 (mm/min)
G1 Z0.1 F1000		; Move Z to 0.1
G1 X8.0 F2000		; Move X to 8.0
G1 Y60.0 E4.0 F1000.0		; Prime - Move Y to 60 and Extruder with 4.0
G1 Y100.0 E8.5 F1000.0		; Prime - Move Y to 100 and Extruder with 8.5
G92 E0			; Set extruder to 0
M117 *End Clean*		; Indicate nozzle clean in progress on LCD
G1 Z5 F3000			; Lift - Move Z to 5
; 
M117 *Printing...*		; start msg
; // Begin printing with sliced GCode after here
;
G92 E0
G1 E-6.0000 F3000
G1 Z0.480 F1002
; process Process1
; layer 1, Z = 0.180
T0
; tool H0.180 W0.350
; skirt
G1 X134.031 Y125.912 F6000
G1 Z0.180 F1002
G1 E0.0000 F900
G92 E0
G1 X134.700 Y125.243 E0.0235 F900
G1 X134.736 Y125.210 E0.0247
G1 X134.950 Y125.040 E0.0316
G1 X134.990 Y125.011 E0.0328
G1 X135.791 Y124.508 E0.0563
G1 X135.834 Y124.484 E0.0575
G1 X136.081 Y124.366 E0.0643
G1 X136.126 Y124.347 E0.0656
G1 X137.018 Y124.034 E0.0891
G1 X137.066 Y124.021 E0.0903
G1 X137.333 Y123.960 E0.0971
G1 X137.381 Y123.952 E0.0983
G1 X138.252 Y123.854 E0.1202
G1 X138.277 Y123.851 E0.1208
G1 X138.414 Y123.844 E0.1242
G1 X138.438 Y123.843 E0.1248
G1 X165.496 Y123.843 E0.7981
G1 X165.818 Y123.976 E0.8067
G1 X167.235 Y125.394 E0.8566
G1 X167.369 Y125.716 E0.8653
G1 X167.369 Y154.294 E1.5764
G1 X167.235 Y154.616 E1.5851
G1 X165.818 Y156.034 E1.6350
G1 X165.496 Y156.167 E1.6436
G1 X154.048 Y156.167 E1.9285
G1 X153.640 Y156.213 E1.9387
G1 X153.407 Y156.294 E1.9448
G1 X153.197 Y156.426 E1.9510
G1 X153.023 Y156.599 E1.9571
G1 X152.887 Y156.816 E1.9635
G1 X152.808 Y157.043 E1.9694
G1 X152.761 Y157.454 E1.9797
G1 X152.761 Y170.350 E2.3006
G1 X152.761 Y170.375 E2.3012
G1 X152.753 Y170.511 E2.3047
G1 X152.751 Y170.536 E2.3053
G1 X152.653 Y171.407 E2.3271
G1 X152.645 Y171.456 E2.3283
G1 X152.584 Y171.723 E2.3351
G1 X152.570 Y171.770 E2.3363
G1 X152.258 Y172.662 E2.3599
G1 X152.239 Y172.708 E2.3611
G1 X152.120 Y172.954 E2.3679
G1 X152.096 Y172.997 E2.3691
G1 X151.593 Y173.798 E2.3927
G1 X151.565 Y173.838 E2.3939
G1 X151.394 Y174.052 E2.4007
G1 X151.362 Y174.089 E2.4019
G1 X150.693 Y174.757 E2.4254
G1 X150.656 Y174.790 E2.4267
G1 X150.442 Y174.960 E2.4335
G1 X150.402 Y174.989 E2.4347
G1 X149.602 Y175.492 E2.4582
G1 X149.559 Y175.516 E2.4594
G1 X149.312 Y175.634 E2.4662
G1 X149.267 Y175.653 E2.4675
G1 X148.374 Y175.966 E2.4910
G1 X148.327 Y175.979 E2.4922
G1 X148.060 Y176.040 E2.4990
G1 X148.012 Y176.048 E2.5002
G1 X147.140 Y176.146 E2.5221
G1 X147.116 Y176.149 E2.5227
G1 X146.979 Y176.156 E2.5261
G1 X146.955 Y176.157 E2.5267
G1 X138.438 Y176.157 E2.7386
G1 X138.413 Y176.156 E2.7392
G1 X138.277 Y176.149 E2.7426
G1 X138.252 Y176.146 E2.7432
G1 X137.381 Y176.048 E2.7651
G1 X137.333 Y176.040 E2.7663
G1 X137.066 Y175.979 E2.7731
G1 X137.019 Y175.966 E2.7743
G1 X136.126 Y175.653 E2.7978
G1 X136.081 Y175.634 E2.7991
G1 X135.834 Y175.516 E2.8059
G1 X135.791 Y175.492 E2.8071
G1 X134.990 Y174.989 E2.8306
G1 X134.950 Y174.960 E2.8319
G1 X134.736 Y174.790 E2.8387
G1 X134.700 Y174.757 E2.8399
G1 X134.031 Y174.088 E2.8634
G1 X133.998 Y174.052 E2.8646
G1 X133.828 Y173.838 E2.8714
G1 X133.799 Y173.798 E2.8727
G1 X133.296 Y172.997 E2.8962
G1 X133.273 Y172.954 E2.8974
G1 X133.154 Y172.708 E2.9042
G1 X133.135 Y172.662 E2.9054
G1 X132.823 Y171.770 E2.9290
G1 X132.809 Y171.723 E2.9302
G1 X132.748 Y171.456 E2.9370
G1 X132.740 Y171.407 E2.9382
G1 X132.642 Y170.539 E2.9600
G1 X132.640 Y170.514 E2.9606
G1 X132.632 Y170.378 E2.9640
G1 X132.632 Y170.353 E2.9646
G1 X132.631 Y129.650 E3.9774
G1 X132.632 Y129.625 E3.9780
G1 X132.640 Y129.489 E3.9814
G1 X132.642 Y129.464 E3.9820
G1 X132.740 Y128.593 E4.0039
G1 X132.748 Y128.544 E4.0051
G1 X132.809 Y128.277 E4.0119
G1 X132.823 Y128.230 E4.0131
G1 X133.135 Y127.338 E4.0367
G1 X133.154 Y127.292 E4.0379
G1 X133.273 Y127.046 E4.0447
G1 X133.296 Y127.003 E4.0459
G1 X133.799 Y126.202 E4.0694
G1 X133.828 Y126.162 E4.0707
G1 X133.998 Y125.948 E4.0775
G1 X134.031 Y125.912 E4.0787
G1 X134.286 Y126.152 F6000
G92 E0
G1 X134.940 Y125.497 E0.0230 F900
G1 X134.962 Y125.478 E0.0238
G1 X135.161 Y125.319 E0.0301
G1 X135.185 Y125.302 E0.0308
G1 X135.969 Y124.810 E0.0539
G1 X135.995 Y124.795 E0.0546
G1 X136.224 Y124.685 E0.0609
G1 X136.251 Y124.674 E0.0617
G1 X137.125 Y124.368 E0.0847
G1 X137.153 Y124.360 E0.0854
G1 X137.401 Y124.303 E0.0917
G1 X137.430 Y124.298 E0.0925
G1 X138.287 Y124.202 E0.1139
G1 X138.301 Y124.201 E0.1143
G1 X138.428 Y124.194 E0.1175
G1 X138.443 Y124.193 E0.1178
G1 X165.426 Y124.193 E0.7893
G1 X165.619 Y124.273 E0.7945
G1 X166.939 Y125.592 E0.8409
G1 X167.019 Y125.785 E0.8461
G1 X167.019 Y154.225 E1.5537
G1 X166.939 Y154.418 E1.5589
G1 X165.619 Y155.737 E1.6053
G1 X165.426 Y155.817 E1.6105
G1 X154.028 Y155.817 E1.8942
G1 X153.562 Y155.869 E1.9058
G1 X153.254 Y155.977 E1.9139
G1 X152.978 Y156.150 E1.9221
G1 X152.748 Y156.380 E1.9301
G1 X152.570 Y156.663 E1.9385
G1 X152.465 Y156.964 E1.9464
G1 X152.411 Y157.434 E1.9582
G1 X152.411 Y170.345 E2.2794
G1 X152.411 Y170.360 E2.2798
G1 X152.404 Y170.487 E2.2830
G1 X152.403 Y170.501 E2.2833
G1 X152.306 Y171.358 E2.3048
G1 X152.301 Y171.387 E2.3055
G1 X152.245 Y171.635 E2.3118
G1 X152.236 Y171.663 E2.3126
G1 X151.931 Y172.537 E2.3356
G1 X151.919 Y172.565 E2.3364
G1 X151.809 Y172.794 E2.3427
G1 X151.795 Y172.819 E2.3434
G1 X151.302 Y173.603 E2.3664
G1 X151.285 Y173.627 E2.3672
G1 X151.127 Y173.826 E2.3735
G1 X151.107 Y173.848 E2.3742
G1 X150.452 Y174.503 E2.3973
G1 X150.431 Y174.522 E2.3980
G1 X150.232 Y174.681 E2.4043
G1 X150.208 Y174.698 E2.4051
G1 X149.424 Y175.190 E2.4281
G1 X149.398 Y175.205 E2.4288
G1 X149.169 Y175.315 E2.4352
G1 X149.142 Y175.326 E2.4359
G1 X148.268 Y175.632 E2.4589
G1 X148.240 Y175.640 E2.4597
G1 X147.992 Y175.697 E2.4660
G1 X147.963 Y175.702 E2.4667
G1 X147.106 Y175.798 E2.4882
G1 X147.091 Y175.799 E2.4885
G1 X146.965 Y175.806 E2.4917
G1 X146.950 Y175.807 E2.4921
G1 X138.443 Y175.807 E2.7037
G1 X138.428 Y175.806 E2.7041
G1 X138.301 Y175.799 E2.7073
G1 X138.287 Y175.798 E2.7076
G1 X137.430 Y175.702 E2.7291
G1 X137.401 Y175.697 E2.7298
G1 X137.153 Y175.640 E2.7361
G1 X137.125 Y175.632 E2.7369
G1 X136.251 Y175.326 E2.7599
G1 X136.224 Y175.315 E2.7606
G1 X135.995 Y175.205 E2.7670
G1 X135.969 Y175.190 E2.7677
G1 X135.185 Y174.698 E2.7907
G1 X135.161 Y174.681 E2.7915
G1 X134.962 Y174.522 E2.7978
G1 X134.940 Y174.503 E2.7985
G1 X134.286 Y173.848 E2.8216
G1 X134.266 Y173.826 E2.8223
G1 X134.108 Y173.627 E2.8286
G1 X134.091 Y173.603 E2.8294
G1 X133.598 Y172.819 E2.8524
G1 X133.584 Y172.794 E2.8531
G1 X133.473 Y172.565 E2.8595
G1 X133.462 Y172.537 E2.8602
G1 X133.156 Y171.663 E2.8832
G1 X133.148 Y171.635 E2.8840
G1 X133.092 Y171.387 E2.8903
G1 X133.087 Y171.358 E2.8910
G1 X132.991 Y170.505 E2.9124
G1 X132.989 Y170.490 E2.9128
G1 X132.982 Y170.363 E2.9159
G1 X132.982 Y170.348 E2.9163
G1 X132.981 Y129.655 E3.9289
G1 X132.982 Y129.640 E3.9292
G1 X132.989 Y129.513 E3.9324
G1 X132.990 Y129.499 E3.9328
G1 X133.087 Y128.642 E3.9542
G1 X133.092 Y128.612 E3.9549
G1 X133.148 Y128.365 E3.9613
G1 X133.156 Y128.336 E3.9620
G1 X133.462 Y127.463 E3.9850
G1 X133.473 Y127.435 E3.9858
G1 X133.584 Y127.206 E3.9921
G1 X133.598 Y127.181 E3.9928
G1 X134.091 Y126.397 E4.0159
G1 X134.108 Y126.373 E4.0166
G1 X134.266 Y126.174 E4.0229
G1 X134.286 Y126.152 E4.0237
G1 X134.540 Y126.393 F6000
G92 E0
G1 X135.181 Y125.752 E0.0226 F900
