; G-Code generated by Simplify3D(R) Version 4.0.1
; Sep 10, 2019 at 12:26:44 PM
; Settings Summary
;   processName,Process1
;   applyToModels,Epreuve01
;   profileName,101 Tevo Tornado (experimental)
;   profileVersion,2019-08-25 17:34:33
;   baseProfile,Creality CR-10(2)
;   printMaterial,PLA
;   printQuality,Medium
;   printExtruders,
;   extruderName,Primary Extruder
;   extruderToolheadNumber,0
;   extruderDiameter,0.4
;   extruderAutoWidth,0
;   extruderWidth,0.35
;   extrusionMultiplier,0.95
;   extruderUseRetract,1
;   extruderRetractionDistance,6
;   extruderExtraRestartDistance,0
;   extruderRetractionZLift,0.3
;   extruderRetractionSpeed,3000
;   extruderUseCoasting,0
;   extruderCoastingDistance,0.2
;   extruderUseWipe,0
;   extruderWipeDistance,4
;   primaryExtruder,0
;   layerHeight,0.15
;   topSolidLayers,4
;   bottomSolidLayers,3
;   perimeterOutlines,3
;   printPerimetersInsideOut,0
;   startPointOption,3
;   startPointOriginX,0
;   startPointOriginY,300
;   sequentialIslands,0
;   spiralVaseMode,0
;   firstLayerHeightPercentage,120
;   firstLayerWidthPercentage,100
;   firstLayerUnderspeed,0.5
;   useRaft,0
;   raftExtruder,0
;   raftTopLayers,3
;   raftBaseLayers,2
;   raftOffset,3
;   raftSeparationDistance,0.14
;   raftTopInfill,100
;   aboveRaftSpeedMultiplier,0.3
;   useSkirt,1
;   skirtExtruder,0
;   skirtLayers,1
;   skirtOutlines,3
;   skirtOffset,2
;   usePrimePillar,0
;   primePillarExtruder,999
;   primePillarWidth,12
;   primePillarLocation,7
;   primePillarSpeedMultiplier,1
;   useOozeShield,0
;   oozeShieldExtruder,999
;   oozeShieldOffset,2
;   oozeShieldOutlines,1
;   oozeShieldSidewallShape,1
;   oozeShieldSidewallAngle,30
;   oozeShieldSpeedMultiplier,1
;   infillExtruder,0
;   internalInfillPattern,Rectilinear
;   externalInfillPattern,Rectilinear
;   infillPercentage,15
;   outlineOverlapPercentage,15
;   infillExtrusionWidthPercentage,100
;   minInfillLength,5
;   infillLayerInterval,1
;   internalInfillAngles,45,-45
;   overlapInternalInfillAngles,0
;   externalInfillAngles,45,-45
;   generateSupport,0
;   supportExtruder,0
;   supportInfillPercentage,30
;   supportExtraInflation,0
;   supportBaseLayers,0
;   denseSupportExtruder,0
;   denseSupportLayers,0
;   denseSupportInfillPercentage,70
;   supportLayerInterval,1
;   supportHorizontalPartOffset,0.4
;   supportUpperSeparationLayers,1
;   supportLowerSeparationLayers,1
;   supportType,0
;   supportGridSpacing,4.5
;   maxOverhangAngle,45
;   supportAngles,0
;   temperatureName,Primary Extruder,Heated Bed
;   temperatureNumber,0,0
;   temperatureSetpointCount,2,1
;   temperatureSetpointLayers,1,2,1
;   temperatureSetpointTemperatures,210,205,50
;   temperatureStabilizeAtStartup,1,1
;   temperatureHeatedBed,0,1
;   temperatureRelayBetweenLayers,0,0
;   temperatureRelayBetweenLoops,0,0
;   fanLayers,1,2
;   fanSpeeds,0,100
;   blipFanToFullPower,0
;   adjustSpeedForCooling,1
;   minSpeedLayerTime,15
;   minCoolingSpeedSlowdown,50
;   increaseFanForCooling,1
;   minFanLayerTime,25
;   maxCoolingFanSpeed,100
;   increaseFanForBridging,1
;   bridgingFanSpeed,100
;   use5D,1
;   relativeEdistances,0
;   allowEaxisZeroing,1
;   independentExtruderAxes,0
;   includeM10123,0
;   stickySupport,1
;   applyToolheadOffsets,0
;   gcodeXoffset,0
;   gcodeYoffset,0
;   gcodeZoffset,0
;   overrideMachineDefinition,1
;   machineTypeOverride,0
;   strokeXoverride,300
;   strokeYoverride,300
;   strokeZoverride,400
;   originOffsetXoverride,0
;   originOffsetYoverride,0
;   originOffsetZoverride,0
;   homeXdirOverride,-1
;   homeYdirOverride,-1
;   homeZdirOverride,-1
;   flipXoverride,1
;   flipYoverride,-1
;   flipZoverride,1
;   toolheadOffsets,0,0|0,0|0,0|0,0|0,0|0,0
;   overrideFirmwareConfiguration,1
;   firmwareTypeOverride,RepRap (Marlin/Repetier/Sprinter)
;   GPXconfigOverride,r2
;   baudRateOverride,250000
;   overridePrinterModels,1
;   printerModelsOverride
;   startingGcode,;Init 181010,;G28 			; Home all axes,;G1 Z5 F3000 ; lift,;G92 E0			; Reset extrusion distance,,; // From Cura 181010,; // Update 190823 (GueroLoco),; // Start_gcode,M117 *Start Clean*		; Indicate nozzle clean in progress on LCD,;,M104 S[extruder0_temperature] ,M109 S[extruder0_temperature] ,M109 R[extruder0_temperature] ,;,M107			; Turn layer fan off,G21			; Set to metric [change to G20 if you want Imperial],G90			; Force coordinates to be absolute relative to the origin,G28			; Home X/Y/Z axis,;,;G1 X3 Y1 Z15 F9000		; Move safe Z height to shear strings,;G0 X1 Y1 Z0.2 F9000		; Move in 1mm from edge and up [z] 0.2mm,;G92 E0			; Set extruder to [0] zero,;G1 X100 E12 F500		; Extrude 30mm filiment along X axis 100mm long to prime and clean the nozzle,;G92 E0			; Reset extruder to [0] zero end of cleaning run,;G1 E-1 F500			; Retract filiment by 1 mm to reduce string effect,;G1 X180 F4000		; Quick wipe away from the filament line / purge,;,G92 E0			; Set Extruder to 0 ,G1 X0 Y0 F2000		; Move X and Y to 0 with speed 2000 (mm/min),G1 Z0.1 F1000		; Move Z to 0.1,G1 X8.0 F2000		; Move X to 8.0,G1 Y60.0 E4.0 F1000.0		; Prime - Move Y to 60 and Extruder with 4.0,G1 Y100.0 E8.5 F1000.0		; Prime - Move Y to 100 and Extruder with 8.5,G92 E0			; Set extruder to 0,M117 *End Clean*		; Indicate nozzle clean in progress on LCD,G1 Z5 F3000			; Lift - Move Z to 5,; ,M117 *Printing...*		; start msg,; // Begin printing with sliced GCode after here,;
;   layerChangeGcode,
;   retractionGcode,
;   toolChangeGcode,
;   endingGcode,;,; init 181010,;,;M107 			; Fan off,;G1 E-1 F300 			; Retract the filament a bit before lifting the nozzle,;M104 S0 			; Turn off extruder,;M140 S0 			; Turn off bed,;G91			; Relative positioning,;G28 X0 Y0 			; Move X/Y to min endstops so the head is out of teh way,;M84 			; Disable motors,;G90 			; Absolute positioning,;M117 Print ready...,,;,; // From Cura 181010,; // End_gcode,G92 E0			; Zero the extruded length,G1 E-30 F300			; Retract E -30,M106 S0			; Turn off cooling fan,M104 S0			; Turn off temperature,M140 S0		     	; Turn off bed,G91			; Relative positioning,G1 E-1 F300			; Retract the filament a bit before lifting the nozzle to release some of the pressure,G1 Z+20 E-5 X-20 Y-20 F7200	; Move Z up a bit and retract filament even more,G1 X0 Y150 F10000		; Move right min,M107			; Turn off layer fan,M84			; Disable motors,G90			; Absolute positioning,M117 *The-End* 		; End msg,;,
;   exportFileFormat,gcode
;   celebration,0
;   celebrationSong,Star Wars
;   postProcessing,
;   defaultSpeed,1800
;   outlineUnderspeed,0.5
;   solidInfillUnderspeed,0.8
;   supportUnderspeed,0.8
;   rapidXYspeed,6000
;   rapidZspeed,1002
;   minBridgingArea,50
;   bridgingExtraInflation,0.2
;   bridgingExtrusionMultiplier,1
;   bridgingSpeedMultiplier,0.6
;   useFixedBridgingAngle,0
;   fixedBridgingAngle,0
;   applyBridgingToPerimeters,0
;   filamentDiameters,1.75|1.75|1.75|1.75|1.75|1.75
;   filamentPricesPerKg,30|46|46|46|46|46
;   filamentDensities,1.25|1.25|1.25|1.25|1.25|1.25
;   useMinPrintHeight,0
;   minPrintHeight,0
;   useMaxPrintHeight,0
;   maxPrintHeight,9
;   useDiaphragm,0
;   diaphragmLayerInterval,20
;   robustSlicing,1
;   mergeAllIntoSolid,0
;   onlyRetractWhenCrossingOutline,1
;   retractBetweenLayers,1
;   useRetractionMinTravel,0
;   retractionMinTravel,3
;   retractWhileWiping,0
;   onlyWipeOutlines,1
;   avoidCrossingOutline,0
;   maxMovementDetourFactor,3
;   toolChangeRetractionDistance,12
;   toolChangeExtraRestartDistance,-0.5
;   toolChangeRetractionSpeed,600
;   externalThinWallType,1
;   internalThinWallType,1
;   thinWallAllowedOverlapPercentage,15
;   singleExtrusionMinLength,1
;   singleExtrusionMinPrintingWidthPercentage,50
;   singleExtrusionMaxPrintingWidthPercentage,200
;   singleExtrusionEndpointExtension,0.2
;   horizontalSizeCompensation,0
G90
M82
M106 S0
M140 S50
M190 S50
;Init 181010
;G28 			; Home all axes
;G1 Z5 F3000 ; lift
;G92 E0			; Reset extrusion distance
; // From Cura 181010
; // Update 190823 (GueroLoco)
; // Start_gcode
M117 *Start Clean*		; Indicate nozzle clean in progress on LCD
;
M104 S210 
M109 S210 
M109 R210 
;
M107			; Turn layer fan off
G21			; Set to metric [change to G20 if you want Imperial]
G90			; Force coordinates to be absolute relative to the origin
G28			; Home X/Y/Z axis
;
;G1 X3 Y1 Z15 F9000		; Move safe Z height to shear strings
;G0 X1 Y1 Z0.2 F9000		; Move in 1mm from edge and up [z] 0.2mm
;G92 E0			; Set extruder to [0] zero
;G1 X100 E12 F500		; Extrude 30mm filiment along X axis 100mm long to prime and clean the nozzle
;G92 E0			; Reset extruder to [0] zero end of cleaning run
;G1 E-1 F500			; Retract filiment by 1 mm to reduce string effect
;G1 X180 F4000		; Quick wipe away from the filament line / purge
;
G92 E0			; Set Extruder to 0 
G1 X0 Y0 F2000		; Move X and Y to 0 with speed 2000 (mm/min)
G1 Z0.1 F1000		; Move Z to 0.1
G1 X8.0 F2000		; Move X to 8.0
G1 Y60.0 E4.0 F1000.0		; Prime - Move Y to 60 and Extruder with 4.0
G1 Y100.0 E8.5 F1000.0		; Prime - Move Y to 100 and Extruder with 8.5
G92 E0			; Set extruder to 0
M117 *End Clean*		; Indicate nozzle clean in progress on LCD
G1 Z5 F3000			; Lift - Move Z to 5
; 
M117 *Printing...*		; start msg
; // Begin printing with sliced GCode after here
;
G92 E0
G1 E-6.0000 F3000
G1 Z0.480 F1002
; process Process1
; layer 1, Z = 0.180
T0
; tool H0.180 W0.350
; skirt
G1 X125.943 Y129.506 F6000
G1 Z0.180 F1002
G1 E0.0000 F900
G92 E0
G1 X126.264 Y129.373 E0.0087 F900
G1 X167.793 Y129.373 E1.0420
G1 X167.814 Y129.374 E1.0425
G1 X167.934 Y129.380 E1.0455
G1 X167.955 Y129.381 E1.0461
G1 X169.110 Y129.495 E1.0749
G1 X169.153 Y129.501 E1.0760
G1 X169.388 Y129.548 E1.0820
G1 X169.429 Y129.558 E1.0830
G1 X170.597 Y129.913 E1.1134
G1 X170.637 Y129.927 E1.1145
G1 X170.859 Y130.019 E1.1204
G1 X170.898 Y130.037 E1.1215
G1 X171.974 Y130.613 E1.1519
G1 X172.010 Y130.635 E1.1529
G1 X172.210 Y130.768 E1.1589
G1 X172.244 Y130.794 E1.1600
G1 X173.187 Y131.568 E1.1903
G1 X173.219 Y131.597 E1.1914
G1 X173.388 Y131.766 E1.1973
G1 X173.417 Y131.798 E1.1984
G1 X174.191 Y132.742 E1.2288
G1 X174.216 Y132.776 E1.2298
G1 X174.349 Y132.975 E1.2358
G1 X174.371 Y133.012 E1.2368
G1 X174.944 Y134.084 E1.2671
G1 X174.963 Y134.123 E1.2682
G1 X175.055 Y134.346 E1.2742
G1 X175.069 Y134.386 E1.2753
G1 X175.426 Y135.567 E1.3059
G1 X175.436 Y135.608 E1.3070
G1 X175.482 Y135.843 E1.3129
G1 X175.489 Y135.885 E1.3140
G1 X175.600 Y137.028 E1.3426
G1 X175.602 Y137.049 E1.3431
G1 X175.608 Y137.167 E1.3461
G1 X175.608 Y137.189 E1.3466
G1 X175.608 Y157.308 E1.8472
G1 X175.608 Y157.329 E1.8477
G1 X175.602 Y157.449 E1.8507
G1 X175.600 Y157.470 E1.8513
G1 X175.486 Y158.625 E1.8801
G1 X175.480 Y158.667 E1.8812
G1 X175.433 Y158.902 E1.8871
G1 X175.423 Y158.944 E1.8882
G1 X175.069 Y160.111 E1.9186
G1 X175.055 Y160.151 E1.9196
G1 X174.963 Y160.372 E1.9256
G1 X174.945 Y160.411 E1.9267
G1 X174.370 Y161.487 E1.9570
G1 X174.347 Y161.524 E1.9581
G1 X174.214 Y161.723 E1.9640
G1 X174.189 Y161.757 E1.9651
G1 X173.415 Y162.700 E1.9954
G1 X173.386 Y162.732 E1.9965
G1 X173.217 Y162.901 E2.0025
G1 X173.185 Y162.930 E2.0035
G1 X172.242 Y163.704 E2.0339
G1 X172.208 Y163.729 E2.0350
G1 X172.009 Y163.862 E2.0409
G1 X171.972 Y163.885 E2.0420
G1 X170.896 Y164.459 E2.0723
G1 X170.857 Y164.478 E2.0734
G1 X170.636 Y164.570 E2.0794
G1 X170.596 Y164.584 E2.0804
G1 X169.429 Y164.938 E2.1108
G1 X169.387 Y164.948 E2.1118
G1 X169.152 Y164.995 E2.1178
G1 X169.110 Y165.001 E2.1189
G1 X167.955 Y165.115 E2.1477
G1 X167.934 Y165.117 E2.1483
G1 X167.814 Y165.123 E2.1512
G1 X167.793 Y165.123 E2.1518
G1 X150.517 Y165.123 E2.5816
G1 X150.105 Y165.170 E2.5920
G1 X149.869 Y165.254 E2.5982
G1 X149.658 Y165.388 E2.6044
G1 X149.367 Y165.684 E2.6148
G1 X147.527 Y168.039 E2.6891
G1 X147.511 Y168.058 E2.6897
G1 X147.420 Y168.162 E2.6932
G1 X147.403 Y168.180 E2.6938
G1 X146.623 Y168.974 E2.7215
G1 X146.586 Y169.008 E2.7227
G1 X146.371 Y169.182 E2.7296
G1 X146.331 Y169.211 E2.7308
G1 X145.334 Y169.846 E2.7603
G1 X145.290 Y169.870 E2.7615
G1 X145.042 Y169.992 E2.7684
G1 X144.996 Y170.011 E2.7696
G1 X143.881 Y170.406 E2.7990
G1 X143.834 Y170.420 E2.8003
G1 X143.564 Y170.482 E2.8072
G1 X143.515 Y170.490 E2.8084
G1 X142.409 Y170.616 E2.8361
G1 X142.384 Y170.618 E2.8367
G1 X142.246 Y170.626 E2.8402
G1 X142.221 Y170.627 E2.8408
G1 X133.215 Y170.627 E3.0649
G1 X133.190 Y170.626 E3.0655
G1 X133.053 Y170.619 E3.0689
G1 X133.029 Y170.616 E3.0695
G1 X131.933 Y170.493 E3.0970
G1 X131.885 Y170.485 E3.0982
G1 X131.616 Y170.423 E3.1050
G1 X131.568 Y170.409 E3.1063
G1 X130.457 Y170.018 E3.1356
G1 X130.411 Y169.999 E3.1368
G1 X130.165 Y169.880 E3.1436
G1 X130.122 Y169.856 E3.1449
G1 X129.134 Y169.233 E3.1739
G1 X129.094 Y169.205 E3.1751
G1 X128.881 Y169.034 E3.1819
G1 X128.845 Y169.001 E3.1831
G1 X128.020 Y168.175 E3.2122
G1 X127.988 Y168.138 E3.2134
G1 X127.818 Y167.924 E3.2202
G1 X127.789 Y167.884 E3.2214
G1 X127.169 Y166.896 E3.2505
G1 X127.146 Y166.853 E3.2517
G1 X127.027 Y166.606 E3.2585
G1 X127.009 Y166.561 E3.2597
G1 X126.624 Y165.459 E3.2888
G1 X126.610 Y165.412 E3.2900
G1 X126.550 Y165.146 E3.2968
G1 X126.541 Y165.097 E3.2980
G1 X126.419 Y164.005 E3.3253
G1 X126.416 Y163.981 E3.3259
G1 X126.409 Y163.845 E3.3293
G1 X126.408 Y163.820 E3.3300
G1 X126.408 Y162.973 E3.3510
G1 X126.368 Y162.590 E3.3606
G1 X126.295 Y162.369 E3.3664
G1 X126.179 Y162.168 E3.3722
G1 X126.022 Y161.995 E3.3780
G1 X125.111 Y161.339 E3.4059
G1 X124.975 Y161.181 E3.4111
G1 X124.441 Y160.137 E3.4403
G1 X124.392 Y159.935 E3.4455
G1 X124.392 Y131.246 E4.1593
G1 X124.525 Y130.924 E4.1680
G1 X125.943 Y129.506 E4.2179
G1 X126.141 Y129.803 F6000
G92 E0
G1 X126.334 Y129.723 E0.0052 F900
G1 X167.789 Y129.723 E1.0367
G1 X167.802 Y129.723 E1.0370
G1 X167.913 Y129.729 E1.0398
G1 X167.925 Y129.730 E1.0401
G1 X169.067 Y129.842 E1.0687
G1 X169.093 Y129.846 E1.0693
G1 X169.311 Y129.890 E1.0748
G1 X169.336 Y129.896 E1.0755
G1 X170.487 Y130.245 E1.1054
G1 X170.511 Y130.254 E1.1061
G1 X170.717 Y130.339 E1.1116
G1 X170.740 Y130.350 E1.1122
G1 X171.801 Y130.917 E1.1422
G1 X171.823 Y130.931 E1.1428
G1 X172.008 Y131.054 E1.1483
G1 X172.029 Y131.070 E1.1490
G1 X172.958 Y131.833 E1.1789
G1 X172.977 Y131.850 E1.1796
G1 X173.135 Y132.008 E1.1851
G1 X173.152 Y132.027 E1.1857
G1 X173.915 Y132.957 E1.2157
G1 X173.930 Y132.978 E1.2163
G1 X174.053 Y133.162 E1.2218
G1 X174.066 Y133.184 E1.2225
G1 X174.631 Y134.241 E1.2523
G1 X174.642 Y134.265 E1.2529
G1 X174.728 Y134.472 E1.2585
G1 X174.737 Y134.496 E1.2591
G1 X175.088 Y135.660 E1.2894
G1 X175.094 Y135.685 E1.2900
G1 X175.137 Y135.902 E1.2955
G1 X175.141 Y135.928 E1.2962
G1 X175.252 Y137.057 E1.3244
G1 X175.252 Y137.070 E1.3248
G1 X175.258 Y137.180 E1.3275
G1 X175.258 Y137.193 E1.3278
G1 X175.258 Y157.304 E1.8282
G1 X175.258 Y157.317 E1.8285
G1 X175.252 Y157.427 E1.8313
G1 X175.251 Y157.440 E1.8316
G1 X175.139 Y158.582 E1.8602
G1 X175.135 Y158.607 E1.8608
G1 X175.092 Y158.825 E1.8663
G1 X175.086 Y158.850 E1.8670
G1 X174.737 Y160.001 E1.8969
G1 X174.728 Y160.025 E1.8975
G1 X174.643 Y160.231 E1.9031
G1 X174.632 Y160.254 E1.9037
G1 X174.065 Y161.314 E1.9336
G1 X174.052 Y161.336 E1.9343
G1 X173.928 Y161.521 E1.9398
G1 X173.913 Y161.542 E1.9404
G1 X173.150 Y162.471 E1.9704
G1 X173.133 Y162.491 E1.9710
G1 X172.976 Y162.648 E1.9765
G1 X172.956 Y162.665 E1.9772
G1 X172.027 Y163.428 E2.0071
G1 X172.006 Y163.443 E2.0077
G1 X171.821 Y163.567 E2.0133
G1 X171.799 Y163.580 E2.0139
G1 X170.739 Y164.147 E2.0438
G1 X170.716 Y164.158 E2.0445
G1 X170.510 Y164.243 E2.0500
G1 X170.486 Y164.252 E2.0506
G1 X169.335 Y164.601 E2.0806
G1 X169.310 Y164.607 E2.0812
G1 X169.092 Y164.650 E2.0867
G1 X169.067 Y164.654 E2.0874
G1 X167.925 Y164.766 E2.1159
G1 X167.912 Y164.767 E2.1162
G1 X167.802 Y164.773 E2.1190
G1 X167.789 Y164.773 E2.1193
G1 X150.497 Y164.773 E2.5496
G1 X150.026 Y164.827 E2.5614
G1 X149.715 Y164.937 E2.5696
G1 X149.436 Y165.115 E2.5778
G1 X149.103 Y165.453 E2.5896
G1 X147.254 Y167.820 E2.6644
G1 X147.245 Y167.831 E2.6647
G1 X147.160 Y167.928 E2.6679
G1 X147.150 Y167.939 E2.6683
G1 X146.380 Y168.722 E2.6956
G1 X146.358 Y168.742 E2.6964
