; G-Code generated by Simplify3D(R) Version 4.0.1
; Dec 4, 2018 at 6:17:36 PM
; Settings Summary
;   processName,Process1
;   applyToModels,dual
;   profileName,Tevo Tornado (experimental)
;   profileVersion,2017-12-16 09:57:36
;   baseProfile,Creality CR-10(2)
;   printMaterial,PLA
;   printQuality,Medium
;   printExtruders,
;   extruderName,Primary Extruder
;   extruderToolheadNumber,0
;   extruderDiameter,0.4
;   extruderAutoWidth,0
;   extruderWidth,0.4
;   extrusionMultiplier,1
;   extruderUseRetract,1
;   extruderRetractionDistance,6.5
;   extruderExtraRestartDistance,0
;   extruderRetractionZLift,0
;   extruderRetractionSpeed,1800
;   extruderUseCoasting,0
;   extruderCoastingDistance,0.2
;   extruderUseWipe,0
;   extruderWipeDistance,4
;   primaryExtruder,0
;   layerHeight,0.2
;   topSolidLayers,5
;   bottomSolidLayers,3
;   perimeterOutlines,2
;   printPerimetersInsideOut,1
;   startPointOption,2
;   startPointOriginX,0
;   startPointOriginY,500
;   sequentialIslands,0
;   spiralVaseMode,0
;   firstLayerHeightPercentage,80
;   firstLayerWidthPercentage,140
;   firstLayerUnderspeed,0.25
;   useRaft,0
;   raftExtruder,0
;   raftTopLayers,3
;   raftBaseLayers,2
;   raftOffset,3
;   raftSeparationDistance,0.14
;   raftTopInfill,100
;   aboveRaftSpeedMultiplier,0.3
;   useSkirt,1
;   skirtExtruder,0
;   skirtLayers,1
;   skirtOutlines,4
;   skirtOffset,4
;   usePrimePillar,0
;   primePillarExtruder,999
;   primePillarWidth,12
;   primePillarLocation,7
;   primePillarSpeedMultiplier,1
;   useOozeShield,0
;   oozeShieldExtruder,999
;   oozeShieldOffset,2
;   oozeShieldOutlines,1
;   oozeShieldSidewallShape,1
;   oozeShieldSidewallAngle,30
;   oozeShieldSpeedMultiplier,1
;   infillExtruder,0
;   internalInfillPattern,Rectilinear
;   externalInfillPattern,Rectilinear
;   infillPercentage,20
;   outlineOverlapPercentage,30
;   infillExtrusionWidthPercentage,125
;   minInfillLength,5
;   infillLayerInterval,1
;   internalInfillAngles,45,-45
;   overlapInternalInfillAngles,0
;   externalInfillAngles,45,-45
;   generateSupport,0
;   supportExtruder,0
;   supportInfillPercentage,30
;   supportExtraInflation,0
;   supportBaseLayers,0
;   denseSupportExtruder,0
;   denseSupportLayers,0
;   denseSupportInfillPercentage,70
;   supportLayerInterval,1
;   supportHorizontalPartOffset,0.4
;   supportUpperSeparationLayers,1
;   supportLowerSeparationLayers,1
;   supportType,0
;   supportGridSpacing,4.5
;   maxOverhangAngle,45
;   supportAngles,0
;   temperatureName,Primary Extruder,Heated Bed
;   temperatureNumber,0,0
;   temperatureSetpointCount,1,1
;   temperatureSetpointLayers,1,1
;   temperatureSetpointTemperatures,210,60
;   temperatureStabilizeAtStartup,1,1
;   temperatureHeatedBed,0,1
;   temperatureRelayBetweenLayers,0,0
;   temperatureRelayBetweenLoops,0,0
;   fanLayers,1,2
;   fanSpeeds,0,100
;   blipFanToFullPower,1
;   adjustSpeedForCooling,1
;   minSpeedLayerTime,15
;   minCoolingSpeedSlowdown,50
;   increaseFanForCooling,0
;   minFanLayerTime,45
;   maxCoolingFanSpeed,100
;   increaseFanForBridging,1
;   bridgingFanSpeed,100
;   use5D,1
;   relativeEdistances,0
;   allowEaxisZeroing,1
;   independentExtruderAxes,0
;   includeM10123,0
;   stickySupport,1
;   applyToolheadOffsets,0
;   gcodeXoffset,0
;   gcodeYoffset,0
;   gcodeZoffset,0
;   overrideMachineDefinition,1
;   machineTypeOverride,0
;   strokeXoverride,300
;   strokeYoverride,300
;   strokeZoverride,400
;   originOffsetXoverride,0
;   originOffsetYoverride,0
;   originOffsetZoverride,0
;   homeXdirOverride,-1
;   homeYdirOverride,-1
;   homeZdirOverride,-1
;   flipXoverride,1
;   flipYoverride,-1
;   flipZoverride,1
;   toolheadOffsets,0,0|0,0|0,0|0,0|0,0|0,0
;   overrideFirmwareConfiguration,1
;   firmwareTypeOverride,RepRap (Marlin/Repetier/Sprinter)
;   GPXconfigOverride,r2
;   baudRateOverride,250000
;   overridePrinterModels,1
;   printerModelsOverride
;   startingGcode,G28 ; home all axes,G1 Z5 F3000 ; lift,G1 X20 Y20 F1500 ; avoid binder clips,G1 Z0.2 F3000 ; get ready to prime,G92 E0 ; reset extrusion distance,G1 X120 E10 F600 ; prime nozzle,G1 X150 F5000 ; quick wipe,M117 TOMMY DESROCHERS
;   layerChangeGcode,
;   retractionGcode,
;   toolChangeGcode,
;   endingGcode,G28 X0 ; home x axis,M106 S0 ; turn off cooling fan,M104 S0 ; turn off extruder,M140 S0 ; turn off bed,M84 ; disable motors,M117 IMPRESSION TERMINEE
;   exportFileFormat,gcode
;   celebration,0
;   celebrationSong,Star Wars
;   postProcessing,
;   defaultSpeed,4800
;   outlineUnderspeed,0.5
;   solidInfillUnderspeed,0.8
;   supportUnderspeed,0.8
;   rapidXYspeed,7200
;   rapidZspeed,1002
;   minBridgingArea,50
;   bridgingExtraInflation,0
;   bridgingExtrusionMultiplier,0.85
;   bridgingSpeedMultiplier,1.05
;   useFixedBridgingAngle,0
;   fixedBridgingAngle,0
;   applyBridgingToPerimeters,0
;   filamentDiameters,1.75|1.75|1.75|1.75|1.75|1.75
;   filamentPricesPerKg,30|46|46|46|46|46
;   filamentDensities,1.25|1.25|1.25|1.25|1.25|1.25
;   useMinPrintHeight,0
;   minPrintHeight,0
;   useMaxPrintHeight,0
;   maxPrintHeight,9
;   useDiaphragm,0
;   diaphragmLayerInterval,20
;   robustSlicing,1
;   mergeAllIntoSolid,0
;   onlyRetractWhenCrossingOutline,1
;   retractBetweenLayers,1
;   useRetractionMinTravel,1
;   retractionMinTravel,3
;   retractWhileWiping,1
;   onlyWipeOutlines,1
;   avoidCrossingOutline,1
;   maxMovementDetourFactor,3
;   toolChangeRetractionDistance,12
;   toolChangeExtraRestartDistance,-0.5
;   toolChangeRetractionSpeed,600
;   externalThinWallType,0
;   internalThinWallType,2
;   thinWallAllowedOverlapPercentage,15
;   singleExtrusionMinLength,1
;   singleExtrusionMinPrintingWidthPercentage,50
;   singleExtrusionMaxPrintingWidthPercentage,200
;   singleExtrusionEndpointExtension,0.2
;   horizontalSizeCompensation,0
G90
M82
M106 S255
G4 P500
M106 S0
M140 S60
M190 S60
M104 S210 T0
M109 S210 T0
G28 ; home all axes
G1 Z5 F3000 ; lift
G1 X20 Y20 F1500 ; avoid binder clips
G1 Z0.2 F3000 ; get ready to prime
G92 E0 ; reset extrusion distance
G1 X120 E10 F600 ; prime nozzle
G1 X150 F5000 ; quick wipe
M117 TOMMY DESROCHERS
G92 E0
G1 E-6.5000 F1800
G1 Z0.160 F1002
; process Process1
; layer 1, Z = 0.160
T0
; tool H0.200 W0.560
; skirt
G1 X97.125 Y120.043 F7200
G1 E0.0000 F540
G92 E0
G1 X97.157 Y120.017 E0.0019 F1200
G1 X97.774 Y119.552 E0.0379
G1 X97.818 Y119.521 E0.0404
G1 X98.124 Y119.326 E0.0573
G1 X98.170 Y119.299 E0.0598
G1 X98.921 Y118.896 E0.0994
G1 X98.973 Y118.871 E0.1021
G1 X99.328 Y118.717 E0.1202
G1 X99.382 Y118.696 E0.1228
G1 X100.246 Y118.403 E0.1653
G1 X100.306 Y118.386 E0.1683
G1 X100.719 Y118.286 E0.1880
G1 X100.781 Y118.274 E0.1910
G1 X101.734 Y118.134 E0.2358
G1 X101.785 Y118.128 E0.2382
G1 X102.129 Y118.103 E0.2542
G1 X102.180 Y118.101 E0.2566
G1 X197.609 Y118.100 E4.7002
G1 X197.634 Y118.100 E4.7014
G1 X197.800 Y118.106 E4.7091
G1 X197.825 Y118.108 E4.7103
G1 X198.506 Y118.156 E4.7421
G1 X198.566 Y118.163 E4.7449
G1 X198.968 Y118.227 E4.7638
G1 X199.028 Y118.239 E4.7667
G1 X200.003 Y118.481 E4.8134
G1 X200.055 Y118.497 E4.8160
G1 X200.401 Y118.612 E4.8330
G1 X200.452 Y118.631 E4.8355
G1 X201.035 Y118.877 E4.8649
G1 X201.073 Y118.894 E4.8669
G1 X201.326 Y119.019 E4.8801
G1 X201.363 Y119.039 E4.8820
G1 X201.996 Y119.401 E4.9159
G1 X202.037 Y119.427 E4.9182
G1 X202.310 Y119.609 E4.9335
G1 X202.350 Y119.638 E4.9358
G1 X202.909 Y120.071 E4.9687
G1 X202.943 Y120.099 E4.9708
G1 X203.166 Y120.295 E4.9846
G1 X203.198 Y120.326 E4.9867
G1 X203.689 Y120.817 E5.0190
G1 X203.723 Y120.852 E5.0213
G1 X203.938 Y121.100 E5.0366
G1 X203.969 Y121.138 E5.0389
G1 X204.437 Y121.759 E5.0751
G1 X204.464 Y121.798 E5.0773
G1 X204.640 Y122.069 E5.0923
G1 X204.665 Y122.110 E5.0945
G1 X205.001 Y122.713 E5.1267
G1 X205.022 Y122.753 E5.1288
G1 X205.152 Y123.027 E5.1429
G1 X205.170 Y123.068 E5.1450
G1 X205.424 Y123.704 E5.1769
G1 X205.439 Y123.744 E5.1789
G1 X205.529 Y124.018 E5.1923
G1 X205.541 Y124.059 E5.1943
G1 X205.704 Y124.678 E5.2241
G1 X205.714 Y124.723 E5.2262
G1 X205.772 Y125.024 E5.2405
G1 X205.780 Y125.070 E5.2427
G1 X205.875 Y125.818 E5.2778
G1 X205.879 Y125.862 E5.2798
G1 X205.897 Y126.158 E5.2937
G1 X205.899 Y126.202 E5.2957
G1 X205.900 Y173.625 E7.5039
G1 X205.900 Y173.650 E7.5051
G1 X205.893 Y173.822 E7.5131
G1 X205.892 Y173.848 E7.5143
G1 X205.843 Y174.516 E7.5455
G1 X205.836 Y174.575 E7.5483
G1 X205.773 Y174.972 E7.5670
G1 X205.761 Y175.030 E7.5698
G1 X205.519 Y176.003 E7.6164
G1 X205.503 Y176.055 E7.6190
G1 X205.388 Y176.401 E7.6360
G1 X205.369 Y176.452 E7.6385
G1 X205.123 Y177.035 E7.6679
G1 X205.106 Y177.073 E7.6699
G1 X204.980 Y177.326 E7.6831
G1 X204.960 Y177.364 E7.6850
G1 X204.598 Y177.997 E7.7190
G1 X204.573 Y178.039 E7.7213
G1 X204.390 Y178.311 E7.7366
G1 X204.362 Y178.351 E7.7388
G1 X203.931 Y178.907 E7.7716
G1 X203.903 Y178.941 E7.7736
G1 X203.707 Y179.163 E7.7874
G1 X203.677 Y179.195 E7.7895
G1 X203.187 Y179.686 E7.8218
G1 X203.151 Y179.720 E7.8241
G1 X202.902 Y179.936 E7.8394
G1 X202.864 Y179.967 E7.8417
G1 X202.242 Y180.436 E7.8780
G1 X202.203 Y180.464 E7.8802
G1 X201.932 Y180.640 E7.8953
G1 X201.891 Y180.665 E7.8975
G1 X201.287 Y181.001 E7.9297
G1 X201.247 Y181.022 E7.9318
G1 X200.973 Y181.152 E7.9459
G1 X200.932 Y181.170 E7.9480
G1 X200.297 Y181.424 E7.9798
G1 X200.257 Y181.438 E7.9818
G1 X199.985 Y181.528 E7.9951
G1 X199.944 Y181.540 E7.9971
G1 X199.327 Y181.703 E8.0269
G1 X199.282 Y181.713 E8.0290
G1 X198.978 Y181.772 E8.0434
G1 X198.932 Y181.780 E8.0456
G1 X198.182 Y181.875 E8.0808
G1 X198.138 Y181.879 E8.0829
G1 X197.842 Y181.897 E8.0967
G1 X197.798 Y181.899 E8.0987
G1 X102.391 Y181.900 E12.5413
G1 X102.366 Y181.900 E12.5424
G1 X102.200 Y181.894 E12.5502
G1 X102.175 Y181.892 E12.5513
G1 X101.494 Y181.844 E12.5831
G1 X101.434 Y181.837 E12.5859
G1 X101.032 Y181.773 E12.6049
G1 X100.972 Y181.761 E12.6077
G1 X99.997 Y181.519 E12.6545
G1 X99.945 Y181.503 E12.6570
G1 X99.598 Y181.388 E12.6741
G1 X99.547 Y181.369 E12.6766
G1 X98.963 Y181.122 E12.7061
G1 X98.925 Y181.105 E12.7081
G1 X98.671 Y180.979 E12.7213
G1 X98.634 Y180.959 E12.7232
G1 X98.002 Y180.598 E12.7571
G1 X97.960 Y180.572 E12.7594
G1 X97.688 Y180.389 E12.7747
G1 X97.648 Y180.361 E12.7770
G1 X97.090 Y179.929 E12.8098
G1 X97.056 Y179.900 E12.8119
G1 X96.834 Y179.704 E12.8257
G1 X96.801 Y179.674 E12.8277
G1 X96.311 Y179.183 E12.8601
G1 X96.277 Y179.148 E12.8623
G1 X96.062 Y178.900 E12.8776
G1 X96.031 Y178.862 E12.8799
G1 X95.563 Y178.241 E12.9161
G1 X95.536 Y178.202 E12.9183
G1 X95.360 Y177.931 E12.9333
G1 X95.335 Y177.890 E12.9356
G1 X94.999 Y177.287 E12.9677
G1 X94.978 Y177.247 E12.9698
G1 X94.848 Y176.973 E12.9840
G1 X94.830 Y176.932 E12.9861
G1 X94.576 Y176.296 E13.0179
G1 X94.561 Y176.256 E13.0199
G1 X94.471 Y175.982 E13.0333
G1 X94.459 Y175.941 E13.0353
G1 X94.296 Y175.322 E13.0651
G1 X94.286 Y175.277 E13.0673
G1 X94.228 Y174.976 E13.0816
G1 X94.220 Y174.930 E13.0837
G1 X94.125 Y174.183 E13.1188
G1 X94.121 Y174.139 E13.1209
G1 X94.103 Y173.842 E13.1347
G1 X94.101 Y173.798 E13.1368
G1 X94.100 Y126.376 E15.3449
G1 X94.100 Y126.351 E15.3461
G1 X94.107 Y126.179 E15.3541
G1 X94.108 Y126.154 E15.3553
G1 X94.155 Y125.513 E15.3852
G1 X94.161 Y125.459 E15.3877
G1 X94.215 Y125.102 E15.4046
G1 X94.225 Y125.049 E15.4071
G1 X94.433 Y124.145 E15.4502
G1 X94.450 Y124.085 E15.4532
G1 X94.581 Y123.686 E15.4727
G1 X94.603 Y123.627 E15.4756
G1 X94.958 Y122.799 E15.5176
G1 X94.979 Y122.756 E15.5198
G1 X95.125 Y122.471 E15.5348
G1 X95.148 Y122.429 E15.5370
G1 X95.465 Y121.903 E15.5656
G1 X95.491 Y121.862 E15.5678
G1 X95.678 Y121.596 E15.5830
G1 X95.707 Y121.557 E15.5852
G1 X96.235 Y120.904 E15.6243
G1 X96.264 Y120.870 E15.6264
G1 X96.468 Y120.649 E15.6404
G1 X96.499 Y120.617 E15.6425
G1 X96.886 Y120.248 E15.6674
G1 X96.916 Y120.220 E15.6693
G1 X97.125 Y120.043 E15.6821
G1 X97.380 Y120.351 F7200
G92 E0
G1 X97.403 Y120.333 E0.0014 F1200
G1 X98.009 Y119.876 E0.0367
G1 X98.040 Y119.854 E0.0385
G1 X98.333 Y119.667 E0.0547
G1 X98.366 Y119.648 E0.0564
G1 X99.102 Y119.253 E0.0954
G1 X99.140 Y119.235 E0.0973
G1 X99.480 Y119.087 E0.1145
G1 X99.518 Y119.073 E0.1165
G1 X100.366 Y118.785 E0.1581
G1 X100.409 Y118.773 E0.1602
G1 X100.804 Y118.677 E0.1792
G1 X100.849 Y118.669 E0.1813
G1 X101.785 Y118.530 E0.2254
G1 X101.822 Y118.526 E0.2271
G1 X102.151 Y118.502 E0.2424
G1 X102.187 Y118.501 E0.2441
G1 X197.606 Y118.500 E4.6872
G1 X197.623 Y118.500 E4.6880
G1 X197.783 Y118.506 E4.6954
G1 X197.800 Y118.507 E4.6963
G1 X198.469 Y118.554 E4.7275
G1 X198.512 Y118.559 E4.7295
G1 X198.897 Y118.620 E4.7477
G1 X198.940 Y118.629 E4.7497
G1 X199.899 Y118.868 E4.7957
G1 X199.936 Y118.878 E4.7975
G1 X200.267 Y118.989 E4.8138
G1 X200.304 Y119.003 E4.8156
G1 X200.874 Y119.243 E4.8444
G1 X200.901 Y119.256 E4.8458
G1 X201.143 Y119.375 E4.8584
G1 X201.170 Y119.389 E4.8598
G1 X201.791 Y119.745 E4.8931
G1 X201.821 Y119.763 E4.8947
G1 X202.082 Y119.938 E4.9094
G1 X202.111 Y119.958 E4.9110
G1 X202.659 Y120.383 E4.9433
G1 X202.684 Y120.403 E4.9448
G1 X202.897 Y120.591 E4.9580
G1 X202.920 Y120.613 E4.9595
G1 X203.402 Y121.095 E4.9912
G1 X203.425 Y121.120 E4.9928
G1 X203.632 Y121.357 E5.0075
G1 X203.654 Y121.385 E5.0091
G1 X204.113 Y121.994 E5.0447
G1 X204.133 Y122.022 E5.0462
G1 X204.301 Y122.281 E5.0606
G1 X204.319 Y122.310 E5.0622
G1 X204.649 Y122.902 E5.0938
G1 X204.664 Y122.931 E5.0953
G1 X204.788 Y123.193 E5.1088
G1 X204.801 Y123.223 E5.1103
G1 X205.050 Y123.847 E5.1416
G1 X205.061 Y123.875 E5.1430
G1 X205.147 Y124.137 E5.1558
G1 X205.156 Y124.167 E5.1573
G1 X205.315 Y124.773 E5.1865
G1 X205.322 Y124.805 E5.1880
G1 X205.379 Y125.094 E5.2017
G1 X205.384 Y125.127 E5.2032
G1 X205.477 Y125.862 E5.2377
G1 X205.480 Y125.893 E5.2392
G1 X205.498 Y126.177 E5.2524
G1 X205.499 Y126.208 E5.2539
G1 X205.500 Y173.621 E7.4616
G1 X205.500 Y173.639 E7.4625
G1 X205.494 Y173.804 E7.4702
G1 X205.493 Y173.822 E7.4710
G1 X205.445 Y174.478 E7.5016
G1 X205.440 Y174.521 E7.5036
G1 X205.379 Y174.900 E7.5215
G1 X205.370 Y174.942 E7.5235
G1 X205.132 Y175.899 E7.5694
G1 X205.122 Y175.936 E7.5712
G1 X205.011 Y176.267 E7.5875
G1 X204.997 Y176.304 E7.5893
G1 X204.757 Y176.874 E7.6181
G1 X204.744 Y176.901 E7.6195
G1 X204.624 Y177.144 E7.6321
G1 X204.610 Y177.170 E7.6335
G1 X204.255 Y177.792 E7.6669
G1 X204.236 Y177.822 E7.6685
G1 X204.061 Y178.083 E7.6831
G1 X204.041 Y178.112 E7.6848
G1 X203.618 Y178.657 E7.7169
G1 X203.598 Y178.682 E7.7184
G1 X203.411 Y178.894 E7.7316
G1 X203.390 Y178.917 E7.7330
G1 X202.909 Y179.399 E7.7647
G1 X202.883 Y179.423 E7.7664
G1 X202.645 Y179.630 E7.7810
G1 X202.618 Y179.652 E7.7827
G1 X202.007 Y180.113 E7.8183
G1 X201.978 Y180.132 E7.8199
G1 X201.719 Y180.301 E7.8343
G1 X201.690 Y180.319 E7.8359
G1 X201.098 Y180.649 E7.8675
G1 X201.069 Y180.664 E7.8690
G1 X200.807 Y180.788 E7.8825
G1 X200.778 Y180.801 E7.8840
G1 X200.154 Y181.050 E7.9152
G1 X200.126 Y181.060 E7.9167
G1 X199.865 Y181.146 E7.9294
G1 X199.836 Y181.155 E7.9308
G1 X199.231 Y181.314 E7.9600
G1 X199.199 Y181.322 E7.9615
G1 X198.908 Y181.378 E7.9753
G1 X198.875 Y181.384 E7.9769
G1 X198.138 Y181.477 E8.0115
G1 X198.106 Y181.480 E8.0130
G1 X197.823 Y181.498 E8.0262
G1 X197.792 Y181.499 E8.0276
G1 X102.394 Y181.500 E12.4697
G1 X102.376 Y181.500 E12.4706
G1 X102.217 Y181.494 E12.4780
G1 X102.200 Y181.493 E12.4788
G1 X101.531 Y181.446 E12.5100
G1 X101.488 Y181.441 E12.5120
G1 X101.103 Y181.380 E12.5302
G1 X101.060 Y181.371 E12.5322
G1 X100.101 Y181.132 E12.5782
G1 X100.064 Y181.121 E12.5800
G1 X99.732 Y181.011 E12.5963
G1 X99.696 Y180.997 E12.5981
G1 X99.124 Y180.756 E12.6270
G1 X99.097 Y180.743 E12.6284
G1 X98.854 Y180.623 E12.6410
G1 X98.827 Y180.609 E12.6424
G1 X98.207 Y180.254 E12.6758
G1 X98.177 Y180.235 E12.6774
G1 X97.916 Y180.061 E12.6920
G1 X97.888 Y180.040 E12.6936
G1 X97.340 Y179.616 E12.7259
G1 X97.316 Y179.596 E12.7273
G1 X97.103 Y179.409 E12.7406
G1 X97.080 Y179.387 E12.7420
G1 X96.598 Y178.905 E12.7737
G1 X96.574 Y178.880 E12.7754
G1 X96.368 Y178.643 E12.7900
G1 X96.346 Y178.615 E12.7916
G1 X95.887 Y178.006 E12.8272
G1 X95.867 Y177.978 E12.8288
G1 X95.699 Y177.719 E12.8431
G1 X95.681 Y177.690 E12.8447
G1 X95.351 Y177.098 E12.8763
G1 X95.336 Y177.069 E12.8778
