; G-Code generated by Simplify3D(R) Version 4.0.1
; Sep 13, 2018 at 12:45:43 PM
; Settings Summary
;   processName,Tronxy XY100
;   applyToModels,A 2 Creeper,B,I 2
;   profileName,Tronxy XY100
;   profileVersion,2018-09-07 14:40:56
;   baseProfile,Default
;   printMaterial,PLA
;   printQuality,Medium
;   printExtruders,
;   extruderName,Primary Extruder
;   extruderToolheadNumber,0
;   extruderDiameter,0.4
;   extruderAutoWidth,0
;   extruderWidth,0.4
;   extrusionMultiplier,0.9
;   extruderUseRetract,1
;   extruderRetractionDistance,2
;   extruderExtraRestartDistance,0
;   extruderRetractionZLift,0
;   extruderRetractionSpeed,1800
;   extruderUseCoasting,0
;   extruderCoastingDistance,0.2
;   extruderUseWipe,0
;   extruderWipeDistance,5
;   primaryExtruder,0
;   layerHeight,0.1
;   topSolidLayers,3
;   bottomSolidLayers,3
;   perimeterOutlines,3
;   printPerimetersInsideOut,1
;   startPointOption,2
;   startPointOriginX,0
;   startPointOriginY,0
;   sequentialIslands,0
;   spiralVaseMode,0
;   firstLayerHeightPercentage,100
;   firstLayerWidthPercentage,100
;   firstLayerUnderspeed,0.5
;   useRaft,1
;   raftExtruder,0
;   raftTopLayers,3
;   raftBaseLayers,2
;   raftOffset,3
;   raftSeparationDistance,0.14
;   raftTopInfill,100
;   aboveRaftSpeedMultiplier,0.3
;   useSkirt,0
;   skirtExtruder,0
;   skirtLayers,1
;   skirtOutlines,2
;   skirtOffset,4
;   usePrimePillar,0
;   primePillarExtruder,999
;   primePillarWidth,12
;   primePillarLocation,7
;   primePillarSpeedMultiplier,1
;   useOozeShield,0
;   oozeShieldExtruder,999
;   oozeShieldOffset,2
;   oozeShieldOutlines,1
;   oozeShieldSidewallShape,1
;   oozeShieldSidewallAngle,30
;   oozeShieldSpeedMultiplier,1
;   infillExtruder,0
;   internalInfillPattern,Rectilinear
;   externalInfillPattern,Rectilinear
;   infillPercentage,20
;   outlineOverlapPercentage,30
;   infillExtrusionWidthPercentage,100
;   minInfillLength,5
;   infillLayerInterval,1
;   internalInfillAngles,45,-45
;   overlapInternalInfillAngles,0
;   externalInfillAngles,45,-45
;   generateSupport,1
;   supportExtruder,0
;   supportInfillPercentage,30
;   supportExtraInflation,0
;   supportBaseLayers,0
;   denseSupportExtruder,0
;   denseSupportLayers,0
;   denseSupportInfillPercentage,70
;   supportLayerInterval,1
;   supportHorizontalPartOffset,0.3
;   supportUpperSeparationLayers,1
;   supportLowerSeparationLayers,1
;   supportType,0
;   supportGridSpacing,4
;   maxOverhangAngle,45
;   supportAngles,0
;   temperatureName,Primary Extruder
;   temperatureNumber,0
;   temperatureSetpointCount,2
;   temperatureSetpointLayers,1,2
;   temperatureSetpointTemperatures,205,200
;   temperatureStabilizeAtStartup,1
;   temperatureHeatedBed,0
;   temperatureRelayBetweenLayers,0
;   temperatureRelayBetweenLoops,0
;   fanLayers,1,3
;   fanSpeeds,0,75
;   blipFanToFullPower,0
;   adjustSpeedForCooling,1
;   minSpeedLayerTime,15
;   minCoolingSpeedSlowdown,20
;   increaseFanForCooling,0
;   minFanLayerTime,45
;   maxCoolingFanSpeed,100
;   increaseFanForBridging,0
;   bridgingFanSpeed,100
;   use5D,1
;   relativeEdistances,0
;   allowEaxisZeroing,1
;   independentExtruderAxes,0
;   includeM10123,0
;   stickySupport,1
;   applyToolheadOffsets,0
;   gcodeXoffset,0
;   gcodeYoffset,0
;   gcodeZoffset,0
;   overrideMachineDefinition,1
;   machineTypeOverride,0
;   strokeXoverride,130
;   strokeYoverride,140
;   strokeZoverride,120
;   originOffsetXoverride,0
;   originOffsetYoverride,0
;   originOffsetZoverride,0
;   homeXdirOverride,-1
;   homeYdirOverride,-1
;   homeZdirOverride,-1
;   flipXoverride,1
;   flipYoverride,1
;   flipZoverride,1
;   toolheadOffsets,-10,0|0,0|0,0|0,0|0,0|0,0
;   overrideFirmwareConfiguration,0
;   firmwareTypeOverride,RepRap (Marlin/Repetier/Sprinter)
;   GPXconfigOverride,r2
;   baudRateOverride,115200
;   overridePrinterModels,0
;   printerModelsOverride
;   startingGcode,;,; Begin My Start Script,;,M117 Print start...,G28 ; Home extruder,G1 Z15 F100 ; Move the platform up of 15mm,G4 P2000 ; Pause for 2000 milliseconds (2 seconds),M107 ; Turn off fan,;,; End My Start Script,;
;   layerChangeGcode,
;   retractionGcode,
;   toolChangeGcode,
;   endingGcode,;,; Begin My End Script,;,G92 E1 ; Retract the filament,G91 ; Relative positioning,G1 E-1 F300 ; Retract the filament a bit before lifting the nozzle, to release some of the pressure,G1 Z+3 E-5 X-20 Y-20 F9000 ; Move Z up a bit and retract filament even more,G28 X0 Y0 ; Move X/Y to min endstops, so the head is out of the way,M107 ; Turn off  fan,M104 S0 ; Turn off extruder,M140 S0 ; Turn off bed,M84 ; Turn off steppers,M82 ; Absolute extrusion mode,G90 ; Absolute positioning,M117 Print ready...,;,; End My End Script,;
;   exportFileFormat,gcode
;   celebration,0
;   celebrationSong,Star Wars
;   postProcessing,
;   defaultSpeed,3600
;   outlineUnderspeed,0.5
;   solidInfillUnderspeed,0.8
;   supportUnderspeed,0.8
;   rapidXYspeed,4800
;   rapidZspeed,1002
;   minBridgingArea,50
;   bridgingExtraInflation,0
;   bridgingExtrusionMultiplier,1
;   bridgingSpeedMultiplier,1
;   useFixedBridgingAngle,0
;   fixedBridgingAngle,0
;   applyBridgingToPerimeters,0
;   filamentDiameters,1.75|1.75|1.75|1.75|1.75|1.75
;   filamentPricesPerKg,30|46|46|46|46|46
;   filamentDensities,1.25|1.25|1.25|1.25|1.25|1.25
;   useMinPrintHeight,0
;   minPrintHeight,0
;   useMaxPrintHeight,0
;   maxPrintHeight,0
;   useDiaphragm,0
;   diaphragmLayerInterval,20
;   robustSlicing,1
;   mergeAllIntoSolid,0
;   onlyRetractWhenCrossingOutline,1
;   retractBetweenLayers,1
;   useRetractionMinTravel,0
;   retractionMinTravel,3
;   retractWhileWiping,0
;   onlyWipeOutlines,0
;   avoidCrossingOutline,0
;   maxMovementDetourFactor,3
;   toolChangeRetractionDistance,12
;   toolChangeExtraRestartDistance,-0.5
;   toolChangeRetractionSpeed,600
;   externalThinWallType,0
;   internalThinWallType,2
;   thinWallAllowedOverlapPercentage,10
;   singleExtrusionMinLength,1
;   singleExtrusionMinPrintingWidthPercentage,50
;   singleExtrusionMaxPrintingWidthPercentage,200
;   singleExtrusionEndpointExtension,0.2
;   horizontalSizeCompensation,0
G90
M82
M106 S0
M104 S205 T0
M109 S205 T0
;
; Begin My Start Script
;
M117 Print start...
G28 ; Home extruder
G1 Z15 F100 ; Move the platform up of 15mm
G4 P2000 ; Pause for 2000 milliseconds (2 seconds)
M107 ; Turn off fan
;
; End My Start Script
;
G92 E0
G1 E-2.0000 F1800
G1 Z0.500 F1002
; process Tronxy XY100
; layer 1, Z = 0.500
T0
; tool H0.500 W0.800
; raft
G1 X13.774 Y22.441 F4800
G1 E0.0000 F540
G92 E0
G1 X36.418 Y22.441 E3.3892 F450
G1 X37.941 Y23.964 E3.7115
G1 X37.941 Y41.456 E6.3295
G1 X39.595 Y41.456 E6.5770
G1 X39.595 Y23.964 E9.1949
G1 X41.118 Y22.441 E9.5173
G1 X63.762 Y22.441 E12.9065
G1 X65.285 Y23.964 E13.2288
G1 X65.285 Y92.913 E23.5484
G1 X66.640 Y92.910 E23.7513
G1 X66.844 Y92.416 E23.8312
G1 X66.512 Y92.084 E23.9015
G1 X66.512 Y21.580 E34.4539
G1 X68.035 Y20.057 E34.7763
G1 X118.032 Y20.057 E42.2593
G1 X119.555 Y21.580 E42.5817
G1 X119.555 Y51.069 E46.9953
G1 X118.032 Y52.592 E47.3177
G1 X112.719 Y52.592 E48.1129
G1 X112.719 Y54.237 E48.3591
G1 X118.032 Y54.237 E49.1542
G1 X119.555 Y55.760 E49.4766
G1 X119.555 Y92.084 E54.9134
G1 X118.032 Y93.607 E55.2358
G1 X105.773 Y93.607 E57.0705
G1 X105.569 Y94.102 E57.1507
G1 X105.807 Y94.339 E57.2010
G1 X105.861 Y116.992 E60.5915
G1 X104.342 Y118.519 E60.9138
G1 X33.838 Y118.687 E71.4663
G1 X32.311 Y117.168 E71.7887
G1 X32.261 Y95.983 E74.9594
G1 X13.774 Y95.983 E77.7263
G1 X12.251 Y94.460 E78.0487
G1 X12.251 Y23.964 E88.5998
G1 X13.774 Y22.441 E88.9222
G92 E0
G1 E-2.0000 F1800
G1 X30.966 Y61.664 F4800
G1 E0.0000 F1800
G92 E0
G1 X30.966 Y67.089 E0.8119 F450
G1 X34.443 Y67.089 E1.3323
G1 X35.966 Y68.612 E1.6547
G1 X35.966 Y72.089 E2.1751
G1 X40.766 Y72.089 E2.8935
G1 X40.766 Y68.612 E3.4139
G1 X42.289 Y67.089 E3.7363
G1 X45.766 Y67.089 E4.2567
G1 X45.766 Y61.664 E5.0686
G1 X45.272 Y61.459 E5.1486
G1 X44.443 Y62.289 E5.3241
G1 X32.289 Y62.289 E7.1432
G1 X31.460 Y61.459 E7.3187
G1 X30.966 Y61.664 E7.3987
G92 E0
G1 E-2.0000 F1800
G1 X30.766 Y77.289 F4800
G1 E0.0000 F1800
G92 E0
G1 X25.966 Y77.289 E0.7184 F450
G1 X25.966 Y82.089 E1.4368
G1 X30.766 Y82.089 E2.1553
G1 X30.766 Y77.289 E2.8737
G92 E0
G1 E-2.0000 F1800
G1 X45.966 Y77.289 F4800
G1 E0.0000 F1800
G92 E0
G1 X45.966 Y82.089 E0.7184 F450
G1 X50.766 Y82.089 E1.4368
G1 X50.766 Y77.289 E2.1553
G1 X45.966 Y77.289 E2.8737
G92 E0
G1 E-2.0000 F1800
G1 X92.246 Y74.779 F4800
G1 E0.0000 F1800
G92 E0
G1 X93.890 Y74.779 E0.2462 F450
G1 X93.890 Y66.298 E1.5155
G1 X92.246 Y66.298 E1.7616
G1 X92.246 Y74.779 E3.0309
G92 E0
G1 E-2.0000 F1800
G1 X92.211 Y47.401 F4800
G1 E0.0000 F1800
G92 E0
G1 X93.856 Y47.401 E0.2462 F450
G1 X93.856 Y38.920 E1.5155
G1 X92.211 Y38.920 E1.7616
G1 X92.211 Y47.401 E3.0309
G92 E0
G1 E-2.0000 F1800
G1 X94.656 Y46.513 F4800
G1 E0.0000 F1800
G92 E0
G1 X118.755 Y46.513 E3.6069 F450
G1 X118.755 Y44.228 E3.9490
G1 X94.656 Y44.228 E7.5559
G1 X94.656 Y41.942 E7.8981
G1 X118.755 Y41.942 E11.5050
G1 X118.755 Y39.656 E11.8471
G1 X94.656 Y39.656 E15.4540
G92 E0
G1 E-2.0000 F1800
G1 X94.690 Y67.085 F4800
G1 E0.0000 F1800
G92 E0
G1 X118.755 Y67.085 E3.6018 F450
G1 X118.755 Y69.371 E3.9439
G1 X94.690 Y69.371 E7.5457
G1 X94.690 Y71.656 E7.8878
G1 X118.755 Y71.656 E11.4896
G1 X118.755 Y73.942 E11.8317
G1 X94.690 Y73.942 E15.4335
G92 E0
G1 E-2.0000 F1800
G1 X104.356 Y117.371 F4800
G1 E0.0000 F1800
G92 E0
G1 X33.649 Y117.371 E10.5828 F450
G1 X33.110 Y116.834 E10.6966
G1 X33.106 Y115.085 E10.9584
G1 X105.057 Y115.085 E21.7273
G1 X105.051 Y112.799 E22.0694
G1 X33.101 Y112.799 E32.8383
G1 X33.095 Y110.513 E33.1804
G1 X105.046 Y110.513 E43.9494
G1 X105.040 Y108.228 E44.2915
G1 X33.090 Y108.228 E55.0604
G1 X33.084 Y105.942 E55.4025
G1 X105.035 Y105.942 E66.1714
G1 X105.030 Y103.656 E66.5135
G1 X33.079 Y103.656 E77.2824
G1 X33.073 Y101.371 E77.6245
G1 X105.024 Y101.371 E88.3935
G1 X105.019 Y99.085 E88.7356
G1 X33.068 Y99.085 E99.5045
G1 X33.062 Y96.799 E99.8466
G1 X105.013 Y96.799 E110.6155
G1 X105.008 Y94.673 E110.9338
G1 X104.848 Y94.513 E110.9676
G1 X13.436 Y94.513 E124.6493
G92 E0
G1 E-2.0000 F1800
G1 X13.051 Y69.371 F4800
G1 E0.0000 F1800
G92 E0
G1 X35.166 Y69.371 E3.3100 F450
G1 X35.166 Y68.943 E3.3740
G1 X34.111 Y67.889 E3.5971
G1 X30.166 Y67.889 E4.1877
G1 X30.166 Y67.085 E4.3080
G1 X13.051 Y67.085 E6.8696
G1 X13.051 Y64.799 E7.2117
G1 X30.166 Y64.799 E9.7733
G1 X30.166 Y62.513 E10.1154
G1 X13.051 Y62.513 E12.6770
G92 E0
G1 E-2.0000 F1800
G1 X37.141 Y41.942 F4800
G1 E0.0000 F1800
G92 E0
G1 X13.051 Y41.942 E3.6056 F450
G1 X13.051 Y39.656 E3.9477
G1 X37.141 Y39.656 E7.5533
G1 X37.141 Y37.371 E7.8954
G1 X13.051 Y37.371 E11.5010
G1 X13.051 Y35.085 E11.8431
G1 X37.141 Y35.085 E15.4487
G1 X37.141 Y32.799 E15.7908
G1 X13.051 Y32.799 E19.3964
G1 X13.051 Y30.513 E19.7385
G1 X37.141 Y30.513 E23.3441
G1 X37.141 Y28.228 E23.6862
G1 X13.051 Y28.228 E27.2918
G1 X13.051 Y25.942 E27.6339
G1 X37.141 Y25.942 E31.2395
G1 X37.141 Y24.296 E31.4859
G1 X36.502 Y23.656 E31.6212
G1 X13.690 Y23.656 E35.0355
G92 E0
G1 E-2.0000 F1800
G1 X41.034 Y23.656 F4800
G1 E0.0000 F1800
G92 E0
G1 X63.846 Y23.656 E3.4143 F450
G1 X64.485 Y24.296 E3.5496
G1 X64.485 Y25.942 E3.7960
G1 X40.395 Y25.942 E7.4016
G1 X40.395 Y28.228 E7.7437
G1 X64.485 Y28.228 E11.3493
G1 X64.485 Y30.513 E11.6914
G1 X40.395 Y30.513 E15.2970
G1 X40.395 Y32.799 E15.6391
G1 X64.485 Y32.799 E19.2447
G1 X64.485 Y35.085 E19.5868
G1 X40.395 Y35.085 E23.1924
G1 X40.395 Y37.371 E23.5345
G1 X64.485 Y37.371 E27.1401
G1 X64.485 Y39.656 E27.4822
G1 X40.395 Y39.656 E31.0878
G1 X40.395 Y41.942 E31.4299
G1 X64.485 Y41.942 E35.0355
G1 X64.485 Y44.228 E35.3776
G1 X13.051 Y44.228 E43.0757
G1 X13.051 Y46.513 E43.4178
G1 X64.485 Y46.513 E51.1160
G1 X64.485 Y48.799 E51.4581
G1 X13.051 Y48.799 E59.1562
G1 X13.051 Y51.085 E59.4983
G1 X64.485 Y51.085 E67.1965
G1 X64.485 Y53.371 E67.5386
G1 X13.051 Y53.371 E75.2367
G1 X13.051 Y55.656 E75.5788
G1 X64.485 Y55.656 E83.2770
G1 X64.485 Y57.942 E83.6191
G1 X13.051 Y57.942 E91.3172
G1 X13.051 Y60.228 E91.6593
G1 X64.485 Y60.228 E99.3575
G1 X64.485 Y62.513 E99.6996
G1 X46.566 Y62.513 E102.3815
G1 X46.566 Y64.799 E102.7236
G1 X64.485 Y64.799 E105.4056
G1 X64.485 Y67.085 E105.7477
G1 X46.566 Y67.085 E108.4296
G1 X46.566 Y67.889 E108.5499
G1 X42.620 Y67.889 E109.1404
G1 X41.566 Y68.943 E109.3636
G1 X41.566 Y69.371 E109.4276
G1 X64.485 Y69.371 E112.8579
G1 X64.485 Y71.656 E113.2000
G1 X41.566 Y71.656 E116.6303
G1 X41.566 Y72.889 E116.8148
G1 X35.166 Y72.889 E117.7727
G1 X35.166 Y71.656 E117.9571
G1 X13.051 Y71.656 E121.2670
G1 X13.051 Y73.942 E121.6091
G1 X64.485 Y73.942 E129.3073
G1 X64.485 Y76.228 E129.6494
G1 X13.051 Y76.228 E137.3475
G1 X13.051 Y78.513 E137.6897
G1 X25.166 Y78.513 E139.5029
G1 X25.166 Y76.489 E139.8060
G1 X31.566 Y76.489 E140.7639
G1 X31.566 Y78.513 E141.0669
G1 X45.166 Y78.513 E143.1025
G1 X45.166 Y76.489 E143.4055
G1 X51.566 Y76.489 E144.3634
G1 X51.566 Y78.513 E144.6665
G1 X64.485 Y78.513 E146.6001
G1 X64.485 Y80.799 E146.9422
G1 X51.566 Y80.799 E148.8758
G1 X51.566 Y82.889 E149.1885
G1 X45.166 Y82.889 E150.1464
G1 X45.166 Y80.799 E150.4591
G1 X31.566 Y80.799 E152.4946
G1 X31.566 Y82.889 E152.8073
G1 X25.166 Y82.889 E153.7652
G1 X25.166 Y80.799 E154.0779
G1 X13.051 Y80.799 E155.8912
G1 X13.051 Y83.085 E156.2333
G1 X64.485 Y83.085 E163.9315
G1 X64.485 Y85.371 E164.2736
G1 X13.051 Y85.371 E171.9717
G1 X13.051 Y87.656 E172.3138
G1 X64.485 Y87.656 E180.0120
G1 X64.485 Y89.942 E180.3541
G1 X13.051 Y89.942 E188.0522
G1 X13.051 Y92.228 E188.3943
G1 X64.485 Y92.228 E196.0925
G1 X64.485 Y93.715 E196.3150
G1 X67.176 Y93.708 E196.7178
G1 X67.787 Y92.228 E196.9575
G1 X118.280 Y92.228 E204.5149
G1 X118.755 Y91.753 E204.6154
G1 X118.755 Y89.942 E204.8865
G1 X67.312 Y89.942 E212.5859
G1 X67.312 Y87.656 E212.9280
G1 X118.755 Y87.656 E220.6275
G1 X118.755 Y85.371 E220.9696
G1 X67.312 Y85.371 E228.6691
G1 X67.312 Y83.085 E229.0112
G1 X118.755 Y83.085 E236.7107
G1 X118.755 Y80.799 E237.0528
G1 X67.312 Y80.799 E244.7523
G1 X67.312 Y78.513 E245.0944
G1 X118.755 Y78.513 E252.7938
G1 X118.755 Y76.228 E253.1359
G1 X67.312 Y76.228 E260.8354
G1 X67.312 Y73.942 E261.1775
G1 X91.446 Y73.942 E264.7896
G1 X91.446 Y71.656 E265.1317
G1 X67.312 Y71.656 E268.7437
G1 X67.312 Y69.371 E269.0858
G1 X91.446 Y69.371 E272.6978
G1 X91.446 Y67.085 E273.0399
G1 X67.312 Y67.085 E276.6520
G1 X67.312 Y64.799 E276.9941
G1 X118.755 Y64.799 E284.6936
G1 X118.755 Y62.513 E285.0357
G1 X67.312 Y62.513 E292.7351
G1 X67.312 Y60.228 E293.0772
G1 X118.755 Y60.228 E300.7767
G1 X118.755 Y57.942 E301.1188
G1 X67.312 Y57.942 E308.8183
G1 X67.312 Y55.656 E309.1604
G1 X118.321 Y55.656 E316.7948
G1 X117.701 Y55.037 E316.9260
G1 X111.919 Y55.037 E317.7914
G1 X111.919 Y53.371 E318.0407
G1 X67.312 Y53.371 E324.7170
G1 X67.312 Y51.085 E325.0591
G1 X118.408 Y51.085 E332.7066
G1 X118.755 Y50.737 E332.7801
G1 X118.755 Y48.799 E333.0702
G1 X67.312 Y48.799 E340.7697
G1 X67.312 Y46.513 E341.1118
G1 X91.411 Y46.513 E344.7187
G1 X91.411 Y44.228 E345.0609
G1 X67.312 Y44.228 E348.6678
G1 X67.312 Y41.942 E349.0099
G1 X91.411 Y41.942 E352.6168
G1 X91.411 Y39.656 E352.9589
G1 X67.312 Y39.656 E356.5658
G1 X67.312 Y37.371 E356.9079
G1 X118.755 Y37.371 E364.6074
G1 X118.755 Y35.085 E364.9495
G1 X67.312 Y35.085 E372.6490
G1 X67.312 Y32.799 E372.9911
G1 X118.755 Y32.799 E380.6906
G1 X118.755 Y30.513 E381.0327
G1 X67.312 Y30.513 E388.7321
G1 X67.312 Y28.228 E389.0743
G1 X118.755 Y28.228 E396.7737
G1 X118.755 Y25.942 E397.1158
G1 X67.312 Y25.942 E404.8153
G1 X67.312 Y23.656 E405.1574
G1 X118.755 Y23.656 E412.8569
G1 X118.755 Y21.911 E413.1181
G1 X118.214 Y21.371 E413.2325
G1 X67.853 Y21.371 E420.7702
G92 E0
G1 E-2.0000 F1800
; layer 2, Z = 1.000
M104 S200 T0
G1 X68.035 Y20.057 F4800
G1 Z1.000 F1002
G1 E0.0000 F1800
G92 E0
G1 X118.032 Y20.057 E7.4830 F900
G1 X119.555 Y21.580 E7.8054
G1 X119.555 Y51.069 E12.2190
G1 X118.032 Y52.592 E12.5414
G1 X112.719 Y52.592 E13.3366
G1 X112.719 Y54.237 E13.5828
G1 X118.032 Y54.237 E14.3780
G1 X119.555 Y55.760 E14.7003
G1 X119.555 Y92.084 E20.1371
G1 X118.032 Y93.607 E20.4595
