; G-Code generated by Simplify3D(R) Version 4.1.2
; Aug 9, 2020 at 4:01:25 PM
; Settings Summary
;   processName,Process1
;   applyToModels,PiNoirCamCaseHolder-Head_Back_New
;   profileName,A04-04-15s Tevo Tornado
;   profileVersion,2020-04-29 16:00:54
;   baseProfile,Creality CR-10(2)
;   printMaterial,PLA
;   printQuality,Medium
;   printExtruders,
;   extruderName,Primary Extruder
;   extruderToolheadNumber,0
;   extruderDiameter,0.4
;   extruderAutoWidth,0
;   extruderWidth,0.35
;   extrusionMultiplier,0.95
;   extruderUseRetract,1
;   extruderRetractionDistance,4
;   extruderExtraRestartDistance,0
;   extruderRetractionZLift,0.3
;   extruderRetractionSpeed,3000
;   extruderUseCoasting,1
;   extruderCoastingDistance,0.8
;   extruderUseWipe,0
;   extruderWipeDistance,4
;   primaryExtruder,0
;   layerHeight,0.15
;   topSolidLayers,4
;   bottomSolidLayers,3
;   perimeterOutlines,3
;   printPerimetersInsideOut,0
;   startPointOption,1
;   startPointOriginX,0
;   startPointOriginY,300
;   sequentialIslands,0
;   spiralVaseMode,0
;   firstLayerHeightPercentage,120
;   firstLayerWidthPercentage,100
;   firstLayerUnderspeed,0.35
;   useRaft,0
;   raftExtruder,0
;   raftTopLayers,3
;   raftBaseLayers,2
;   raftOffset,3
;   raftSeparationDistance,0.14
;   raftTopInfill,100
;   aboveRaftSpeedMultiplier,0.3
;   useSkirt,1
;   skirtExtruder,0
;   skirtLayers,1
;   skirtOutlines,3
;   skirtOffset,2
;   usePrimePillar,0
;   primePillarExtruder,999
;   primePillarWidth,12
;   primePillarLocation,7
;   primePillarSpeedMultiplier,1
;   useOozeShield,0
;   oozeShieldExtruder,999
;   oozeShieldOffset,2
;   oozeShieldOutlines,1
;   oozeShieldSidewallShape,1
;   oozeShieldSidewallAngle,30
;   oozeShieldSpeedMultiplier,1
;   infillExtruder,0
;   internalInfillPattern,Rectilinear
;   externalInfillPattern,Rectilinear
;   infillPercentage,15
;   outlineOverlapPercentage,15
;   infillExtrusionWidthPercentage,100
;   minInfillLength,5
;   infillLayerInterval,1
;   internalInfillAngles,45,-45
;   overlapInternalInfillAngles,0
;   externalInfillAngles,45,-45
;   generateSupport,1
;   supportExtruder,0
;   supportInfillPercentage,30
;   supportExtraInflation,0
;   supportBaseLayers,0
;   denseSupportExtruder,0
;   denseSupportLayers,0
;   denseSupportInfillPercentage,70
;   supportLayerInterval,1
;   supportHorizontalPartOffset,0.4
;   supportUpperSeparationLayers,1
;   supportLowerSeparationLayers,1
;   supportType,0
;   supportGridSpacing,4.5
;   maxOverhangAngle,45
;   supportAngles,0
;   temperatureName,Primary Extruder,Heated Bed
;   temperatureNumber,0,0
;   temperatureSetpointCount,1,1
;   temperatureSetpointLayers,1,1
;   temperatureSetpointTemperatures,215,55
;   temperatureStabilizeAtStartup,1,1
;   temperatureHeatedBed,0,1
;   fanLayers,1,2
;   fanSpeeds,0,100
;   blipFanToFullPower,0
;   adjustSpeedForCooling,1
;   minSpeedLayerTime,15
;   minCoolingSpeedSlowdown,50
;   increaseFanForCooling,1
;   minFanLayerTime,25
;   maxCoolingFanSpeed,100
;   increaseFanForBridging,1
;   bridgingFanSpeed,100
;   use5D,1
;   relativeEdistances,0
;   allowEaxisZeroing,1
;   independentExtruderAxes,0
;   includeM10123,0
;   stickySupport,1
;   applyToolheadOffsets,0
;   gcodeXoffset,0
;   gcodeYoffset,0
;   gcodeZoffset,0
;   overrideMachineDefinition,1
;   machineTypeOverride,0
;   strokeXoverride,300
;   strokeYoverride,300
;   strokeZoverride,400
;   originOffsetXoverride,0
;   originOffsetYoverride,0
;   originOffsetZoverride,0
;   homeXdirOverride,-1
;   homeYdirOverride,-1
;   homeZdirOverride,-1
;   flipXoverride,1
;   flipYoverride,-1
;   flipZoverride,1
;   toolheadOffsets,0,0|0,0|0,0|0,0|0,0|0,0
;   overrideFirmwareConfiguration,1
;   firmwareTypeOverride,RepRap (Marlin/Repetier/Sprinter)
;   GPXconfigOverride,r2
;   baudRateOverride,250000
;   overridePrinterModels,1
;   printerModelsOverride
;   startingGcode,;,; -]H.P.B[- MarshMalloW  ,; $VER: StartScript 1.02 (26.12.2019) MarshMalloW,;,; Begin Startcode,;,M117 *Preheat*     	; Preheat,;extruder0_temperature,M104 S[extruder0_temperature]  ,M109 S[extruder0_temperature] ,M109 R[extruder0_temperature] ,;,M117 *Auto-leveling*     	; Auto-leveling,M107                   	; Turn layer fan off,G21                    	; Set to metric [change to G20 if you want Imperial],G90                    	; Force coordinates to be absolute relative to the origin,G28                    	; Home X/Y/Z axis,G29                    	; Auto-leveling (BL-Touch),;,M117 *Start Clean*     	; Indicate nozzle clean in progress on LCD,G92 E0                 	; Set Extruder to 0 ,G1 X0 Y0 F2000         	; Move X and Y to 0 with speed 2000 (mm/min),G1 Z0.1 F1000          	; Move Z to   0.1 with speed 1000 (mm/min),G1 X8.0 F2000          	; Move X to   8.0 with speed 2000 (mm/min),G1 Y60.0 E4.0 F1000.0  	; Move Y to  60 and Extruder with 4.0 with speed 1000 (mm/min),G1 Y100.0 E8.5 F1000.0 	; Move Y to 100 and Extruder with 8.5 with speed 1000 (mm/min),G92 E0                 	; Set extruder to 0,G1 X16.0 F3000         	; Move X to 16.0 with speed 3000 (mm/min),G1 Y60.0 F3000         	; Move Y to 60.0 with speed 3000 (mm/min),M117 *End Clean*       	; Indicate nozzle clean in progress on LCD,G1 Z5 F3000            	; Move Z to  5.0 with speed 3000 (mm/min),G1 X20.0 F3000         	; Move X to 20.0 with speed 3000 (mm/min),G1 Y20.0 F3000         	; Move Y to 20.0 with speed 3000 (mm/min),; ,M117 *Printing...*     	; Start printing msg on LCD,;,; End Startcode,;,; Begin printing with sliced GCode after here,;
;   layerChangeGcode,
;   retractionGcode,
;   toolChangeGcode,
;   endingGcode,;,; init 181010,;,;M107 			; Fan off,;G1 E-1 F300 			; Retract the filament a bit before lifting the nozzle,;M104 S0 			; Turn off extruder,;M140 S0 			; Turn off bed,;G91			; Relative positioning,;G28 X0 Y0 			; Move X/Y to min endstops so the head is out of teh way,;M84 			; Disable motors,;G90 			; Absolute positioning,;M117 Print ready...,,;,; // From Cura 181010,; // End_gcode,G92 E0			; Zero the extruded length,;G1 E-30 F300		; Retract E -30,M106 S0			; Turn off cooling fan,M104 S0			; Turn off temperature,M140 S0		     	; Turn off bed,G91			; Relative positioning,G1 E-1 F300			; Retract the filament a bit before lifting the nozzle to release some of the pressure,G1 Z+20 E-5 X-20 Y-20 F7200	; Move Z up a bit and retract filament even more,G1 X0 Y150 F10000		; Move right min,M107			; Turn off layer fan,M84			; Disable motors,G90			; Absolute positioning,M117 *The-End* 		; End msg,;,
;   exportFileFormat,gcode
;   celebration,0
;   celebrationSong,Star Wars
;   postProcessing,|{REPLACE "; layer " "M117 INDICATOR-Layer"}|{REPLACE ", Z = " "\n; Z="}
;   defaultSpeed,1800
;   outlineUnderspeed,0.5
;   solidInfillUnderspeed,0.8
;   supportUnderspeed,0.8
;   rapidXYspeed,6000
;   rapidZspeed,1002
;   minBridgingArea,50
;   bridgingExtraInflation,0.2
;   bridgingExtrusionMultiplier,1
;   bridgingSpeedMultiplier,0.6
;   useFixedBridgingAngle,0
;   fixedBridgingAngle,0
;   applyBridgingToPerimeters,0
;   filamentDiameters,1.75|1.75|1.75|1.75|1.75|1.75
;   filamentPricesPerKg,30|46|46|46|46|46
;   filamentDensities,1.25|1.25|1.25|1.25|1.25|1.25
;   useMinPrintHeight,0
;   minPrintHeight,0
;   useMaxPrintHeight,0
;   maxPrintHeight,9
;   useDiaphragm,0
;   diaphragmLayerInterval,20
;   robustSlicing,1
;   mergeAllIntoSolid,0
;   onlyRetractWhenCrossingOutline,1
;   retractBetweenLayers,0
;   useRetractionMinTravel,0
;   retractionMinTravel,3
;   retractWhileWiping,0
;   onlyWipeOutlines,1
;   avoidCrossingOutline,1
;   maxMovementDetourFactor,3
;   toolChangeRetractionDistance,12
;   toolChangeExtraRestartDistance,-0.5
;   toolChangeRetractionSpeed,600
;   externalThinWallType,1
;   internalThinWallType,1
;   thinWallAllowedOverlapPercentage,10
;   singleExtrusionMinLength,1
;   singleExtrusionMinPrintingWidthPercentage,50
;   singleExtrusionMaxPrintingWidthPercentage,200
;   singleExtrusionEndpointExtension,0.2
;   horizontalSizeCompensation,0
G90
M82
M106 S0
M140 S55
M190 S55
;
; -]H.P.B[- MarshMalloW  
; $VER: StartScript 1.02 (26.12.2019) MarshMalloW
;
; Begin Startcode
;
M117 *Preheat*     	; Preheat
;extruder0_temperature
M104 S215  
M109 S215 
M109 R215 
;
M117 *Auto-leveling*     	; Auto-leveling
M107                   	; Turn layer fan off
G21                    	; Set to metric [change to G20 if you want Imperial]
G90                    	; Force coordinates to be absolute relative to the origin
G28                    	; Home X/Y/Z axis
G29                    	; Auto-leveling (BL-Touch)
;
M117 *Start Clean*     	; Indicate nozzle clean in progress on LCD
G92 E0                 	; Set Extruder to 0 
G1 X0 Y0 F2000         	; Move X and Y to 0 with speed 2000 (mm/min)
G1 Z0.1 F1000          	; Move Z to   0.1 with speed 1000 (mm/min)
G1 X8.0 F2000          	; Move X to   8.0 with speed 2000 (mm/min)
G1 Y60.0 E4.0 F1000.0  	; Move Y to  60 and Extruder with 4.0 with speed 1000 (mm/min)
G1 Y100.0 E8.5 F1000.0 	; Move Y to 100 and Extruder with 8.5 with speed 1000 (mm/min)
G92 E0                 	; Set extruder to 0
G1 X16.0 F3000         	; Move X to 16.0 with speed 3000 (mm/min)
G1 Y60.0 F3000         	; Move Y to 60.0 with speed 3000 (mm/min)
M117 *End Clean*       	; Indicate nozzle clean in progress on LCD
G1 Z5 F3000            	; Move Z to  5.0 with speed 3000 (mm/min)
G1 X20.0 F3000         	; Move X to 20.0 with speed 3000 (mm/min)
G1 Y20.0 F3000         	; Move Y to 20.0 with speed 3000 (mm/min)
; 
M117 *Printing...*     	; Start printing msg on LCD
;
; End Startcode
;
; Begin printing with sliced GCode after here
;
; process Process1
M117 INDICATOR-Layer1
; Z=0.180
T0
G92 E0.0000
G1 E-4.0000 F3000
; feature skirt
; tool H0.180 W0.350
G1 Z0.300 F1002
G1 X178.824 Y73.634 F6000
G1 Z0.180 F1002
G1 E0.0000 F3000
G92 E0.0000
G1 X181.388 Y73.846 E0.0640 F630
G1 X181.623 Y73.885 E0.0699
G1 X184.175 Y74.532 E0.1355
G1 X184.400 Y74.609 E0.1414
G1 X186.811 Y75.666 E0.2069
G1 X187.020 Y75.780 E0.2128
G1 X189.224 Y77.219 E0.2783
G1 X189.412 Y77.365 E0.2842
G1 X191.349 Y79.149 E0.3497
G1 X191.510 Y79.323 E0.3556
G1 X193.127 Y81.401 E0.4211
G1 X193.257 Y81.600 E0.4271
G1 X194.510 Y83.915 E0.4926
G1 X194.605 Y84.133 E0.4985
G1 X195.460 Y86.623 E0.5640
G1 X195.518 Y86.854 E0.5699
G1 X195.952 Y89.450 E0.6354
G1 X195.971 Y89.687 E0.6413
G1 X195.971 Y92.320 E0.7068
G1 X195.952 Y92.557 E0.7128
G1 X195.518 Y95.154 E0.7783
G1 X195.460 Y95.384 E0.7842
G1 X194.605 Y97.874 E0.8497
G1 X194.510 Y98.092 E0.8556
G1 X193.257 Y100.407 E0.9211
G1 X193.127 Y100.607 E0.9270
G1 X191.510 Y102.684 E0.9925
G1 X191.348 Y102.859 E0.9985
G1 X189.412 Y104.642 E1.0640
G1 X189.224 Y104.788 E1.0699
G1 X187.020 Y106.228 E1.1354
G1 X186.811 Y106.341 E1.1413
G1 X184.400 Y107.399 E1.2068
G1 X184.175 Y107.476 E1.2127
G1 X181.623 Y108.122 E1.2782
G1 X181.388 Y108.161 E1.2842
G1 X178.824 Y108.374 E1.3482
G1 X178.705 Y108.379 E1.3511
G1 X163.119 Y108.379 E1.7390
G1 X163.088 Y108.349 E1.7400
G1 X139.530 Y108.349 E2.3262
G1 X139.500 Y108.379 E2.3273
G1 X123.913 Y108.379 E2.7151
G1 X123.795 Y108.374 E2.7181
G1 X121.230 Y108.161 E2.7821
G1 X120.996 Y108.122 E2.7880
G1 X118.444 Y107.476 E2.8535
G1 X118.219 Y107.399 E2.8595
G1 X115.808 Y106.341 E2.9250
G1 X115.599 Y106.228 E2.9309
G1 X113.395 Y104.788 E2.9964
G1 X113.207 Y104.642 E3.0023
G1 X111.270 Y102.859 E3.0678
G1 X111.109 Y102.684 E3.0737
G1 X109.492 Y100.607 E3.1392
G1 X109.362 Y100.407 E3.1452
G1 X108.109 Y98.092 E3.2107
G1 X108.013 Y97.874 E3.2166
G1 X107.159 Y95.384 E3.2821
G1 X107.100 Y95.154 E3.2880
G1 X106.667 Y92.557 E3.3535
G1 X106.647 Y92.320 E3.3594
G1 X106.647 Y89.687 E3.4249
G1 X106.667 Y89.450 E3.4309
G1 X107.100 Y86.854 E3.4964
G1 X107.159 Y86.623 E3.5023
G1 X108.013 Y84.133 E3.5678
G1 X108.109 Y83.915 E3.5737
G1 X109.362 Y81.600 E3.6392
G1 X109.492 Y81.401 E3.6451
G1 X111.109 Y79.323 E3.7106
G1 X111.270 Y79.148 E3.7166
G1 X113.207 Y77.366 E3.7821
G1 X113.395 Y77.219 E3.7880
G1 X115.599 Y75.780 E3.8535
G1 X115.808 Y75.666 E3.8594
G1 X118.219 Y74.609 E3.9249
G1 X118.444 Y74.532 E3.9308
G1 X120.996 Y73.885 E3.9963
G1 X121.230 Y73.846 E4.0023
G1 X123.795 Y73.634 E4.0663
G1 X123.913 Y73.629 E4.0692
G1 X178.705 Y73.629 E5.4326
G1 X178.824 Y73.634 E5.4356
G92 E0.0000
G1 E-4.0000 F3000
G1 Z0.480 F1002
G1 X178.639 Y76.679 F6000
G1 X173.346 Y76.679
G1 X169.927 Y78.579
G1 X124.302 Y78.579
G1 X122.152 Y78.767
G1 X120.059 Y79.327
G1 X118.096 Y80.243
G1 X116.322 Y81.485
G1 X114.791 Y83.017
G1 X113.548 Y84.791
G1 X112.633 Y86.754
G1 X112.072 Y88.846
G1 X111.884 Y91.004
G1 X112.072 Y93.161
G1 X112.633 Y95.254
G1 X113.548 Y97.217
G1 X114.791 Y98.991
G1 X116.322 Y100.522
G1 X118.096 Y101.765
G1 X120.059 Y102.680
G1 X122.152 Y103.241
G1 X124.302 Y103.429
G1 X125.221 Y103.429
G1 X122.085 Y105.172
G1 X121.615 Y105.133
G1 X119.322 Y104.552
G1 X118.544 Y107.140
G1 Z0.180 F1002
G1 E0.0000 F3000
G92 E0.0000
G1 X118.346 Y107.072 E0.0052 F630
G1 X115.962 Y106.027 E0.0700
G1 X115.778 Y105.927 E0.0752
G1 X113.598 Y104.503 E0.1400
G1 X113.433 Y104.375 E0.1452
G1 X111.518 Y102.611 E0.2100
G1 X111.376 Y102.458 E0.2151
G1 X109.777 Y100.403 E0.2799
G1 X109.663 Y100.228 E0.2851
G1 X108.424 Y97.938 E0.3499
G1 X108.340 Y97.747 E0.3551
G1 X107.494 Y95.284 E0.4199
G1 X107.443 Y95.082 E0.4251
G1 X107.015 Y92.514 E0.4899
G1 X106.997 Y92.306 E0.4951
G1 X106.997 Y89.702 E0.5599
G1 X107.015 Y89.494 E0.5651
G1 X107.443 Y86.926 E0.6299
G1 X107.494 Y86.723 E0.6351
G1 X108.340 Y84.261 E0.6998
G1 X108.424 Y84.069 E0.7050
G1 X109.663 Y81.779 E0.7698
G1 X109.777 Y81.605 E0.7750
G1 X111.376 Y79.550 E0.8398
G1 X111.518 Y79.396 E0.8450
G1 X113.433 Y77.633 E0.9098
G1 X113.598 Y77.505 E0.9150
G1 X115.778 Y76.080 E0.9798
G1 X115.962 Y75.981 E0.9850
G1 X118.346 Y74.935 E1.0498
G1 X118.544 Y74.867 E1.0550
G1 X121.068 Y74.228 E1.1197
G1 X121.274 Y74.194 E1.1249
G1 X123.816 Y73.983 E1.1884
G1 X123.921 Y73.979 E1.1910
G1 X178.698 Y73.979 E2.5540
G1 X178.802 Y73.983 E2.5566
G1 X181.345 Y74.194 E2.6201
G1 X181.551 Y74.228 E2.6253
G1 X184.075 Y74.867 E2.6901
G1 X184.273 Y74.935 E2.6953
G1 X186.657 Y75.981 E2.7601
G1 X186.841 Y76.080 E2.7653
G1 X189.020 Y77.505 E2.8301
G1 X189.185 Y77.633 E2.8353
G1 X191.101 Y79.396 E2.9001
G1 X191.242 Y79.550 E2.9052
G1 X192.841 Y81.605 E2.9700
G1 X192.956 Y81.779 E2.9752
G1 X194.195 Y84.069 E3.0400
G1 X194.279 Y84.261 E3.0452
G1 X195.124 Y86.723 E3.1100
G1 X195.176 Y86.926 E3.1152
G1 X195.604 Y89.494 E3.1800
G1 X195.621 Y89.702 E3.1852
G1 X195.621 Y92.306 E3.2500
G1 X195.604 Y92.514 E3.2552
G1 X195.176 Y95.082 E3.3200
G1 X195.124 Y95.284 E3.3252
G1 X194.279 Y97.747 E3.3899
G1 X194.195 Y97.938 E3.3951
G1 X192.956 Y100.228 E3.4599
G1 X192.841 Y100.403 E3.4651
G1 X191.242 Y102.458 E3.5299
G1 X191.101 Y102.611 E3.5351
G1 X189.185 Y104.375 E3.5999
G1 X189.020 Y104.503 E3.6051
G1 X186.841 Y105.927 E3.6699
G1 X186.657 Y106.027 E3.6751
G1 X184.273 Y107.072 E3.7399
G1 X184.075 Y107.140 E3.7451
G1 X181.551 Y107.779 E3.8098
G1 X181.345 Y107.814 E3.8150
G1 X178.802 Y108.024 E3.8785
G1 X178.698 Y108.029 E3.8811
G1 X163.263 Y108.029 E4.2652
G1 X163.233 Y107.999 E4.2662
G1 X139.385 Y107.999 E4.8596
G1 X139.355 Y108.029 E4.8607
G1 X123.921 Y108.029 E5.2448
G1 X123.816 Y108.024 E5.2474
G1 X121.274 Y107.814 E5.3108
G1 X121.068 Y107.779 E5.3160
G1 X118.544 Y107.140 E5.3808
G92 E0.0000
G1 E-4.0000 F3000
G1 Z0.480 F1002
G1 X119.322 Y104.552 F6000
G1 X121.615 Y105.133
G1 X123.980 Y105.329
G1 X125.404 Y105.329
G1 X132.600 Y103.429
G1 X124.302 Y103.429
G1 X122.152 Y103.241
G1 X120.059 Y102.680
G1 X118.096 Y101.765
G1 X116.322 Y100.522
G1 X114.791 Y98.991
G1 X113.548 Y97.217
G1 X112.633 Y95.254
G1 X112.072 Y93.161
G1 X111.884 Y91.004
G1 X112.072 Y88.846
G1 X112.633 Y86.754
G1 X113.548 Y84.791
G1 X114.791 Y83.017
G1 X116.322 Y81.485
G1 X118.096 Y80.243
G1 X120.059 Y79.327
G1 X122.152 Y78.767
G1 X124.302 Y78.579
G1 X178.317 Y78.579
G1 X180.467 Y78.767
G1 X182.559 Y79.327
G1 X184.522 Y80.243
G1 X186.296 Y81.485
G1 X187.828 Y83.017
G1 X189.070 Y84.791
G1 X189.986 Y86.754
G1 X190.367 Y88.177
G1 X192.551 Y87.600
G1 X192.532 Y87.487
G1 X194.833 Y86.998
