; G-Code generated by Simplify3D(R) Version 4.1.2
; Aug 17, 2020 at 11:09:59 AM
; Settings Summary
;   processName,Process1
;   applyToModels,PiNoirCamCaseHolder-Head_Back_New
;   profileName,A04-04-25s Tevo Tornado (modified)
;   profileVersion,2020-07-06 22:44:24
;   baseProfile,Creality CR-10(2)
;   printMaterial,PLA
;   printQuality,Medium
;   printExtruders,
;   extruderName,Primary Extruder
;   extruderToolheadNumber,0
;   extruderDiameter,0.4
;   extruderAutoWidth,0
;   extruderWidth,0.35
;   extrusionMultiplier,0.95
;   extruderUseRetract,1
;   extruderRetractionDistance,4
;   extruderExtraRestartDistance,0
;   extruderRetractionZLift,0.3
;   extruderRetractionSpeed,3000
;   extruderUseCoasting,1
;   extruderCoastingDistance,0.8
;   extruderUseWipe,0
;   extruderWipeDistance,4
;   primaryExtruder,0
;   layerHeight,0.15
;   topSolidLayers,4
;   bottomSolidLayers,3
;   perimeterOutlines,3
;   printPerimetersInsideOut,0
;   startPointOption,1
;   startPointOriginX,0
;   startPointOriginY,300
;   sequentialIslands,0
;   spiralVaseMode,0
;   firstLayerHeightPercentage,120
;   firstLayerWidthPercentage,100
;   firstLayerUnderspeed,0.35
;   useRaft,0
;   raftExtruder,0
;   raftTopLayers,3
;   raftBaseLayers,2
;   raftOffset,3
;   raftSeparationDistance,0.14
;   raftTopInfill,100
;   aboveRaftSpeedMultiplier,0.3
;   useSkirt,1
;   skirtExtruder,0
;   skirtLayers,1
;   skirtOutlines,3
;   skirtOffset,2
;   usePrimePillar,0
;   primePillarExtruder,999
;   primePillarWidth,12
;   primePillarLocation,7
;   primePillarSpeedMultiplier,1
;   useOozeShield,0
;   oozeShieldExtruder,999
;   oozeShieldOffset,2
;   oozeShieldOutlines,1
;   oozeShieldSidewallShape,1
;   oozeShieldSidewallAngle,30
;   oozeShieldSpeedMultiplier,1
;   infillExtruder,0
;   internalInfillPattern,Full Honeycomb
;   externalInfillPattern,Rectilinear
;   infillPercentage,25
;   outlineOverlapPercentage,15
;   infillExtrusionWidthPercentage,100
;   minInfillLength,5
;   infillLayerInterval,1
;   internalInfillAngles,0,120,-120
;   overlapInternalInfillAngles,0
;   externalInfillAngles,45,-45
;   generateSupport,1
;   supportExtruder,0
;   supportInfillPercentage,30
;   supportExtraInflation,0
;   supportBaseLayers,0
;   denseSupportExtruder,0
;   denseSupportLayers,0
;   denseSupportInfillPercentage,70
;   supportLayerInterval,1
;   supportHorizontalPartOffset,0.4
;   supportUpperSeparationLayers,1
;   supportLowerSeparationLayers,1
;   supportType,0
;   supportGridSpacing,4.5
;   maxOverhangAngle,45
;   supportAngles,0
;   temperatureName,Primary Extruder,Heated Bed
;   temperatureNumber,0,0
;   temperatureSetpointCount,1,1
;   temperatureSetpointLayers,1,1
;   temperatureSetpointTemperatures,215,55
;   temperatureStabilizeAtStartup,1,1
;   temperatureHeatedBed,0,1
;   fanLayers,1,2
;   fanSpeeds,0,100
;   blipFanToFullPower,0
;   adjustSpeedForCooling,1
;   minSpeedLayerTime,15
;   minCoolingSpeedSlowdown,50
;   increaseFanForCooling,1
;   minFanLayerTime,25
;   maxCoolingFanSpeed,100
;   increaseFanForBridging,1
;   bridgingFanSpeed,100
;   use5D,1
;   relativeEdistances,0
;   allowEaxisZeroing,1
;   independentExtruderAxes,0
;   includeM10123,0
;   stickySupport,1
;   applyToolheadOffsets,0
;   gcodeXoffset,0
;   gcodeYoffset,0
;   gcodeZoffset,0
;   overrideMachineDefinition,1
;   machineTypeOverride,0
;   strokeXoverride,300
;   strokeYoverride,300
;   strokeZoverride,400
;   originOffsetXoverride,0
;   originOffsetYoverride,0
;   originOffsetZoverride,0
;   homeXdirOverride,-1
;   homeYdirOverride,-1
;   homeZdirOverride,-1
;   flipXoverride,1
;   flipYoverride,-1
;   flipZoverride,1
;   toolheadOffsets,0,0|0,0|0,0|0,0|0,0|0,0
;   overrideFirmwareConfiguration,1
;   firmwareTypeOverride,RepRap (Marlin/Repetier/Sprinter)
;   GPXconfigOverride,r2
;   baudRateOverride,250000
;   overridePrinterModels,1
;   printerModelsOverride
;   startingGcode,;,; -]H.P.B[- MarshMalloW  ,; $VER: StartScript 1.02 (26.12.2019) MarshMalloW,;,; Begin Startcode,;,M117 *Preheat*     	; Preheat,;extruder0_temperature,M104 S[extruder0_temperature]  ,M109 S[extruder0_temperature] ,M109 R[extruder0_temperature] ,;,M117 *Auto-leveling*     	; Auto-leveling,M107                   	; Turn layer fan off,G21                    	; Set to metric [change to G20 if you want Imperial],G90                    	; Force coordinates to be absolute relative to the origin,G28                    	; Home X/Y/Z axis,G29                    	; Auto-leveling (BL-Touch),;,M117 *Start Clean*     	; Indicate nozzle clean in progress on LCD,G92 E0                 	; Set Extruder to 0 ,G1 X0 Y0 F2000         	; Move X and Y to 0 with speed 2000 (mm/min),G1 Z0.1 F1000          	; Move Z to   0.1 with speed 1000 (mm/min),G1 X8.0 F2000          	; Move X to   8.0 with speed 2000 (mm/min),G1 Y60.0 E4.0 F1000.0  	; Move Y to  60 and Extruder with 4.0 with speed 1000 (mm/min),G1 Y100.0 E8.5 F1000.0 	; Move Y to 100 and Extruder with 8.5 with speed 1000 (mm/min),G92 E0                 	; Set extruder to 0,G1 X16.0 F3000         	; Move X to 16.0 with speed 3000 (mm/min),G1 Y60.0 F3000         	; Move Y to 60.0 with speed 3000 (mm/min),M117 *End Clean*       	; Indicate nozzle clean in progress on LCD,G1 Z5 F3000            	; Move Z to  5.0 with speed 3000 (mm/min),G1 X20.0 F3000         	; Move X to 20.0 with speed 3000 (mm/min),G1 Y20.0 F3000         	; Move Y to 20.0 with speed 3000 (mm/min),; ,M117 *Printing...*     	; Start printing msg on LCD,;,; End Startcode,;,; Begin printing with sliced GCode after here,;
;   layerChangeGcode,
;   retractionGcode,
;   toolChangeGcode,
;   endingGcode,;,; init 181010,;,;M107 			; Fan off,;G1 E-1 F300 			; Retract the filament a bit before lifting the nozzle,;M104 S0 			; Turn off extruder,;M140 S0 			; Turn off bed,;G91			; Relative positioning,;G28 X0 Y0 			; Move X/Y to min endstops so the head is out of teh way,;M84 			; Disable motors,;G90 			; Absolute positioning,;M117 Print ready...,,;,; // From Cura 181010,; // End_gcode,G92 E0			; Zero the extruded length,;G1 E-30 F300		; Retract E -30,M106 S0			; Turn off cooling fan,M104 S0			; Turn off temperature,M140 S0		     	; Turn off bed,G91			; Relative positioning,G1 E-1 F300			; Retract the filament a bit before lifting the nozzle to release some of the pressure,G1 Z+20 E-5 X-20 Y-20 F7200	; Move Z up a bit and retract filament even more,G1 X0 Y150 F10000		; Move right min,M107			; Turn off layer fan,M84			; Disable motors,G90			; Absolute positioning,M117 *The-End* 		; End msg,;,
;   exportFileFormat,gcode
;   celebration,0
;   celebrationSong,Star Wars
;   postProcessing,|{REPLACE "; layer " "M117 INDICATOR-Layer"}|{REPLACE ", Z = " "\n; Z="}
;   defaultSpeed,1800
;   outlineUnderspeed,0.5
;   solidInfillUnderspeed,0.8
;   supportUnderspeed,0.8
;   rapidXYspeed,6000
;   rapidZspeed,1002
;   minBridgingArea,50
;   bridgingExtraInflation,0.2
;   bridgingExtrusionMultiplier,1
;   bridgingSpeedMultiplier,0.6
;   useFixedBridgingAngle,0
;   fixedBridgingAngle,0
;   applyBridgingToPerimeters,0
;   filamentDiameters,1.75|1.75|1.75|1.75|1.75|1.75
;   filamentPricesPerKg,30|46|46|46|46|46
;   filamentDensities,1.25|1.25|1.25|1.25|1.25|1.25
;   useMinPrintHeight,0
;   minPrintHeight,0
;   useMaxPrintHeight,0
;   maxPrintHeight,9
;   useDiaphragm,0
;   diaphragmLayerInterval,20
;   robustSlicing,1
;   mergeAllIntoSolid,0
;   onlyRetractWhenCrossingOutline,1
;   retractBetweenLayers,0
;   useRetractionMinTravel,0
;   retractionMinTravel,3
;   retractWhileWiping,0
;   onlyWipeOutlines,1
;   avoidCrossingOutline,1
;   maxMovementDetourFactor,3
;   toolChangeRetractionDistance,12
;   toolChangeExtraRestartDistance,-0.5
;   toolChangeRetractionSpeed,600
;   externalThinWallType,1
;   internalThinWallType,1
;   thinWallAllowedOverlapPercentage,10
;   singleExtrusionMinLength,1
;   singleExtrusionMinPrintingWidthPercentage,50
;   singleExtrusionMaxPrintingWidthPercentage,200
;   singleExtrusionEndpointExtension,0.2
;   horizontalSizeCompensation,0
G90
M82
M106 S0
M140 S55
M190 S55
;
; -]H.P.B[- MarshMalloW  
; $VER: StartScript 1.02 (26.12.2019) MarshMalloW
;
; Begin Startcode
;
M117 *Preheat*     	; Preheat
;extruder0_temperature
M104 S215  
M109 S215 
M109 R215 
;
M117 *Auto-leveling*     	; Auto-leveling
M107                   	; Turn layer fan off
G21                    	; Set to metric [change to G20 if you want Imperial]
G90                    	; Force coordinates to be absolute relative to the origin
G28                    	; Home X/Y/Z axis
G29                    	; Auto-leveling (BL-Touch)
;
M117 *Start Clean*     	; Indicate nozzle clean in progress on LCD
G92 E0                 	; Set Extruder to 0 
G1 X0 Y0 F2000         	; Move X and Y to 0 with speed 2000 (mm/min)
G1 Z0.1 F1000          	; Move Z to   0.1 with speed 1000 (mm/min)
G1 X8.0 F2000          	; Move X to   8.0 with speed 2000 (mm/min)
G1 Y60.0 E4.0 F1000.0  	; Move Y to  60 and Extruder with 4.0 with speed 1000 (mm/min)
G1 Y100.0 E8.5 F1000.0 	; Move Y to 100 and Extruder with 8.5 with speed 1000 (mm/min)
G92 E0                 	; Set extruder to 0
G1 X16.0 F3000         	; Move X to 16.0 with speed 3000 (mm/min)
G1 Y60.0 F3000         	; Move Y to 60.0 with speed 3000 (mm/min)
M117 *End Clean*       	; Indicate nozzle clean in progress on LCD
G1 Z5 F3000            	; Move Z to  5.0 with speed 3000 (mm/min)
G1 X20.0 F3000         	; Move X to 20.0 with speed 3000 (mm/min)
G1 Y20.0 F3000         	; Move Y to 20.0 with speed 3000 (mm/min)
; 
M117 *Printing...*     	; Start printing msg on LCD
;
; End Startcode
;
; Begin printing with sliced GCode after here
;
; process Process1
M117 INDICATOR-Layer1
; Z=0.180
T0
G92 E0.0000
G1 E-4.0000 F3000
; feature skirt
; tool H0.180 W0.350
G1 Z0.300 F1002
G1 X177.366 Y71.606 F6000
G1 Z0.180 F1002
G1 E0.0000 F3000
G92 E0.0000
G1 X179.931 Y71.819 E0.0640 F630
G1 X180.165 Y71.858 E0.0699
G1 X182.717 Y72.504 E0.1355
G1 X182.942 Y72.582 E0.1414
G1 X185.353 Y73.639 E0.2069
G1 X185.562 Y73.752 E0.2128
G1 X187.766 Y75.192 E0.2783
G1 X187.954 Y75.338 E0.2842
G1 X189.891 Y77.121 E0.3497
G1 X190.052 Y77.296 E0.3556
G1 X191.669 Y79.374 E0.4211
G1 X191.799 Y79.573 E0.4271
G1 X193.052 Y81.888 E0.4926
G1 X193.148 Y82.106 E0.4985
G1 X194.002 Y84.596 E0.5640
G1 X194.061 Y84.826 E0.5699
G1 X194.494 Y87.423 E0.6354
G1 X194.514 Y87.660 E0.6413
G1 X194.514 Y90.293 E0.7068
G1 X194.494 Y90.530 E0.7128
G1 X194.061 Y93.127 E0.7783
G1 X194.002 Y93.357 E0.7842
G1 X193.148 Y95.847 E0.8497
G1 X193.052 Y96.065 E0.8556
G1 X191.799 Y98.380 E0.9211
G1 X191.669 Y98.579 E0.9270
G1 X190.052 Y100.657 E0.9925
G1 X189.891 Y100.832 E0.9985
G1 X187.954 Y102.615 E1.0640
G1 X187.766 Y102.761 E1.0699
G1 X185.562 Y104.201 E1.1354
G1 X185.353 Y104.314 E1.1413
G1 X182.942 Y105.371 E1.2068
G1 X182.717 Y105.449 E1.2127
G1 X180.165 Y106.095 E1.2782
G1 X179.931 Y106.134 E1.2842
G1 X177.366 Y106.347 E1.3482
G1 X177.248 Y106.352 E1.3511
G1 X161.661 Y106.352 E1.7390
G1 X161.631 Y106.322 E1.7400
G1 X138.073 Y106.322 E2.3262
G1 X138.043 Y106.352 E2.3273
G1 X122.456 Y106.352 E2.7151
G1 X122.337 Y106.347 E2.7181
G1 X119.773 Y106.134 E2.7821
G1 X119.538 Y106.095 E2.7880
G1 X116.986 Y105.449 E2.8535
G1 X116.761 Y105.371 E2.8595
G1 X114.350 Y104.314 E2.9250
G1 X114.141 Y104.201 E2.9309
G1 X111.937 Y102.761 E2.9964
G1 X111.749 Y102.615 E3.0023
G1 X109.812 Y100.832 E3.0678
G1 X109.651 Y100.657 E3.0737
G1 X108.034 Y98.579 E3.1392
G1 X107.904 Y98.380 E3.1452
G1 X106.651 Y96.065 E3.2107
G1 X106.556 Y95.847 E3.2166
G1 X105.701 Y93.357 E3.2821
G1 X105.643 Y93.127 E3.2880
G1 X105.209 Y90.530 E3.3535
G1 X105.190 Y90.293 E3.3594
G1 X105.190 Y87.660 E3.4249
G1 X105.209 Y87.423 E3.4309
G1 X105.643 Y84.826 E3.4964
G1 X105.701 Y84.596 E3.5023
G1 X106.556 Y82.106 E3.5678
G1 X106.651 Y81.888 E3.5737
G1 X107.904 Y79.573 E3.6392
G1 X108.034 Y79.374 E3.6451
G1 X109.651 Y77.296 E3.7106
G1 X109.812 Y77.121 E3.7166
G1 X111.749 Y75.338 E3.7821
G1 X111.937 Y75.192 E3.7880
G1 X114.141 Y73.752 E3.8535
G1 X114.350 Y73.639 E3.8594
G1 X116.761 Y72.582 E3.9249
G1 X116.986 Y72.504 E3.9308
G1 X119.538 Y71.858 E3.9963
G1 X119.773 Y71.819 E4.0023
G1 X122.337 Y71.606 E4.0663
G1 X122.456 Y71.602 E4.0692
G1 X177.248 Y71.602 E5.4326
G1 X177.366 Y71.606 E5.4356
G92 E0.0000
G1 E-4.0000 F3000
G1 Z0.480 F1002
G1 X177.181 Y74.652 F6000
G1 X171.888 Y74.652
G1 X168.776 Y76.382
G1 X122.294 Y76.382
G1 X120.114 Y76.572
G1 X117.994 Y77.140
G1 X116.004 Y78.068
G1 X114.205 Y79.328
G1 X112.673 Y80.860
G1 X111.394 Y82.679
G1 X110.466 Y84.669
G1 X109.897 Y86.789
G1 X109.706 Y88.977
G1 X109.897 Y91.164
G1 X110.466 Y93.284
G1 X111.394 Y95.274
G1 X112.653 Y97.073
G1 X114.205 Y98.625
G1 X116.004 Y99.885
G1 X117.994 Y100.813
G1 X120.114 Y101.381
G1 X122.294 Y101.572
G1 X123.457 Y101.572
G1 X120.627 Y103.145
G1 X120.157 Y103.106
G1 X117.864 Y102.525
G1 X117.086 Y105.113
G1 Z0.180 F1002
G1 E0.0000 F3000
G92 E0.0000
G1 X116.888 Y105.045 E0.0052 F630
G1 X114.504 Y103.999 E0.0700
G1 X114.320 Y103.900 E0.0752
G1 X112.141 Y102.476 E0.1400
G1 X111.976 Y102.347 E0.1452
G1 X110.060 Y100.584 E0.2100
G1 X109.919 Y100.430 E0.2151
G1 X108.320 Y98.376 E0.2799
G1 X108.205 Y98.201 E0.2851
G1 X106.966 Y95.911 E0.3499
G1 X106.882 Y95.720 E0.3551
G1 X106.037 Y93.257 E0.4199
G1 X105.985 Y93.055 E0.4251
G1 X105.557 Y90.487 E0.4899
G1 X105.540 Y90.278 E0.4951
G1 X105.540 Y87.675 E0.5599
G1 X105.557 Y87.467 E0.5651
G1 X105.985 Y84.898 E0.6299
G1 X106.037 Y84.696 E0.6351
G1 X106.882 Y82.233 E0.6998
G1 X106.966 Y82.042 E0.7050
G1 X108.205 Y79.752 E0.7698
G1 X108.320 Y79.577 E0.7750
G1 X109.919 Y77.523 E0.8398
G1 X110.060 Y77.369 E0.8450
G1 X111.976 Y75.606 E0.9098
G1 X112.141 Y75.477 E0.9150
G1 X114.320 Y74.053 E0.9798
G1 X114.504 Y73.954 E0.9850
G1 X116.888 Y72.908 E1.0498
G1 X117.086 Y72.840 E1.0550
G1 X119.610 Y72.201 E1.1197
G1 X119.816 Y72.167 E1.1249
G1 X122.359 Y71.956 E1.1884
G1 X122.463 Y71.951 E1.1910
G1 X177.240 Y71.951 E2.5540
G1 X177.345 Y71.956 E2.5566
G1 X179.887 Y72.167 E2.6201
G1 X180.093 Y72.201 E2.6253
G1 X182.617 Y72.840 E2.6901
G1 X182.815 Y72.908 E2.6953
G1 X185.199 Y73.954 E2.7601
G1 X185.383 Y74.053 E2.7653
G1 X187.563 Y75.477 E2.8301
G1 X187.728 Y75.606 E2.8353
G1 X189.643 Y77.369 E2.9001
G1 X189.785 Y77.523 E2.9052
G1 X191.384 Y79.577 E2.9700
G1 X191.498 Y79.752 E2.9752
G1 X192.737 Y82.042 E3.0400
G1 X192.821 Y82.233 E3.0452
G1 X193.667 Y84.696 E3.1100
G1 X193.718 Y84.898 E3.1152
G1 X194.146 Y87.467 E3.1800
G1 X194.164 Y87.675 E3.1852
G1 X194.164 Y90.278 E3.2500
G1 X194.146 Y90.487 E3.2552
G1 X193.718 Y93.055 E3.3200
G1 X193.667 Y93.257 E3.3252
G1 X192.821 Y95.720 E3.3899
G1 X192.737 Y95.911 E3.3951
G1 X191.498 Y98.201 E3.4599
G1 X191.384 Y98.376 E3.4651
G1 X189.785 Y100.430 E3.5299
G1 X189.643 Y100.584 E3.5351
G1 X187.728 Y102.347 E3.5999
G1 X187.563 Y102.476 E3.6051
G1 X185.383 Y103.900 E3.6699
G1 X185.199 Y103.999 E3.6751
G1 X182.815 Y105.045 E3.7399
G1 X182.617 Y105.113 E3.7451
G1 X180.093 Y105.752 E3.8098
G1 X179.887 Y105.787 E3.8150
G1 X177.345 Y105.997 E3.8785
G1 X177.240 Y106.002 E3.8811
G1 X161.806 Y106.002 E4.2652
G1 X161.776 Y105.972 E4.2662
G1 X137.928 Y105.972 E4.8596
G1 X137.898 Y106.002 E4.8607
G1 X122.463 Y106.002 E5.2448
G1 X122.359 Y105.997 E5.2474
G1 X119.816 Y105.787 E5.3108
G1 X119.610 Y105.752 E5.3160
G1 X117.086 Y105.113 E5.3808
G92 E0.0000
G1 E-4.0000 F3000
G1 Z0.480 F1002
G1 X117.864 Y102.525 F6000
G1 X120.157 Y103.106
G1 X122.522 Y103.302
G1 X123.884 Y103.302
G1 X130.376 Y101.572
G1 X122.294 Y101.572
G1 X120.114 Y101.381
G1 X117.994 Y100.813
G1 X116.004 Y99.885
G1 X114.205 Y98.625
G1 X112.653 Y97.073
G1 X111.394 Y95.274
G1 X110.466 Y93.284
G1 X109.897 Y91.164
G1 X109.706 Y88.977
G1 X109.897 Y86.789
G1 X110.466 Y84.669
G1 X111.394 Y82.679
G1 X112.673 Y80.860
G1 X114.205 Y79.328
G1 X116.004 Y78.068
G1 X117.994 Y77.140
G1 X120.114 Y76.572
G1 X122.294 Y76.382
G1 X177.409 Y76.382
G1 X179.589 Y76.572
G1 X181.710 Y77.140
G1 X183.700 Y78.068
G1 X185.498 Y79.328
G1 X187.050 Y80.880
G1 X188.310 Y82.679
G1 X189.238 Y84.669
G1 X189.542 Y85.805
G1 X191.054 Y85.402
G1 X191.074 Y85.460
