; G-Code generated by Simplify3D(R) Version 4.1.2
; Aug 21, 2020 at 10:43:02 PM
; Settings Summary
;   processName,Process1
;   applyToModels,PiNoirCamCaseHolder-Support_New2(2)
;   profileName,A04-04-15s Tevo Tornado
;   profileVersion,2020-04-29 16:00:54
;   baseProfile,Creality CR-10(2)
;   printMaterial,PLA
;   printQuality,Medium
;   printExtruders,
;   extruderName,Primary Extruder
;   extruderToolheadNumber,0
;   extruderDiameter,0.4
;   extruderAutoWidth,0
;   extruderWidth,0.35
;   extrusionMultiplier,0.95
;   extruderUseRetract,1
;   extruderRetractionDistance,4
;   extruderExtraRestartDistance,0
;   extruderRetractionZLift,0.3
;   extruderRetractionSpeed,3000
;   extruderUseCoasting,1
;   extruderCoastingDistance,0.8
;   extruderUseWipe,0
;   extruderWipeDistance,4
;   primaryExtruder,0
;   layerHeight,0.15
;   topSolidLayers,4
;   bottomSolidLayers,3
;   perimeterOutlines,3
;   printPerimetersInsideOut,0
;   startPointOption,1
;   startPointOriginX,0
;   startPointOriginY,300
;   sequentialIslands,0
;   spiralVaseMode,0
;   firstLayerHeightPercentage,120
;   firstLayerWidthPercentage,100
;   firstLayerUnderspeed,0.35
;   useRaft,0
;   raftExtruder,0
;   raftTopLayers,3
;   raftBaseLayers,2
;   raftOffset,3
;   raftSeparationDistance,0.14
;   raftTopInfill,100
;   aboveRaftSpeedMultiplier,0.3
;   useSkirt,1
;   skirtExtruder,0
;   skirtLayers,1
;   skirtOutlines,3
;   skirtOffset,2
;   usePrimePillar,0
;   primePillarExtruder,999
;   primePillarWidth,12
;   primePillarLocation,7
;   primePillarSpeedMultiplier,1
;   useOozeShield,0
;   oozeShieldExtruder,999
;   oozeShieldOffset,2
;   oozeShieldOutlines,1
;   oozeShieldSidewallShape,1
;   oozeShieldSidewallAngle,30
;   oozeShieldSpeedMultiplier,1
;   infillExtruder,0
;   internalInfillPattern,Rectilinear
;   externalInfillPattern,Rectilinear
;   infillPercentage,15
;   outlineOverlapPercentage,15
;   infillExtrusionWidthPercentage,100
;   minInfillLength,5
;   infillLayerInterval,1
;   internalInfillAngles,45,-45
;   overlapInternalInfillAngles,0
;   externalInfillAngles,45,-45
;   generateSupport,1
;   supportExtruder,0
;   supportInfillPercentage,30
;   supportExtraInflation,0
;   supportBaseLayers,0
;   denseSupportExtruder,0
;   denseSupportLayers,0
;   denseSupportInfillPercentage,70
;   supportLayerInterval,1
;   supportHorizontalPartOffset,0.4
;   supportUpperSeparationLayers,1
;   supportLowerSeparationLayers,1
;   supportType,0
;   supportGridSpacing,4.5
;   maxOverhangAngle,45
;   supportAngles,0
;   temperatureName,Primary Extruder,Heated Bed
;   temperatureNumber,0,0
;   temperatureSetpointCount,1,1
;   temperatureSetpointLayers,1,1
;   temperatureSetpointTemperatures,215,55
;   temperatureStabilizeAtStartup,1,1
;   temperatureHeatedBed,0,1
;   fanLayers,1,2
;   fanSpeeds,0,100
;   blipFanToFullPower,0
;   adjustSpeedForCooling,1
;   minSpeedLayerTime,15
;   minCoolingSpeedSlowdown,50
;   increaseFanForCooling,1
;   minFanLayerTime,25
;   maxCoolingFanSpeed,100
;   increaseFanForBridging,1
;   bridgingFanSpeed,100
;   use5D,1
;   relativeEdistances,0
;   allowEaxisZeroing,1
;   independentExtruderAxes,0
;   includeM10123,0
;   stickySupport,1
;   applyToolheadOffsets,0
;   gcodeXoffset,0
;   gcodeYoffset,0
;   gcodeZoffset,0
;   overrideMachineDefinition,1
;   machineTypeOverride,0
;   strokeXoverride,300
;   strokeYoverride,300
;   strokeZoverride,400
;   originOffsetXoverride,0
;   originOffsetYoverride,0
;   originOffsetZoverride,0
;   homeXdirOverride,-1
;   homeYdirOverride,-1
;   homeZdirOverride,-1
;   flipXoverride,1
;   flipYoverride,-1
;   flipZoverride,1
;   toolheadOffsets,0,0|0,0|0,0|0,0|0,0|0,0
;   overrideFirmwareConfiguration,1
;   firmwareTypeOverride,RepRap (Marlin/Repetier/Sprinter)
;   GPXconfigOverride,r2
;   baudRateOverride,250000
;   overridePrinterModels,1
;   printerModelsOverride
;   startingGcode,;,; -]H.P.B[- MarshMalloW  ,; $VER: StartScript 1.02 (26.12.2019) MarshMalloW,;,; Begin Startcode,;,M117 *Preheat*     	; Preheat,;extruder0_temperature,M104 S[extruder0_temperature]  ,M109 S[extruder0_temperature] ,M109 R[extruder0_temperature] ,;,M117 *Auto-leveling*     	; Auto-leveling,M107                   	; Turn layer fan off,G21                    	; Set to metric [change to G20 if you want Imperial],G90                    	; Force coordinates to be absolute relative to the origin,G28                    	; Home X/Y/Z axis,G29                    	; Auto-leveling (BL-Touch),;,M117 *Start Clean*     	; Indicate nozzle clean in progress on LCD,G92 E0                 	; Set Extruder to 0 ,G1 X0 Y0 F2000         	; Move X and Y to 0 with speed 2000 (mm/min),G1 Z0.1 F1000          	; Move Z to   0.1 with speed 1000 (mm/min),G1 X8.0 F2000          	; Move X to   8.0 with speed 2000 (mm/min),G1 Y60.0 E4.0 F1000.0  	; Move Y to  60 and Extruder with 4.0 with speed 1000 (mm/min),G1 Y100.0 E8.5 F1000.0 	; Move Y to 100 and Extruder with 8.5 with speed 1000 (mm/min),G92 E0                 	; Set extruder to 0,G1 X16.0 F3000         	; Move X to 16.0 with speed 3000 (mm/min),G1 Y60.0 F3000         	; Move Y to 60.0 with speed 3000 (mm/min),M117 *End Clean*       	; Indicate nozzle clean in progress on LCD,G1 Z5 F3000            	; Move Z to  5.0 with speed 3000 (mm/min),G1 X20.0 F3000         	; Move X to 20.0 with speed 3000 (mm/min),G1 Y20.0 F3000         	; Move Y to 20.0 with speed 3000 (mm/min),; ,M117 *Printing...*     	; Start printing msg on LCD,;,; End Startcode,;,; Begin printing with sliced GCode after here,;
;   layerChangeGcode,
;   retractionGcode,
;   toolChangeGcode,
;   endingGcode,;,; init 181010,;,;M107 			; Fan off,;G1 E-1 F300 			; Retract the filament a bit before lifting the nozzle,;M104 S0 			; Turn off extruder,;M140 S0 			; Turn off bed,;G91			; Relative positioning,;G28 X0 Y0 			; Move X/Y to min endstops so the head is out of teh way,;M84 			; Disable motors,;G90 			; Absolute positioning,;M117 Print ready...,,;,; // From Cura 181010,; // End_gcode,G92 E0			; Zero the extruded length,;G1 E-30 F300		; Retract E -30,M106 S0			; Turn off cooling fan,M104 S0			; Turn off temperature,M140 S0		     	; Turn off bed,G91			; Relative positioning,G1 E-1 F300			; Retract the filament a bit before lifting the nozzle to release some of the pressure,G1 Z+20 E-5 X-20 Y-20 F7200	; Move Z up a bit and retract filament even more,G1 X0 Y150 F10000		; Move right min,M107			; Turn off layer fan,M84			; Disable motors,G90			; Absolute positioning,M117 *The-End* 		; End msg,;,
;   exportFileFormat,gcode
;   celebration,0
;   celebrationSong,Star Wars
;   postProcessing,|{REPLACE "; layer " "M117 INDICATOR-Layer"}|{REPLACE ", Z = " "\n; Z="}
;   defaultSpeed,1800
;   outlineUnderspeed,0.5
;   solidInfillUnderspeed,0.8
;   supportUnderspeed,0.8
;   rapidXYspeed,6000
;   rapidZspeed,1002
;   minBridgingArea,50
;   bridgingExtraInflation,0.2
;   bridgingExtrusionMultiplier,1
;   bridgingSpeedMultiplier,0.6
;   useFixedBridgingAngle,0
;   fixedBridgingAngle,0
;   applyBridgingToPerimeters,0
;   filamentDiameters,1.75|1.75|1.75|1.75|1.75|1.75
;   filamentPricesPerKg,30|46|46|46|46|46
;   filamentDensities,1.25|1.25|1.25|1.25|1.25|1.25
;   useMinPrintHeight,0
;   minPrintHeight,0
;   useMaxPrintHeight,0
;   maxPrintHeight,9
;   useDiaphragm,0
;   diaphragmLayerInterval,20
;   robustSlicing,1
;   mergeAllIntoSolid,0
;   onlyRetractWhenCrossingOutline,1
;   retractBetweenLayers,0
;   useRetractionMinTravel,0
;   retractionMinTravel,3
;   retractWhileWiping,0
;   onlyWipeOutlines,1
;   avoidCrossingOutline,1
;   maxMovementDetourFactor,3
;   toolChangeRetractionDistance,12
;   toolChangeExtraRestartDistance,-0.5
;   toolChangeRetractionSpeed,600
;   externalThinWallType,1
;   internalThinWallType,1
;   thinWallAllowedOverlapPercentage,10
;   singleExtrusionMinLength,1
;   singleExtrusionMinPrintingWidthPercentage,50
;   singleExtrusionMaxPrintingWidthPercentage,200
;   singleExtrusionEndpointExtension,0.2
;   horizontalSizeCompensation,0
G90
M82
M106 S0
M140 S55
M190 S55
;
; -]H.P.B[- MarshMalloW  
; $VER: StartScript 1.02 (26.12.2019) MarshMalloW
;
; Begin Startcode
;
M117 *Preheat*     	; Preheat
;extruder0_temperature
M104 S215  
M109 S215 
M109 R215 
;
M117 *Auto-leveling*     	; Auto-leveling
M107                   	; Turn layer fan off
G21                    	; Set to metric [change to G20 if you want Imperial]
G90                    	; Force coordinates to be absolute relative to the origin
G28                    	; Home X/Y/Z axis
G29                    	; Auto-leveling (BL-Touch)
;
M117 *Start Clean*     	; Indicate nozzle clean in progress on LCD
G92 E0                 	; Set Extruder to 0 
G1 X0 Y0 F2000         	; Move X and Y to 0 with speed 2000 (mm/min)
G1 Z0.1 F1000          	; Move Z to   0.1 with speed 1000 (mm/min)
G1 X8.0 F2000          	; Move X to   8.0 with speed 2000 (mm/min)
G1 Y60.0 E4.0 F1000.0  	; Move Y to  60 and Extruder with 4.0 with speed 1000 (mm/min)
G1 Y100.0 E8.5 F1000.0 	; Move Y to 100 and Extruder with 8.5 with speed 1000 (mm/min)
G92 E0                 	; Set extruder to 0
G1 X16.0 F3000         	; Move X to 16.0 with speed 3000 (mm/min)
G1 Y60.0 F3000         	; Move Y to 60.0 with speed 3000 (mm/min)
M117 *End Clean*       	; Indicate nozzle clean in progress on LCD
G1 Z5 F3000            	; Move Z to  5.0 with speed 3000 (mm/min)
G1 X20.0 F3000         	; Move X to 20.0 with speed 3000 (mm/min)
G1 Y20.0 F3000         	; Move Y to 20.0 with speed 3000 (mm/min)
; 
M117 *Printing...*     	; Start printing msg on LCD
;
; End Startcode
;
; Begin printing with sliced GCode after here
;
; process Process1
M117 INDICATOR-Layer1
; Z=0.180
T0
G92 E0.0000
G1 E-4.0000 F3000
; feature skirt
; tool H0.180 W0.350
G1 Z0.300 F1002
G1 X156.999 Y65.074 F6000
G1 Z0.180 F1002
G1 E0.0000 F3000
G92 E0.0000
G1 X158.948 Y65.264 E0.0487 F630
G1 X159.223 Y65.319 E0.0557
G1 X161.166 Y65.904 E0.1062
G1 X161.425 Y66.010 E0.1132
G1 X163.238 Y66.971 E0.1642
G1 X163.474 Y67.127 E0.1713
G1 X165.064 Y68.425 E0.2223
G1 X165.265 Y68.625 E0.2294
G1 X166.571 Y70.209 E0.2805
G1 X166.729 Y70.445 E0.2875
G1 X167.700 Y72.254 E0.3386
G1 X167.809 Y72.515 E0.3457
G1 X168.407 Y74.479 E0.3968
G1 X168.462 Y74.757 E0.4038
G1 X168.657 Y76.730 E0.4531
G1 X168.664 Y76.871 E0.4567
G1 X168.664 Y107.012 E1.2066
G1 X168.657 Y107.152 E1.2101
G1 X168.467 Y109.101 E1.2589
G1 X168.412 Y109.376 E1.2658
G1 X167.827 Y111.319 E1.3163
G1 X167.721 Y111.578 E1.3233
G1 X166.760 Y113.391 E1.3743
G1 X166.604 Y113.627 E1.3814
G1 X165.306 Y115.218 E1.4325
G1 X165.106 Y115.418 E1.4395
G1 X163.522 Y116.724 E1.4906
G1 X163.287 Y116.882 E1.4977
G1 X161.478 Y117.853 E1.5487
G1 X161.216 Y117.962 E1.5558
G1 X159.252 Y118.560 E1.6069
G1 X158.974 Y118.615 E1.6139
G1 X157.001 Y118.810 E1.6633
G1 X156.860 Y118.817 E1.6668
G1 X114.719 Y118.817 E2.7154
G1 X114.579 Y118.810 E2.7188
G1 X112.630 Y118.620 E2.7676
G1 X112.355 Y118.565 E2.7746
G1 X110.412 Y117.981 E2.8250
G1 X110.153 Y117.874 E2.8320
G1 X108.340 Y116.913 E2.8830
G1 X108.104 Y116.757 E2.8901
G1 X106.513 Y115.459 E2.9412
G1 X106.313 Y115.259 E2.9482
G1 X105.007 Y113.675 E2.9993
G1 X104.849 Y113.440 E3.0064
G1 X103.878 Y111.631 E3.0575
G1 X103.769 Y111.369 E3.0645
G1 X103.171 Y109.405 E3.1156
G1 X103.116 Y109.127 E3.1226
G1 X102.921 Y107.154 E3.1720
G1 X102.914 Y107.013 E3.1755
G1 X102.914 Y76.872 E3.9255
G1 X102.921 Y76.732 E3.9290
G1 X103.111 Y74.783 E3.9777
G1 X103.166 Y74.508 E3.9847
G1 X103.750 Y72.565 E4.0351
G1 X103.857 Y72.306 E4.0421
G1 X104.818 Y70.493 E4.0932
G1 X104.974 Y70.257 E4.1002
G1 X106.272 Y68.667 E4.1513
G1 X106.472 Y68.466 E4.1584
G1 X108.056 Y67.160 E4.2094
G1 X108.291 Y67.002 E4.2165
G1 X110.100 Y66.031 E4.2676
G1 X110.362 Y65.922 E4.2746
G1 X112.326 Y65.324 E4.3257
G1 X112.604 Y65.269 E4.3328
G1 X114.577 Y65.074 E4.3821
G1 X114.718 Y65.067 E4.3856
G1 X156.859 Y65.067 E5.4342
G1 X156.999 Y65.074 E5.4377
G92 E0.0000
G1 E-4.0000 F3000
G1 Z0.480 F1002
G1 X156.780 Y68.117 F6000
G1 X154.291 Y68.117
G1 X148.175 Y74.991
G1 X148.147 Y74.913
G1 X147.590 Y74.027
G1 X146.850 Y73.286
G1 X145.963 Y72.729
G1 X144.975 Y72.383
G1 X143.944 Y72.267
G1 X129.240 Y72.267
G1 X128.209 Y72.383
G1 X127.221 Y72.729
G1 X126.334 Y73.286
G1 X125.594 Y74.027
G1 X125.037 Y74.913
G1 X124.691 Y75.902
G1 X124.575 Y76.932
G1 X124.575 Y101.515
G1 X112.263 Y115.353
G1 X111.442 Y115.105
G1 X110.302 Y117.557
G1 Z0.180 F1002
G1 E0.0000 F3000
G92 E0.0000
G1 X108.519 Y116.612 E0.0502 F630
G1 X108.312 Y116.475 E0.0564
G1 X106.748 Y115.199 E0.1066
G1 X106.572 Y115.023 E0.1128
G1 X105.288 Y113.466 E0.1630
G1 X105.149 Y113.259 E0.1692
G1 X104.195 Y111.480 E0.2194
G1 X104.099 Y111.251 E0.2256
G1 X103.511 Y109.319 E0.2759
G1 X103.462 Y109.075 E0.2821
G1 X103.270 Y107.129 E0.3307
G1 X103.264 Y107.004 E0.3338
G1 X103.264 Y76.881 E1.0834
G1 X103.270 Y76.758 E1.0865
G1 X103.458 Y74.834 E1.1346
G1 X103.506 Y74.592 E1.1407
G1 X104.081 Y72.683 E1.1903
G1 X104.174 Y72.455 E1.1964
G1 X105.119 Y70.673 E1.2466
G1 X105.256 Y70.465 E1.2528
G1 X106.532 Y68.901 E1.3030
G1 X106.708 Y68.725 E1.3092
G1 X108.265 Y67.441 E1.3595
G1 X108.472 Y67.302 E1.3657
G1 X110.251 Y66.348 E1.4159
G1 X110.480 Y66.252 E1.4221
G1 X112.412 Y65.664 E1.4723
G1 X112.656 Y65.616 E1.4785
G1 X114.603 Y65.423 E1.5272
G1 X114.727 Y65.417 E1.5303
G1 X156.850 Y65.417 E2.5784
G1 X156.973 Y65.423 E2.5815
G1 X158.897 Y65.611 E2.6296
G1 X159.139 Y65.659 E2.6357
G1 X161.048 Y66.234 E2.6853
G1 X161.276 Y66.327 E2.6915
G1 X163.058 Y67.272 E2.7417
G1 X163.266 Y67.410 E2.7478
G1 X164.830 Y68.686 E2.7981
G1 X165.006 Y68.861 E2.8043
G1 X166.290 Y70.418 E2.8545
G1 X166.429 Y70.625 E2.8607
G1 X167.383 Y72.404 E2.9109
G1 X167.479 Y72.634 E2.9171
G1 X168.067 Y74.565 E2.9673
G1 X168.115 Y74.809 E2.9735
G1 X168.308 Y76.756 E3.0222
G1 X168.314 Y76.880 E3.0253
G1 X168.314 Y107.004 E3.7749
G1 X168.308 Y107.127 E3.7779
G1 X168.120 Y109.050 E3.8260
G1 X168.072 Y109.292 E3.8321
G1 X167.497 Y111.202 E3.8818
G1 X167.404 Y111.429 E3.8879
G1 X166.459 Y113.212 E3.9381
G1 X166.321 Y113.419 E3.9443
G1 X165.046 Y114.983 E3.9945
G1 X164.870 Y115.159 E4.0007
G1 X163.313 Y116.443 E4.0509
G1 X163.106 Y116.582 E4.0571
G1 X161.327 Y117.537 E4.1073
G1 X161.097 Y117.632 E4.1135
G1 X159.166 Y118.220 E4.1638
G1 X158.922 Y118.269 E4.1700
G1 X156.975 Y118.461 E4.2186
G1 X156.851 Y118.467 E4.2217
G1 X114.727 Y118.467 E5.2699
G1 X114.604 Y118.461 E5.2729
G1 X112.681 Y118.273 E5.3210
G1 X112.439 Y118.225 E5.3272
G1 X110.529 Y117.650 E5.3768
G1 X110.302 Y117.557 E5.3829
G92 E0.0000
G1 E-4.0000 F3000
G1 Z0.480 F1002
G1 X111.442 Y115.105 F6000
G1 X112.968 Y115.565
G1 X124.575 Y106.892
G1 X124.575 Y106.952
G1 X124.689 Y107.964
G1 X125.037 Y108.971
G1 X125.594 Y109.858
G1 X126.334 Y110.598
G1 X127.221 Y111.155
G1 X128.209 Y111.501
G1 X129.240 Y111.617
G1 X143.944 Y111.617
G1 X144.975 Y111.501
G1 X145.963 Y111.155
G1 X146.850 Y110.598
G1 X147.590 Y109.858
G1 X148.147 Y108.971
G1 X148.493 Y107.982
G1 X148.765 Y105.374
G1 X149.222 Y103.865
G1 X149.965 Y102.475
G1 X150.965 Y101.256
G1 X152.184 Y100.256
G1 X153.574 Y99.513
G1 X155.082 Y99.056
G1 X156.670 Y98.899
G1 X158.032 Y98.746
G1 X159.343 Y98.287
G1 X160.519 Y97.548
G1 X161.501 Y96.566
G1 X162.240 Y95.389
G1 X162.699 Y94.078
G1 X162.854 Y92.708
G1 X162.854 Y91.177
G1 X162.699 Y89.806
G1 X162.240 Y88.495
G1 X161.501 Y87.319
G1 X160.519 Y86.336
G1 X159.343 Y85.597
G1 X158.032 Y85.138
G1 X156.670 Y84.985
G1 X155.082 Y84.829
G1 X154.387 Y84.618
G1 X165.548 Y76.279
G1 X165.442 Y75.215
G1 X167.727 Y74.650
G1 Z0.180 F1002
G1 E0.0000 F3000
G92 E0.0000
G1 X167.769 Y74.860 E0.0053 F630
G1 X167.959 Y76.782 E0.0534
G1 X167.964 Y76.889 E0.0560
G1 X167.964 Y106.995 E0.8052
G1 X167.959 Y107.101 E0.8078
G1 X167.773 Y108.999 E0.8553
G1 X167.732 Y109.207 E0.8605
G1 X167.167 Y111.084 E0.9093
G1 X167.086 Y111.281 E0.9146
G1 X166.158 Y113.032 E0.9639
G1 X166.039 Y113.211 E0.9693
G1 X164.785 Y114.748 E1.0186
G1 X164.634 Y114.900 E1.0240
G1 X163.103 Y116.162 E1.0733
G1 X162.925 Y116.282 E1.0787
G1 X161.177 Y117.220 E1.1280
G1 X160.979 Y117.302 E1.1334
G1 X159.081 Y117.880 E1.1827
