; G-Code generated by Simplify3D(R) Version 4.1.2
;
;
;
;
; Mar 5, 2023 at 11:19:52 PM
; Settings Summary
;   processName,PLA B01
;   applyToModels,PiNoirCamCaseHolder-Head_Back_New4
;   profileName,PLA_B02_04_25_OS180_05 Tevo Tornado
;   profileVersion,2023-02-13 18:40:51
;   baseProfile,Creality CR-10(2)
;   printMaterial,PLA
;   printQuality,High
;   printExtruders,
;   extruderName,Primary Extruder
;   extruderToolheadNumber,0
;   extruderDiameter,0.4
;   extruderAutoWidth,0
;   extruderWidth,0.35
;   extrusionMultiplier,0.95
;   extruderUseRetract,1
;   extruderRetractionDistance,4
;   extruderExtraRestartDistance,0
;   extruderRetractionZLift,0.3
;   extruderRetractionSpeed,3000
;   extruderUseCoasting,1
;   extruderCoastingDistance,0.2
;   extruderUseWipe,0
;   extruderWipeDistance,5
;   primaryExtruder,0
;   layerHeight,0.12
;   topSolidLayers,6
;   bottomSolidLayers,6
;   perimeterOutlines,4
;   printPerimetersInsideOut,1
;   startPointOption,2
;   startPointOriginX,0
;   startPointOriginY,300
;   sequentialIslands,0
;   spiralVaseMode,0
;   firstLayerHeightPercentage,120
;   firstLayerWidthPercentage,100
;   firstLayerUnderspeed,0.25
;   useRaft,0
;   raftExtruder,0
;   raftTopLayers,3
;   raftBaseLayers,2
;   raftOffset,3
;   raftSeparationDistance,0.14
;   raftTopInfill,100
;   aboveRaftSpeedMultiplier,0.3
;   useSkirt,1
;   skirtExtruder,0
;   skirtLayers,2
;   skirtOutlines,2
;   skirtOffset,3
;   usePrimePillar,0
;   primePillarExtruder,999
;   primePillarWidth,12
;   primePillarLocation,7
;   primePillarSpeedMultiplier,1
;   useOozeShield,0
;   oozeShieldExtruder,999
;   oozeShieldOffset,2
;   oozeShieldOutlines,1
;   oozeShieldSidewallShape,1
;   oozeShieldSidewallAngle,30
;   oozeShieldSpeedMultiplier,1
;   infillExtruder,0
;   internalInfillPattern,Full Honeycomb
;   externalInfillPattern,Rectilinear
;   infillPercentage,25
;   outlineOverlapPercentage,15
;   infillExtrusionWidthPercentage,100
;   minInfillLength,5
;   infillLayerInterval,1
;   internalInfillAngles,0,120,-120
;   overlapInternalInfillAngles,0
;   externalInfillAngles,45,-45
;   generateSupport,0
;   supportExtruder,0
;   supportInfillPercentage,40
;   supportExtraInflation,0
;   supportBaseLayers,0
;   denseSupportExtruder,0
;   denseSupportLayers,0
;   denseSupportInfillPercentage,70
;   supportLayerInterval,1
;   supportHorizontalPartOffset,0.4
;   supportUpperSeparationLayers,1
;   supportLowerSeparationLayers,1
;   supportType,0
;   supportGridSpacing,4.5
;   maxOverhangAngle,45
;   supportAngles,0
;   temperatureName,Primary Extruder,Heated Bed
;   temperatureNumber,0,0
;   temperatureSetpointCount,2,2
;   temperatureSetpointLayers,1,2,1,2
;   temperatureSetpointTemperatures,185,180,10,5
;   temperatureStabilizeAtStartup,1,1
;   temperatureHeatedBed,0,1
;   fanLayers,1,2
;   fanSpeeds,0,100
;   blipFanToFullPower,0
;   adjustSpeedForCooling,1
;   minSpeedLayerTime,15
;   minCoolingSpeedSlowdown,20
;   increaseFanForCooling,1
;   minFanLayerTime,25
;   maxCoolingFanSpeed,100
;   increaseFanForBridging,1
;   bridgingFanSpeed,100
;   use5D,1
;   relativeEdistances,0
;   allowEaxisZeroing,1
;   independentExtruderAxes,0
;   includeM10123,0
;   stickySupport,1
;   applyToolheadOffsets,0
;   gcodeXoffset,0
;   gcodeYoffset,0
;   gcodeZoffset,0
;   overrideMachineDefinition,1
;   machineTypeOverride,0
;   strokeXoverride,300
;   strokeYoverride,300
;   strokeZoverride,400
;   originOffsetXoverride,0
;   originOffsetYoverride,0
;   originOffsetZoverride,0
;   homeXdirOverride,-1
;   homeYdirOverride,-1
;   homeZdirOverride,-1
;   flipXoverride,1
;   flipYoverride,-1
;   flipZoverride,1
;   toolheadOffsets,0,0|0,0|0,0|0,0|0,0|0,0
;   overrideFirmwareConfiguration,1
;   firmwareTypeOverride,RepRap (Marlin/Repetier/Sprinter)
;   GPXconfigOverride,r2
;   baudRateOverride,250000
;   overridePrinterModels,1
;   printerModelsOverride
;   startingGcode,;,; -]H.P.B[- MarshMalloW  ,; $VER: StartScript 1.03 (18.12.2022) MarshMalloW,;,; Begin Startcode,;,M117 *Preheat*	; Preheat,;extruder0_temperature,M104 S[extruder0_temperature],M109 S[extruder0_temperature],;M109 R[extruder0_temperature] ,;,M117 *Auto-leveling*     	; Auto-leveling,M107                   	; Turn layer fan off,G21                    	; Set to metric [change to G20 if you want Imperial],G90                    	; Force coordinates to be absolute relative to the origin,G28                    	; Home X/Y/Z axis,G29                    	; Auto-leveling (BL-Touch),;,M117 *Start Clean*     	; Indicate nozzle clean in progress on LCD,G92 E0                 	; Set Extruder to 0 ,G1 X0 Y0 F2000         	; Move X and Y to 0 with speed 2000 (mm/min),G1 Z0.1 F1000          	; Move Z to   0.1 with speed 1000 (mm/min),G1 X8.0 F2000          	; Move X to   8.0 with speed 2000 (mm/min),G1 Y60.0 E4.0 F1000.0  	; Move Y to  60 and Extruder with 4.0 with speed 1000 (mm/min),G1 Y100.0 E8.5 F1000.0 	; Move Y to 100 and Extruder with 8.5 with speed 1000 (mm/min),G92 E0                 	; Set extruder to 0,G1 X16.0 F3000         	; Move X to 16.0 with speed 3000 (mm/min),G1 Y60.0 F3000         	; Move Y to 60.0 with speed 3000 (mm/min),M117 *End Clean*       	; Indicate nozzle clean in progress on LCD,G1 Z5 F3000            	; Move Z to  5.0 with speed 3000 (mm/min),G1 X20.0 F3000         	; Move X to 20.0 with speed 3000 (mm/min),G1 Y20.0 F3000         	; Move Y to 20.0 with speed 3000 (mm/min),; ,M117 *Printing...*     	; Start printing msg on LCD,;,; End Startcode,;,; Begin printing with sliced GCode after here,;
;   layerChangeGcode,
;   retractionGcode,
;   toolChangeGcode,
;   endingGcode,;,; init 181010,;,;M107 			; Fan off,;G1 E-1 F300 			; Retract the filament a bit before lifting the nozzle,;M104 S0 			; Turn off extruder,;M140 S0 			; Turn off bed,;G91			; Relative positioning,;G28 X0 Y0 			; Move X/Y to min endstops so the head is out of teh way,;M84 			; Disable motors,;G90 			; Absolute positioning,;M117 Print ready...,,;,; // From Cura 181010,; // End_gcode,G92 E0			; Zero the extruded length,;G1 E-30 F300		; Retract E -30,M106 S0			; Turn off cooling fan,M104 S0			; Turn off temperature,M140 S0		     	; Turn off bed,G91			; Relative positioning,G1 E-1 F300			; Retract the filament a bit before lifting the nozzle to release some of the pressure,G1 Z+20 E-5 X-20 Y-20 F7200	; Move Z up a bit and retract filament even more,G1 X0 Y150 F10000		; Move right min,M107			; Turn off layer fan,M84			; Disable motors,G90			; Absolute positioning,M117 *The-End* 		; End msg,;,
;   exportFileFormat,gcode
;   celebration,0
;   celebrationSong,Star Wars
;   postProcessing,D:\S3D_Thumbs\S3D_Thumbs.exe f="[output_filepath]" x=600 y=110 w=953 lw=400 lh=300 sw=32 sh=32 d=Y
;   defaultSpeed,4200
;   outlineUnderspeed,0.5
;   solidInfillUnderspeed,0.8
;   supportUnderspeed,0.8
;   rapidXYspeed,6000
;   rapidZspeed,1002
;   minBridgingArea,50
;   bridgingExtraInflation,0.2
;   bridgingExtrusionMultiplier,1
;   bridgingSpeedMultiplier,0.8
;   useFixedBridgingAngle,0
;   fixedBridgingAngle,0
;   applyBridgingToPerimeters,0
;   filamentDiameters,1.75|1.75|1.75|1.75|1.75|1.75
;   filamentPricesPerKg,30|46|46|46|46|46
;   filamentDensities,1.25|1.25|1.25|1.25|1.25|1.25
;   useMinPrintHeight,0
;   minPrintHeight,0
;   useMaxPrintHeight,0
;   maxPrintHeight,50
;   useDiaphragm,0
;   diaphragmLayerInterval,20
;   robustSlicing,1
;   mergeAllIntoSolid,0
;   onlyRetractWhenCrossingOutline,1
;   retractBetweenLayers,1
;   useRetractionMinTravel,0
;   retractionMinTravel,3
;   retractWhileWiping,1
;   onlyWipeOutlines,1
;   avoidCrossingOutline,0
;   maxMovementDetourFactor,3
;   toolChangeRetractionDistance,12
;   toolChangeExtraRestartDistance,-0.5
;   toolChangeRetractionSpeed,600
;   externalThinWallType,1
;   internalThinWallType,1
;   thinWallAllowedOverlapPercentage,10
;   singleExtrusionMinLength,1
;   singleExtrusionMinPrintingWidthPercentage,50
;   singleExtrusionMaxPrintingWidthPercentage,200
;   singleExtrusionEndpointExtension,0.2
;   horizontalSizeCompensation,0
G90
M82
M106 S0
M140 S10
;
; -]H.P.B[- MarshMalloW  
; $VER: StartScript 1.03 (18.12.2022) MarshMalloW
;
; Begin Startcode
;
M117 *Preheat*	; Preheat
;extruder0_temperature
M104 S185
M109 S185
;M109 R185 
;
M117 *Auto-leveling*     	; Auto-leveling
M107                   	; Turn layer fan off
G21                    	; Set to metric [change to G20 if you want Imperial]
G90                    	; Force coordinates to be absolute relative to the origin
G28                    	; Home X/Y/Z axis
G29                    	; Auto-leveling (BL-Touch)
;
M117 *Start Clean*     	; Indicate nozzle clean in progress on LCD
G92 E0                 	; Set Extruder to 0 
G1 X0 Y0 F2000         	; Move X and Y to 0 with speed 2000 (mm/min)
G1 Z0.1 F1000          	; Move Z to   0.1 with speed 1000 (mm/min)
G1 X8.0 F2000          	; Move X to   8.0 with speed 2000 (mm/min)
G1 Y60.0 E4.0 F1000.0  	; Move Y to  60 and Extruder with 4.0 with speed 1000 (mm/min)
G1 Y100.0 E8.5 F1000.0 	; Move Y to 100 and Extruder with 8.5 with speed 1000 (mm/min)
G92 E0                 	; Set extruder to 0
G1 X16.0 F3000         	; Move X to 16.0 with speed 3000 (mm/min)
G1 Y60.0 F3000         	; Move Y to 60.0 with speed 3000 (mm/min)
M117 *End Clean*       	; Indicate nozzle clean in progress on LCD
G1 Z5 F3000            	; Move Z to  5.0 with speed 3000 (mm/min)
G1 X20.0 F3000         	; Move X to 20.0 with speed 3000 (mm/min)
G1 Y20.0 F3000         	; Move Y to 20.0 with speed 3000 (mm/min)
; 
M117 *Printing...*     	; Start printing msg on LCD
;
; End Startcode
;
; Begin printing with sliced GCode after here
;
; process PLA B01
; layer 1, Z = 0.144
T0
G92 E0.0000
G1 E-4.0000 F3000
; feature skirt
; tool H0.144 W0.350
G1 Z0.300 F1002
G1 X102.109 Y88.472 F6000
G1 Z0.144 F1002
G1 E0.0000 F3000
G92 E0.0000
G1 X102.847 Y87.677 E0.0216 F1050
G1 X102.909 Y87.614 E0.0234
G1 X103.686 Y86.856 E0.0450
G1 X103.750 Y86.797 E0.0467
G1 X104.564 Y86.079 E0.0683
G1 X104.631 Y86.022 E0.0701
G1 X105.479 Y85.345 E0.0917
G1 X105.549 Y85.292 E0.0934
G1 X106.430 Y84.659 E0.1150
G1 X106.503 Y84.609 E0.1168
G1 X107.415 Y84.021 E0.1384
G1 X107.490 Y83.975 E0.1401
G1 X108.429 Y83.432 E0.1617
G1 X108.506 Y83.390 E0.1635
G1 X109.472 Y82.895 E0.1851
G1 X109.551 Y82.857 E0.1868
G1 X110.540 Y82.411 E0.2084
G1 X110.621 Y82.377 E0.2102
G1 X111.631 Y81.980 E0.2318
G1 X111.714 Y81.950 E0.2335
G1 X112.743 Y81.605 E0.2551
G1 X112.827 Y81.579 E0.2569
G1 X113.871 Y81.285 E0.2785
G1 X113.956 Y81.263 E0.2802
G1 X115.014 Y81.022 E0.3018
G1 X115.101 Y81.004 E0.3036
G1 X116.169 Y80.816 E0.3252
G1 X116.256 Y80.803 E0.3269
G1 X117.333 Y80.668 E0.3485
G1 X117.420 Y80.659 E0.3503
G1 X118.502 Y80.578 E0.3719
G1 X118.590 Y80.573 E0.3736
G1 X119.653 Y80.547 E0.3948
G1 X119.697 Y80.546 E0.3956
G1 X174.741 Y80.546 E1.4914
G1 X174.785 Y80.547 E1.4922
G1 X175.848 Y80.573 E1.5134
G1 X175.935 Y80.578 E1.5151
G1 X177.017 Y80.659 E1.5367
G1 X177.105 Y80.668 E1.5385
G1 X178.182 Y80.803 E1.5601
G1 X178.268 Y80.816 E1.5618
G1 X179.337 Y81.004 E1.5834
G1 X179.423 Y81.022 E1.5852
G1 X180.481 Y81.263 E1.6068
G1 X180.566 Y81.285 E1.6085
G1 X181.611 Y81.579 E1.6301
G1 X181.695 Y81.605 E1.6319
G1 X182.724 Y81.950 E1.6535
G1 X182.806 Y81.980 E1.6552
G1 X183.816 Y82.377 E1.6768
G1 X183.897 Y82.411 E1.6786
G1 X184.886 Y82.857 E1.7002
G1 X184.965 Y82.895 E1.7019
G1 X185.931 Y83.390 E1.7235
G1 X186.008 Y83.432 E1.7253
G1 X186.948 Y83.975 E1.7469
G1 X187.023 Y84.021 E1.7486
G1 X187.935 Y84.609 E1.7702
G1 X188.007 Y84.659 E1.7720
G1 X188.888 Y85.292 E1.7936
G1 X188.958 Y85.345 E1.7953
G1 X189.807 Y86.022 E1.8169
G1 X189.874 Y86.078 E1.8187
G1 X190.688 Y86.796 E1.8403
G1 X190.752 Y86.856 E1.8420
G1 X191.529 Y87.614 E1.8637
G1 X191.590 Y87.677 E1.8654
G1 X192.328 Y88.472 E1.8870
G1 X192.386 Y88.538 E1.8888
G1 X193.084 Y89.369 E1.9104
G1 X193.139 Y89.438 E1.9121
G1 X193.794 Y90.303 E1.9337
G1 X193.845 Y90.375 E1.9355
G1 X194.457 Y91.271 E1.9571
G1 X194.504 Y91.345 E1.9588
G1 X195.070 Y92.271 E1.9804
G1 X195.114 Y92.347 E1.9822
G1 X195.633 Y93.300 E2.0038
G1 X195.673 Y93.378 E2.0055
G1 X196.144 Y94.356 E2.0271
G1 X196.180 Y94.436 E2.0289
G1 X196.602 Y95.436 E2.0505
G1 X196.634 Y95.518 E2.0522
G1 X197.005 Y96.537 E2.0738
G1 X197.033 Y96.621 E2.0756
G1 X197.353 Y97.658 E2.0972
G1 X197.376 Y97.742 E2.0989
G1 X197.644 Y98.794 E2.1205
G1 X197.664 Y98.879 E2.1223
G1 X197.879 Y99.943 E2.1439
G1 X197.894 Y100.030 E2.1456
G1 X198.056 Y101.103 E2.1672
G1 X198.067 Y101.190 E2.1690
G1 X198.175 Y102.270 E2.1906
G1 X198.181 Y102.357 E2.1923
G1 X198.235 Y103.441 E2.2139
G1 X198.238 Y103.529 E2.2157
G1 X198.238 Y104.614 E2.2373
G1 X198.235 Y104.702 E2.2390
G1 X198.181 Y105.786 E2.2606
G1 X198.175 Y105.873 E2.2624
G1 X198.067 Y106.953 E2.2840
G1 X198.056 Y107.040 E2.2857
G1 X197.894 Y108.113 E2.3073
G1 X197.879 Y108.200 E2.3091
G1 X197.664 Y109.263 E2.3307
G1 X197.644 Y109.349 E2.3324
G1 X197.376 Y110.401 E2.3540
G1 X197.353 Y110.485 E2.3558
G1 X197.033 Y111.522 E2.3774
G1 X197.005 Y111.606 E2.3791
G1 X196.634 Y112.625 E2.4007
G1 X196.602 Y112.707 E2.4025
G1 X196.180 Y113.707 E2.4241
G1 X196.144 Y113.787 E2.4258
G1 X195.673 Y114.765 E2.4474
G1 X195.633 Y114.843 E2.4492
G1 X195.114 Y115.796 E2.4708
G1 X195.070 Y115.872 E2.4725
G1 X194.504 Y116.798 E2.4941
G1 X194.457 Y116.872 E2.4959
G1 X193.845 Y117.768 E2.5175
G1 X193.794 Y117.840 E2.5192
G1 X193.139 Y118.705 E2.5408
G1 X193.084 Y118.773 E2.5426
G1 X192.386 Y119.605 E2.5642
G1 X192.328 Y119.671 E2.5659
G1 X191.590 Y120.466 E2.5875
G1 X191.529 Y120.529 E2.5893
G1 X190.752 Y121.287 E2.6109
G1 X190.688 Y121.346 E2.6126
G1 X189.874 Y122.064 E2.6342
G1 X189.807 Y122.121 E2.6360
G1 X188.958 Y122.797 E2.6576
G1 X188.888 Y122.851 E2.6593
G1 X188.007 Y123.484 E2.6809
G1 X187.935 Y123.533 E2.6827
G1 X187.023 Y124.122 E2.7043
G1 X186.948 Y124.168 E2.7060
G1 X186.008 Y124.711 E2.7276
G1 X185.931 Y124.753 E2.7294
G1 X184.965 Y125.248 E2.7510
G1 X184.886 Y125.286 E2.7527
G1 X183.897 Y125.732 E2.7743
G1 X183.816 Y125.766 E2.7761
G1 X182.806 Y126.163 E2.7977
G1 X182.724 Y126.193 E2.7994
G1 X181.695 Y126.538 E2.8210
G1 X181.611 Y126.564 E2.8228
G1 X180.566 Y126.858 E2.8444
G1 X180.481 Y126.880 E2.8461
G1 X179.423 Y127.121 E2.8677
G1 X179.337 Y127.139 E2.8695
G1 X178.268 Y127.327 E2.8911
G1 X178.182 Y127.340 E2.8928
G1 X177.105 Y127.475 E2.9144
G1 X177.017 Y127.484 E2.9162
G1 X175.935 Y127.565 E2.9378
G1 X175.848 Y127.569 E2.9395
G1 X174.785 Y127.596 E2.9607
G1 X174.741 Y127.596 E2.9616
G1 X119.697 Y127.596 E4.0573
G1 X119.653 Y127.596 E4.0581
G1 X118.590 Y127.569 E4.0793
G1 X118.502 Y127.565 E4.0811
G1 X117.420 Y127.484 E4.1027
G1 X117.333 Y127.475 E4.1044
G1 X116.256 Y127.340 E4.1260
G1 X116.169 Y127.327 E4.1278
G1 X115.101 Y127.139 E4.1494
G1 X115.014 Y127.121 E4.1511
G1 X113.956 Y126.880 E4.1727
G1 X113.871 Y126.858 E4.1745
G1 X112.827 Y126.564 E4.1961
G1 X112.743 Y126.538 E4.1978
G1 X111.714 Y126.193 E4.2194
G1 X111.631 Y126.163 E4.2212
G1 X110.621 Y125.766 E4.2428
G1 X110.540 Y125.732 E4.2445
G1 X109.551 Y125.286 E4.2661
G1 X109.472 Y125.248 E4.2679
G1 X108.506 Y124.753 E4.2895
G1 X108.429 Y124.711 E4.2912
G1 X107.490 Y124.168 E4.3128
G1 X107.415 Y124.122 E4.3146
G1 X106.503 Y123.534 E4.3362
G1 X106.430 Y123.484 E4.3379
G1 X105.549 Y122.851 E4.3595
G1 X105.479 Y122.797 E4.3613
G1 X104.631 Y122.121 E4.3829
G1 X104.564 Y122.064 E4.3846
G1 X103.750 Y121.346 E4.4062
G1 X103.686 Y121.287 E4.4080
G1 X102.909 Y120.529 E4.4296
G1 X102.847 Y120.466 E4.4313
G1 X102.109 Y119.671 E4.4529
G1 X102.051 Y119.605 E4.4547
G1 X101.354 Y118.773 E4.4763
G1 X101.299 Y118.705 E4.4780
G1 X100.644 Y117.840 E4.4996
G1 X100.592 Y117.768 E4.5014
G1 X99.981 Y116.872 E4.5230
G1 X99.933 Y116.798 E4.5247
G1 X99.368 Y115.872 E4.5463
G1 X99.324 Y115.796 E4.5481
G1 X98.805 Y114.843 E4.5697
G1 X98.765 Y114.765 E4.5714
G1 X98.294 Y113.787 E4.5930
G1 X98.258 Y113.707 E4.5948
G1 X97.836 Y112.707 E4.6164
G1 X97.804 Y112.625 E4.6181
G1 X97.433 Y111.606 E4.6397
G1 X97.405 Y111.522 E4.6415
G1 X97.085 Y110.485 E4.6631
G1 X97.061 Y110.401 E4.6648
