; G-Code generated by Simplify3D(R) Version 4.1.2
; Aug 11, 2020 at 8:59:07 PM
; Settings Summary
;   processName,Process1
;   applyToModels,PiNoirCamCaseHolder-Head_Front
;   profileName,A04-04-15 Tevo Tornado
;   profileVersion,2020-07-01 20:14:39
;   baseProfile,Creality CR-10(2)
;   printMaterial,PLA
;   printQuality,Medium
;   printExtruders,
;   extruderName,Primary Extruder
;   extruderToolheadNumber,0
;   extruderDiameter,0.4
;   extruderAutoWidth,0
;   extruderWidth,0.35
;   extrusionMultiplier,0.95
;   extruderUseRetract,1
;   extruderRetractionDistance,4
;   extruderExtraRestartDistance,0
;   extruderRetractionZLift,0.3
;   extruderRetractionSpeed,3000
;   extruderUseCoasting,1
;   extruderCoastingDistance,0.8
;   extruderUseWipe,0
;   extruderWipeDistance,4
;   primaryExtruder,0
;   layerHeight,0.15
;   topSolidLayers,4
;   bottomSolidLayers,3
;   perimeterOutlines,3
;   printPerimetersInsideOut,0
;   startPointOption,1
;   startPointOriginX,0
;   startPointOriginY,300
;   sequentialIslands,0
;   spiralVaseMode,0
;   firstLayerHeightPercentage,120
;   firstLayerWidthPercentage,100
;   firstLayerUnderspeed,0.5
;   useRaft,0
;   raftExtruder,0
;   raftTopLayers,3
;   raftBaseLayers,2
;   raftOffset,3
;   raftSeparationDistance,0.14
;   raftTopInfill,100
;   aboveRaftSpeedMultiplier,0.3
;   useSkirt,1
;   skirtExtruder,0
;   skirtLayers,1
;   skirtOutlines,3
;   skirtOffset,2
;   usePrimePillar,0
;   primePillarExtruder,999
;   primePillarWidth,12
;   primePillarLocation,7
;   primePillarSpeedMultiplier,1
;   useOozeShield,0
;   oozeShieldExtruder,999
;   oozeShieldOffset,2
;   oozeShieldOutlines,1
;   oozeShieldSidewallShape,1
;   oozeShieldSidewallAngle,30
;   oozeShieldSpeedMultiplier,1
;   infillExtruder,0
;   internalInfillPattern,Rectilinear
;   externalInfillPattern,Rectilinear
;   infillPercentage,15
;   outlineOverlapPercentage,15
;   infillExtrusionWidthPercentage,100
;   minInfillLength,5
;   infillLayerInterval,1
;   internalInfillAngles,45,-45
;   overlapInternalInfillAngles,0
;   externalInfillAngles,45,-45
;   generateSupport,0
;   supportExtruder,0
;   supportInfillPercentage,30
;   supportExtraInflation,0
;   supportBaseLayers,0
;   denseSupportExtruder,0
;   denseSupportLayers,0
;   denseSupportInfillPercentage,70
;   supportLayerInterval,1
;   supportHorizontalPartOffset,0.4
;   supportUpperSeparationLayers,1
;   supportLowerSeparationLayers,1
;   supportType,0
;   supportGridSpacing,4.5
;   maxOverhangAngle,45
;   supportAngles,0
;   temperatureName,Primary Extruder,Heated Bed
;   temperatureNumber,0,0
;   temperatureSetpointCount,1,1
;   temperatureSetpointLayers,1,1
;   temperatureSetpointTemperatures,215,55
;   temperatureStabilizeAtStartup,1,1
;   temperatureHeatedBed,0,1
;   fanLayers,1,2
;   fanSpeeds,0,100
;   blipFanToFullPower,0
;   adjustSpeedForCooling,1
;   minSpeedLayerTime,15
;   minCoolingSpeedSlowdown,50
;   increaseFanForCooling,1
;   minFanLayerTime,25
;   maxCoolingFanSpeed,100
;   increaseFanForBridging,1
;   bridgingFanSpeed,100
;   use5D,1
;   relativeEdistances,0
;   allowEaxisZeroing,1
;   independentExtruderAxes,0
;   includeM10123,0
;   stickySupport,1
;   applyToolheadOffsets,0
;   gcodeXoffset,0
;   gcodeYoffset,0
;   gcodeZoffset,0
;   overrideMachineDefinition,1
;   machineTypeOverride,0
;   strokeXoverride,300
;   strokeYoverride,300
;   strokeZoverride,400
;   originOffsetXoverride,0
;   originOffsetYoverride,0
;   originOffsetZoverride,0
;   homeXdirOverride,-1
;   homeYdirOverride,-1
;   homeZdirOverride,-1
;   flipXoverride,1
;   flipYoverride,-1
;   flipZoverride,1
;   toolheadOffsets,0,0|0,0|0,0|0,0|0,0|0,0
;   overrideFirmwareConfiguration,1
;   firmwareTypeOverride,RepRap (Marlin/Repetier/Sprinter)
;   GPXconfigOverride,r2
;   baudRateOverride,250000
;   overridePrinterModels,1
;   printerModelsOverride
;   startingGcode,;,; -]H.P.B[- MarshMalloW  ,; $VER: StartScript 1.02 (26.12.2019) MarshMalloW,;,; Begin Startcode,;,M117 *Preheat*     	; Preheat,;extruder0_temperature,M104 S[extruder0_temperature]  ,M109 S[extruder0_temperature] ,M109 R[extruder0_temperature] ,;,M117 *Auto-leveling*     	; Auto-leveling,M107                   	; Turn layer fan off,G21                    	; Set to metric [change to G20 if you want Imperial],G90                    	; Force coordinates to be absolute relative to the origin,G28                    	; Home X/Y/Z axis,G29                    	; Auto-leveling (BL-Touch),;,M117 *Start Clean*     	; Indicate nozzle clean in progress on LCD,G92 E0                 	; Set Extruder to 0 ,G1 X0 Y0 F2000         	; Move X and Y to 0 with speed 2000 (mm/min),G1 Z0.1 F1000          	; Move Z to   0.1 with speed 1000 (mm/min),G1 X8.0 F2000          	; Move X to   8.0 with speed 2000 (mm/min),G1 Y60.0 E4.0 F1000.0  	; Move Y to  60 and Extruder with 4.0 with speed 1000 (mm/min),G1 Y100.0 E8.5 F1000.0 	; Move Y to 100 and Extruder with 8.5 with speed 1000 (mm/min),G92 E0                 	; Set extruder to 0,G1 X16.0 F3000         	; Move X to 16.0 with speed 3000 (mm/min),G1 Y60.0 F3000         	; Move Y to 60.0 with speed 3000 (mm/min),M117 *End Clean*       	; Indicate nozzle clean in progress on LCD,G1 Z5 F3000            	; Move Z to  5.0 with speed 3000 (mm/min),G1 X20.0 F3000         	; Move X to 20.0 with speed 3000 (mm/min),G1 Y20.0 F3000         	; Move Y to 20.0 with speed 3000 (mm/min),; ,M117 *Printing...*     	; Start printing msg on LCD,;,; End Startcode,;,; Begin printing with sliced GCode after here,;
;   layerChangeGcode,
;   retractionGcode,
;   toolChangeGcode,
;   endingGcode,;,; init 181010,;,;M107 			; Fan off,;G1 E-1 F300 			; Retract the filament a bit before lifting the nozzle,;M104 S0 			; Turn off extruder,;M140 S0 			; Turn off bed,;G91			; Relative positioning,;G28 X0 Y0 			; Move X/Y to min endstops so the head is out of teh way,;M84 			; Disable motors,;G90 			; Absolute positioning,;M117 Print ready...,,;,; // From Cura 181010,; // End_gcode,G92 E0			; Zero the extruded length,;G1 E-30 F300		; Retract E -30,M106 S0			; Turn off cooling fan,M104 S0			; Turn off temperature,M140 S0		     	; Turn off bed,G91			; Relative positioning,G1 E-1 F300			; Retract the filament a bit before lifting the nozzle to release some of the pressure,G1 Z+20 E-5 X-20 Y-20 F7200	; Move Z up a bit and retract filament even more,G1 X0 Y150 F10000		; Move right min,M107			; Turn off layer fan,M84			; Disable motors,G90			; Absolute positioning,M117 *The-End* 		; End msg,;,
;   exportFileFormat,gcode
;   celebration,0
;   celebrationSong,Star Wars
;   postProcessing,|{REPLACE "; layer " "M117 INDICATOR-Layer"}|{REPLACE ", Z = " "\n; Z="}
;   defaultSpeed,1800
;   outlineUnderspeed,0.5
;   solidInfillUnderspeed,0.8
;   supportUnderspeed,0.8
;   rapidXYspeed,6000
;   rapidZspeed,1002
;   minBridgingArea,50
;   bridgingExtraInflation,0.2
;   bridgingExtrusionMultiplier,1
;   bridgingSpeedMultiplier,0.6
;   useFixedBridgingAngle,0
;   fixedBridgingAngle,0
;   applyBridgingToPerimeters,0
;   filamentDiameters,1.75|1.75|1.75|1.75|1.75|1.75
;   filamentPricesPerKg,30|46|46|46|46|46
;   filamentDensities,1.25|1.25|1.25|1.25|1.25|1.25
;   useMinPrintHeight,0
;   minPrintHeight,0
;   useMaxPrintHeight,0
;   maxPrintHeight,50
;   useDiaphragm,0
;   diaphragmLayerInterval,20
;   robustSlicing,1
;   mergeAllIntoSolid,0
;   onlyRetractWhenCrossingOutline,1
;   retractBetweenLayers,0
;   useRetractionMinTravel,0
;   retractionMinTravel,3
;   retractWhileWiping,0
;   onlyWipeOutlines,1
;   avoidCrossingOutline,1
;   maxMovementDetourFactor,3
;   toolChangeRetractionDistance,12
;   toolChangeExtraRestartDistance,-0.5
;   toolChangeRetractionSpeed,600
;   externalThinWallType,1
;   internalThinWallType,1
;   thinWallAllowedOverlapPercentage,10
;   singleExtrusionMinLength,1
;   singleExtrusionMinPrintingWidthPercentage,50
;   singleExtrusionMaxPrintingWidthPercentage,200
;   singleExtrusionEndpointExtension,0.2
;   horizontalSizeCompensation,0
G90
M82
M106 S0
M140 S55
M190 S55
;
; -]H.P.B[- MarshMalloW  
; $VER: StartScript 1.02 (26.12.2019) MarshMalloW
;
; Begin Startcode
;
M117 *Preheat*     	; Preheat
;extruder0_temperature
M104 S215  
M109 S215 
M109 R215 
;
M117 *Auto-leveling*     	; Auto-leveling
M107                   	; Turn layer fan off
G21                    	; Set to metric [change to G20 if you want Imperial]
G90                    	; Force coordinates to be absolute relative to the origin
G28                    	; Home X/Y/Z axis
G29                    	; Auto-leveling (BL-Touch)
;
M117 *Start Clean*     	; Indicate nozzle clean in progress on LCD
G92 E0                 	; Set Extruder to 0 
G1 X0 Y0 F2000         	; Move X and Y to 0 with speed 2000 (mm/min)
G1 Z0.1 F1000          	; Move Z to   0.1 with speed 1000 (mm/min)
G1 X8.0 F2000          	; Move X to   8.0 with speed 2000 (mm/min)
G1 Y60.0 E4.0 F1000.0  	; Move Y to  60 and Extruder with 4.0 with speed 1000 (mm/min)
G1 Y100.0 E8.5 F1000.0 	; Move Y to 100 and Extruder with 8.5 with speed 1000 (mm/min)
G92 E0                 	; Set extruder to 0
G1 X16.0 F3000         	; Move X to 16.0 with speed 3000 (mm/min)
G1 Y60.0 F3000         	; Move Y to 60.0 with speed 3000 (mm/min)
M117 *End Clean*       	; Indicate nozzle clean in progress on LCD
G1 Z5 F3000            	; Move Z to  5.0 with speed 3000 (mm/min)
G1 X20.0 F3000         	; Move X to 20.0 with speed 3000 (mm/min)
G1 Y20.0 F3000         	; Move Y to 20.0 with speed 3000 (mm/min)
; 
M117 *Printing...*     	; Start printing msg on LCD
;
; End Startcode
;
; Begin printing with sliced GCode after here
;
; process Process1
M117 INDICATOR-Layer1
; Z=0.180
T0
G92 E0.0000
G1 E-4.0000 F3000
; feature skirt
; tool H0.180 W0.350
G1 Z0.300 F1002
G1 X178.853 Y73.170 F6000
G1 Z0.180 F1002
G1 E0.0000 F3000
G92 E0.0000
G1 X182.336 Y73.640 E0.0875 F900
G1 X182.695 Y73.737 E0.0967
G1 X185.979 Y75.096 E0.1852
G1 X186.303 Y75.283 E0.1945
G1 X189.238 Y77.523 E0.2863
G1 X189.506 Y77.790 E0.2957
G1 X191.670 Y80.604 E0.3841
G1 X191.824 Y80.853 E0.3914
G1 X191.996 Y81.207 E0.4012
G1 X192.031 Y81.286 E0.4033
G1 X193.290 Y84.331 E0.4853
G1 X193.387 Y84.691 E0.4946
G1 X193.876 Y88.337 E0.5861
G1 X193.877 Y88.718 E0.5956
G1 X193.406 Y92.295 E0.6854
G1 X193.309 Y92.657 E0.6947
G1 X191.914 Y96.039 E0.7857
G1 X191.732 Y96.358 E0.7948
G1 X191.263 Y96.979 E0.8142
G1 X191.252 Y96.992 E0.8146
G1 X189.477 Y99.288 E0.8868
G1 X189.214 Y99.551 E0.8961
G1 X186.345 Y101.751 E0.9861
G1 X186.018 Y101.940 E0.9955
G1 X182.664 Y103.326 E1.0858
G1 X182.302 Y103.423 E1.0951
G1 X178.778 Y103.889 E1.1835
G1 X178.590 Y103.901 E1.1882
G1 X123.402 Y103.899 E2.5615
G1 X123.212 Y103.887 E2.5662
G1 X119.747 Y103.424 E2.6532
G1 X119.407 Y103.336 E2.6619
G1 X118.395 Y102.936 E2.6890
G1 X118.370 Y102.925 E2.6897
G1 X115.983 Y101.928 E2.7540
G1 X115.664 Y101.744 E2.7632
G1 X112.793 Y99.553 E2.8531
G1 X112.525 Y99.286 E2.8625
G1 X110.323 Y96.429 E2.9523
G1 X110.134 Y96.103 E2.9616
G1 X108.705 Y92.678 E3.0540
G1 X108.606 Y92.310 E3.0634
G1 X108.132 Y88.710 E3.1538
G1 X108.133 Y88.328 E3.1633
G1 X108.625 Y84.677 E3.2550
G1 X108.723 Y84.315 E3.2643
G1 X110.106 Y80.992 E3.3539
G1 X110.293 Y80.669 E3.3632
G1 X112.488 Y77.804 E3.4530
G1 X112.753 Y77.538 E3.4623
G1 X115.612 Y75.336 E3.5521
G1 X115.936 Y75.148 E3.5614
G1 X119.306 Y73.739 E3.6523
G1 X119.671 Y73.640 E3.6617
G1 X123.141 Y73.174 E3.7488
G1 X123.333 Y73.161 E3.7536
G1 X178.660 Y73.157 E5.1303
G1 X178.853 Y73.170 E5.1351
G92 E0.0000
G1 E-4.0000 F3000
G1 Z0.480 F1002
G1 X178.550 Y76.207 F6000
G1 X172.811 Y76.207
G1 X157.180 Y84.066
G1 X156.502 Y83.179
G1 X156.313 Y82.995
G1 X156.168 Y82.881
G1 X155.206 Y82.140
G1 X154.738 Y81.810
G1 X153.013 Y81.116
G1 X151.765 Y80.936
G1 X151.191 Y80.869
G1 X151.109 Y80.841
G1 X150.450 Y80.913
G1 X149.021 Y81.107
G1 X147.168 Y81.875
G1 X145.590 Y83.083
G1 X144.694 Y84.243
G1 X144.351 Y84.699
G1 X143.587 Y86.559
G1 X143.331 Y88.448
G1 X143.338 Y88.607
G1 X143.585 Y90.512
G1 X143.719 Y90.834
G1 X123.799 Y100.849
G1 X123.510 Y100.849
G1 X120.883 Y100.488
G1 X120.344 Y100.427
G1 X119.515 Y103.003
G1 Z0.180 F1002
G1 E0.0000 F3000
G92 E0.0000
G1 X118.525 Y102.611 E0.0265 F900
G1 X118.503 Y102.602 E0.0271
G1 X116.139 Y101.614 E0.0909
G1 X115.858 Y101.452 E0.0989
G1 X113.023 Y99.289 E0.1876
G1 X112.788 Y99.055 E0.1959
G1 X110.614 Y96.233 E0.2845
G1 X110.448 Y95.948 E0.2927
G1 X109.037 Y92.564 E0.3840
G1 X108.950 Y92.241 E0.3923
G1 X108.482 Y88.687 E0.4815
G1 X108.482 Y88.352 E0.4898
G1 X108.969 Y84.746 E0.5804
G1 X109.055 Y84.428 E0.5886
G1 X110.421 Y81.147 E0.6770
G1 X110.585 Y80.863 E0.6851
G1 X112.752 Y78.035 E0.7738
G1 X112.985 Y77.802 E0.7820
G1 X115.808 Y75.628 E0.8707
G1 X116.092 Y75.462 E0.8789
G1 X119.420 Y74.071 E0.9686
G1 X119.740 Y73.984 E0.9769
G1 X123.176 Y73.522 E1.0631
G1 X123.345 Y73.511 E1.0673
G1 X178.648 Y73.507 E2.4434
G1 X178.817 Y73.518 E2.4477
G1 X182.267 Y73.984 E2.5343
G1 X182.582 Y74.069 E2.5424
G1 X185.825 Y75.411 E2.6297
G1 X186.109 Y75.575 E2.6379
G1 X189.007 Y77.787 E2.7286
G1 X189.243 Y78.022 E2.7369
G1 X191.381 Y80.803 E2.8242
G1 X191.517 Y81.022 E2.8306
G1 X191.679 Y81.355 E2.8398
G1 X191.709 Y81.424 E2.8417
G1 X192.958 Y84.444 E2.9230
G1 X193.043 Y84.760 E2.9311
G1 X193.527 Y88.361 E3.0215
G1 X193.527 Y88.695 E3.0298
G1 X193.062 Y92.227 E3.1185
G1 X192.977 Y92.545 E3.1267
G1 X191.599 Y95.884 E3.2166
G1 X191.439 Y96.165 E3.2246
G1 X190.984 Y96.767 E3.2434
G1 X190.975 Y96.779 E3.2438
G1 X189.214 Y99.056 E3.3154
G1 X188.983 Y99.287 E3.3235
G1 X186.151 Y101.459 E3.4123
G1 X185.863 Y101.625 E3.4206
G1 X182.552 Y102.994 E3.5097
G1 X182.234 Y103.079 E3.5179
G1 X178.744 Y103.540 E3.6055
G1 X178.578 Y103.551 E3.6097
G1 X123.414 Y103.549 E4.9823
G1 X123.247 Y103.538 E4.9865
G1 X119.814 Y103.080 E5.0726
G1 X119.515 Y103.003 E5.0803
G92 E0.0000
G1 E-4.0000 F3000
G1 Z0.480 F1002
G1 X120.344 Y100.427 F6000
G1 X120.883 Y100.488
G1 X123.510 Y100.849
G1 X128.050 Y100.849
G1 X148.447 Y95.703
G1 X149.036 Y95.943
G1 X150.990 Y96.202
G1 X152.199 Y96.054
G1 X152.962 Y95.951
G1 X154.820 Y95.187
G1 X156.395 Y93.987
G1 X156.634 Y93.694
G1 X156.688 Y93.624
G1 X168.113 Y90.741
G1 X167.830 Y88.565
G1 X167.884 Y88.057
G1 X168.186 Y85.804
G1 X168.258 Y85.592
G1 X169.249 Y83.200
G1 X170.076 Y82.109
G1 X170.881 Y81.071
G1 X171.012 Y80.927
G1 X173.155 Y79.287
G1 X173.732 Y79.032
G1 X174.060 Y78.909
G1 X175.762 Y78.201
G1 X178.504 Y77.840
G1 X180.215 Y78.059
G1 X181.302 Y78.219
G1 X183.813 Y79.261
G1 X185.193 Y80.300
G1 X186.047 Y80.970
G1 X186.233 Y81.205
G1 X187.713 Y83.136
G1 X187.823 Y83.336
G1 X188.730 Y85.540
G1 X190.324 Y85.138
G1 X190.392 Y85.304
G1 X192.626 Y84.557
G1 Z0.180 F1002
G1 E0.0000 F3000
G92 E0.0000
G1 X192.699 Y84.829 E0.0070 F900
G1 X193.177 Y88.384 E0.0963
G1 X193.177 Y88.672 E0.1034
G1 X192.718 Y92.158 E0.1909
G1 X192.644 Y92.432 E0.1980
G1 X191.284 Y95.730 E0.2868
G1 X191.146 Y95.972 E0.2937
G1 X190.705 Y96.556 E0.3119
G1 X190.697 Y96.566 E0.3122
G1 X188.951 Y98.824 E0.3832
G1 X188.752 Y99.023 E0.3902
G1 X185.956 Y101.168 E0.4779
G1 X185.708 Y101.310 E0.4850
G1 X182.439 Y102.662 E0.5731
G1 X182.165 Y102.735 E0.5801
G1 X178.709 Y103.192 E0.6668
G1 X178.567 Y103.201 E0.6704
G1 X123.426 Y103.199 E2.0425
G1 X123.282 Y103.190 E2.0461
G1 X119.882 Y102.736 E2.1314
G1 X119.624 Y102.669 E2.1380
G1 X118.655 Y102.286 E2.1639
G1 X118.636 Y102.278 E2.1645
G1 X116.294 Y101.300 E2.2276
G1 X116.053 Y101.160 E2.2346
G1 X113.254 Y99.024 E2.3222
G1 X113.051 Y98.823 E2.3293
G1 X110.905 Y96.038 E2.4168
G1 X110.763 Y95.792 E2.4238
G1 X109.369 Y92.451 E2.5139
G1 X109.294 Y92.173 E2.5211
G1 X108.832 Y88.664 E2.6091
G1 X108.832 Y88.376 E2.6163
G1 X109.312 Y84.815 E2.7057
G1 X109.387 Y84.542 E2.7128
G1 X110.735 Y81.303 E2.8001
G1 X110.876 Y81.058 E2.8071
G1 X113.016 Y78.266 E2.8946
G1 X113.216 Y78.065 E2.9017
G1 X116.003 Y75.919 E2.9892
G1 X116.248 Y75.776 E2.9963
G1 X119.534 Y74.403 E3.0849
G1 X119.810 Y74.328 E3.0920
G1 X123.211 Y73.871 E3.1774
G1 X123.356 Y73.861 E3.1810
G1 X178.636 Y73.857 E4.5565
G1 X178.782 Y73.867 E4.5602
G1 X182.197 Y74.328 E4.6459
