; G-Code generated by Simplify3D(R) Version 4.1.2
; Jul 9, 2020 at 6:13:19 PM
; Settings Summary
;   processName,Process1
;   applyToModels,PiNoirCamCaseHolder-Support_New
;   profileName,A04-04-35s Tevo Tornado
;   profileVersion,2020-07-06 22:44:24
;   baseProfile,Creality CR-10(2)
;   printMaterial,PLA
;   printQuality,Medium
;   printExtruders,
;   extruderName,Primary Extruder
;   extruderToolheadNumber,0
;   extruderDiameter,0.4
;   extruderAutoWidth,0
;   extruderWidth,0.35
;   extrusionMultiplier,0.95
;   extruderUseRetract,1
;   extruderRetractionDistance,4
;   extruderExtraRestartDistance,0
;   extruderRetractionZLift,0.3
;   extruderRetractionSpeed,3000
;   extruderUseCoasting,1
;   extruderCoastingDistance,0.8
;   extruderUseWipe,0
;   extruderWipeDistance,4
;   primaryExtruder,0
;   layerHeight,0.15
;   topSolidLayers,4
;   bottomSolidLayers,3
;   perimeterOutlines,3
;   printPerimetersInsideOut,0
;   startPointOption,1
;   startPointOriginX,0
;   startPointOriginY,300
;   sequentialIslands,0
;   spiralVaseMode,0
;   firstLayerHeightPercentage,120
;   firstLayerWidthPercentage,100
;   firstLayerUnderspeed,0.35
;   useRaft,0
;   raftExtruder,0
;   raftTopLayers,3
;   raftBaseLayers,2
;   raftOffset,3
;   raftSeparationDistance,0.14
;   raftTopInfill,100
;   aboveRaftSpeedMultiplier,0.3
;   useSkirt,1
;   skirtExtruder,0
;   skirtLayers,1
;   skirtOutlines,3
;   skirtOffset,2
;   usePrimePillar,0
;   primePillarExtruder,999
;   primePillarWidth,12
;   primePillarLocation,7
;   primePillarSpeedMultiplier,1
;   useOozeShield,0
;   oozeShieldExtruder,999
;   oozeShieldOffset,2
;   oozeShieldOutlines,1
;   oozeShieldSidewallShape,1
;   oozeShieldSidewallAngle,30
;   oozeShieldSpeedMultiplier,1
;   infillExtruder,0
;   internalInfillPattern,Rectilinear
;   externalInfillPattern,Rectilinear
;   infillPercentage,35
;   outlineOverlapPercentage,15
;   infillExtrusionWidthPercentage,100
;   minInfillLength,5
;   infillLayerInterval,1
;   internalInfillAngles,45,-45
;   overlapInternalInfillAngles,0
;   externalInfillAngles,45,-45
;   generateSupport,1
;   supportExtruder,0
;   supportInfillPercentage,30
;   supportExtraInflation,0
;   supportBaseLayers,0
;   denseSupportExtruder,0
;   denseSupportLayers,0
;   denseSupportInfillPercentage,70
;   supportLayerInterval,1
;   supportHorizontalPartOffset,0.4
;   supportUpperSeparationLayers,1
;   supportLowerSeparationLayers,1
;   supportType,0
;   supportGridSpacing,4.5
;   maxOverhangAngle,45
;   supportAngles,0
;   temperatureName,Primary Extruder,Heated Bed
;   temperatureNumber,0,0
;   temperatureSetpointCount,1,1
;   temperatureSetpointLayers,1,1
;   temperatureSetpointTemperatures,215,55
;   temperatureStabilizeAtStartup,1,1
;   temperatureHeatedBed,0,1
;   fanLayers,1,2
;   fanSpeeds,0,100
;   blipFanToFullPower,0
;   adjustSpeedForCooling,1
;   minSpeedLayerTime,15
;   minCoolingSpeedSlowdown,50
;   increaseFanForCooling,1
;   minFanLayerTime,25
;   maxCoolingFanSpeed,100
;   increaseFanForBridging,1
;   bridgingFanSpeed,100
;   use5D,1
;   relativeEdistances,0
;   allowEaxisZeroing,1
;   independentExtruderAxes,0
;   includeM10123,0
;   stickySupport,1
;   applyToolheadOffsets,0
;   gcodeXoffset,0
;   gcodeYoffset,0
;   gcodeZoffset,0
;   overrideMachineDefinition,1
;   machineTypeOverride,0
;   strokeXoverride,300
;   strokeYoverride,300
;   strokeZoverride,400
;   originOffsetXoverride,0
;   originOffsetYoverride,0
;   originOffsetZoverride,0
;   homeXdirOverride,-1
;   homeYdirOverride,-1
;   homeZdirOverride,-1
;   flipXoverride,1
;   flipYoverride,-1
;   flipZoverride,1
;   toolheadOffsets,0,0|0,0|0,0|0,0|0,0|0,0
;   overrideFirmwareConfiguration,1
;   firmwareTypeOverride,RepRap (Marlin/Repetier/Sprinter)
;   GPXconfigOverride,r2
;   baudRateOverride,250000
;   overridePrinterModels,1
;   printerModelsOverride
;   startingGcode,;,; -]H.P.B[- MarshMalloW  ,; $VER: StartScript 1.02 (26.12.2019) MarshMalloW,;,; Begin Startcode,;,M117 *Preheat*     	; Preheat,;extruder0_temperature,M104 S[extruder0_temperature]  ,M109 S[extruder0_temperature] ,M109 R[extruder0_temperature] ,;,M117 *Auto-leveling*     	; Auto-leveling,M107                   	; Turn layer fan off,G21                    	; Set to metric [change to G20 if you want Imperial],G90                    	; Force coordinates to be absolute relative to the origin,G28                    	; Home X/Y/Z axis,G29                    	; Auto-leveling (BL-Touch),;,M117 *Start Clean*     	; Indicate nozzle clean in progress on LCD,G92 E0                 	; Set Extruder to 0 ,G1 X0 Y0 F2000         	; Move X and Y to 0 with speed 2000 (mm/min),G1 Z0.1 F1000          	; Move Z to   0.1 with speed 1000 (mm/min),G1 X8.0 F2000          	; Move X to   8.0 with speed 2000 (mm/min),G1 Y60.0 E4.0 F1000.0  	; Move Y to  60 and Extruder with 4.0 with speed 1000 (mm/min),G1 Y100.0 E8.5 F1000.0 	; Move Y to 100 and Extruder with 8.5 with speed 1000 (mm/min),G92 E0                 	; Set extruder to 0,G1 X16.0 F3000         	; Move X to 16.0 with speed 3000 (mm/min),G1 Y60.0 F3000         	; Move Y to 60.0 with speed 3000 (mm/min),M117 *End Clean*       	; Indicate nozzle clean in progress on LCD,G1 Z5 F3000            	; Move Z to  5.0 with speed 3000 (mm/min),G1 X20.0 F3000         	; Move X to 20.0 with speed 3000 (mm/min),G1 Y20.0 F3000         	; Move Y to 20.0 with speed 3000 (mm/min),; ,M117 *Printing...*     	; Start printing msg on LCD,;,; End Startcode,;,; Begin printing with sliced GCode after here,;
;   layerChangeGcode,
;   retractionGcode,
;   toolChangeGcode,
;   endingGcode,;,; init 181010,;,;M107 			; Fan off,;G1 E-1 F300 			; Retract the filament a bit before lifting the nozzle,;M104 S0 			; Turn off extruder,;M140 S0 			; Turn off bed,;G91			; Relative positioning,;G28 X0 Y0 			; Move X/Y to min endstops so the head is out of teh way,;M84 			; Disable motors,;G90 			; Absolute positioning,;M117 Print ready...,,;,; // From Cura 181010,; // End_gcode,G92 E0			; Zero the extruded length,;G1 E-30 F300		; Retract E -30,M106 S0			; Turn off cooling fan,M104 S0			; Turn off temperature,M140 S0		     	; Turn off bed,G91			; Relative positioning,G1 E-1 F300			; Retract the filament a bit before lifting the nozzle to release some of the pressure,G1 Z+20 E-5 X-20 Y-20 F7200	; Move Z up a bit and retract filament even more,G1 X0 Y150 F10000		; Move right min,M107			; Turn off layer fan,M84			; Disable motors,G90			; Absolute positioning,M117 *The-End* 		; End msg,;,
;   exportFileFormat,gcode
;   celebration,0
;   celebrationSong,Star Wars
;   postProcessing,|{REPLACE "; layer " "M117 INDICATOR-Layer"}|{REPLACE ", Z = " "\n; Z="}
;   defaultSpeed,1800
;   outlineUnderspeed,0.5
;   solidInfillUnderspeed,0.8
;   supportUnderspeed,0.8
;   rapidXYspeed,6000
;   rapidZspeed,1002
;   minBridgingArea,50
;   bridgingExtraInflation,0.2
;   bridgingExtrusionMultiplier,1
;   bridgingSpeedMultiplier,0.6
;   useFixedBridgingAngle,0
;   fixedBridgingAngle,0
;   applyBridgingToPerimeters,0
;   filamentDiameters,1.75|1.75|1.75|1.75|1.75|1.75
;   filamentPricesPerKg,30|46|46|46|46|46
;   filamentDensities,1.25|1.25|1.25|1.25|1.25|1.25
;   useMinPrintHeight,0
;   minPrintHeight,0
;   useMaxPrintHeight,0
;   maxPrintHeight,9
;   useDiaphragm,0
;   diaphragmLayerInterval,20
;   robustSlicing,1
;   mergeAllIntoSolid,0
;   onlyRetractWhenCrossingOutline,1
;   retractBetweenLayers,0
;   useRetractionMinTravel,0
;   retractionMinTravel,3
;   retractWhileWiping,0
;   onlyWipeOutlines,1
;   avoidCrossingOutline,1
;   maxMovementDetourFactor,3
;   toolChangeRetractionDistance,12
;   toolChangeExtraRestartDistance,-0.5
;   toolChangeRetractionSpeed,600
;   externalThinWallType,1
;   internalThinWallType,1
;   thinWallAllowedOverlapPercentage,10
;   singleExtrusionMinLength,1
;   singleExtrusionMinPrintingWidthPercentage,50
;   singleExtrusionMaxPrintingWidthPercentage,200
;   singleExtrusionEndpointExtension,0.2
;   horizontalSizeCompensation,0
G90
M82
M106 S0
M140 S55
M190 S55
;
; -]H.P.B[- MarshMalloW  
; $VER: StartScript 1.02 (26.12.2019) MarshMalloW
;
; Begin Startcode
;
M117 *Preheat*     	; Preheat
;extruder0_temperature
M104 S215  
M109 S215 
M109 R215 
;
M117 *Auto-leveling*     	; Auto-leveling
M107                   	; Turn layer fan off
G21                    	; Set to metric [change to G20 if you want Imperial]
G90                    	; Force coordinates to be absolute relative to the origin
G28                    	; Home X/Y/Z axis
G29                    	; Auto-leveling (BL-Touch)
;
M117 *Start Clean*     	; Indicate nozzle clean in progress on LCD
G92 E0                 	; Set Extruder to 0 
G1 X0 Y0 F2000         	; Move X and Y to 0 with speed 2000 (mm/min)
G1 Z0.1 F1000          	; Move Z to   0.1 with speed 1000 (mm/min)
G1 X8.0 F2000          	; Move X to   8.0 with speed 2000 (mm/min)
G1 Y60.0 E4.0 F1000.0  	; Move Y to  60 and Extruder with 4.0 with speed 1000 (mm/min)
G1 Y100.0 E8.5 F1000.0 	; Move Y to 100 and Extruder with 8.5 with speed 1000 (mm/min)
G92 E0                 	; Set extruder to 0
G1 X16.0 F3000         	; Move X to 16.0 with speed 3000 (mm/min)
G1 Y60.0 F3000         	; Move Y to 60.0 with speed 3000 (mm/min)
M117 *End Clean*       	; Indicate nozzle clean in progress on LCD
G1 Z5 F3000            	; Move Z to  5.0 with speed 3000 (mm/min)
G1 X20.0 F3000         	; Move X to 20.0 with speed 3000 (mm/min)
G1 Y20.0 F3000         	; Move Y to 20.0 with speed 3000 (mm/min)
; 
M117 *Printing...*     	; Start printing msg on LCD
;
; End Startcode
;
; Begin printing with sliced GCode after here
;
; process Process1
M117 INDICATOR-Layer1
; Z=0.180
T0
G92 E0.0000
G1 E-4.0000 F3000
; feature skirt
; tool H0.180 W0.350
G1 Z0.300 F1002
G1 X163.721 Y124.633 F6000
G1 Z0.180 F1002
G1 E0.0000 F3000
G92 E0.0000
G1 X165.741 Y124.841 E0.0505 F630
G1 X166.012 Y124.895 E0.0574
G1 X167.869 Y125.459 E0.1057
G1 X168.124 Y125.564 E0.1126
G1 X169.938 Y126.522 E0.1636
G1 X170.174 Y126.679 E0.1706
G1 X171.768 Y127.976 E0.2218
G1 X171.969 Y128.176 E0.2288
G1 X173.278 Y129.761 E0.2800
G1 X173.436 Y129.996 E0.2870
G1 X174.409 Y131.807 E0.3382
G1 X174.518 Y132.069 E0.3452
G1 X175.117 Y134.035 E0.3964
G1 X175.173 Y134.313 E0.4034
G1 X175.368 Y136.288 E0.4528
G1 X175.375 Y136.429 E0.4563
G1 X175.375 Y163.570 E1.1317
G1 X175.368 Y163.709 E1.1352
G1 X175.179 Y165.652 E1.1837
G1 X175.125 Y165.927 E1.1907
G1 X174.543 Y167.864 E1.2410
G1 X174.437 Y168.122 E1.2480
G1 X173.478 Y169.938 E1.2991
G1 X173.321 Y170.174 E1.3061
G1 X172.024 Y171.768 E1.3573
G1 X171.824 Y171.969 E1.3643
G1 X170.239 Y173.278 E1.4154
G1 X170.004 Y173.436 E1.4225
G1 X168.193 Y174.409 E1.4736
G1 X167.931 Y174.518 E1.4807
G1 X165.965 Y175.117 E1.5319
G1 X165.687 Y175.173 E1.5389
G1 X163.712 Y175.368 E1.5883
G1 X163.571 Y175.375 E1.5918
G1 X136.430 Y175.375 E2.2671
G1 X136.291 Y175.368 E2.2706
G1 X134.348 Y175.179 E2.3192
G1 X134.073 Y175.125 E2.3262
G1 X132.136 Y174.543 E2.3765
G1 X131.877 Y174.437 E2.3834
G1 X130.057 Y173.475 E2.4347
G1 X129.811 Y173.311 E2.4420
G1 X128.146 Y171.932 E2.4958
G1 X127.951 Y171.736 E2.5027
G1 X126.718 Y170.234 E2.5511
G1 X126.563 Y170.002 E2.5580
G1 X125.591 Y168.193 E2.6091
G1 X125.482 Y167.931 E2.6162
G1 X124.883 Y165.965 E2.6673
G1 X124.827 Y165.687 E2.6744
G1 X124.632 Y163.712 E2.7237
G1 X124.625 Y163.571 E2.7273
G1 X124.625 Y136.430 E3.4026
G1 X124.632 Y136.291 E3.4061
G1 X124.821 Y134.348 E3.4546
G1 X124.875 Y134.073 E3.4616
G1 X125.457 Y132.136 E3.5119
G1 X125.563 Y131.877 E3.5189
G1 X126.522 Y130.062 E3.5700
G1 X126.679 Y129.826 E3.5770
G1 X127.976 Y128.232 E3.6282
G1 X128.176 Y128.031 E3.6352
G1 X129.761 Y126.722 E3.6864
G1 X129.996 Y126.564 E3.6934
G1 X131.807 Y125.591 E3.7446
G1 X132.069 Y125.482 E3.7516
G1 X134.035 Y124.883 E3.8028
G1 X134.313 Y124.827 E3.8098
G1 X136.287 Y124.632 E3.8592
G1 X136.429 Y124.625 E3.8627
G1 X163.574 Y124.625 E4.5382
G1 X163.721 Y124.633 E4.5418
G92 E0.0000
G1 E-4.0000 F3000
G1 Z0.480 F1002
G1 X163.491 Y127.675 F6000
G1 X161.773 Y127.675
G1 X133.527 Y171.776
G1 X133.164 Y171.667
G1 X132.026 Y174.120
G1 Z0.180 F1002
G1 E0.0000 F3000
G92 E0.0000
G1 X130.236 Y173.174 E0.0504 F630
G1 X130.020 Y173.030 E0.0568
G1 X128.382 Y171.673 E0.1098
G1 X128.211 Y171.501 E0.1158
G1 X127.000 Y170.025 E0.1633
G1 X126.863 Y169.821 E0.1694
G1 X125.908 Y168.043 E0.2196
G1 X125.812 Y167.813 E0.2258
G1 X125.223 Y165.880 E0.2761
G1 X125.174 Y165.635 E0.2823
G1 X124.981 Y163.687 E0.3311
G1 X124.975 Y163.562 E0.3342
G1 X124.975 Y136.439 E1.0091
G1 X124.981 Y136.316 E1.0121
G1 X125.168 Y134.398 E1.0601
G1 X125.215 Y134.157 E1.0662
G1 X125.787 Y132.253 E1.1156
G1 X125.880 Y132.026 E1.1218
G1 X126.823 Y130.241 E1.1720
G1 X126.961 Y130.033 E1.1782
G1 X128.237 Y128.466 E1.2285
G1 X128.412 Y128.290 E1.2347
G1 X129.970 Y127.003 E1.2849
G1 X130.177 Y126.864 E1.2911
G1 X131.957 Y125.908 E1.3414
G1 X132.187 Y125.812 E1.3476
G1 X134.120 Y125.223 E1.3979
G1 X134.364 Y125.174 E1.4041
G1 X136.313 Y124.981 E1.4528
G1 X136.438 Y124.975 E1.4559
G1 X163.565 Y124.975 E2.1309
G1 X163.695 Y124.982 E2.1342
G1 X165.689 Y125.187 E2.1841
G1 X165.926 Y125.235 E2.1901
G1 X167.752 Y125.789 E2.2375
G1 X167.976 Y125.881 E2.2436
G1 X169.759 Y126.823 E2.2938
G1 X169.967 Y126.961 E2.3000
G1 X171.534 Y128.237 E2.3502
G1 X171.710 Y128.412 E2.3564
G1 X172.997 Y129.970 E2.4067
G1 X173.136 Y130.177 E2.4129
G1 X174.092 Y131.957 E2.4632
G1 X174.188 Y132.187 E2.4694
G1 X174.777 Y134.120 E2.5197
G1 X174.826 Y134.364 E2.5259
G1 X175.019 Y136.313 E2.5746
G1 X175.025 Y136.438 E2.5777
G1 X175.025 Y163.561 E3.2526
G1 X175.019 Y163.684 E3.2557
G1 X174.832 Y165.602 E3.3036
G1 X174.785 Y165.843 E3.3097
G1 X174.213 Y167.747 E3.3592
G1 X174.120 Y167.974 E3.3653
G1 X173.177 Y169.759 E3.4155
G1 X173.039 Y169.967 E3.4217
G1 X171.763 Y171.534 E3.4720
G1 X171.588 Y171.710 E3.4782
G1 X170.030 Y172.997 E3.5285
G1 X169.823 Y173.136 E3.5347
G1 X168.043 Y174.092 E3.5850
G1 X167.813 Y174.188 E3.5912
G1 X165.880 Y174.777 E3.6415
G1 X165.635 Y174.826 E3.6477
G1 X163.687 Y175.019 E3.6964
G1 X163.562 Y175.025 E3.6995
G1 X136.439 Y175.025 E4.3744
G1 X136.316 Y175.019 E4.3774
G1 X134.398 Y174.832 E4.4254
G1 X134.157 Y174.785 E4.4315
G1 X132.253 Y174.213 E4.4810
G1 X132.026 Y174.120 E4.4871
G92 E0.0000
G1 E-4.0000 F3000
G1 Z0.480 F1002
G1 X133.164 Y171.667 F6000
G1 X134.277 Y172.001
G1 X172.296 Y136.220
G1 X172.153 Y134.771
G1 X174.437 Y134.206
G1 Z0.180 F1002
G1 E0.0000 F3000
G92 E0.0000
G1 X174.479 Y134.416 E0.0053 F630
G1 X174.670 Y136.339 E0.0534
G1 X174.675 Y136.446 E0.0561
G1 X174.675 Y163.553 E0.7306
G1 X174.670 Y163.658 E0.7332
G1 X174.485 Y165.551 E0.7805
G1 X174.444 Y165.758 E0.7858
G1 X173.883 Y167.630 E0.8344
G1 X173.802 Y167.826 E0.8397
G1 X172.875 Y169.580 E0.8890
G1 X172.757 Y169.759 E0.8944
G1 X171.503 Y171.299 E0.9438
G1 X171.352 Y171.451 E0.9491
G1 X169.820 Y172.716 E0.9986
G1 X169.642 Y172.836 E1.0039
G1 X167.892 Y173.776 E1.0533
G1 X167.694 Y173.858 E1.0587
G1 X165.794 Y174.437 E1.1081
G1 X165.584 Y174.479 E1.1134
G1 X163.661 Y174.670 E1.1615
G1 X163.554 Y174.675 E1.1642
G1 X136.447 Y174.675 E1.8387
G1 X136.342 Y174.670 E1.8413
G1 X134.449 Y174.485 E1.8886
G1 X134.242 Y174.444 E1.8939
G1 X132.370 Y173.883 E1.9425
G1 X132.174 Y173.802 E1.9478
G1 X130.416 Y172.873 E1.9973
G1 X130.230 Y172.749 E2.0028
G1 X128.618 Y171.414 E2.0549
G1 X128.471 Y171.266 E2.0601
G1 X127.281 Y169.816 E2.1068
G1 X127.163 Y169.641 E2.1120
G1 X126.224 Y167.892 E2.1614
G1 X126.142 Y167.694 E2.1667
G1 X125.563 Y165.794 E2.2162
G1 X125.521 Y165.584 E2.2215
G1 X125.330 Y163.661 E2.2696
G1 X125.325 Y163.554 E2.2723
G1 X125.325 Y136.447 E2.9467
G1 X125.330 Y136.342 E2.9494
G1 X125.515 Y134.449 E2.9967
G1 X125.556 Y134.242 E3.0019
G1 X126.117 Y132.370 E3.0506
G1 X126.198 Y132.174 E3.0558
G1 X127.125 Y130.420 E3.1052
G1 X127.243 Y130.241 E3.1105
G1 X128.497 Y128.701 E3.1600
G1 X128.648 Y128.549 E3.1653
G1 X130.180 Y127.284 E3.2147
G1 X130.358 Y127.164 E3.2201
G1 X132.107 Y126.224 E3.2695
G1 X132.306 Y126.142 E3.2748
G1 X134.206 Y125.563 E3.3242
G1 X134.416 Y125.521 E3.3296
