; G-Code generated by Simplify3D(R) Version 4.1.2
;
;
;
;
; Mar 7, 2023 at 1:30:39 PM
; Settings Summary
;   processName,PLA B01
;   applyToModels,PiNoirCamCaseHolder-Head_SupportD_New4
;   profileName,PLA_B02_04_25_OS180_05 Tevo Tornado
;   profileVersion,2023-02-13 18:40:51
;   baseProfile,Creality CR-10(2)
;   printMaterial,PLA
;   printQuality,High
;   printExtruders,
;   extruderName,Primary Extruder
;   extruderToolheadNumber,0
;   extruderDiameter,0.4
;   extruderAutoWidth,0
;   extruderWidth,0.35
;   extrusionMultiplier,0.95
;   extruderUseRetract,1
;   extruderRetractionDistance,4
;   extruderExtraRestartDistance,0
;   extruderRetractionZLift,0.3
;   extruderRetractionSpeed,3000
;   extruderUseCoasting,1
;   extruderCoastingDistance,0.2
;   extruderUseWipe,0
;   extruderWipeDistance,5
;   primaryExtruder,0
;   layerHeight,0.12
;   topSolidLayers,6
;   bottomSolidLayers,6
;   perimeterOutlines,4
;   printPerimetersInsideOut,1
;   startPointOption,2
;   startPointOriginX,0
;   startPointOriginY,300
;   sequentialIslands,0
;   spiralVaseMode,0
;   firstLayerHeightPercentage,120
;   firstLayerWidthPercentage,100
;   firstLayerUnderspeed,0.25
;   useRaft,0
;   raftExtruder,0
;   raftTopLayers,3
;   raftBaseLayers,2
;   raftOffset,3
;   raftSeparationDistance,0.14
;   raftTopInfill,100
;   aboveRaftSpeedMultiplier,0.3
;   useSkirt,1
;   skirtExtruder,0
;   skirtLayers,2
;   skirtOutlines,2
;   skirtOffset,3
;   usePrimePillar,0
;   primePillarExtruder,999
;   primePillarWidth,12
;   primePillarLocation,7
;   primePillarSpeedMultiplier,1
;   useOozeShield,0
;   oozeShieldExtruder,999
;   oozeShieldOffset,2
;   oozeShieldOutlines,1
;   oozeShieldSidewallShape,1
;   oozeShieldSidewallAngle,30
;   oozeShieldSpeedMultiplier,1
;   infillExtruder,0
;   internalInfillPattern,Full Honeycomb
;   externalInfillPattern,Rectilinear
;   infillPercentage,25
;   outlineOverlapPercentage,15
;   infillExtrusionWidthPercentage,100
;   minInfillLength,5
;   infillLayerInterval,1
;   internalInfillAngles,0,120,-120
;   overlapInternalInfillAngles,0
;   externalInfillAngles,45,-45
;   generateSupport,0
;   supportExtruder,0
;   supportInfillPercentage,40
;   supportExtraInflation,0
;   supportBaseLayers,0
;   denseSupportExtruder,0
;   denseSupportLayers,0
;   denseSupportInfillPercentage,70
;   supportLayerInterval,1
;   supportHorizontalPartOffset,0.4
;   supportUpperSeparationLayers,1
;   supportLowerSeparationLayers,1
;   supportType,0
;   supportGridSpacing,4.5
;   maxOverhangAngle,45
;   supportAngles,0
;   temperatureName,Primary Extruder,Heated Bed
;   temperatureNumber,0,0
;   temperatureSetpointCount,2,2
;   temperatureSetpointLayers,1,2,1,2
;   temperatureSetpointTemperatures,185,180,10,5
;   temperatureStabilizeAtStartup,1,1
;   temperatureHeatedBed,0,1
;   fanLayers,1,2
;   fanSpeeds,0,100
;   blipFanToFullPower,0
;   adjustSpeedForCooling,1
;   minSpeedLayerTime,15
;   minCoolingSpeedSlowdown,20
;   increaseFanForCooling,1
;   minFanLayerTime,25
;   maxCoolingFanSpeed,100
;   increaseFanForBridging,1
;   bridgingFanSpeed,100
;   use5D,1
;   relativeEdistances,0
;   allowEaxisZeroing,1
;   independentExtruderAxes,0
;   includeM10123,0
;   stickySupport,1
;   applyToolheadOffsets,0
;   gcodeXoffset,0
;   gcodeYoffset,0
;   gcodeZoffset,0
;   overrideMachineDefinition,1
;   machineTypeOverride,0
;   strokeXoverride,300
;   strokeYoverride,300
;   strokeZoverride,400
;   originOffsetXoverride,0
;   originOffsetYoverride,0
;   originOffsetZoverride,0
;   homeXdirOverride,-1
;   homeYdirOverride,-1
;   homeZdirOverride,-1
;   flipXoverride,1
;   flipYoverride,-1
;   flipZoverride,1
;   toolheadOffsets,0,0|0,0|0,0|0,0|0,0|0,0
;   overrideFirmwareConfiguration,1
;   firmwareTypeOverride,RepRap (Marlin/Repetier/Sprinter)
;   GPXconfigOverride,r2
;   baudRateOverride,250000
;   overridePrinterModels,1
;   printerModelsOverride
;   startingGcode,;,; -]H.P.B[- MarshMalloW  ,; $VER: StartScript 1.03 (18.12.2022) MarshMalloW,;,; Begin Startcode,;,M117 *Preheat*	; Preheat,;extruder0_temperature,M104 S[extruder0_temperature],M109 S[extruder0_temperature],;M109 R[extruder0_temperature] ,;,M117 *Auto-leveling*     	; Auto-leveling,M107                   	; Turn layer fan off,G21                    	; Set to metric [change to G20 if you want Imperial],G90                    	; Force coordinates to be absolute relative to the origin,G28                    	; Home X/Y/Z axis,G29                    	; Auto-leveling (BL-Touch),;,M117 *Start Clean*     	; Indicate nozzle clean in progress on LCD,G92 E0                 	; Set Extruder to 0 ,G1 X0 Y0 F2000         	; Move X and Y to 0 with speed 2000 (mm/min),G1 Z0.1 F1000          	; Move Z to   0.1 with speed 1000 (mm/min),G1 X8.0 F2000          	; Move X to   8.0 with speed 2000 (mm/min),G1 Y60.0 E4.0 F1000.0  	; Move Y to  60 and Extruder with 4.0 with speed 1000 (mm/min),G1 Y100.0 E8.5 F1000.0 	; Move Y to 100 and Extruder with 8.5 with speed 1000 (mm/min),G92 E0                 	; Set extruder to 0,G1 X16.0 F3000         	; Move X to 16.0 with speed 3000 (mm/min),G1 Y60.0 F3000         	; Move Y to 60.0 with speed 3000 (mm/min),M117 *End Clean*       	; Indicate nozzle clean in progress on LCD,G1 Z5 F3000            	; Move Z to  5.0 with speed 3000 (mm/min),G1 X20.0 F3000         	; Move X to 20.0 with speed 3000 (mm/min),G1 Y20.0 F3000         	; Move Y to 20.0 with speed 3000 (mm/min),; ,M117 *Printing...*     	; Start printing msg on LCD,;,; End Startcode,;,; Begin printing with sliced GCode after here,;
;   layerChangeGcode,
;   retractionGcode,
;   toolChangeGcode,
;   endingGcode,;,; init 181010,;,;M107 			; Fan off,;G1 E-1 F300 			; Retract the filament a bit before lifting the nozzle,;M104 S0 			; Turn off extruder,;M140 S0 			; Turn off bed,;G91			; Relative positioning,;G28 X0 Y0 			; Move X/Y to min endstops so the head is out of teh way,;M84 			; Disable motors,;G90 			; Absolute positioning,;M117 Print ready...,,;,; // From Cura 181010,; // End_gcode,G92 E0			; Zero the extruded length,;G1 E-30 F300		; Retract E -30,M106 S0			; Turn off cooling fan,M104 S0			; Turn off temperature,M140 S0		     	; Turn off bed,G91			; Relative positioning,G1 E-1 F300			; Retract the filament a bit before lifting the nozzle to release some of the pressure,G1 Z+20 E-5 X-20 Y-20 F7200	; Move Z up a bit and retract filament even more,G1 X0 Y150 F10000		; Move right min,M107			; Turn off layer fan,M84			; Disable motors,G90			; Absolute positioning,M117 *The-End* 		; End msg,;,
;   exportFileFormat,gcode
;   celebration,0
;   celebrationSong,Star Wars
;   postProcessing,D:\S3D_Thumbs\S3D_Thumbs.exe f="[output_filepath]" x=600 y=110 w=953 lw=400 lh=300 sw=32 sh=32 d=Y
;   defaultSpeed,4200
;   outlineUnderspeed,0.5
;   solidInfillUnderspeed,0.8
;   supportUnderspeed,0.8
;   rapidXYspeed,6000
;   rapidZspeed,1002
;   minBridgingArea,50
;   bridgingExtraInflation,0.2
;   bridgingExtrusionMultiplier,1
;   bridgingSpeedMultiplier,0.8
;   useFixedBridgingAngle,0
;   fixedBridgingAngle,0
;   applyBridgingToPerimeters,0
;   filamentDiameters,1.75|1.75|1.75|1.75|1.75|1.75
;   filamentPricesPerKg,30|46|46|46|46|46
;   filamentDensities,1.25|1.25|1.25|1.25|1.25|1.25
;   useMinPrintHeight,0
;   minPrintHeight,0
;   useMaxPrintHeight,0
;   maxPrintHeight,50
;   useDiaphragm,0
;   diaphragmLayerInterval,20
;   robustSlicing,1
;   mergeAllIntoSolid,0
;   onlyRetractWhenCrossingOutline,1
;   retractBetweenLayers,1
;   useRetractionMinTravel,0
;   retractionMinTravel,3
;   retractWhileWiping,1
;   onlyWipeOutlines,1
;   avoidCrossingOutline,0
;   maxMovementDetourFactor,3
;   toolChangeRetractionDistance,12
;   toolChangeExtraRestartDistance,-0.5
;   toolChangeRetractionSpeed,600
;   externalThinWallType,1
;   internalThinWallType,1
;   thinWallAllowedOverlapPercentage,10
;   singleExtrusionMinLength,1
;   singleExtrusionMinPrintingWidthPercentage,50
;   singleExtrusionMaxPrintingWidthPercentage,200
;   singleExtrusionEndpointExtension,0.2
;   horizontalSizeCompensation,0
G90
M82
M106 S0
M140 S10
;
; -]H.P.B[- MarshMalloW  
; $VER: StartScript 1.03 (18.12.2022) MarshMalloW
;
; Begin Startcode
;
M117 *Preheat*	; Preheat
;extruder0_temperature
M104 S185
M109 S185
;M109 R185 
;
M117 *Auto-leveling*     	; Auto-leveling
M107                   	; Turn layer fan off
G21                    	; Set to metric [change to G20 if you want Imperial]
G90                    	; Force coordinates to be absolute relative to the origin
G28                    	; Home X/Y/Z axis
G29                    	; Auto-leveling (BL-Touch)
;
M117 *Start Clean*     	; Indicate nozzle clean in progress on LCD
G92 E0                 	; Set Extruder to 0 
G1 X0 Y0 F2000         	; Move X and Y to 0 with speed 2000 (mm/min)
G1 Z0.1 F1000          	; Move Z to   0.1 with speed 1000 (mm/min)
G1 X8.0 F2000          	; Move X to   8.0 with speed 2000 (mm/min)
G1 Y60.0 E4.0 F1000.0  	; Move Y to  60 and Extruder with 4.0 with speed 1000 (mm/min)
G1 Y100.0 E8.5 F1000.0 	; Move Y to 100 and Extruder with 8.5 with speed 1000 (mm/min)
G92 E0                 	; Set extruder to 0
G1 X16.0 F3000         	; Move X to 16.0 with speed 3000 (mm/min)
G1 Y60.0 F3000         	; Move Y to 60.0 with speed 3000 (mm/min)
M117 *End Clean*       	; Indicate nozzle clean in progress on LCD
G1 Z5 F3000            	; Move Z to  5.0 with speed 3000 (mm/min)
G1 X20.0 F3000         	; Move X to 20.0 with speed 3000 (mm/min)
G1 Y20.0 F3000         	; Move Y to 20.0 with speed 3000 (mm/min)
; 
M117 *Printing...*     	; Start printing msg on LCD
;
; End Startcode
;
; Begin printing with sliced GCode after here
;
; process PLA B01
; layer 1, Z = 0.144
T0
G92 E0.0000
G1 E-4.0000 F3000
; feature skirt
; tool H0.144 W0.350
G1 Z0.300 F1002
G1 X116.178 Y66.262 F6000
G1 Z0.144 F1002
G1 E0.0000 F3000
G92 E0.0000
G1 X118.243 Y64.197 E0.0581 F1050
G1 X171.163 Y64.197 E1.1116
G1 X173.228 Y66.262 E1.1697
G1 X173.228 Y119.182 E2.2231
G1 X171.163 Y121.247 E2.2813
G1 X118.243 Y121.247 E3.3347
G1 X116.178 Y119.182 E3.3928
G1 X116.178 Y66.262 E4.4463
G92 E0.0000
G1 E-4.0000 F3000
G1 Z0.444 F1002
G1 X116.528 Y66.407 F6000
G1 Z0.144 F1002
G1 E0.0000 F3000
G92 E0.0000
G1 X118.388 Y64.547 E0.0524 F1050
G1 X171.018 Y64.547 E1.1000
G1 X172.878 Y66.407 E1.1524
G1 X172.878 Y119.037 E2.2001
G1 X171.018 Y120.897 E2.2524
G1 X118.388 Y120.897 E3.3001
G1 X116.528 Y119.037 E3.3524
G1 X116.528 Y66.407 E4.4001
G92 E0.0000
G1 E-4.0000 F3000
; feature inner perimeter
G1 Z0.444 F1002
G1 X120.928 Y68.947 F6000
G1 Z0.144 F1002
G1 E0.0000 F3000
G92 E0.0000
G1 X168.478 Y68.947 E0.9465 F788
G1 X168.478 Y116.497 E1.8931
G1 X120.928 Y116.497 E2.8396
G1 X120.928 Y69.147 E3.7822
G1 X120.928 Y68.947 F788
G1 X120.578 Y68.597 F6000
G92 E0.0000
G1 X168.828 Y68.597 E0.9605 F788
G1 X168.828 Y116.847 E1.9209
G1 X120.578 Y116.847 E2.8814
G1 X120.578 Y68.797 E3.8379
G1 X120.578 Y68.597 F788
G1 X120.228 Y68.247 F6000
G92 E0.0000
G1 X169.178 Y68.247 E0.9744 F788
G1 X169.178 Y117.197 E1.9488
G1 X120.228 Y117.197 E2.9232
G1 X120.228 Y68.447 E3.8937
G1 X120.228 Y68.247 F788
; feature outer perimeter
G1 X119.878 Y67.897 F6000
G92 E0.0000
G1 X169.528 Y67.897 E0.9883 F525
G1 X169.528 Y117.547 E1.9767
G1 X119.878 Y117.547 E2.9650
G1 X119.878 Y68.097 E3.9494
G1 X119.878 Y67.897 F525
; feature solid layer
G1 X167.753 Y69.245 F6000
G92 E0.0000
G1 X168.180 Y69.672 E0.0120 F840
G1 X168.180 Y70.167 E0.0219
G1 X167.258 Y69.245 E0.0478
G1 X166.763 Y69.245 E0.0577
G1 X168.180 Y70.662 E0.0976
G1 X168.180 Y71.157 E0.1075
G1 X166.268 Y69.245 E0.1613
G1 X165.773 Y69.245 E0.1711
G1 X168.180 Y71.652 E0.2389
G1 X168.180 Y72.147 E0.2488
G1 X165.278 Y69.245 E0.3305
G1 X164.783 Y69.245 E0.3403
G1 X168.180 Y72.642 E0.4360
G1 X168.180 Y73.137 E0.4458
G1 X164.288 Y69.245 E0.5554
G1 X163.793 Y69.245 E0.5652
G1 X168.180 Y73.632 E0.6887
G1 X168.180 Y74.127 E0.6986
G1 X163.298 Y69.245 E0.8360
G1 X162.803 Y69.245 E0.8459
G1 X168.180 Y74.622 E0.9973
G1 X168.180 Y75.117 E1.0071
G1 X162.308 Y69.245 E1.1724
G1 X161.813 Y69.245 E1.1823
G1 X168.180 Y75.612 E1.3615
G1 X168.180 Y76.107 E1.3714
G1 X161.318 Y69.245 E1.5645
G1 X160.823 Y69.245 E1.5744
G1 X168.180 Y76.602 E1.7815
G1 X168.180 Y77.097 E1.7914
G1 X160.328 Y69.245 E2.0124
G1 X159.833 Y69.245 E2.0223
G1 X168.180 Y77.592 E2.2572
G1 X168.180 Y78.087 E2.2671
G1 X159.338 Y69.245 E2.5160
G1 X158.843 Y69.245 E2.5259
G1 X168.180 Y78.582 E2.7887
G1 X168.180 Y79.077 E2.7986
G1 X158.348 Y69.245 E3.0753
G1 X157.853 Y69.245 E3.0852
G1 X168.180 Y79.571 E3.3759
G1 X168.180 Y80.066 E3.3858
G1 X157.358 Y69.245 E3.6904
G1 X156.864 Y69.245 E3.7003
G1 X168.180 Y80.561 E4.0189
G1 X168.180 Y81.056 E4.0287
G1 X156.369 Y69.245 E4.3612
G1 X155.874 Y69.245 E4.3711
G1 X168.180 Y81.551 E4.7175
G1 X168.180 Y82.046 E4.7274
G1 X155.379 Y69.245 E5.0878
G1 X154.884 Y69.245 E5.0976
G1 X168.180 Y82.541 E5.4720
G1 X168.180 Y83.036 E5.4818
G1 X154.389 Y69.245 E5.8701
G1 X153.894 Y69.245 E5.8799
G1 X168.180 Y83.531 E6.2821
G1 X168.180 Y84.026 E6.2920
G1 X153.399 Y69.245 E6.7081
G1 X152.904 Y69.245 E6.7180
G1 X168.180 Y84.521 E7.1480
G1 X168.180 Y85.016 E7.1579
G1 X152.409 Y69.245 E7.6019
G1 X151.914 Y69.245 E7.6117
G1 X168.180 Y85.511 E8.0696
G1 X168.180 Y86.006 E8.0795
G1 X151.419 Y69.245 E8.5514
G1 X150.924 Y69.245 E8.5612
G1 X168.180 Y86.501 E9.0470
G1 X168.180 Y86.996 E9.0569
G1 X150.429 Y69.245 E9.5566
G1 X149.934 Y69.245 E9.5665
G1 X168.180 Y87.491 E10.0801
G1 X168.180 Y87.986 E10.0900
G1 X149.439 Y69.245 E10.6176
G1 X148.944 Y69.245 E10.6274
G1 X168.180 Y88.481 E11.1690
G1 X168.180 Y88.976 E11.1788
G1 X148.449 Y69.245 E11.7343
G1 X147.954 Y69.245 E11.7441
G1 X168.180 Y89.471 E12.3135
G1 X168.180 Y89.966 E12.3234
G1 X147.459 Y69.245 E12.9067
G1 X146.964 Y69.245 E12.9166
G1 X168.180 Y90.461 E13.5139
G1 X168.180 Y90.956 E13.5237
G1 X146.469 Y69.245 E14.1349
G1 X145.974 Y69.245 E14.1448
G1 X168.180 Y91.451 E14.7699
G1 X168.180 Y91.946 E14.7798
G1 X145.479 Y69.245 E15.4188
G1 X144.984 Y69.245 E15.4287
G1 X168.180 Y92.441 E16.0817
G1 X168.180 Y92.936 E16.0916
G1 X144.489 Y69.245 E16.7585
G1 X143.994 Y69.245 E16.7684
G1 X168.180 Y93.431 E17.4492
G1 X168.180 Y93.926 E17.4591
G1 X143.499 Y69.245 E18.1539
G1 X143.004 Y69.245 E18.1638
G1 X168.180 Y94.421 E18.8725
G1 X168.180 Y94.916 E18.8824
G1 X142.509 Y69.245 E19.6050
G1 X142.014 Y69.245 E19.6149
G1 X168.180 Y95.411 E20.3515
G1 X168.180 Y95.906 E20.3614
G1 X141.519 Y69.245 E21.1119
G1 X141.024 Y69.245 E21.1218
G1 X168.180 Y96.401 E21.8862
G1 X168.180 Y96.896 E21.8961
G1 X140.529 Y69.245 E22.6745
G1 X140.034 Y69.245 E22.6844
G1 X168.180 Y97.391 E23.4767
G1 X168.180 Y97.886 E23.4866
G1 X139.539 Y69.245 E24.2929
G1 X139.044 Y69.245 E24.3027
G1 X168.180 Y98.381 E25.1229
G1 X168.180 Y98.875 E25.1328
G1 X138.549 Y69.245 E25.9670
G1 X138.054 Y69.245 E25.9768
G1 X168.180 Y99.370 E26.8249
G1 X168.180 Y99.865 E26.8347
G1 X137.559 Y69.245 E27.6968
G1 X137.065 Y69.245 E27.7066
G1 X168.180 Y100.360 E28.5826
G1 X168.180 Y100.855 E28.5924
G1 X136.570 Y69.245 E29.4823
G1 X136.075 Y69.245 E29.4922
G1 X168.180 Y101.350 E30.3960
G1 X168.180 Y101.845 E30.4059
G1 X135.580 Y69.245 E31.3236
G1 X135.085 Y69.245 E31.3335
G1 X168.180 Y102.340 E32.2652
G1 X168.180 Y102.835 E32.2750
G1 X134.590 Y69.245 E33.2207
G1 X134.095 Y69.245 E33.2305
G1 X168.180 Y103.330 E34.1901
G1 X168.180 Y103.825 E34.1999
G1 X133.600 Y69.245 E35.1734
G1 X133.105 Y69.245 E35.1833
G1 X168.180 Y104.320 E36.1707
G1 X168.180 Y104.815 E36.1806
G1 X132.610 Y69.245 E37.1819
G1 X132.115 Y69.245 E37.1918
G1 X168.180 Y105.310 E38.2071
G1 X168.180 Y105.805 E38.2170
G1 X131.620 Y69.245 E39.2462
G1 X131.125 Y69.245 E39.2560
G1 X168.180 Y106.300 E40.2992
G1 X168.180 Y106.795 E40.3091
G1 X130.630 Y69.245 E41.3662
G1 X130.135 Y69.245 E41.3760
G1 X168.180 Y107.290 E42.4471
G1 X168.180 Y107.785 E42.4569
G1 X129.640 Y69.245 E43.5419
G1 X129.145 Y69.245 E43.5517
G1 X168.180 Y108.280 E44.6507
G1 X168.180 Y108.775 E44.6605
G1 X128.650 Y69.245 E45.7734
G1 X128.155 Y69.245 E45.7832
G1 X168.180 Y109.270 E46.9100
G1 X168.180 Y109.765 E46.9198
