; G-Code generated by Simplify3D(R) Version 4.1.2
; Jul 8, 2020 at 6:58:00 PM
; Settings Summary
;   processName,Process1
;   applyToModels,PiNoirCamCaseHolder-Head_Back_New
;   profileName,A04-04-25s Tevo Tornado
;   profileVersion,2020-07-06 22:44:24
;   baseProfile,Creality CR-10(2)
;   printMaterial,PLA
;   printQuality,Medium
;   printExtruders,
;   extruderName,Primary Extruder
;   extruderToolheadNumber,0
;   extruderDiameter,0.4
;   extruderAutoWidth,0
;   extruderWidth,0.35
;   extrusionMultiplier,0.95
;   extruderUseRetract,1
;   extruderRetractionDistance,4
;   extruderExtraRestartDistance,0
;   extruderRetractionZLift,0.3
;   extruderRetractionSpeed,3000
;   extruderUseCoasting,1
;   extruderCoastingDistance,0.8
;   extruderUseWipe,0
;   extruderWipeDistance,4
;   primaryExtruder,0
;   layerHeight,0.15
;   topSolidLayers,4
;   bottomSolidLayers,3
;   perimeterOutlines,3
;   printPerimetersInsideOut,0
;   startPointOption,1
;   startPointOriginX,0
;   startPointOriginY,300
;   sequentialIslands,0
;   spiralVaseMode,0
;   firstLayerHeightPercentage,120
;   firstLayerWidthPercentage,100
;   firstLayerUnderspeed,0.35
;   useRaft,0
;   raftExtruder,0
;   raftTopLayers,3
;   raftBaseLayers,2
;   raftOffset,3
;   raftSeparationDistance,0.14
;   raftTopInfill,100
;   aboveRaftSpeedMultiplier,0.3
;   useSkirt,1
;   skirtExtruder,0
;   skirtLayers,1
;   skirtOutlines,3
;   skirtOffset,2
;   usePrimePillar,0
;   primePillarExtruder,999
;   primePillarWidth,12
;   primePillarLocation,7
;   primePillarSpeedMultiplier,1
;   useOozeShield,0
;   oozeShieldExtruder,999
;   oozeShieldOffset,2
;   oozeShieldOutlines,1
;   oozeShieldSidewallShape,1
;   oozeShieldSidewallAngle,30
;   oozeShieldSpeedMultiplier,1
;   infillExtruder,0
;   internalInfillPattern,Rectilinear
;   externalInfillPattern,Rectilinear
;   infillPercentage,25
;   outlineOverlapPercentage,15
;   infillExtrusionWidthPercentage,100
;   minInfillLength,5
;   infillLayerInterval,1
;   internalInfillAngles,45,-45
;   overlapInternalInfillAngles,0
;   externalInfillAngles,45,-45
;   generateSupport,1
;   supportExtruder,0
;   supportInfillPercentage,30
;   supportExtraInflation,0
;   supportBaseLayers,0
;   denseSupportExtruder,0
;   denseSupportLayers,0
;   denseSupportInfillPercentage,70
;   supportLayerInterval,1
;   supportHorizontalPartOffset,0.4
;   supportUpperSeparationLayers,1
;   supportLowerSeparationLayers,1
;   supportType,0
;   supportGridSpacing,4.5
;   maxOverhangAngle,45
;   supportAngles,0
;   temperatureName,Primary Extruder,Heated Bed
;   temperatureNumber,0,0
;   temperatureSetpointCount,1,1
;   temperatureSetpointLayers,1,1
;   temperatureSetpointTemperatures,215,55
;   temperatureStabilizeAtStartup,1,1
;   temperatureHeatedBed,0,1
;   fanLayers,1,2
;   fanSpeeds,0,100
;   blipFanToFullPower,0
;   adjustSpeedForCooling,1
;   minSpeedLayerTime,15
;   minCoolingSpeedSlowdown,50
;   increaseFanForCooling,1
;   minFanLayerTime,25
;   maxCoolingFanSpeed,100
;   increaseFanForBridging,1
;   bridgingFanSpeed,100
;   use5D,1
;   relativeEdistances,0
;   allowEaxisZeroing,1
;   independentExtruderAxes,0
;   includeM10123,0
;   stickySupport,1
;   applyToolheadOffsets,0
;   gcodeXoffset,0
;   gcodeYoffset,0
;   gcodeZoffset,0
;   overrideMachineDefinition,1
;   machineTypeOverride,0
;   strokeXoverride,300
;   strokeYoverride,300
;   strokeZoverride,400
;   originOffsetXoverride,0
;   originOffsetYoverride,0
;   originOffsetZoverride,0
;   homeXdirOverride,-1
;   homeYdirOverride,-1
;   homeZdirOverride,-1
;   flipXoverride,1
;   flipYoverride,-1
;   flipZoverride,1
;   toolheadOffsets,0,0|0,0|0,0|0,0|0,0|0,0
;   overrideFirmwareConfiguration,1
;   firmwareTypeOverride,RepRap (Marlin/Repetier/Sprinter)
;   GPXconfigOverride,r2
;   baudRateOverride,250000
;   overridePrinterModels,1
;   printerModelsOverride
;   startingGcode,;,; -]H.P.B[- MarshMalloW  ,; $VER: StartScript 1.02 (26.12.2019) MarshMalloW,;,; Begin Startcode,;,M117 *Preheat*     	; Preheat,;extruder0_temperature,M104 S[extruder0_temperature]  ,M109 S[extruder0_temperature] ,M109 R[extruder0_temperature] ,;,M117 *Auto-leveling*     	; Auto-leveling,M107                   	; Turn layer fan off,G21                    	; Set to metric [change to G20 if you want Imperial],G90                    	; Force coordinates to be absolute relative to the origin,G28                    	; Home X/Y/Z axis,G29                    	; Auto-leveling (BL-Touch),;,M117 *Start Clean*     	; Indicate nozzle clean in progress on LCD,G92 E0                 	; Set Extruder to 0 ,G1 X0 Y0 F2000         	; Move X and Y to 0 with speed 2000 (mm/min),G1 Z0.1 F1000          	; Move Z to   0.1 with speed 1000 (mm/min),G1 X8.0 F2000          	; Move X to   8.0 with speed 2000 (mm/min),G1 Y60.0 E4.0 F1000.0  	; Move Y to  60 and Extruder with 4.0 with speed 1000 (mm/min),G1 Y100.0 E8.5 F1000.0 	; Move Y to 100 and Extruder with 8.5 with speed 1000 (mm/min),G92 E0                 	; Set extruder to 0,G1 X16.0 F3000         	; Move X to 16.0 with speed 3000 (mm/min),G1 Y60.0 F3000         	; Move Y to 60.0 with speed 3000 (mm/min),M117 *End Clean*       	; Indicate nozzle clean in progress on LCD,G1 Z5 F3000            	; Move Z to  5.0 with speed 3000 (mm/min),G1 X20.0 F3000         	; Move X to 20.0 with speed 3000 (mm/min),G1 Y20.0 F3000         	; Move Y to 20.0 with speed 3000 (mm/min),; ,M117 *Printing...*     	; Start printing msg on LCD,;,; End Startcode,;,; Begin printing with sliced GCode after here,;
;   layerChangeGcode,
;   retractionGcode,
;   toolChangeGcode,
;   endingGcode,;,; init 181010,;,;M107 			; Fan off,;G1 E-1 F300 			; Retract the filament a bit before lifting the nozzle,;M104 S0 			; Turn off extruder,;M140 S0 			; Turn off bed,;G91			; Relative positioning,;G28 X0 Y0 			; Move X/Y to min endstops so the head is out of teh way,;M84 			; Disable motors,;G90 			; Absolute positioning,;M117 Print ready...,,;,; // From Cura 181010,; // End_gcode,G92 E0			; Zero the extruded length,;G1 E-30 F300		; Retract E -30,M106 S0			; Turn off cooling fan,M104 S0			; Turn off temperature,M140 S0		     	; Turn off bed,G91			; Relative positioning,G1 E-1 F300			; Retract the filament a bit before lifting the nozzle to release some of the pressure,G1 Z+20 E-5 X-20 Y-20 F7200	; Move Z up a bit and retract filament even more,G1 X0 Y150 F10000		; Move right min,M107			; Turn off layer fan,M84			; Disable motors,G90			; Absolute positioning,M117 *The-End* 		; End msg,;,
;   exportFileFormat,gcode
;   celebration,0
;   celebrationSong,Star Wars
;   postProcessing,|{REPLACE "; layer " "M117 INDICATOR-Layer"}|{REPLACE ", Z = " "\n; Z="}
;   defaultSpeed,1800
;   outlineUnderspeed,0.5
;   solidInfillUnderspeed,0.8
;   supportUnderspeed,0.8
;   rapidXYspeed,6000
;   rapidZspeed,1002
;   minBridgingArea,50
;   bridgingExtraInflation,0.2
;   bridgingExtrusionMultiplier,1
;   bridgingSpeedMultiplier,0.6
;   useFixedBridgingAngle,0
;   fixedBridgingAngle,0
;   applyBridgingToPerimeters,0
;   filamentDiameters,1.75|1.75|1.75|1.75|1.75|1.75
;   filamentPricesPerKg,30|46|46|46|46|46
;   filamentDensities,1.25|1.25|1.25|1.25|1.25|1.25
;   useMinPrintHeight,0
;   minPrintHeight,0
;   useMaxPrintHeight,0
;   maxPrintHeight,9
;   useDiaphragm,0
;   diaphragmLayerInterval,20
;   robustSlicing,1
;   mergeAllIntoSolid,0
;   onlyRetractWhenCrossingOutline,1
;   retractBetweenLayers,0
;   useRetractionMinTravel,0
;   retractionMinTravel,3
;   retractWhileWiping,0
;   onlyWipeOutlines,1
;   avoidCrossingOutline,1
;   maxMovementDetourFactor,3
;   toolChangeRetractionDistance,12
;   toolChangeExtraRestartDistance,-0.5
;   toolChangeRetractionSpeed,600
;   externalThinWallType,1
;   internalThinWallType,1
;   thinWallAllowedOverlapPercentage,10
;   singleExtrusionMinLength,1
;   singleExtrusionMinPrintingWidthPercentage,50
;   singleExtrusionMaxPrintingWidthPercentage,200
;   singleExtrusionEndpointExtension,0.2
;   horizontalSizeCompensation,0
G90
M82
M106 S0
M140 S55
M190 S55
;
; -]H.P.B[- MarshMalloW  
; $VER: StartScript 1.02 (26.12.2019) MarshMalloW
;
; Begin Startcode
;
M117 *Preheat*     	; Preheat
;extruder0_temperature
M104 S215  
M109 S215 
M109 R215 
;
M117 *Auto-leveling*     	; Auto-leveling
M107                   	; Turn layer fan off
G21                    	; Set to metric [change to G20 if you want Imperial]
G90                    	; Force coordinates to be absolute relative to the origin
G28                    	; Home X/Y/Z axis
G29                    	; Auto-leveling (BL-Touch)
;
M117 *Start Clean*     	; Indicate nozzle clean in progress on LCD
G92 E0                 	; Set Extruder to 0 
G1 X0 Y0 F2000         	; Move X and Y to 0 with speed 2000 (mm/min)
G1 Z0.1 F1000          	; Move Z to   0.1 with speed 1000 (mm/min)
G1 X8.0 F2000          	; Move X to   8.0 with speed 2000 (mm/min)
G1 Y60.0 E4.0 F1000.0  	; Move Y to  60 and Extruder with 4.0 with speed 1000 (mm/min)
G1 Y100.0 E8.5 F1000.0 	; Move Y to 100 and Extruder with 8.5 with speed 1000 (mm/min)
G92 E0                 	; Set extruder to 0
G1 X16.0 F3000         	; Move X to 16.0 with speed 3000 (mm/min)
G1 Y60.0 F3000         	; Move Y to 60.0 with speed 3000 (mm/min)
M117 *End Clean*       	; Indicate nozzle clean in progress on LCD
G1 Z5 F3000            	; Move Z to  5.0 with speed 3000 (mm/min)
G1 X20.0 F3000         	; Move X to 20.0 with speed 3000 (mm/min)
G1 Y20.0 F3000         	; Move Y to 20.0 with speed 3000 (mm/min)
; 
M117 *Printing...*     	; Start printing msg on LCD
;
; End Startcode
;
; Begin printing with sliced GCode after here
;
; process Process1
M117 INDICATOR-Layer1
; Z=0.180
T0
G92 E0.0000
G1 E-4.0000 F3000
; feature skirt
; tool H0.180 W0.350
G1 Z0.300 F1002
G1 X138.971 Y133.405 F6000
G1 Z0.180 F1002
G1 E0.0000 F3000
G92 E0.0000
G1 X161.029 Y133.405 E0.5489 F630
G1 X161.809 Y132.625 E0.5763
G1 X177.396 Y132.625 E0.9642
G1 X177.515 Y132.630 E0.9671
G1 X180.079 Y132.842 E1.0311
G1 X180.314 Y132.882 E1.0371
G1 X182.866 Y133.528 E1.1026
G1 X183.091 Y133.605 E1.1085
G1 X185.502 Y134.663 E1.1740
G1 X185.711 Y134.776 E1.1799
G1 X187.915 Y136.216 E1.2454
G1 X188.102 Y136.362 E1.2513
G1 X190.039 Y138.145 E1.3168
G1 X190.200 Y138.320 E1.3228
G1 X191.817 Y140.397 E1.3883
G1 X191.947 Y140.596 E1.3942
G1 X193.200 Y142.912 E1.4597
G1 X193.296 Y143.129 E1.4656
G1 X194.151 Y145.619 E1.5311
G1 X194.209 Y145.850 E1.5370
G1 X194.642 Y148.447 E1.6025
G1 X194.662 Y148.684 E1.6085
G1 X194.662 Y151.316 E1.6740
G1 X194.642 Y151.553 E1.6799
G1 X194.209 Y154.150 E1.7454
G1 X194.151 Y154.381 E1.7513
G1 X193.296 Y156.871 E1.8168
G1 X193.200 Y157.088 E1.8227
G1 X191.947 Y159.404 E1.8882
G1 X191.817 Y159.603 E1.8942
G1 X190.200 Y161.680 E1.9597
G1 X190.039 Y161.855 E1.9656
G1 X188.102 Y163.638 E2.0311
G1 X187.915 Y163.784 E2.0370
G1 X185.711 Y165.224 E2.1025
G1 X185.502 Y165.337 E2.1084
G1 X183.091 Y166.395 E2.1739
G1 X182.866 Y166.472 E2.1799
G1 X180.314 Y167.118 E2.2454
G1 X180.079 Y167.158 E2.2513
G1 X177.515 Y167.370 E2.3153
G1 X177.396 Y167.375 E2.3183
G1 X122.604 Y167.375 E3.6816
G1 X122.485 Y167.370 E3.6846
G1 X119.921 Y167.158 E3.7486
G1 X119.686 Y167.118 E3.7545
G1 X117.134 Y166.472 E3.8200
G1 X116.909 Y166.395 E3.8260
G1 X114.498 Y165.337 E3.8915
G1 X114.289 Y165.224 E3.8974
G1 X112.085 Y163.784 E3.9629
G1 X111.898 Y163.638 E3.9688
G1 X109.961 Y161.855 E4.0343
G1 X109.800 Y161.680 E4.0402
G1 X108.183 Y159.603 E4.1057
G1 X108.053 Y159.404 E4.1117
G1 X106.800 Y157.088 E4.1772
G1 X106.704 Y156.871 E4.1831
G1 X105.849 Y154.381 E4.2486
G1 X105.791 Y154.150 E4.2545
G1 X105.358 Y151.553 E4.3200
G1 X105.338 Y151.316 E4.3259
G1 X105.338 Y148.684 E4.3914
G1 X105.358 Y148.447 E4.3974
G1 X105.791 Y145.850 E4.4629
G1 X105.849 Y145.619 E4.4688
G1 X106.704 Y143.129 E4.5343
G1 X106.800 Y142.912 E4.5402
G1 X108.053 Y140.596 E4.6057
G1 X108.183 Y140.397 E4.6116
G1 X109.800 Y138.320 E4.6771
G1 X109.961 Y138.145 E4.6831
G1 X111.898 Y136.362 E4.7486
G1 X112.085 Y136.216 E4.7545
G1 X114.289 Y134.776 E4.8200
G1 X114.498 Y134.663 E4.8259
G1 X116.909 Y133.605 E4.8914
G1 X117.134 Y133.528 E4.8973
G1 X119.686 Y132.882 E4.9628
G1 X119.921 Y132.842 E4.9688
G1 X122.485 Y132.630 E5.0328
G1 X122.604 Y132.625 E5.0357
G1 X138.191 Y132.625 E5.4236
G1 X138.971 Y133.405 E5.4510
G92 E0.0000
G1 E-4.0000 F3000
G1 Z0.480 F1002
G1 X136.825 Y135.675 F6000
G1 X136.825 Y136.636
G1 X136.315 Y137.405
G1 X122.442 Y137.405
G1 X120.263 Y137.596
G1 X118.142 Y138.164
G1 X116.152 Y139.092
G1 X114.354 Y140.351
G1 X112.801 Y141.904
G1 X111.542 Y143.702
G1 X110.614 Y145.692
G1 X110.046 Y147.813
G1 X109.854 Y150.000
G1 X110.046 Y152.187
G1 X110.614 Y154.308
G1 X111.542 Y156.298
G1 X112.801 Y158.096
G1 X114.354 Y159.649
G1 X116.152 Y160.908
G1 X118.142 Y161.836
G1 X119.796 Y162.279
G1 X118.818 Y163.752
G1 X118.012 Y163.548
G1 X117.234 Y166.136
G1 Z0.180 F1002
G1 E0.0000 F3000
G92 E0.0000
G1 X117.037 Y166.069 E0.0052 F630
G1 X114.652 Y165.023 E0.0700
G1 X114.469 Y164.923 E0.0752
G1 X112.289 Y163.499 E0.1400
G1 X112.124 Y163.371 E0.1452
G1 X110.208 Y161.608 E0.2100
G1 X110.067 Y161.454 E0.2151
G1 X108.468 Y159.399 E0.2799
G1 X108.354 Y159.224 E0.2851
G1 X107.114 Y156.934 E0.3499
G1 X107.030 Y156.743 E0.3551
G1 X106.185 Y154.281 E0.4199
G1 X106.134 Y154.078 E0.4251
G1 X105.705 Y151.510 E0.4899
G1 X105.688 Y151.302 E0.4951
G1 X105.688 Y148.698 E0.5599
G1 X105.705 Y148.490 E0.5651
G1 X106.134 Y145.922 E0.6299
G1 X106.185 Y145.719 E0.6351
G1 X107.030 Y143.257 E0.6998
G1 X107.114 Y143.066 E0.7050
G1 X108.354 Y140.776 E0.7698
G1 X108.468 Y140.601 E0.7750
G1 X110.067 Y138.546 E0.8398
G1 X110.209 Y138.392 E0.8450
G1 X112.124 Y136.629 E0.9098
G1 X112.289 Y136.501 E0.9150
G1 X114.469 Y135.077 E0.9798
G1 X114.652 Y134.977 E0.9850
G1 X117.037 Y133.931 E1.0498
G1 X117.234 Y133.864 E1.0550
G1 X119.758 Y133.224 E1.1197
G1 X119.964 Y133.190 E1.1249
G1 X122.507 Y132.979 E1.1884
G1 X122.611 Y132.975 E1.1910
G1 X138.046 Y132.975 E1.5751
G1 X138.826 Y133.755 E1.6025
G1 X161.174 Y133.755 E2.1586
G1 X161.954 Y132.975 E2.1861
G1 X177.389 Y132.975 E2.5701
G1 X177.493 Y132.979 E2.5727
G1 X180.036 Y133.190 E2.6362
G1 X180.242 Y133.224 E2.6414
G1 X182.766 Y133.864 E2.7062
G1 X182.963 Y133.931 E2.7114
G1 X185.348 Y134.977 E2.7762
G1 X185.531 Y135.077 E2.7814
G1 X187.711 Y136.501 E2.8461
G1 X187.876 Y136.629 E2.8513
G1 X189.791 Y138.392 E2.9161
G1 X189.933 Y138.546 E2.9213
G1 X191.532 Y140.601 E2.9861
G1 X191.646 Y140.776 E2.9913
G1 X192.886 Y143.066 E3.0561
G1 X192.970 Y143.257 E3.0613
G1 X193.815 Y145.719 E3.1261
G1 X193.866 Y145.922 E3.1313
G1 X194.295 Y148.490 E3.1961
G1 X194.312 Y148.698 E3.2013
G1 X194.312 Y151.302 E3.2660
G1 X194.295 Y151.510 E3.2712
G1 X193.866 Y154.078 E3.3360
G1 X193.815 Y154.281 E3.3412
G1 X192.970 Y156.743 E3.4060
G1 X192.886 Y156.934 E3.4112
G1 X191.646 Y159.224 E3.4760
G1 X191.532 Y159.399 E3.4812
G1 X189.933 Y161.454 E3.5460
G1 X189.791 Y161.608 E3.5512
G1 X187.876 Y163.371 E3.6160
G1 X187.711 Y163.499 E3.6212
G1 X185.531 Y164.923 E3.6860
G1 X185.348 Y165.023 E3.6911
G1 X182.963 Y166.069 E3.7559
G1 X182.766 Y166.136 E3.7611
G1 X180.242 Y166.776 E3.8259
G1 X180.036 Y166.810 E3.8311
G1 X177.493 Y167.021 E3.8946
G1 X177.389 Y167.025 E3.8972
G1 X122.611 Y167.025 E5.2602
G1 X122.507 Y167.021 E5.2628
G1 X119.964 Y166.810 E5.3263
G1 X119.758 Y166.776 E5.3315
G1 X117.234 Y166.136 E5.3963
G92 E0.0000
G1 E-4.0000 F3000
G1 Z0.480 F1002
G1 X118.012 Y163.548 F6000
G1 X120.306 Y164.129
G1 X122.586 Y164.318
G1 X127.657 Y162.595
G1 X177.558 Y162.595
G1 X179.737 Y162.404
G1 X181.858 Y161.836
G1 X183.848 Y160.908
G1 X185.646 Y159.649
G1 X187.199 Y158.096
G1 X188.458 Y156.298
G1 X189.386 Y154.308
G1 X189.954 Y152.187
G1 X190.146 Y150.000
G1 X189.954 Y147.813
G1 X189.386 Y145.692
G1 X188.458 Y143.702
G1 X187.459 Y142.275
G1 X189.005 Y141.750
G1 X189.328 Y142.165
G1 X191.345 Y140.955
G1 Z0.180 F1002
G1 E0.0000 F3000
G92 E0.0000
G1 X192.571 Y143.219 E0.0641 F630
G1 X192.643 Y143.384 E0.0685
G1 X193.479 Y145.819 E0.1326
G1 X193.523 Y145.994 E0.1371
G1 X193.947 Y148.533 E0.2012
G1 X193.962 Y148.713 E0.2056
