; G-Code generated by Simplify3D(R) Version 4.1.2
; Jul 7, 2020 at 12:06:44 AM
; Settings Summary
;   processName,Process1
;   applyToModels,PiNoirCamCaseHolder-ball-mount_New
;   profileName,A04-04-25s Tevo Tornado
;   profileVersion,2020-07-06 22:44:24
;   baseProfile,Creality CR-10(2)
;   printMaterial,PLA
;   printQuality,Medium
;   printExtruders,
;   extruderName,Primary Extruder
;   extruderToolheadNumber,0
;   extruderDiameter,0.4
;   extruderAutoWidth,0
;   extruderWidth,0.35
;   extrusionMultiplier,0.95
;   extruderUseRetract,1
;   extruderRetractionDistance,4
;   extruderExtraRestartDistance,0
;   extruderRetractionZLift,0.3
;   extruderRetractionSpeed,3000
;   extruderUseCoasting,1
;   extruderCoastingDistance,0.8
;   extruderUseWipe,0
;   extruderWipeDistance,4
;   primaryExtruder,0
;   layerHeight,0.15
;   topSolidLayers,4
;   bottomSolidLayers,3
;   perimeterOutlines,3
;   printPerimetersInsideOut,0
;   startPointOption,1
;   startPointOriginX,0
;   startPointOriginY,300
;   sequentialIslands,0
;   spiralVaseMode,0
;   firstLayerHeightPercentage,120
;   firstLayerWidthPercentage,100
;   firstLayerUnderspeed,0.35
;   useRaft,0
;   raftExtruder,0
;   raftTopLayers,3
;   raftBaseLayers,2
;   raftOffset,3
;   raftSeparationDistance,0.14
;   raftTopInfill,100
;   aboveRaftSpeedMultiplier,0.3
;   useSkirt,1
;   skirtExtruder,0
;   skirtLayers,1
;   skirtOutlines,3
;   skirtOffset,2
;   usePrimePillar,0
;   primePillarExtruder,999
;   primePillarWidth,12
;   primePillarLocation,7
;   primePillarSpeedMultiplier,1
;   useOozeShield,0
;   oozeShieldExtruder,999
;   oozeShieldOffset,2
;   oozeShieldOutlines,1
;   oozeShieldSidewallShape,1
;   oozeShieldSidewallAngle,30
;   oozeShieldSpeedMultiplier,1
;   infillExtruder,0
;   internalInfillPattern,Rectilinear
;   externalInfillPattern,Rectilinear
;   infillPercentage,25
;   outlineOverlapPercentage,15
;   infillExtrusionWidthPercentage,100
;   minInfillLength,5
;   infillLayerInterval,1
;   internalInfillAngles,45,-45
;   overlapInternalInfillAngles,0
;   externalInfillAngles,45,-45
;   generateSupport,1
;   supportExtruder,0
;   supportInfillPercentage,30
;   supportExtraInflation,0
;   supportBaseLayers,0
;   denseSupportExtruder,0
;   denseSupportLayers,0
;   denseSupportInfillPercentage,70
;   supportLayerInterval,1
;   supportHorizontalPartOffset,0.4
;   supportUpperSeparationLayers,1
;   supportLowerSeparationLayers,1
;   supportType,0
;   supportGridSpacing,4.5
;   maxOverhangAngle,45
;   supportAngles,0
;   temperatureName,Primary Extruder,Heated Bed
;   temperatureNumber,0,0
;   temperatureSetpointCount,1,1
;   temperatureSetpointLayers,1,1
;   temperatureSetpointTemperatures,215,55
;   temperatureStabilizeAtStartup,1,1
;   temperatureHeatedBed,0,1
;   fanLayers,1,2
;   fanSpeeds,0,100
;   blipFanToFullPower,0
;   adjustSpeedForCooling,1
;   minSpeedLayerTime,15
;   minCoolingSpeedSlowdown,50
;   increaseFanForCooling,1
;   minFanLayerTime,25
;   maxCoolingFanSpeed,100
;   increaseFanForBridging,1
;   bridgingFanSpeed,100
;   use5D,1
;   relativeEdistances,0
;   allowEaxisZeroing,1
;   independentExtruderAxes,0
;   includeM10123,0
;   stickySupport,1
;   applyToolheadOffsets,0
;   gcodeXoffset,0
;   gcodeYoffset,0
;   gcodeZoffset,0
;   overrideMachineDefinition,1
;   machineTypeOverride,0
;   strokeXoverride,300
;   strokeYoverride,300
;   strokeZoverride,400
;   originOffsetXoverride,0
;   originOffsetYoverride,0
;   originOffsetZoverride,0
;   homeXdirOverride,-1
;   homeYdirOverride,-1
;   homeZdirOverride,-1
;   flipXoverride,1
;   flipYoverride,-1
;   flipZoverride,1
;   toolheadOffsets,0,0|0,0|0,0|0,0|0,0|0,0
;   overrideFirmwareConfiguration,1
;   firmwareTypeOverride,RepRap (Marlin/Repetier/Sprinter)
;   GPXconfigOverride,r2
;   baudRateOverride,250000
;   overridePrinterModels,1
;   printerModelsOverride
;   startingGcode,;,; -]H.P.B[- MarshMalloW  ,; $VER: StartScript 1.02 (26.12.2019) MarshMalloW,;,; Begin Startcode,;,M117 *Preheat*     	; Preheat,;extruder0_temperature,M104 S[extruder0_temperature]  ,M109 S[extruder0_temperature] ,M109 R[extruder0_temperature] ,;,M117 *Auto-leveling*     	; Auto-leveling,M107                   	; Turn layer fan off,G21                    	; Set to metric [change to G20 if you want Imperial],G90                    	; Force coordinates to be absolute relative to the origin,G28                    	; Home X/Y/Z axis,G29                    	; Auto-leveling (BL-Touch),;,M117 *Start Clean*     	; Indicate nozzle clean in progress on LCD,G92 E0                 	; Set Extruder to 0 ,G1 X0 Y0 F2000         	; Move X and Y to 0 with speed 2000 (mm/min),G1 Z0.1 F1000          	; Move Z to   0.1 with speed 1000 (mm/min),G1 X8.0 F2000          	; Move X to   8.0 with speed 2000 (mm/min),G1 Y60.0 E4.0 F1000.0  	; Move Y to  60 and Extruder with 4.0 with speed 1000 (mm/min),G1 Y100.0 E8.5 F1000.0 	; Move Y to 100 and Extruder with 8.5 with speed 1000 (mm/min),G92 E0                 	; Set extruder to 0,G1 X16.0 F3000         	; Move X to 16.0 with speed 3000 (mm/min),G1 Y60.0 F3000         	; Move Y to 60.0 with speed 3000 (mm/min),M117 *End Clean*       	; Indicate nozzle clean in progress on LCD,G1 Z5 F3000            	; Move Z to  5.0 with speed 3000 (mm/min),G1 X20.0 F3000         	; Move X to 20.0 with speed 3000 (mm/min),G1 Y20.0 F3000         	; Move Y to 20.0 with speed 3000 (mm/min),; ,M117 *Printing...*     	; Start printing msg on LCD,;,; End Startcode,;,; Begin printing with sliced GCode after here,;
;   layerChangeGcode,
;   retractionGcode,
;   toolChangeGcode,
;   endingGcode,;,; init 181010,;,;M107 			; Fan off,;G1 E-1 F300 			; Retract the filament a bit before lifting the nozzle,;M104 S0 			; Turn off extruder,;M140 S0 			; Turn off bed,;G91			; Relative positioning,;G28 X0 Y0 			; Move X/Y to min endstops so the head is out of teh way,;M84 			; Disable motors,;G90 			; Absolute positioning,;M117 Print ready...,,;,; // From Cura 181010,; // End_gcode,G92 E0			; Zero the extruded length,;G1 E-30 F300		; Retract E -30,M106 S0			; Turn off cooling fan,M104 S0			; Turn off temperature,M140 S0		     	; Turn off bed,G91			; Relative positioning,G1 E-1 F300			; Retract the filament a bit before lifting the nozzle to release some of the pressure,G1 Z+20 E-5 X-20 Y-20 F7200	; Move Z up a bit and retract filament even more,G1 X0 Y150 F10000		; Move right min,M107			; Turn off layer fan,M84			; Disable motors,G90			; Absolute positioning,M117 *The-End* 		; End msg,;,
;   exportFileFormat,gcode
;   celebration,0
;   celebrationSong,Star Wars
;   postProcessing,|{REPLACE "; layer " "M117 INDICATOR-Layer"}|{REPLACE ", Z = " "\n; Z="}
;   defaultSpeed,1800
;   outlineUnderspeed,0.5
;   solidInfillUnderspeed,0.8
;   supportUnderspeed,0.8
;   rapidXYspeed,6000
;   rapidZspeed,1002
;   minBridgingArea,50
;   bridgingExtraInflation,0.2
;   bridgingExtrusionMultiplier,1
;   bridgingSpeedMultiplier,0.6
;   useFixedBridgingAngle,0
;   fixedBridgingAngle,0
;   applyBridgingToPerimeters,0
;   filamentDiameters,1.75|1.75|1.75|1.75|1.75|1.75
;   filamentPricesPerKg,30|46|46|46|46|46
;   filamentDensities,1.25|1.25|1.25|1.25|1.25|1.25
;   useMinPrintHeight,0
;   minPrintHeight,0
;   useMaxPrintHeight,0
;   maxPrintHeight,9
;   useDiaphragm,0
;   diaphragmLayerInterval,20
;   robustSlicing,1
;   mergeAllIntoSolid,0
;   onlyRetractWhenCrossingOutline,1
;   retractBetweenLayers,0
;   useRetractionMinTravel,0
;   retractionMinTravel,3
;   retractWhileWiping,0
;   onlyWipeOutlines,1
;   avoidCrossingOutline,1
;   maxMovementDetourFactor,3
;   toolChangeRetractionDistance,12
;   toolChangeExtraRestartDistance,-0.5
;   toolChangeRetractionSpeed,600
;   externalThinWallType,1
;   internalThinWallType,1
;   thinWallAllowedOverlapPercentage,10
;   singleExtrusionMinLength,1
;   singleExtrusionMinPrintingWidthPercentage,50
;   singleExtrusionMaxPrintingWidthPercentage,200
;   singleExtrusionEndpointExtension,0.2
;   horizontalSizeCompensation,0
G90
M82
M106 S0
M140 S55
M190 S55
;
; -]H.P.B[- MarshMalloW  
; $VER: StartScript 1.02 (26.12.2019) MarshMalloW
;
; Begin Startcode
;
M117 *Preheat*     	; Preheat
;extruder0_temperature
M104 S215  
M109 S215 
M109 R215 
;
M117 *Auto-leveling*     	; Auto-leveling
M107                   	; Turn layer fan off
G21                    	; Set to metric [change to G20 if you want Imperial]
G90                    	; Force coordinates to be absolute relative to the origin
G28                    	; Home X/Y/Z axis
G29                    	; Auto-leveling (BL-Touch)
;
M117 *Start Clean*     	; Indicate nozzle clean in progress on LCD
G92 E0                 	; Set Extruder to 0 
G1 X0 Y0 F2000         	; Move X and Y to 0 with speed 2000 (mm/min)
G1 Z0.1 F1000          	; Move Z to   0.1 with speed 1000 (mm/min)
G1 X8.0 F2000          	; Move X to   8.0 with speed 2000 (mm/min)
G1 Y60.0 E4.0 F1000.0  	; Move Y to  60 and Extruder with 4.0 with speed 1000 (mm/min)
G1 Y100.0 E8.5 F1000.0 	; Move Y to 100 and Extruder with 8.5 with speed 1000 (mm/min)
G92 E0                 	; Set extruder to 0
G1 X16.0 F3000         	; Move X to 16.0 with speed 3000 (mm/min)
G1 Y60.0 F3000         	; Move Y to 60.0 with speed 3000 (mm/min)
M117 *End Clean*       	; Indicate nozzle clean in progress on LCD
G1 Z5 F3000            	; Move Z to  5.0 with speed 3000 (mm/min)
G1 X20.0 F3000         	; Move X to 20.0 with speed 3000 (mm/min)
G1 Y20.0 F3000         	; Move Y to 20.0 with speed 3000 (mm/min)
; 
M117 *Printing...*     	; Start printing msg on LCD
;
; End Startcode
;
; Begin printing with sliced GCode after here
;
; process Process1
M117 INDICATOR-Layer1
; Z=0.180
T0
G92 E0.0000
G1 E-4.0000 F3000
; feature skirt
; tool H0.180 W0.350
G1 Z0.300 F1002
G1 X159.345 Y137.339 F6000
G1 Z0.180 F1002
G1 E0.0000 F3000
G92 E0.0000
G1 X159.345 Y140.655 E0.0825 F630
G1 X162.661 Y140.655 E0.1650
G1 X164.345 Y142.339 E0.2243
G1 X164.345 Y147.661 E0.3567
G1 X162.661 Y149.345 E0.4160
G1 X161.845 Y149.345 E0.4363
G1 X161.845 Y150.655 E0.4689
G1 X162.661 Y150.655 E0.4892
G1 X164.345 Y152.339 E0.5484
G1 X164.345 Y157.661 E0.6808
G1 X162.661 Y159.345 E0.7401
G1 X159.345 Y159.345 E0.8226
G1 X159.345 Y162.661 E0.9051
G1 X157.661 Y164.345 E0.9644
G1 X142.339 Y164.345 E1.3456
G1 X140.655 Y162.661 E1.4049
G1 X140.655 Y159.345 E1.4874
G1 X137.339 Y159.345 E1.5699
G1 X135.655 Y157.661 E1.6292
G1 X135.655 Y152.339 E1.7616
G1 X137.339 Y150.655 E1.8209
G1 X138.155 Y150.655 E1.8412
G1 X138.155 Y149.345 E1.8738
G1 X137.339 Y149.345 E1.8941
G1 X135.655 Y147.661 E1.9533
G1 X135.655 Y142.339 E2.0857
G1 X137.339 Y140.655 E2.1450
G1 X140.655 Y140.655 E2.2275
G1 X140.655 Y137.339 E2.3100
G1 X142.339 Y135.655 E2.3693
G1 X157.661 Y135.655 E2.7505
G1 X159.345 Y137.339 E2.8098
G92 E0.0000
G1 E-4.0000 F3000
G1 Z0.480 F1002
G1 X162.516 Y141.005 F6000
G1 Z0.180 F1002
G1 E0.0000 F3000
G92 E0.0000
G1 X163.995 Y142.484 E0.0520 F630
G1 X163.995 Y147.516 E0.1773
G1 X162.516 Y148.995 E0.2293
G1 X161.495 Y148.995 E0.2547
G1 X161.495 Y151.005 E0.3047
G1 X162.516 Y151.005 E0.3301
G1 X163.995 Y152.484 E0.3822
G1 X163.995 Y157.516 E0.5074
G1 X162.516 Y158.995 E0.5594
G1 X158.995 Y158.995 E0.6470
G1 X158.995 Y162.516 E0.7346
G1 X157.516 Y163.995 E0.7867
G1 X142.484 Y163.995 E1.1607
G1 X141.005 Y162.516 E1.2128
G1 X141.005 Y158.995 E1.3004
G1 X137.484 Y158.995 E1.3880
G1 X136.005 Y157.516 E1.4400
G1 X136.005 Y152.484 E1.5652
G1 X137.484 Y151.005 E1.6173
G1 X138.505 Y151.005 E1.6427
G1 X138.505 Y148.995 E1.6927
G1 X137.484 Y148.995 E1.7181
G1 X136.005 Y147.516 E1.7702
G1 X136.005 Y142.484 E1.8954
G1 X137.484 Y141.005 E1.9474
G1 X141.005 Y141.005 E2.0350
G1 X141.005 Y137.484 E2.1226
G1 X142.484 Y136.005 E2.1747
G1 X157.516 Y136.005 E2.5487
G1 X158.995 Y137.484 E2.6008
G1 X158.995 Y141.005 E2.6884
G1 X162.516 Y141.005 E2.7760
G92 E0.0000
G1 E-4.0000 F3000
G1 Z0.480 F1002
G1 X162.371 Y141.355 F6000
G1 Z0.180 F1002
G1 E0.0000 F3000
G92 E0.0000
G1 X163.645 Y142.629 E0.0448 F630
G1 X163.645 Y147.371 E0.1628
G1 X162.371 Y148.645 E0.2077
G1 X161.145 Y148.645 E0.2382
G1 X161.145 Y151.355 E0.3056
G1 X162.371 Y151.355 E0.3361
G1 X163.645 Y152.629 E0.3809
G1 X163.645 Y157.371 E0.4989
G1 X162.371 Y158.645 E0.5438
G1 X158.645 Y158.645 E0.6365
G1 X158.645 Y162.371 E0.7292
G1 X157.371 Y163.645 E0.7740
G1 X152.629 Y163.645 E0.8920
G1 X152.500 Y163.516 E0.8965
G1 X152.371 Y163.645 E0.9011
G1 X147.629 Y163.645 E1.0191
G1 X147.500 Y163.516 E1.0236
G1 X147.371 Y163.645 E1.0282
G1 X142.629 Y163.645 E1.1462
G1 X141.355 Y162.371 E1.1910
G1 X141.355 Y158.645 E1.2837
G1 X137.629 Y158.645 E1.3764
G1 X136.355 Y157.371 E1.4212
G1 X136.355 Y152.629 E1.5392
G1 X137.629 Y151.355 E1.5841
G1 X138.855 Y151.355 E1.6146
G1 X138.855 Y148.645 E1.6820
G1 X137.629 Y148.645 E1.7125
G1 X136.355 Y147.371 E1.7573
G1 X136.355 Y142.629 E1.8753
G1 X137.629 Y141.355 E1.9202
G1 X141.355 Y141.355 E2.0129
G1 X141.355 Y137.629 E2.1056
G1 X142.629 Y136.355 E2.1504
G1 X147.371 Y136.355 E2.2684
G1 X147.500 Y136.484 E2.2730
G1 X147.629 Y136.355 E2.2775
G1 X152.371 Y136.355 E2.3955
G1 X152.500 Y136.484 E2.4000
G1 X152.629 Y136.355 E2.4046
G1 X157.371 Y136.355 E2.5226
G1 X158.645 Y137.629 E2.5674
G1 X158.645 Y141.355 E2.6601
G1 X162.371 Y141.355 E2.7528
G92 E0.0000
G1 E-4.0000 F3000
; feature outer perimeter
G1 Z0.480 F1002
G1 X150.893 Y149.282 F6000
G1 X150.746 Y149.127
G1 X150.620 Y149.032
G1 X150.430 Y148.932
G1 X150.228 Y148.870
G1 X150.121 Y148.858
G1 X148.853 Y149.634
G1 Z0.180 F1002
G1 E0.0000 F3000
G92 E0.0000
G1 X148.994 Y149.434 E0.0061 F315
G1 X149.017 Y149.304 E0.0094
G1 X149.037 Y149.273 E0.0103
G1 X149.110 Y149.172 E0.0134
G1 X149.465 Y148.911 E0.0244
G1 X149.572 Y148.861 E0.0273
G1 X149.822 Y148.802 E0.0337
G1 X149.991 Y148.843 E0.0380
G1 X150.228 Y148.870 E0.0440
G1 X150.430 Y148.932 E0.0492
G1 X150.620 Y149.032 E0.0545
G1 X150.746 Y149.127 E0.0585
G1 X150.893 Y149.282 E0.0638
G1 X151.009 Y149.459 E0.0691
G1 X151.138 Y149.774 E0.0775
G1 X150.830 Y149.861 E0.0855
G1 X150.830 Y150.126 E0.0921
G1 X151.130 Y150.210 E0.0998
G1 X151.031 Y150.482 E0.1071
G1 X150.923 Y150.665 E0.1123
G1 X150.784 Y150.824 E0.1176
G1 X150.618 Y150.956 E0.1229
G1 X150.430 Y151.054 E0.1281
G1 X150.228 Y151.116 E0.1334
G1 X150.017 Y151.141 E0.1387
G1 X149.830 Y151.129 E0.1433
G1 X149.689 Y151.145 E0.1469
G1 X149.628 Y151.068 E0.1493
G1 X149.440 Y151.182 E0.1548
G1 X149.381 Y150.945 E0.1609
G1 X149.273 Y150.960 E0.1636
G1 X149.150 Y150.853 E0.1676
G1 X149.260 Y150.247 E0.1830
G1 X148.820 Y150.345 E0.1942
G1 X148.782 Y150.353 F315
G1 X148.848 Y150.048
G1 X148.848 Y149.887
G1 X148.828 Y149.751
G1 X148.883 Y149.713
G1 X148.853 Y149.634
; feature inner perimeter
G1 X149.073 Y149.930 F6000
G92 E0.0000
G1 X149.324 Y149.573 E0.0109 F472
G1 X149.350 Y149.430 E0.0145
G1 X149.645 Y149.213 E0.0236
G1 X149.688 Y149.193 E0.0248
G1 X149.821 Y149.162 E0.0282
G1 X149.930 Y149.188 E0.0309
G1 X150.156 Y149.214 E0.0366
G1 X150.296 Y149.257 E0.0403
G1 X150.431 Y149.328 E0.0441
G1 X150.703 Y149.533 E0.0525
G1 X150.480 Y149.595 E0.0583
G1 X150.480 Y150.391 E0.0781
G1 X150.693 Y150.451 E0.0836
G1 X150.426 Y150.661 E0.0920
G1 X150.296 Y150.729 E0.0957
G1 X150.156 Y150.772 E0.0993
G1 X150.008 Y150.789 E0.1030
G1 X149.846 Y150.779 E0.1071
G1 X149.668 Y150.553 E0.1142
G1 X149.558 Y150.568 E0.1170
G1 X149.671 Y149.948 E0.1327
G1 X149.699 Y149.792 F472
G1 X149.073 Y149.930
; feature internal single extrusion
; tool H0.180 W0.516
G1 X149.531 Y149.613 F6000
G92 E0.0000
; tool H0.180 W0.230
G1 X149.586 Y149.563 E0.0015 F315
; tool H0.180 W0.219
G1 X149.647 Y149.536 E0.0027
; tool H0.180 W0.203
G1 X149.767 Y149.481 E0.0050
; tool H0.180 W0.200
G1 X149.830 Y149.464 E0.0061
; tool H0.180 W0.204
G1 X149.896 Y149.464 E0.0072
; tool H0.180 W0.215
G1 X149.921 Y149.464 E0.0077
; tool H0.180 W0.234
G1 X149.946 Y149.467 E0.0082
; tool H0.180 W0.264
G1 X149.970 Y149.473 E0.0087
; tool H0.180 W0.310
G1 X149.996 Y149.484 E0.0095
; tool H0.180 W0.364
G1 X150.023 Y149.499 E0.0104
; tool H0.180 W0.396
G1 X150.053 Y149.520 E0.0117
; tool H0.180 W0.408
G1 X150.087 Y149.553 E0.0133
