; G-Code generated by Simplify3D(R) Version 4.0.1
; Dec 19, 2018 at 1:20:49 PM
; Settings Summary
;   processName,Tevo Tornado 01
;   applyToModels,CircularFanDuctTornado_Redesigned
;   profileName,008 Tevo Tornado (experimental) 06-04
;   profileVersion,2018-12-16 11:00:31
;   baseProfile,Creality CR-10(2)
;   printMaterial,PLA
;   printQuality,Medium
;   printExtruders,
;   extruderName,Primary Extruder
;   extruderToolheadNumber,0
;   extruderDiameter,0.4
;   extruderAutoWidth,0
;   extruderWidth,0.4
;   extrusionMultiplier,1
;   extruderUseRetract,1
;   extruderRetractionDistance,6.5
;   extruderExtraRestartDistance,0
;   extruderRetractionZLift,0
;   extruderRetractionSpeed,1800
;   extruderUseCoasting,0
;   extruderCoastingDistance,0.2
;   extruderUseWipe,0
;   extruderWipeDistance,4
;   primaryExtruder,0
;   layerHeight,0.2
;   topSolidLayers,5
;   bottomSolidLayers,4
;   perimeterOutlines,3
;   printPerimetersInsideOut,1
;   startPointOption,2
;   startPointOriginX,0
;   startPointOriginY,500
;   sequentialIslands,0
;   spiralVaseMode,0
;   firstLayerHeightPercentage,150
;   firstLayerWidthPercentage,100
;   firstLayerUnderspeed,0.25
;   useRaft,0
;   raftExtruder,0
;   raftTopLayers,3
;   raftBaseLayers,2
;   raftOffset,3
;   raftSeparationDistance,0.14
;   raftTopInfill,100
;   aboveRaftSpeedMultiplier,0.3
;   useSkirt,1
;   skirtExtruder,0
;   skirtLayers,1
;   skirtOutlines,4
;   skirtOffset,0
;   usePrimePillar,0
;   primePillarExtruder,999
;   primePillarWidth,12
;   primePillarLocation,7
;   primePillarSpeedMultiplier,1
;   useOozeShield,0
;   oozeShieldExtruder,999
;   oozeShieldOffset,2
;   oozeShieldOutlines,1
;   oozeShieldSidewallShape,1
;   oozeShieldSidewallAngle,30
;   oozeShieldSpeedMultiplier,1
;   infillExtruder,0
;   internalInfillPattern,Rectilinear
;   externalInfillPattern,Rectilinear
;   infillPercentage,40
;   outlineOverlapPercentage,30
;   infillExtrusionWidthPercentage,125
;   minInfillLength,5
;   infillLayerInterval,1
;   internalInfillAngles,45,-45
;   overlapInternalInfillAngles,0
;   externalInfillAngles,45,-45
;   generateSupport,0
;   supportExtruder,0
;   supportInfillPercentage,30
;   supportExtraInflation,0
;   supportBaseLayers,0
;   denseSupportExtruder,0
;   denseSupportLayers,0
;   denseSupportInfillPercentage,70
;   supportLayerInterval,1
;   supportHorizontalPartOffset,0.4
;   supportUpperSeparationLayers,1
;   supportLowerSeparationLayers,1
;   supportType,0
;   supportGridSpacing,4.5
;   maxOverhangAngle,45
;   supportAngles,0
;   temperatureName,Primary Extruder,Heated Bed
;   temperatureNumber,0,0
;   temperatureSetpointCount,4,2
;   temperatureSetpointLayers,1,2,3,4,1,2
;   temperatureSetpointTemperatures,210,205,200,195,65,60
;   temperatureStabilizeAtStartup,1,1
;   temperatureHeatedBed,0,1
;   temperatureRelayBetweenLayers,0,0
;   temperatureRelayBetweenLoops,0,0
;   fanLayers,1,2
;   fanSpeeds,0,100
;   blipFanToFullPower,1
;   adjustSpeedForCooling,1
;   minSpeedLayerTime,15
;   minCoolingSpeedSlowdown,50
;   increaseFanForCooling,0
;   minFanLayerTime,45
;   maxCoolingFanSpeed,100
;   increaseFanForBridging,1
;   bridgingFanSpeed,100
;   use5D,1
;   relativeEdistances,0
;   allowEaxisZeroing,1
;   independentExtruderAxes,0
;   includeM10123,0
;   stickySupport,1
;   applyToolheadOffsets,0
;   gcodeXoffset,0
;   gcodeYoffset,0
;   gcodeZoffset,0
;   overrideMachineDefinition,1
;   machineTypeOverride,0
;   strokeXoverride,300
;   strokeYoverride,300
;   strokeZoverride,400
;   originOffsetXoverride,0
;   originOffsetYoverride,0
;   originOffsetZoverride,0
;   homeXdirOverride,-1
;   homeYdirOverride,-1
;   homeZdirOverride,-1
;   flipXoverride,1
;   flipYoverride,-1
;   flipZoverride,1
;   toolheadOffsets,0,0|0,0|0,0|0,0|0,0|0,0
;   overrideFirmwareConfiguration,0
;   firmwareTypeOverride,RepRap (Marlin/Repetier/Sprinter)
;   GPXconfigOverride,r2
;   baudRateOverride,250000
;   overridePrinterModels,1
;   printerModelsOverride
;   startingGcode,;Init 181010,;G28 ; home all axes,;G1 Z5 F3000 ; lift,;G92 E0 ; reset extrusion distance,;From Cura 181010,; start_gcode,M117 Start Clean	; Indicate nozzle clean in progress on LCD,;,M104 S[extruder0_temperature] ,M109 S[extruder0_temperature] ,M109 R[extruder0_temperature] ,;,M107		; Turn layer fan off,G21		; Set to metric [change to G20 if you want Imperial],G90	 	; Force coordinates to be absolute relative to the origin,G28		; Home X/Y/Z axis,;,G1 X3 Y1 Z15 F9000	; Move safe Z height to shear strings,G0 X1 Y1 Z0.2 F9000	; Move in 1mm from edge and up [z] 0.2mm,G92 E0		; Set extruder to [0] zero,G1 X100 E12 F500	; Extrude 30mm filiment along X axis 100mm long to prime and clean the nozzle,G92 E0		; Reset extruder to [0] zero end of cleaning run,G1 E-1 F500		; Retract filiment by 1 mm to reduce string effect,G1 X180 F4000		; quick wipe away from the filament line / purge,M117 End Clean		; Indicate nozzle clean in progress on LCD,;,M117 IMPRESSION...	; start msg,; Begin printing with sliced GCode after here,;
;   layerChangeGcode,
;   retractionGcode,
;   toolChangeGcode,
;   endingGcode,;,; init 181010,;,;M107 ; Fan off,;G1 E-1 F300 ; Retract the filament a bit before lifting the nozzle,;M104 S0 ; turn off extruder,;M140 S0 ; turn off bed,;G91 ; Relative positioning,;G28 X0 Y0 ; Move X/Y to min endstops so the head is out of teh way,;M84 ; disable motors,;G90 ; Absolute positioning,;M117 Print ready...,,;,;From Cura 181010,;,; end_gcode,G92 E0		; zero the extruded length,G1 E-5 F9000		; retract,M104 S0		; turn off temperature,M140 S0		; turn off bed,G91		; relative positioning,G1 E-1 F300		; retract the filament a bit before lifting the nozzle to release some of the pressure,G1 Z+20 E-5 X-20 Y-20 F7200	; move Z up a bit and retract filament even more,G1 X320 Y150 F10000	; move right mid,M107		; turn off layer fan,M84		; disable motors,G90		; absolute positioning,M117 IMPRESSION TERMINEE	; end msg,;,;EOF
;   exportFileFormat,gcode
;   celebration,0
;   celebrationSong,Star Wars
;   postProcessing,
;   defaultSpeed,4200
;   outlineUnderspeed,0.5
;   solidInfillUnderspeed,0.8
;   supportUnderspeed,0.8
;   rapidXYspeed,6000
;   rapidZspeed,1002
;   minBridgingArea,50
;   bridgingExtraInflation,0
;   bridgingExtrusionMultiplier,0.85
;   bridgingSpeedMultiplier,1.05
;   useFixedBridgingAngle,0
;   fixedBridgingAngle,0
;   applyBridgingToPerimeters,0
;   filamentDiameters,1.75|1.75|1.75|1.75|1.75|1.75
;   filamentPricesPerKg,30|46|46|46|46|46
;   filamentDensities,1.25|1.25|1.25|1.25|1.25|1.25
;   useMinPrintHeight,0
;   minPrintHeight,0
;   useMaxPrintHeight,0
;   maxPrintHeight,9
;   useDiaphragm,0
;   diaphragmLayerInterval,20
;   robustSlicing,1
;   mergeAllIntoSolid,0
;   onlyRetractWhenCrossingOutline,1
;   retractBetweenLayers,1
;   useRetractionMinTravel,1
;   retractionMinTravel,3
;   retractWhileWiping,1
;   onlyWipeOutlines,1
;   avoidCrossingOutline,1
;   maxMovementDetourFactor,3
;   toolChangeRetractionDistance,12
;   toolChangeExtraRestartDistance,-0.5
;   toolChangeRetractionSpeed,600
;   externalThinWallType,0
;   internalThinWallType,2
;   thinWallAllowedOverlapPercentage,15
;   singleExtrusionMinLength,1
;   singleExtrusionMinPrintingWidthPercentage,50
;   singleExtrusionMaxPrintingWidthPercentage,200
;   singleExtrusionEndpointExtension,0.2
;   horizontalSizeCompensation,0
G90
M82
M106 S255
G4 P500
M106 S0
M140 S65
M190 S65
;Init 181010
;G28 ; home all axes
;G1 Z5 F3000 ; lift
;G92 E0 ; reset extrusion distance
;From Cura 181010
; start_gcode
M117 Start Clean	; Indicate nozzle clean in progress on LCD
;
M104 S210 
M109 S210 
M109 R210 
;
M107		; Turn layer fan off
G21		; Set to metric [change to G20 if you want Imperial]
G90	 	; Force coordinates to be absolute relative to the origin
G28		; Home X/Y/Z axis
;
G1 X3 Y1 Z15 F9000	; Move safe Z height to shear strings
G0 X1 Y1 Z0.2 F9000	; Move in 1mm from edge and up [z] 0.2mm
G92 E0		; Set extruder to [0] zero
G1 X100 E12 F500	; Extrude 30mm filiment along X axis 100mm long to prime and clean the nozzle
G92 E0		; Reset extruder to [0] zero end of cleaning run
G1 E-1 F500		; Retract filiment by 1 mm to reduce string effect
G1 X180 F4000		; quick wipe away from the filament line / purge
M117 End Clean		; Indicate nozzle clean in progress on LCD
;
M117 IMPRESSION...	; start msg
; Begin printing with sliced GCode after here
;
G92 E0
G1 E-6.5000 F1800
G1 Z0.300 F1002
; process Tevo Tornado 01
; layer 1, Z = 0.300
T0
; tool H0.300 W0.400
; skirt
G1 X124.496 Y132.757 F6000
G1 E0.0000 F540
G92 E0
G1 X132.498 Y132.757 E0.3992 F1050
G1 X139.125 Y128.095 E0.8034
G1 X139.176 Y128.062 E0.8065
G1 X142.115 Y126.353 E0.9761
G1 X142.225 Y126.301 E0.9822
G1 X145.443 Y125.113 E1.1533
G1 X145.560 Y125.081 E1.1594
G1 X148.935 Y124.463 E1.3305
G1 X149.055 Y124.452 E1.3366
G1 X152.486 Y124.424 E1.5077
G1 X152.607 Y124.433 E1.5138
G1 X155.991 Y124.995 E1.6849
G1 X156.108 Y125.026 E1.6910
G1 X159.346 Y126.162 E1.8621
G1 X159.456 Y126.211 E1.8682
G1 X162.450 Y127.887 E2.0393
G1 X162.550 Y127.955 E2.0454
G1 X165.211 Y130.121 E2.2166
G1 X165.298 Y130.206 E2.2226
G1 X167.546 Y132.797 E2.3938
G1 X167.617 Y132.895 E2.3998
G1 X169.387 Y135.834 E2.5710
G1 X169.440 Y135.943 E2.5770
G1 X170.675 Y139.135 E2.7478
G1 X170.705 Y139.236 E2.7530
G1 X171.328 Y142.035 E2.8961
G1 X171.551 Y142.258 E2.9118
G1 X171.551 Y146.726 E3.1347
G1 X171.375 Y146.903 E3.1472
G1 X170.955 Y149.688 E3.2877
G1 X170.927 Y149.805 E3.2937
G1 X169.840 Y153.059 E3.4649
G1 X169.792 Y153.171 E3.4710
G1 X168.169 Y156.176 E3.6414
G1 X168.120 Y156.254 E3.6459
G1 X166.332 Y158.730 E3.7983
G1 X166.283 Y158.790 E3.8022
G1 X164.235 Y161.048 E3.9543
G1 X164.179 Y161.102 E3.9581
G1 X161.894 Y163.118 E4.1102
G1 X161.833 Y163.167 E4.1141
G1 X159.337 Y164.917 E4.2661
G1 X159.271 Y164.958 E4.2700
G1 X156.597 Y166.420 E4.4221
G1 X156.527 Y166.453 E4.4260
G1 X153.707 Y167.610 E4.5780
G1 X153.633 Y167.635 E4.5819
G1 X150.703 Y168.472 E4.7340
G1 X150.627 Y168.489 E4.7378
G1 X147.621 Y168.995 E4.8899
G1 X147.544 Y169.004 E4.8938
G1 X144.520 Y169.172 E5.0449
G1 X144.481 Y169.173 E5.0468
G1 X134.341 Y169.173 E5.5527
G1 X134.341 Y174.756 E5.8312
G1 X133.521 Y175.576 E5.8891
G1 X124.496 Y175.576 E6.3393
G1 X123.676 Y174.756 E6.3972
G1 X123.676 Y133.577 E8.4516
G1 X124.496 Y132.757 E8.5095
G92 E0
G1 E-6.5000 F1800
G1 X125.272 Y134.353 F6000
G1 X132.426 Y134.353 F6000
G1 X144.624 Y136.808 F6000
G1 X148.755 Y134.322 F6000
G1 X155.356 Y134.896 F6000
G1 X160.360 Y139.239 F6000
G1 X160.538 Y140.011 F6000
G1 X171.701 Y142.258 F6000
G1 E0.0000 F1800
G92 E0
G1 X172.521 Y141.437 E0.0579 F1050
G1 X177.643 Y141.437 E0.3134
G1 X178.464 Y142.258 E0.3713
G1 X178.464 Y143.817 E0.4491
G1 X177.790 Y144.491 E0.4966
G1 X178.464 Y145.165 E0.5442
G1 X178.464 Y146.726 E0.6221
G1 X177.643 Y147.546 E0.6799
G1 X172.521 Y147.546 E0.9355
G1 X171.701 Y146.726 E0.9934
G1 X171.701 Y145.165 E1.0713
G1 X172.374 Y144.491 E1.1188
G1 X171.701 Y143.817 E1.1663
G1 X171.701 Y142.258 E1.2442
G1 X172.101 Y142.423 F6000
G92 E0
G1 X172.686 Y141.837 E0.0413 F1050
G1 X177.478 Y141.837 E0.2804
G1 X178.064 Y142.423 E0.3217
G1 X178.064 Y143.652 E0.3830
G1 X177.478 Y144.237 E0.4243
G1 X172.686 Y144.237 E0.6634
G1 X172.101 Y143.652 E0.7047
G1 X172.101 Y142.423 E0.7660
G1 X171.151 Y142.423 F6000
G92 E0
G1 X171.151 Y146.561 E0.2064 F1050
G1 X170.999 Y146.713 E0.2172
G1 X170.562 Y149.611 E0.3634
G1 X170.542 Y149.695 E0.3677
G1 X169.466 Y152.916 E0.5371
G1 X169.432 Y152.996 E0.5414
G1 X167.823 Y155.975 E0.7104
G1 X167.788 Y156.030 E0.7136
G1 X166.014 Y158.486 E0.8648
G1 X165.979 Y158.530 E0.8676
G1 X163.946 Y160.771 E1.0185
G1 X163.906 Y160.810 E1.0213
G1 X161.637 Y162.811 E1.1722
G1 X161.594 Y162.845 E1.1750
G1 X159.117 Y164.583 E1.3260
G1 X159.069 Y164.612 E1.3287
G1 X156.415 Y166.064 E1.4797
G1 X156.365 Y166.088 E1.4825
G1 X153.565 Y167.236 E1.6334
G1 X153.513 Y167.254 E1.6362
G1 X150.603 Y168.084 E1.7871
G1 X150.549 Y168.097 E1.7899
G1 X147.566 Y168.599 E1.9408
G1 X147.510 Y168.605 E1.9436
G1 X144.503 Y168.772 E2.0939
G1 X144.476 Y168.773 E2.0953
G1 X133.941 Y168.773 E2.6208
G1 X133.941 Y174.590 E2.9110
G1 X133.356 Y175.176 E2.9524
G1 X124.662 Y175.176 E3.3861
G1 X124.076 Y174.590 E3.4274
G1 X124.076 Y133.743 E5.4653
G1 X124.662 Y133.157 E5.5066
G1 X132.625 Y133.157 E5.9039
G1 X139.348 Y128.427 E6.3140
G1 X139.384 Y128.404 E6.3162
G1 X142.301 Y126.707 E6.4845
G1 X142.380 Y126.671 E6.4888
G1 X145.566 Y125.494 E6.6583
G1 X145.649 Y125.471 E6.6626
G1 X148.990 Y124.860 E6.8320
G1 X149.076 Y124.851 E6.8363
G1 X152.472 Y124.824 E7.0058
G1 X152.558 Y124.830 E7.0101
G1 X155.908 Y125.387 E7.1795
G1 X155.992 Y125.409 E7.1839
G1 X159.197 Y126.533 E7.3533
G1 X159.276 Y126.569 E7.3576
G1 X162.239 Y128.228 E7.5271
G1 X162.311 Y128.277 E7.5314
G1 X164.945 Y130.421 E7.7008
G1 X165.007 Y130.481 E7.7051
G1 X167.233 Y133.046 E7.8746
G1 X167.284 Y133.116 E7.8789
G1 X169.035 Y136.026 E8.0483
G1 X169.073 Y136.103 E8.0526
G1 X170.296 Y139.265 E8.2218
G1 X170.318 Y139.337 E8.2255
G1 X170.963 Y142.235 E8.3736
G1 X171.151 Y142.423 E8.3869
G1 X172.686 Y144.744 F6000
G92 E0
G1 X177.478 Y144.744 E0.2390 F1050
G1 X178.064 Y145.330 E0.2804
G1 X178.064 Y146.561 E0.3418
G1 X177.478 Y147.146 E0.3831
G1 X172.686 Y147.146 E0.6221
G1 X172.101 Y146.561 E0.6635
G1 X172.101 Y145.330 E0.7248
G1 X172.686 Y144.744 E0.7662
G1 X172.852 Y145.144 F6000
G92 E0
G1 X177.312 Y145.144 E0.2225 F1050
G1 X177.663 Y145.496 E0.2473
G1 X177.663 Y146.395 E0.2922
G1 X177.312 Y146.746 E0.3170
G1 X172.852 Y146.746 E0.5395
G1 X172.501 Y146.395 E0.5643
G1 X172.501 Y145.496 E0.6091
G1 X172.852 Y145.144 E0.6339
G1 X172.852 Y143.837 F6000
G92 E0
G1 X172.501 Y143.486 E0.0248 F1050
G1 X172.501 Y142.589 E0.0696
G1 X172.852 Y142.237 E0.0944
G1 X177.312 Y142.237 E0.3169
G1 X177.663 Y142.589 E0.3417
G1 X177.663 Y143.486 E0.3864
G1 X177.312 Y143.837 E0.4112
G1 X172.852 Y143.837 E0.6337
G1 X170.751 Y142.589 F6000
G92 E0
G1 X170.751 Y146.395 E0.1899 F1050
G1 X170.623 Y146.523 E0.1989
G1 X170.169 Y149.534 E0.3509
G1 X170.157 Y149.585 E0.3534
G1 X169.092 Y152.773 E0.5212
G1 X169.072 Y152.821 E0.5237
G1 X167.477 Y155.773 E0.6911
G1 X167.457 Y155.806 E0.6931
G1 X165.696 Y158.243 E0.8431
G1 X165.675 Y158.269 E0.8447
G1 X163.657 Y160.494 E0.9946
G1 X163.634 Y160.517 E0.9962
G1 X161.381 Y162.504 E1.1461
G1 X161.355 Y162.524 E1.1477
G1 X158.896 Y164.249 E1.2976
G1 X158.868 Y164.266 E1.2992
G1 X156.233 Y165.707 E1.4491
G1 X156.203 Y165.722 E1.4507
G1 X153.424 Y166.861 E1.6006
G1 X153.392 Y166.872 E1.6022
G1 X150.504 Y167.697 E1.7521
G1 X150.472 Y167.704 E1.7537
G1 X147.510 Y168.203 E1.9036
G1 X147.477 Y168.206 E1.9052
G1 X144.487 Y168.373 E2.0547
G1 X144.470 Y168.373 E2.0555
G1 X133.541 Y168.373 E2.6007
G1 X133.541 Y174.425 E2.9026
G1 X133.190 Y174.776 E2.9274
G1 X124.828 Y174.776 E3.3446
G1 X124.476 Y174.425 E3.3694
G1 X124.476 Y133.909 E5.3908
G1 X124.828 Y133.557 E5.4156
G1 X132.751 Y133.557 E5.8109
G1 X139.571 Y128.759 E6.2269
G1 X139.593 Y128.745 E6.2282
G1 X142.488 Y127.062 E6.3953
G1 X142.535 Y127.040 E6.3978
G1 X145.688 Y125.875 E6.5656
G1 X145.738 Y125.861 E6.5681
G1 X149.045 Y125.256 E6.7359
G1 X149.096 Y125.251 E6.7384
G1 X152.458 Y125.224 E6.9062
G1 X152.510 Y125.228 E6.9088
G1 X155.826 Y125.779 E7.0765
G1 X155.876 Y125.792 E7.0791
G1 X159.048 Y126.905 E7.2468
G1 X159.095 Y126.926 E7.2494
G1 X162.029 Y128.569 E7.4171
G1 X162.072 Y128.598 E7.4197
G1 X164.679 Y130.720 E7.5874
G1 X164.716 Y130.756 E7.5900
G1 X166.919 Y133.295 E7.7577
G1 X166.950 Y133.337 E7.7603
G1 X168.684 Y136.217 E7.9280
G1 X168.706 Y136.264 E7.9306
G1 X169.918 Y139.396 E8.0981
G1 X169.931 Y139.439 E8.1004
G1 X170.598 Y142.436 E8.2535
G1 X170.751 Y142.589 E8.2643
G1 X170.351 Y142.755 F6000
G92 E0
G1 X170.351 Y146.229 E0.1733 F1050
G1 X170.247 Y146.334 E0.1807
G1 X169.776 Y149.458 E0.3383
G1 X169.772 Y149.474 E0.3392
G1 X168.718 Y152.630 E0.5052
G1 X168.712 Y152.646 E0.5060
G1 X167.132 Y155.572 E0.6719
G1 X167.125 Y155.583 E0.6726
G1 X165.378 Y158.000 E0.8213
G1 X165.371 Y158.009 E0.8219
G1 X163.369 Y160.217 E0.9706
G1 X163.361 Y160.224 E0.9712
