; G-Code generated by Simplify3D(R) Version 4.0.1
; Dec 19, 2018 at 1:28:18 PM
; Settings Summary
;   processName,Tevo Tornado 001
;   applyToModels,Difusor_Tevo_5
;   profileName,008 Tevo Tornado (experimental) 06-04
;   profileVersion,2018-12-16 11:00:31
;   baseProfile,Creality CR-10(2)
;   printMaterial,PLA
;   printQuality,Medium
;   printExtruders,
;   extruderName,Primary Extruder
;   extruderToolheadNumber,0
;   extruderDiameter,0.4
;   extruderAutoWidth,0
;   extruderWidth,0.4
;   extrusionMultiplier,1
;   extruderUseRetract,1
;   extruderRetractionDistance,6.5
;   extruderExtraRestartDistance,0
;   extruderRetractionZLift,0
;   extruderRetractionSpeed,1800
;   extruderUseCoasting,0
;   extruderCoastingDistance,0.2
;   extruderUseWipe,0
;   extruderWipeDistance,4
;   primaryExtruder,0
;   layerHeight,0.2
;   topSolidLayers,5
;   bottomSolidLayers,4
;   perimeterOutlines,3
;   printPerimetersInsideOut,1
;   startPointOption,2
;   startPointOriginX,0
;   startPointOriginY,500
;   sequentialIslands,0
;   spiralVaseMode,0
;   firstLayerHeightPercentage,150
;   firstLayerWidthPercentage,100
;   firstLayerUnderspeed,0.25
;   useRaft,0
;   raftExtruder,0
;   raftTopLayers,3
;   raftBaseLayers,2
;   raftOffset,3
;   raftSeparationDistance,0.14
;   raftTopInfill,100
;   aboveRaftSpeedMultiplier,0.3
;   useSkirt,1
;   skirtExtruder,0
;   skirtLayers,1
;   skirtOutlines,4
;   skirtOffset,0
;   usePrimePillar,0
;   primePillarExtruder,999
;   primePillarWidth,12
;   primePillarLocation,7
;   primePillarSpeedMultiplier,1
;   useOozeShield,0
;   oozeShieldExtruder,999
;   oozeShieldOffset,2
;   oozeShieldOutlines,1
;   oozeShieldSidewallShape,1
;   oozeShieldSidewallAngle,30
;   oozeShieldSpeedMultiplier,1
;   infillExtruder,0
;   internalInfillPattern,Rectilinear
;   externalInfillPattern,Rectilinear
;   infillPercentage,40
;   outlineOverlapPercentage,30
;   infillExtrusionWidthPercentage,125
;   minInfillLength,5
;   infillLayerInterval,1
;   internalInfillAngles,45,-45
;   overlapInternalInfillAngles,0
;   externalInfillAngles,45,-45
;   generateSupport,0
;   supportExtruder,0
;   supportInfillPercentage,30
;   supportExtraInflation,0
;   supportBaseLayers,0
;   denseSupportExtruder,0
;   denseSupportLayers,0
;   denseSupportInfillPercentage,70
;   supportLayerInterval,1
;   supportHorizontalPartOffset,0.4
;   supportUpperSeparationLayers,1
;   supportLowerSeparationLayers,1
;   supportType,0
;   supportGridSpacing,4.5
;   maxOverhangAngle,45
;   supportAngles,0
;   temperatureName,Primary Extruder,Heated Bed
;   temperatureNumber,0,0
;   temperatureSetpointCount,4,2
;   temperatureSetpointLayers,1,2,3,4,1,2
;   temperatureSetpointTemperatures,210,205,200,195,65,60
;   temperatureStabilizeAtStartup,1,1
;   temperatureHeatedBed,0,1
;   temperatureRelayBetweenLayers,0,0
;   temperatureRelayBetweenLoops,0,0
;   fanLayers,1,2
;   fanSpeeds,0,100
;   blipFanToFullPower,1
;   adjustSpeedForCooling,1
;   minSpeedLayerTime,15
;   minCoolingSpeedSlowdown,50
;   increaseFanForCooling,0
;   minFanLayerTime,45
;   maxCoolingFanSpeed,100
;   increaseFanForBridging,1
;   bridgingFanSpeed,100
;   use5D,1
;   relativeEdistances,0
;   allowEaxisZeroing,1
;   independentExtruderAxes,0
;   includeM10123,0
;   stickySupport,1
;   applyToolheadOffsets,0
;   gcodeXoffset,0
;   gcodeYoffset,0
;   gcodeZoffset,0
;   overrideMachineDefinition,1
;   machineTypeOverride,0
;   strokeXoverride,300
;   strokeYoverride,300
;   strokeZoverride,400
;   originOffsetXoverride,0
;   originOffsetYoverride,0
;   originOffsetZoverride,0
;   homeXdirOverride,-1
;   homeYdirOverride,-1
;   homeZdirOverride,-1
;   flipXoverride,1
;   flipYoverride,-1
;   flipZoverride,1
;   toolheadOffsets,0,0|0,0|0,0|0,0|0,0|0,0
;   overrideFirmwareConfiguration,0
;   firmwareTypeOverride,RepRap (Marlin/Repetier/Sprinter)
;   GPXconfigOverride,r2
;   baudRateOverride,250000
;   overridePrinterModels,1
;   printerModelsOverride
;   startingGcode,;Init 181010,;G28 ; home all axes,;G1 Z5 F3000 ; lift,;G92 E0 ; reset extrusion distance,;From Cura 181010,; start_gcode,M117 Start Clean	; Indicate nozzle clean in progress on LCD,;,M104 S[extruder0_temperature] ,M109 S[extruder0_temperature] ,M109 R[extruder0_temperature] ,;,M107		; Turn layer fan off,G21		; Set to metric [change to G20 if you want Imperial],G90	 	; Force coordinates to be absolute relative to the origin,G28		; Home X/Y/Z axis,;,G1 X3 Y1 Z15 F9000	; Move safe Z height to shear strings,G0 X1 Y1 Z0.2 F9000	; Move in 1mm from edge and up [z] 0.2mm,G92 E0		; Set extruder to [0] zero,G1 X100 E12 F500	; Extrude 30mm filiment along X axis 100mm long to prime and clean the nozzle,G92 E0		; Reset extruder to [0] zero end of cleaning run,G1 E-1 F500		; Retract filiment by 1 mm to reduce string effect,G1 X180 F4000		; quick wipe away from the filament line / purge,M117 End Clean		; Indicate nozzle clean in progress on LCD,;,M117 IMPRESSION...	; start msg,; Begin printing with sliced GCode after here,;
;   layerChangeGcode,
;   retractionGcode,
;   toolChangeGcode,
;   endingGcode,;,; init 181010,;,;M107 ; Fan off,;G1 E-1 F300 ; Retract the filament a bit before lifting the nozzle,;M104 S0 ; turn off extruder,;M140 S0 ; turn off bed,;G91 ; Relative positioning,;G28 X0 Y0 ; Move X/Y to min endstops so the head is out of teh way,;M84 ; disable motors,;G90 ; Absolute positioning,;M117 Print ready...,,;,;From Cura 181010,;,; end_gcode,G92 E0		; zero the extruded length,G1 E-5 F9000		; retract,M104 S0		; turn off temperature,M140 S0		; turn off bed,G91		; relative positioning,G1 E-1 F300		; retract the filament a bit before lifting the nozzle to release some of the pressure,G1 Z+20 E-5 X-20 Y-20 F7200	; move Z up a bit and retract filament even more,G1 X320 Y150 F10000	; move right mid,M107		; turn off layer fan,M84		; disable motors,G90		; absolute positioning,M117 IMPRESSION TERMINEE	; end msg,;,;EOF
;   exportFileFormat,gcode
;   celebration,0
;   celebrationSong,Star Wars
;   postProcessing,
;   defaultSpeed,4200
;   outlineUnderspeed,0.5
;   solidInfillUnderspeed,0.8
;   supportUnderspeed,0.8
;   rapidXYspeed,6000
;   rapidZspeed,1002
;   minBridgingArea,50
;   bridgingExtraInflation,0
;   bridgingExtrusionMultiplier,0.85
;   bridgingSpeedMultiplier,1.05
;   useFixedBridgingAngle,0
;   fixedBridgingAngle,0
;   applyBridgingToPerimeters,0
;   filamentDiameters,1.75|1.75|1.75|1.75|1.75|1.75
;   filamentPricesPerKg,30|46|46|46|46|46
;   filamentDensities,1.25|1.25|1.25|1.25|1.25|1.25
;   useMinPrintHeight,0
;   minPrintHeight,0
;   useMaxPrintHeight,0
;   maxPrintHeight,9
;   useDiaphragm,0
;   diaphragmLayerInterval,20
;   robustSlicing,1
;   mergeAllIntoSolid,0
;   onlyRetractWhenCrossingOutline,1
;   retractBetweenLayers,1
;   useRetractionMinTravel,1
;   retractionMinTravel,3
;   retractWhileWiping,1
;   onlyWipeOutlines,1
;   avoidCrossingOutline,1
;   maxMovementDetourFactor,3
;   toolChangeRetractionDistance,12
;   toolChangeExtraRestartDistance,-0.5
;   toolChangeRetractionSpeed,600
;   externalThinWallType,0
;   internalThinWallType,2
;   thinWallAllowedOverlapPercentage,15
;   singleExtrusionMinLength,1
;   singleExtrusionMinPrintingWidthPercentage,50
;   singleExtrusionMaxPrintingWidthPercentage,200
;   singleExtrusionEndpointExtension,0.2
;   horizontalSizeCompensation,0
G90
M82
M106 S255
G4 P500
M106 S0
M140 S65
M190 S65
;Init 181010
;G28 ; home all axes
;G1 Z5 F3000 ; lift
;G92 E0 ; reset extrusion distance
;From Cura 181010
; start_gcode
M117 Start Clean	; Indicate nozzle clean in progress on LCD
;
M104 S210 
M109 S210 
M109 R210 
;
M107		; Turn layer fan off
G21		; Set to metric [change to G20 if you want Imperial]
G90	 	; Force coordinates to be absolute relative to the origin
G28		; Home X/Y/Z axis
;
G1 X3 Y1 Z15 F9000	; Move safe Z height to shear strings
G0 X1 Y1 Z0.2 F9000	; Move in 1mm from edge and up [z] 0.2mm
G92 E0		; Set extruder to [0] zero
G1 X100 E12 F500	; Extrude 30mm filiment along X axis 100mm long to prime and clean the nozzle
G92 E0		; Reset extruder to [0] zero end of cleaning run
G1 E-1 F500		; Retract filiment by 1 mm to reduce string effect
G1 X180 F4000		; quick wipe away from the filament line / purge
M117 End Clean		; Indicate nozzle clean in progress on LCD
;
M117 IMPRESSION...	; start msg
; Begin printing with sliced GCode after here
;
G92 E0
G1 E-6.5000 F1800
G1 Z0.300 F1002
; process Tevo Tornado 001
; layer 1, Z = 0.300
T0
; tool H0.300 W0.400
; skirt
G1 X127.100 Y125.385 F6000
G1 E0.0000 F540
G92 E0
G1 X127.920 Y124.565 E0.0579 F1050
G1 X169.054 Y124.565 E2.1100
G1 X169.874 Y125.385 E2.1679
G1 X169.873 Y133.046 E2.5501
G1 X170.069 Y133.242 E2.5639
G1 X170.546 Y133.242 E2.5877
G1 X170.637 Y133.248 E2.5923
G1 X171.026 Y133.299 E2.6118
G1 X171.203 Y133.347 E2.6210
G1 X171.607 Y133.514 E2.6428
G1 X171.766 Y133.606 E2.6520
G1 X172.113 Y133.872 E2.6738
G1 X172.243 Y134.002 E2.6829
G1 X172.509 Y134.349 E2.7048
G1 X172.601 Y134.508 E2.7139
G1 X172.769 Y134.912 E2.7358
G1 X172.816 Y135.090 E2.7449
G1 X172.867 Y135.478 E2.7645
G1 X172.873 Y135.569 E2.7690
G1 X172.873 Y160.661 E4.0209
G1 X172.867 Y160.753 E4.0254
G1 X172.816 Y161.141 E4.0450
G1 X172.769 Y161.318 E4.0541
G1 X172.601 Y161.722 E4.0760
G1 X172.509 Y161.881 E4.0851
G1 X172.243 Y162.228 E4.1069
G1 X172.113 Y162.358 E4.1161
G1 X171.766 Y162.625 E4.1379
G1 X171.607 Y162.716 E4.1471
G1 X171.203 Y162.884 E4.1689
G1 X171.026 Y162.931 E4.1781
G1 X170.637 Y162.982 E4.1976
G1 X170.546 Y162.988 E4.2022
G1 X168.373 Y162.988 E4.3106
G1 X168.373 Y170.661 E4.6934
G1 X168.367 Y170.753 E4.6979
G1 X168.316 Y171.141 E4.7175
G1 X168.269 Y171.318 E4.7266
G1 X168.101 Y171.722 E4.7485
G1 X168.009 Y171.881 E4.7576
G1 X167.743 Y172.228 E4.7794
G1 X167.613 Y172.358 E4.7886
G1 X167.266 Y172.625 E4.8104
G1 X167.107 Y172.716 E4.8196
G1 X166.703 Y172.884 E4.8414
G1 X166.526 Y172.931 E4.8506
G1 X166.137 Y172.982 E4.8701
G1 X166.046 Y172.988 E4.8747
G1 X155.471 Y172.988 E5.4023
G1 X155.337 Y173.083 E5.4105
G1 X154.901 Y173.236 E5.4335
G1 X154.668 Y173.275 E5.4453
G1 X147.632 Y173.275 E5.7963
G1 X147.399 Y173.236 E5.8081
G1 X146.957 Y173.081 E5.8315
G1 X146.828 Y172.988 E5.8394
G1 X134.654 Y172.988 E6.4467
G1 X134.563 Y172.982 E6.4513
G1 X134.174 Y172.931 E6.4709
G1 X133.997 Y172.884 E6.4800
G1 X133.593 Y172.716 E6.5018
G1 X133.434 Y172.625 E6.5110
G1 X133.087 Y172.358 E6.5328
G1 X132.957 Y172.228 E6.5420
G1 X132.691 Y171.881 E6.5638
G1 X132.599 Y171.722 E6.5730
G1 X132.431 Y171.318 E6.5948
G1 X132.384 Y171.141 E6.6040
G1 X132.333 Y170.753 E6.6235
G1 X132.327 Y170.661 E6.6281
G1 X132.327 Y134.488 E8.4327
G1 X127.920 Y134.488 E8.6526
G1 X127.100 Y133.668 E8.7104
G1 X127.100 Y125.385 E9.1237
G1 X127.500 Y125.551 F6000
G92 E0
G1 X128.086 Y124.965 E0.0413 F1050
G1 X168.888 Y124.965 E2.0770
G1 X169.474 Y125.551 E2.1183
G1 X169.473 Y133.212 E2.5005
G1 X169.903 Y133.642 E2.5308
G1 X170.533 Y133.642 E2.5622
G1 X170.598 Y133.646 E2.5655
G1 X170.947 Y133.692 E2.5831
G1 X171.074 Y133.726 E2.5896
G1 X171.430 Y133.874 E2.6088
G1 X171.543 Y133.939 E2.6154
G1 X171.849 Y134.174 E2.6346
G1 X171.942 Y134.266 E2.6411
G1 X172.176 Y134.572 E2.6604
G1 X172.242 Y134.685 E2.6669
G1 X172.389 Y135.041 E2.6861
G1 X172.423 Y135.168 E2.6926
G1 X172.469 Y135.517 E2.7102
G1 X172.473 Y135.582 E2.7135
G1 X172.473 Y160.648 E3.9640
G1 X172.469 Y160.713 E3.9673
G1 X172.423 Y161.063 E3.9849
G1 X172.389 Y161.189 E3.9914
G1 X172.242 Y161.545 E4.0106
G1 X172.176 Y161.659 E4.0172
G1 X171.942 Y161.964 E4.0364
G1 X171.849 Y162.057 E4.0429
G1 X171.543 Y162.291 E4.0621
G1 X171.430 Y162.357 E4.0687
G1 X171.074 Y162.504 E4.0879
G1 X170.947 Y162.538 E4.0944
G1 X170.598 Y162.584 E4.1120
G1 X170.533 Y162.588 E4.1153
G1 X168.058 Y162.588 E4.2387
G1 X167.996 Y162.596 E4.2418
G1 X167.993 Y162.597 E4.2420
G1 X167.986 Y162.601 E4.2424
G1 X167.982 Y162.608 E4.2428
G1 X167.980 Y162.612 E4.2430
G1 X167.973 Y162.673 E4.2461
G1 X167.973 Y170.648 E4.6440
G1 X167.969 Y170.713 E4.6472
G1 X167.923 Y171.063 E4.6648
G1 X167.889 Y171.189 E4.6713
G1 X167.742 Y171.545 E4.6906
G1 X167.676 Y171.659 E4.6971
G1 X167.442 Y171.964 E4.7163
G1 X167.349 Y172.057 E4.7229
G1 X167.043 Y172.291 E4.7421
G1 X166.930 Y172.357 E4.7486
G1 X166.574 Y172.504 E4.7678
G1 X166.447 Y172.538 E4.7744
G1 X166.098 Y172.584 E4.7919
G1 X166.033 Y172.588 E4.7952
G1 X155.345 Y172.588 E5.3284
G1 X155.152 Y172.724 E5.3402
G1 X154.801 Y172.847 E5.3587
G1 X154.634 Y172.875 E5.3672
G1 X147.666 Y172.875 E5.7149
G1 X147.499 Y172.847 E5.7233
G1 X147.143 Y172.722 E5.7421
G1 X146.957 Y172.588 E5.7535
G1 X134.667 Y172.588 E6.3667
G1 X134.602 Y172.584 E6.3699
G1 X134.253 Y172.538 E6.3875
G1 X134.126 Y172.504 E6.3940
G1 X133.770 Y172.357 E6.4133
G1 X133.657 Y172.291 E6.4198
G1 X133.351 Y172.057 E6.4390
G1 X133.258 Y171.964 E6.4456
G1 X133.024 Y171.659 E6.4648
G1 X132.958 Y171.545 E6.4713
G1 X132.811 Y171.189 E6.4905
G1 X132.777 Y171.063 E6.4971
G1 X132.731 Y170.713 E6.5146
G1 X132.727 Y170.648 E6.5179
G1 X132.727 Y134.088 E8.3419
G1 X128.086 Y134.088 E8.5734
G1 X127.500 Y133.503 E8.6147
G1 X127.500 Y125.551 E9.0115
G1 X127.900 Y125.717 F6000
G92 E0
G1 X128.251 Y125.365 E0.0248 F1050
G1 X168.722 Y125.365 E2.0439
G1 X169.074 Y125.717 E2.0687
G1 X169.073 Y133.378 E2.4509
G1 X169.737 Y134.042 E2.4978
G1 X170.520 Y134.042 E2.5368
G1 X170.559 Y134.045 E2.5388
G1 X170.869 Y134.085 E2.5544
G1 X170.945 Y134.106 E2.5583
G1 X171.253 Y134.233 E2.5749
G1 X171.321 Y134.272 E2.5788
G1 X171.585 Y134.475 E2.5954
G1 X171.640 Y134.531 E2.5993
G1 X171.843 Y134.795 E2.6159
G1 X171.882 Y134.863 E2.6199
G1 X172.009 Y135.170 E2.6365
G1 X172.030 Y135.246 E2.6404
G1 X172.071 Y135.556 E2.6560
G1 X172.073 Y135.596 E2.6580
G1 X172.073 Y160.635 E3.9072
G1 X172.071 Y160.674 E3.9091
G1 X172.030 Y160.984 E3.9248
G1 X172.009 Y161.060 E3.9287
G1 X171.882 Y161.368 E3.9453
G1 X171.843 Y161.436 E3.9492
G1 X171.640 Y161.700 E3.9658
G1 X171.585 Y161.755 E3.9697
G1 X171.321 Y161.958 E3.9863
G1 X171.253 Y161.997 E3.9902
G1 X170.945 Y162.125 E4.0068
G1 X170.869 Y162.145 E4.0108
G1 X170.559 Y162.186 E4.0264
G1 X170.520 Y162.188 E4.0283
G1 X168.035 Y162.188 E4.1523
G1 X167.904 Y162.204 E4.1589
G1 X167.812 Y162.237 E4.1638
G1 X167.724 Y162.295 E4.1690
G1 X167.680 Y162.339 E4.1721
G1 X167.622 Y162.427 E4.1774
G1 X167.589 Y162.519 E4.1823
G1 X167.573 Y162.650 E4.1889
G1 X167.573 Y170.635 E4.5872
G1 X167.571 Y170.674 E4.5892
G1 X167.530 Y170.984 E4.6048
G1 X167.509 Y171.060 E4.6087
G1 X167.382 Y171.368 E4.6253
G1 X167.343 Y171.436 E4.6292
G1 X167.140 Y171.700 E4.6458
G1 X167.085 Y171.755 E4.6498
G1 X166.821 Y171.958 E4.6664
G1 X166.753 Y171.997 E4.6703
G1 X166.445 Y172.125 E4.6869
G1 X166.369 Y172.145 E4.6908
G1 X166.059 Y172.186 E4.7064
G1 X166.020 Y172.188 E4.7084
G1 X155.169 Y172.188 E5.2497
G1 X155.104 Y172.269 E5.2549
G1 X154.967 Y172.365 E5.2632
G1 X154.701 Y172.458 E5.2773
G1 X154.601 Y172.475 E5.2824
G1 X147.699 Y172.475 E5.6267
G1 X147.599 Y172.458 E5.6317
G1 X147.330 Y172.364 E5.6460
G1 X147.190 Y172.263 E5.6546
G1 X147.131 Y172.188 E5.6593
G1 X134.680 Y172.188 E6.2805
G1 X134.641 Y172.186 E6.2825
G1 X134.331 Y172.145 E6.2981
G1 X134.255 Y172.125 E6.3020
G1 X133.947 Y171.997 E6.3186
G1 X133.879 Y171.958 E6.3225
G1 X133.615 Y171.755 E6.3391
G1 X133.560 Y171.700 E6.3431
G1 X133.357 Y171.436 E6.3597
G1 X133.318 Y171.368 E6.3636
G1 X133.191 Y171.060 E6.3802
G1 X133.170 Y170.984 E6.3841
G1 X133.129 Y170.674 E6.3997
G1 X133.127 Y170.635 E6.4017
G1 X133.127 Y133.688 E8.2449
G1 X128.251 Y133.688 E8.4882
G1 X127.900 Y133.337 E8.5130
G1 X127.900 Y125.717 E8.8931
G1 X128.300 Y125.882 F6000
G92 E0
G1 X128.417 Y125.765 E0.0083 F1050
G1 X168.556 Y125.765 E2.0108
G1 X168.674 Y125.882 E2.0191
G1 X168.673 Y133.543 E2.4013
G1 X169.572 Y134.442 E2.4647
G1 X170.507 Y134.442 E2.5113
G1 X170.520 Y134.443 E2.5120
G1 X170.791 Y134.479 E2.5257
G1 X170.816 Y134.485 E2.5270
G1 X171.075 Y134.593 E2.5409
G1 X171.098 Y134.606 E2.5423
G1 X171.320 Y134.776 E2.5562
G1 X171.339 Y134.795 E2.5575
G1 X171.509 Y135.017 E2.5715
G1 X171.523 Y135.040 E2.5728
G1 X171.630 Y135.299 E2.5868
G1 X171.637 Y135.324 E2.5881
