; G-Code generated by Simplify3D(R) Version 4.1.2
; Jul 28, 2020 at 5:18:07 PM
; Settings Summary
;   processName,Process1
;   applyToModels,Spudger03,spudger02,Spudger01
;   profileName,A04-04-50s Tevo Tornado
;   profileVersion,2020-07-06 22:44:24
;   baseProfile,Creality CR-10(2)
;   printMaterial,PLA
;   printQuality,Medium
;   printExtruders,
;   extruderName,Primary Extruder
;   extruderToolheadNumber,0
;   extruderDiameter,0.4
;   extruderAutoWidth,0
;   extruderWidth,0.35
;   extrusionMultiplier,0.95
;   extruderUseRetract,1
;   extruderRetractionDistance,4
;   extruderExtraRestartDistance,0
;   extruderRetractionZLift,0.3
;   extruderRetractionSpeed,3000
;   extruderUseCoasting,1
;   extruderCoastingDistance,0.8
;   extruderUseWipe,0
;   extruderWipeDistance,4
;   primaryExtruder,0
;   layerHeight,0.15
;   topSolidLayers,4
;   bottomSolidLayers,3
;   perimeterOutlines,3
;   printPerimetersInsideOut,0
;   startPointOption,1
;   startPointOriginX,0
;   startPointOriginY,300
;   sequentialIslands,0
;   spiralVaseMode,0
;   firstLayerHeightPercentage,120
;   firstLayerWidthPercentage,100
;   firstLayerUnderspeed,0.35
;   useRaft,0
;   raftExtruder,0
;   raftTopLayers,3
;   raftBaseLayers,2
;   raftOffset,3
;   raftSeparationDistance,0.14
;   raftTopInfill,100
;   aboveRaftSpeedMultiplier,0.3
;   useSkirt,1
;   skirtExtruder,0
;   skirtLayers,1
;   skirtOutlines,3
;   skirtOffset,2
;   usePrimePillar,0
;   primePillarExtruder,999
;   primePillarWidth,12
;   primePillarLocation,7
;   primePillarSpeedMultiplier,1
;   useOozeShield,0
;   oozeShieldExtruder,999
;   oozeShieldOffset,2
;   oozeShieldOutlines,1
;   oozeShieldSidewallShape,1
;   oozeShieldSidewallAngle,30
;   oozeShieldSpeedMultiplier,1
;   infillExtruder,0
;   internalInfillPattern,Rectilinear
;   externalInfillPattern,Rectilinear
;   infillPercentage,25
;   outlineOverlapPercentage,15
;   infillExtrusionWidthPercentage,100
;   minInfillLength,5
;   infillLayerInterval,1
;   internalInfillAngles,45,-45
;   overlapInternalInfillAngles,0
;   externalInfillAngles,45,-45
;   generateSupport,1
;   supportExtruder,0
;   supportInfillPercentage,30
;   supportExtraInflation,0
;   supportBaseLayers,0
;   denseSupportExtruder,0
;   denseSupportLayers,0
;   denseSupportInfillPercentage,70
;   supportLayerInterval,1
;   supportHorizontalPartOffset,0.4
;   supportUpperSeparationLayers,1
;   supportLowerSeparationLayers,1
;   supportType,0
;   supportGridSpacing,4.5
;   maxOverhangAngle,45
;   supportAngles,0
;   temperatureName,Primary Extruder,Heated Bed
;   temperatureNumber,0,0
;   temperatureSetpointCount,1,1
;   temperatureSetpointLayers,1,1
;   temperatureSetpointTemperatures,215,55
;   temperatureStabilizeAtStartup,1,1
;   temperatureHeatedBed,0,1
;   fanLayers,1,2
;   fanSpeeds,0,100
;   blipFanToFullPower,0
;   adjustSpeedForCooling,1
;   minSpeedLayerTime,15
;   minCoolingSpeedSlowdown,50
;   increaseFanForCooling,1
;   minFanLayerTime,25
;   maxCoolingFanSpeed,100
;   increaseFanForBridging,1
;   bridgingFanSpeed,100
;   use5D,1
;   relativeEdistances,0
;   allowEaxisZeroing,1
;   independentExtruderAxes,0
;   includeM10123,0
;   stickySupport,1
;   applyToolheadOffsets,0
;   gcodeXoffset,0
;   gcodeYoffset,0
;   gcodeZoffset,0
;   overrideMachineDefinition,1
;   machineTypeOverride,0
;   strokeXoverride,300
;   strokeYoverride,300
;   strokeZoverride,400
;   originOffsetXoverride,0
;   originOffsetYoverride,0
;   originOffsetZoverride,0
;   homeXdirOverride,-1
;   homeYdirOverride,-1
;   homeZdirOverride,-1
;   flipXoverride,1
;   flipYoverride,-1
;   flipZoverride,1
;   toolheadOffsets,0,0|0,0|0,0|0,0|0,0|0,0
;   overrideFirmwareConfiguration,1
;   firmwareTypeOverride,RepRap (Marlin/Repetier/Sprinter)
;   GPXconfigOverride,r2
;   baudRateOverride,250000
;   overridePrinterModels,1
;   printerModelsOverride
;   startingGcode,;,; -]H.P.B[- MarshMalloW  ,; $VER: StartScript 1.02 (26.12.2019) MarshMalloW,;,; Begin Startcode,;,M117 *Preheat*     	; Preheat,;extruder0_temperature,M104 S[extruder0_temperature]  ,M109 S[extruder0_temperature] ,M109 R[extruder0_temperature] ,;,M117 *Auto-leveling*     	; Auto-leveling,M107                   	; Turn layer fan off,G21                    	; Set to metric [change to G20 if you want Imperial],G90                    	; Force coordinates to be absolute relative to the origin,G28                    	; Home X/Y/Z axis,G29                    	; Auto-leveling (BL-Touch),;,M117 *Start Clean*     	; Indicate nozzle clean in progress on LCD,G92 E0                 	; Set Extruder to 0 ,G1 X0 Y0 F2000         	; Move X and Y to 0 with speed 2000 (mm/min),G1 Z0.1 F1000          	; Move Z to   0.1 with speed 1000 (mm/min),G1 X8.0 F2000          	; Move X to   8.0 with speed 2000 (mm/min),G1 Y60.0 E4.0 F1000.0  	; Move Y to  60 and Extruder with 4.0 with speed 1000 (mm/min),G1 Y100.0 E8.5 F1000.0 	; Move Y to 100 and Extruder with 8.5 with speed 1000 (mm/min),G92 E0                 	; Set extruder to 0,G1 X16.0 F3000         	; Move X to 16.0 with speed 3000 (mm/min),G1 Y60.0 F3000         	; Move Y to 60.0 with speed 3000 (mm/min),M117 *End Clean*       	; Indicate nozzle clean in progress on LCD,G1 Z5 F3000            	; Move Z to  5.0 with speed 3000 (mm/min),G1 X20.0 F3000         	; Move X to 20.0 with speed 3000 (mm/min),G1 Y20.0 F3000         	; Move Y to 20.0 with speed 3000 (mm/min),; ,M117 *Printing...*     	; Start printing msg on LCD,;,; End Startcode,;,; Begin printing with sliced GCode after here,;
;   layerChangeGcode,
;   retractionGcode,
;   toolChangeGcode,
;   endingGcode,;,; init 181010,;,;M107 			; Fan off,;G1 E-1 F300 			; Retract the filament a bit before lifting the nozzle,;M104 S0 			; Turn off extruder,;M140 S0 			; Turn off bed,;G91			; Relative positioning,;G28 X0 Y0 			; Move X/Y to min endstops so the head is out of teh way,;M84 			; Disable motors,;G90 			; Absolute positioning,;M117 Print ready...,,;,; // From Cura 181010,; // End_gcode,G92 E0			; Zero the extruded length,;G1 E-30 F300		; Retract E -30,M106 S0			; Turn off cooling fan,M104 S0			; Turn off temperature,M140 S0		     	; Turn off bed,G91			; Relative positioning,G1 E-1 F300			; Retract the filament a bit before lifting the nozzle to release some of the pressure,G1 Z+20 E-5 X-20 Y-20 F7200	; Move Z up a bit and retract filament even more,G1 X0 Y150 F10000		; Move right min,M107			; Turn off layer fan,M84			; Disable motors,G90			; Absolute positioning,M117 *The-End* 		; End msg,;,
;   exportFileFormat,gcode
;   celebration,0
;   celebrationSong,Star Wars
;   postProcessing,|{REPLACE "; layer " "M117 INDICATOR-Layer"}|{REPLACE ", Z = " "\n; Z="}
;   defaultSpeed,1800
;   outlineUnderspeed,0.5
;   solidInfillUnderspeed,0.8
;   supportUnderspeed,0.8
;   rapidXYspeed,6000
;   rapidZspeed,1002
;   minBridgingArea,50
;   bridgingExtraInflation,0.2
;   bridgingExtrusionMultiplier,1
;   bridgingSpeedMultiplier,0.6
;   useFixedBridgingAngle,0
;   fixedBridgingAngle,0
;   applyBridgingToPerimeters,0
;   filamentDiameters,1.75|1.75|1.75|1.75|1.75|1.75
;   filamentPricesPerKg,30|46|46|46|46|46
;   filamentDensities,1.25|1.25|1.25|1.25|1.25|1.25
;   useMinPrintHeight,0
;   minPrintHeight,0
;   useMaxPrintHeight,0
;   maxPrintHeight,9
;   useDiaphragm,0
;   diaphragmLayerInterval,20
;   robustSlicing,1
;   mergeAllIntoSolid,0
;   onlyRetractWhenCrossingOutline,1
;   retractBetweenLayers,0
;   useRetractionMinTravel,0
;   retractionMinTravel,3
;   retractWhileWiping,0
;   onlyWipeOutlines,1
;   avoidCrossingOutline,1
;   maxMovementDetourFactor,3
;   toolChangeRetractionDistance,12
;   toolChangeExtraRestartDistance,-0.5
;   toolChangeRetractionSpeed,600
;   externalThinWallType,1
;   internalThinWallType,1
;   thinWallAllowedOverlapPercentage,10
;   singleExtrusionMinLength,1
;   singleExtrusionMinPrintingWidthPercentage,50
;   singleExtrusionMaxPrintingWidthPercentage,200
;   singleExtrusionEndpointExtension,0.2
;   horizontalSizeCompensation,0
G90
M82
M106 S0
M140 S55
M190 S55
;
; -]H.P.B[- MarshMalloW  
; $VER: StartScript 1.02 (26.12.2019) MarshMalloW
;
; Begin Startcode
;
M117 *Preheat*     	; Preheat
;extruder0_temperature
M104 S215  
M109 S215 
M109 R215 
;
M117 *Auto-leveling*     	; Auto-leveling
M107                   	; Turn layer fan off
G21                    	; Set to metric [change to G20 if you want Imperial]
G90                    	; Force coordinates to be absolute relative to the origin
G28                    	; Home X/Y/Z axis
G29                    	; Auto-leveling (BL-Touch)
;
M117 *Start Clean*     	; Indicate nozzle clean in progress on LCD
G92 E0                 	; Set Extruder to 0 
G1 X0 Y0 F2000         	; Move X and Y to 0 with speed 2000 (mm/min)
G1 Z0.1 F1000          	; Move Z to   0.1 with speed 1000 (mm/min)
G1 X8.0 F2000          	; Move X to   8.0 with speed 2000 (mm/min)
G1 Y60.0 E4.0 F1000.0  	; Move Y to  60 and Extruder with 4.0 with speed 1000 (mm/min)
G1 Y100.0 E8.5 F1000.0 	; Move Y to 100 and Extruder with 8.5 with speed 1000 (mm/min)
G92 E0                 	; Set extruder to 0
G1 X16.0 F3000         	; Move X to 16.0 with speed 3000 (mm/min)
G1 Y60.0 F3000         	; Move Y to 60.0 with speed 3000 (mm/min)
M117 *End Clean*       	; Indicate nozzle clean in progress on LCD
G1 Z5 F3000            	; Move Z to  5.0 with speed 3000 (mm/min)
G1 X20.0 F3000         	; Move X to 20.0 with speed 3000 (mm/min)
G1 Y20.0 F3000         	; Move Y to 20.0 with speed 3000 (mm/min)
; 
M117 *Printing...*     	; Start printing msg on LCD
;
; End Startcode
;
; Begin printing with sliced GCode after here
;
; process Process1
M117 INDICATOR-Layer1
; Z=0.180
T0
G92 E0.0000
G1 E-4.0000 F3000
; feature skirt
; tool H0.180 W0.350
G1 Z0.300 F1002
G1 X122.514 Y34.202 F6000
G1 Z0.180 F1002
G1 E0.0000 F3000
G92 E0.0000
G1 X127.091 Y65.884 E0.7965 F630
G1 X127.106 Y66.090 E0.8016
G1 X127.104 Y169.141 E3.3658
G1 X126.541 Y169.704 E3.3857
G1 X126.541 Y173.089 E3.4699
G1 X125.541 Y174.089 E3.5051
G1 X125.541 Y176.089 E3.5548
G1 X124.541 Y177.089 E3.5900
G1 X124.541 Y179.089 E3.6398
G1 X123.541 Y180.089 E3.6750
G1 X123.541 Y182.089 E3.7248
G1 X121.857 Y183.773 E3.7840
G1 X118.035 Y183.773 E3.8791
G1 X116.351 Y182.089 E3.9384
G1 X116.351 Y168.268 E4.2823
G1 X116.786 Y167.832 E4.2976
G1 X116.790 Y34.483 E7.6157
G1 X118.474 Y32.799 E7.6750
G1 X120.894 Y32.799 E7.7352
G1 X122.514 Y34.202 E7.7885
G92 E0.0000
G1 E-4.0000 F3000
G1 Z0.480 F1002
G1 X119.840 Y37.023 F6000
G1 X122.615 Y56.233
G1 X123.191 Y181.944
G1 Z0.180 F1002
G1 E0.0000 F3000
G92 E0.0000
G1 X121.712 Y183.423 E0.0520 F630
G1 X118.180 Y183.423 E0.1399
G1 X116.701 Y181.944 E0.1920
G1 X116.701 Y168.413 E0.5287
G1 X117.136 Y167.977 E0.5440
G1 X117.140 Y34.628 E3.8621
G1 X118.619 Y33.149 E3.9141
G1 X120.763 Y33.149 E3.9675
G1 X122.187 Y34.381 E4.0143
G1 X126.743 Y65.922 E4.8073
G1 X126.756 Y66.102 E4.8118
G1 X126.754 Y168.996 E7.3721
G1 X126.191 Y169.559 E7.3919
G1 X126.191 Y172.944 E7.4761
G1 X125.191 Y173.944 E7.5113
G1 X125.191 Y175.944 E7.5611
G1 X124.191 Y176.944 E7.5963
G1 X124.191 Y178.944 E7.6460
G1 X123.191 Y179.944 E7.6812
G1 X123.191 Y181.944 E7.7310
G92 E0.0000
G1 E-4.0000 F3000
G1 Z0.480 F1002
G1 X126.404 Y168.851 F6000
G1 Z0.180 F1002
G1 E0.0000 F3000
G92 E0.0000
G1 X125.841 Y169.414 E0.0198 F630
G1 X125.841 Y172.799 E0.1040
G1 X124.841 Y173.799 E0.1392
G1 X124.841 Y175.799 E0.1890
G1 X123.841 Y176.799 E0.2242
G1 X123.841 Y178.799 E0.2740
G1 X122.841 Y179.799 E0.3091
G1 X122.841 Y181.799 E0.3589
G1 X121.567 Y183.073 E0.4037
G1 X118.325 Y183.073 E0.4844
G1 X117.051 Y181.799 E0.5292
G1 X117.051 Y168.558 E0.8587
G1 X117.486 Y168.122 E0.8741
G1 X117.490 Y34.773 E4.1921
G1 X118.764 Y33.499 E4.2370
G1 X120.633 Y33.499 E4.2835
G1 X121.859 Y34.561 E4.3238
G1 X126.395 Y65.959 E5.1132
G1 X126.406 Y66.115 E5.1171
G1 X126.404 Y168.851 E7.6735
G92 E0.0000
G1 E-4.0000 F3000
G1 Z0.480 F1002
G1 X139.557 Y26.961 F6000
G1 Z0.180 F1002
G1 E0.0000 F3000
G92 E0.0000
G1 X141.229 Y25.342 E0.0579 F630
G1 X143.741 Y25.342 E0.1204
G1 X145.425 Y27.027 E0.1797
G1 X145.401 Y173.226 E3.8175
G1 X145.981 Y173.806 E3.8379
G1 X145.981 Y179.628 E3.9828
G1 X144.297 Y181.312 E4.0421
G1 X139.475 Y181.312 E4.1620
G1 X137.791 Y179.628 E4.2213
G1 X137.791 Y173.806 E4.3662
G1 X138.356 Y173.242 E4.3860
G1 X138.347 Y64.233 E7.0985
G1 X138.348 Y64.186 E7.0996
G1 X139.557 Y26.961 E8.0264
G92 E0.0000
G1 E-4.0000 F3000
G1 Z0.480 F1002
G1 X138.708 Y173.329 F6000
G1 Z0.180 F1002
G1 E0.0000 F3000
G92 E0.0000
G1 X138.706 Y173.255 E0.0019 F630
G1 X138.697 Y64.236 E2.7145
G1 X138.698 Y64.195 E2.7156
G1 X139.902 Y27.114 E3.6387
G1 X141.371 Y25.692 E3.6896
G1 X143.596 Y25.692 E3.7450
G1 X145.075 Y27.172 E3.7970
G1 X145.051 Y173.371 E7.4348
G1 X145.631 Y173.951 E7.4553
G1 X145.631 Y179.483 E7.5929
G1 X144.152 Y180.962 E7.6450
G1 X139.620 Y180.962 E7.7577
G1 X138.141 Y179.483 E7.8098
G1 X138.141 Y173.951 E7.9474
G1 X138.711 Y173.382 E7.9675
G1 X138.708 Y173.329 E7.9688
G92 E0.0000
G1 E-4.0000 F3000
G1 Z0.480 F1002
G1 X138.491 Y174.096 F6000
G1 Z0.180 F1002
G1 E0.0000 F3000
G92 E0.0000
G1 X139.069 Y173.518 E0.0203 F630
G1 X139.057 Y173.314 E0.0254
G1 X139.055 Y173.249 E0.0270
G1 X139.047 Y64.239 E2.7395
G1 X139.048 Y64.203 E2.7404
G1 X140.248 Y27.267 E3.6600
G1 X141.513 Y26.042 E3.7038
G1 X143.451 Y26.042 E3.7520
G1 X144.725 Y27.317 E3.7969
G1 X144.701 Y173.516 E7.4347
G1 X145.281 Y174.096 E7.4551
G1 X145.281 Y179.338 E7.5856
G1 X144.007 Y180.612 E7.6304
G1 X139.765 Y180.612 E7.7359
G1 X138.491 Y179.338 E7.7808
G1 X138.491 Y174.096 E7.9112
G92 E0.0000
G1 E-4.0000 F3000
G1 Z0.480 F1002
G1 X141.420 Y173.463 F6000
G1 X141.405 Y173.212
G1 X141.405 Y169.849
G1 X142.367 Y168.447
G1 X154.778 Y182.892
G1 X153.617 Y152.050
G1 X156.073 Y148.469
G1 X156.190 Y145.367
G1 X156.190 Y143.878
G1 X159.240 Y143.854
G1 Z0.180 F1002
G1 E0.0000 F3000
G92 E0.0000
G1 X159.240 Y145.397 E0.0384 F630
G1 X159.239 Y145.451 E0.0398
G1 X157.546 Y190.420 E1.1595
G1 X152.009 Y190.420 E1.2973
G1 X150.316 Y145.452 E2.4170
G1 X150.315 Y145.398 E2.4183
G1 X150.315 Y41.008 E5.0158
G1 X150.193 Y40.872 E5.0204
G1 X150.315 Y39.751 E5.0484
G1 X150.315 Y38.976 E5.0677
G1 X150.183 Y38.844 E5.0724
G1 X150.183 Y33.022 E5.2172
G1 X151.183 Y32.022 E5.2524
G1 X151.183 Y24.022 E5.4515
G1 X152.867 Y22.338 E5.5108
G1 X156.688 Y22.338 E5.6059
G1 X158.373 Y24.022 E5.6651
G1 X158.373 Y32.022 E5.8642
G1 X159.373 Y33.022 E5.8994
G1 X159.373 Y38.844 E6.0442
G1 X159.164 Y39.052 E6.0516
G1 X159.362 Y40.872 E6.0971
G1 X157.648 Y42.782 E6.1610
G1 X156.154 Y42.782 E6.1981
G1 X159.239 Y143.810 E8.7132
G1 X159.240 Y143.854 E8.7143
G92 E0.0000
G1 E-4.0000 F3000
G1 Z0.480 F1002
G1 X156.190 Y143.878 F6000
G1 X153.438 Y53.752
G1 X153.365 Y52.623
G1 X153.365 Y51.371
G1 X151.533 Y24.167
G1 Z0.180 F1002
G1 E0.0000 F3000
G92 E0.0000
G1 X153.012 Y22.688 E0.0520 F630
G1 X156.543 Y22.688 E0.1399
G1 X158.023 Y24.167 E0.1920
G1 X158.023 Y32.167 E0.3910
G1 X159.023 Y33.167 E0.4262
G1 X159.023 Y38.699 E0.5639
G1 X158.798 Y38.923 E0.5718
G1 X158.997 Y40.754 E0.6176
G1 X157.492 Y42.432 E0.6737
G1 X155.793 Y42.432 E0.7160
G1 X158.889 Y143.818 E3.2399
G1 X158.890 Y143.856 E3.2408
G1 X158.890 Y145.394 E3.2791
G1 X158.889 Y145.442 E3.2803
G1 X157.209 Y190.070 E4.3916
G1 X152.346 Y190.070 E4.5126
G1 X150.666 Y145.442 E5.6238
G1 X150.665 Y145.394 E5.6250
G1 X150.665 Y40.874 E8.2258
G1 X150.558 Y40.754 E8.2297
G1 X150.665 Y39.770 E8.2544
G1 X150.665 Y38.831 E8.2777
G1 X150.533 Y38.699 E8.2824
G1 X150.533 Y33.167 E8.4201
G1 X151.533 Y32.167 E8.4552
G1 X151.533 Y24.167 E8.6543
G92 E0.0000
G1 E-4.0000 F3000
G1 Z0.480 F1002
G1 X150.883 Y33.312 F6000
G1 Z0.180 F1002
G1 E0.0000 F3000
G92 E0.0000
G1 X151.883 Y32.312 E0.0352 F630
G1 X151.883 Y24.312 E0.2343
G1 X153.157 Y23.038 E0.2791
G1 X156.398 Y23.038 E0.3598
G1 X157.673 Y24.312 E0.4046
G1 X157.673 Y32.312 E0.6036
G1 X158.673 Y33.312 E0.6388
G1 X158.673 Y38.554 E0.7693
G1 X158.432 Y38.795 E0.7777
G1 X158.632 Y40.637 E0.8239
G1 X157.336 Y42.082 E0.8722
G1 X155.432 Y42.082 E0.9195
G1 X158.540 Y143.826 E3.4524
G1 X158.540 Y143.859 E3.4532
