; G-Code generated by Simplify3D(R) Version 4.1.2
;
;
;
;
; Dec 24, 2022 at 5:44:06 PM
; Settings Summary
;   processName,PLA A15
;   applyToModels,snowflake-slotted
;   profileName,PLA_B01_04_10_OS180_05 Tevo Tornado
;   profileVersion,2022-12-20 19:20:01
;   baseProfile,Creality CR-10(2)
;   printMaterial,PLA
;   printQuality,High
;   printExtruders,
;   extruderName,Primary Extruder
;   extruderToolheadNumber,0
;   extruderDiameter,0.4
;   extruderAutoWidth,0
;   extruderWidth,0.35
;   extrusionMultiplier,0.95
;   extruderUseRetract,1
;   extruderRetractionDistance,4
;   extruderExtraRestartDistance,0
;   extruderRetractionZLift,0.3
;   extruderRetractionSpeed,3000
;   extruderUseCoasting,1
;   extruderCoastingDistance,0.2
;   extruderUseWipe,0
;   extruderWipeDistance,5
;   primaryExtruder,0
;   layerHeight,0.12
;   topSolidLayers,6
;   bottomSolidLayers,5
;   perimeterOutlines,4
;   printPerimetersInsideOut,1
;   startPointOption,2
;   startPointOriginX,0
;   startPointOriginY,300
;   sequentialIslands,0
;   spiralVaseMode,0
;   firstLayerHeightPercentage,120
;   firstLayerWidthPercentage,100
;   firstLayerUnderspeed,0.25
;   useRaft,0
;   raftExtruder,0
;   raftTopLayers,3
;   raftBaseLayers,2
;   raftOffset,3
;   raftSeparationDistance,0.14
;   raftTopInfill,100
;   aboveRaftSpeedMultiplier,0.3
;   useSkirt,1
;   skirtExtruder,0
;   skirtLayers,2
;   skirtOutlines,2
;   skirtOffset,3
;   usePrimePillar,0
;   primePillarExtruder,999
;   primePillarWidth,12
;   primePillarLocation,7
;   primePillarSpeedMultiplier,1
;   useOozeShield,0
;   oozeShieldExtruder,999
;   oozeShieldOffset,2
;   oozeShieldOutlines,1
;   oozeShieldSidewallShape,1
;   oozeShieldSidewallAngle,30
;   oozeShieldSpeedMultiplier,1
;   infillExtruder,0
;   internalInfillPattern,Full Honeycomb
;   externalInfillPattern,Rectilinear
;   infillPercentage,10
;   outlineOverlapPercentage,15
;   infillExtrusionWidthPercentage,100
;   minInfillLength,5
;   infillLayerInterval,1
;   internalInfillAngles,0,120,-120
;   overlapInternalInfillAngles,0
;   externalInfillAngles,45,-45
;   generateSupport,0
;   supportExtruder,0
;   supportInfillPercentage,40
;   supportExtraInflation,0
;   supportBaseLayers,0
;   denseSupportExtruder,0
;   denseSupportLayers,0
;   denseSupportInfillPercentage,70
;   supportLayerInterval,1
;   supportHorizontalPartOffset,0.4
;   supportUpperSeparationLayers,1
;   supportLowerSeparationLayers,1
;   supportType,0
;   supportGridSpacing,4.5
;   maxOverhangAngle,45
;   supportAngles,0
;   temperatureName,Primary Extruder,Heated Bed
;   temperatureNumber,0,0
;   temperatureSetpointCount,2,2
;   temperatureSetpointLayers,1,2,1,2
;   temperatureSetpointTemperatures,185,180,10,5
;   temperatureStabilizeAtStartup,1,1
;   temperatureHeatedBed,0,1
;   fanLayers,1,2
;   fanSpeeds,0,100
;   blipFanToFullPower,0
;   adjustSpeedForCooling,1
;   minSpeedLayerTime,15
;   minCoolingSpeedSlowdown,20
;   increaseFanForCooling,1
;   minFanLayerTime,25
;   maxCoolingFanSpeed,100
;   increaseFanForBridging,1
;   bridgingFanSpeed,100
;   use5D,1
;   relativeEdistances,0
;   allowEaxisZeroing,1
;   independentExtruderAxes,0
;   includeM10123,0
;   stickySupport,1
;   applyToolheadOffsets,0
;   gcodeXoffset,0
;   gcodeYoffset,0
;   gcodeZoffset,0
;   overrideMachineDefinition,1
;   machineTypeOverride,0
;   strokeXoverride,300
;   strokeYoverride,300
;   strokeZoverride,400
;   originOffsetXoverride,0
;   originOffsetYoverride,0
;   originOffsetZoverride,0
;   homeXdirOverride,-1
;   homeYdirOverride,-1
;   homeZdirOverride,-1
;   flipXoverride,1
;   flipYoverride,-1
;   flipZoverride,1
;   toolheadOffsets,0,0|0,0|0,0|0,0|0,0|0,0
;   overrideFirmwareConfiguration,1
;   firmwareTypeOverride,RepRap (Marlin/Repetier/Sprinter)
;   GPXconfigOverride,r2
;   baudRateOverride,250000
;   overridePrinterModels,1
;   printerModelsOverride
;   startingGcode,;,; -]H.P.B[- MarshMalloW  ,; $VER: StartScript 1.03 (18.12.2022) MarshMalloW,;,; Begin Startcode,;,M117 *Preheat*	; Preheat,;extruder0_temperature,M104 S[extruder0_temperature],M109 S[extruder0_temperature],;M109 R[extruder0_temperature] ,;,M117 *Auto-leveling*     	; Auto-leveling,M107                   	; Turn layer fan off,G21                    	; Set to metric [change to G20 if you want Imperial],G90                    	; Force coordinates to be absolute relative to the origin,G28                    	; Home X/Y/Z axis,G29                    	; Auto-leveling (BL-Touch),;,M117 *Start Clean*     	; Indicate nozzle clean in progress on LCD,G92 E0                 	; Set Extruder to 0 ,G1 X0 Y0 F2000         	; Move X and Y to 0 with speed 2000 (mm/min),G1 Z0.1 F1000          	; Move Z to   0.1 with speed 1000 (mm/min),G1 X8.0 F2000          	; Move X to   8.0 with speed 2000 (mm/min),G1 Y60.0 E4.0 F1000.0  	; Move Y to  60 and Extruder with 4.0 with speed 1000 (mm/min),G1 Y100.0 E8.5 F1000.0 	; Move Y to 100 and Extruder with 8.5 with speed 1000 (mm/min),G92 E0                 	; Set extruder to 0,G1 X16.0 F3000         	; Move X to 16.0 with speed 3000 (mm/min),G1 Y60.0 F3000         	; Move Y to 60.0 with speed 3000 (mm/min),M117 *End Clean*       	; Indicate nozzle clean in progress on LCD,G1 Z5 F3000            	; Move Z to  5.0 with speed 3000 (mm/min),G1 X20.0 F3000         	; Move X to 20.0 with speed 3000 (mm/min),G1 Y20.0 F3000         	; Move Y to 20.0 with speed 3000 (mm/min),; ,M117 *Printing...*     	; Start printing msg on LCD,;,; End Startcode,;,; Begin printing with sliced GCode after here,;
;   layerChangeGcode,
;   retractionGcode,
;   toolChangeGcode,
;   endingGcode,;,; init 181010,;,;M107 			; Fan off,;G1 E-1 F300 			; Retract the filament a bit before lifting the nozzle,;M104 S0 			; Turn off extruder,;M140 S0 			; Turn off bed,;G91			; Relative positioning,;G28 X0 Y0 			; Move X/Y to min endstops so the head is out of teh way,;M84 			; Disable motors,;G90 			; Absolute positioning,;M117 Print ready...,,;,; // From Cura 181010,; // End_gcode,G92 E0			; Zero the extruded length,;G1 E-30 F300		; Retract E -30,M106 S0			; Turn off cooling fan,M104 S0			; Turn off temperature,M140 S0		     	; Turn off bed,G91			; Relative positioning,G1 E-1 F300			; Retract the filament a bit before lifting the nozzle to release some of the pressure,G1 Z+20 E-5 X-20 Y-20 F7200	; Move Z up a bit and retract filament even more,G1 X0 Y150 F10000		; Move right min,M107			; Turn off layer fan,M84			; Disable motors,G90			; Absolute positioning,M117 *The-End* 		; End msg,;,
;   exportFileFormat,gcode
;   celebration,0
;   celebrationSong,Star Wars
;   postProcessing,D:\S3D_Thumbs\S3D_Thumbs.exe f="[output_filepath]" x=600 y=110 w=953 lw=400 lh=300 sw=32 sh=32 d=Y
;   defaultSpeed,4200
;   outlineUnderspeed,0.5
;   solidInfillUnderspeed,0.8
;   supportUnderspeed,0.8
;   rapidXYspeed,6000
;   rapidZspeed,1002
;   minBridgingArea,50
;   bridgingExtraInflation,0.2
;   bridgingExtrusionMultiplier,1
;   bridgingSpeedMultiplier,0.8
;   useFixedBridgingAngle,0
;   fixedBridgingAngle,0
;   applyBridgingToPerimeters,0
;   filamentDiameters,1.75|1.75|1.75|1.75|1.75|1.75
;   filamentPricesPerKg,30|46|46|46|46|46
;   filamentDensities,1.25|1.25|1.25|1.25|1.25|1.25
;   useMinPrintHeight,0
;   minPrintHeight,0
;   useMaxPrintHeight,0
;   maxPrintHeight,50
;   useDiaphragm,0
;   diaphragmLayerInterval,20
;   robustSlicing,1
;   mergeAllIntoSolid,0
;   onlyRetractWhenCrossingOutline,1
;   retractBetweenLayers,1
;   useRetractionMinTravel,0
;   retractionMinTravel,3
;   retractWhileWiping,1
;   onlyWipeOutlines,1
;   avoidCrossingOutline,0
;   maxMovementDetourFactor,3
;   toolChangeRetractionDistance,12
;   toolChangeExtraRestartDistance,-0.5
;   toolChangeRetractionSpeed,600
;   externalThinWallType,1
;   internalThinWallType,1
;   thinWallAllowedOverlapPercentage,10
;   singleExtrusionMinLength,1
;   singleExtrusionMinPrintingWidthPercentage,50
;   singleExtrusionMaxPrintingWidthPercentage,200
;   singleExtrusionEndpointExtension,0.2
;   horizontalSizeCompensation,0
G90
M82
M106 S0
M140 S10
;
; -]H.P.B[- MarshMalloW  
; $VER: StartScript 1.03 (18.12.2022) MarshMalloW
;
; Begin Startcode
;
M117 *Preheat*	; Preheat
;extruder0_temperature
M104 S185
M109 S185
;M109 R185 
;
M117 *Auto-leveling*     	; Auto-leveling
M107                   	; Turn layer fan off
G21                    	; Set to metric [change to G20 if you want Imperial]
G90                    	; Force coordinates to be absolute relative to the origin
G28                    	; Home X/Y/Z axis
G29                    	; Auto-leveling (BL-Touch)
;
M117 *Start Clean*     	; Indicate nozzle clean in progress on LCD
G92 E0                 	; Set Extruder to 0 
G1 X0 Y0 F2000         	; Move X and Y to 0 with speed 2000 (mm/min)
G1 Z0.1 F1000          	; Move Z to   0.1 with speed 1000 (mm/min)
G1 X8.0 F2000          	; Move X to   8.0 with speed 2000 (mm/min)
G1 Y60.0 E4.0 F1000.0  	; Move Y to  60 and Extruder with 4.0 with speed 1000 (mm/min)
G1 Y100.0 E8.5 F1000.0 	; Move Y to 100 and Extruder with 8.5 with speed 1000 (mm/min)
G92 E0                 	; Set extruder to 0
G1 X16.0 F3000         	; Move X to 16.0 with speed 3000 (mm/min)
G1 Y60.0 F3000         	; Move Y to 60.0 with speed 3000 (mm/min)
M117 *End Clean*       	; Indicate nozzle clean in progress on LCD
G1 Z5 F3000            	; Move Z to  5.0 with speed 3000 (mm/min)
G1 X20.0 F3000         	; Move X to 20.0 with speed 3000 (mm/min)
G1 Y20.0 F3000         	; Move Y to 20.0 with speed 3000 (mm/min)
; 
M117 *Printing...*     	; Start printing msg on LCD
;
; End Startcode
;
; Begin printing with sliced GCode after here
;
; process PLA A15
; layer 1, Z = 0.144
T0
G92 E0.0000
G1 E-4.0000 F3000
; feature skirt
; tool H0.144 W0.350
G1 Z0.300 F1002
G1 X83.514 Y105.151 F6000
G1 Z0.144 F1002
G1 E0.0000 F3000
G92 E0.0000
G1 X85.549 Y101.626 E0.0810 F1050
G1 X90.109 Y101.626 E0.1718
G1 X92.108 Y98.164 E0.2514
G1 X96.178 Y98.164 E0.3324
G1 X96.416 Y98.576 E0.3419
G1 X96.979 Y97.601 E0.3643
G1 X101.050 Y97.601 E0.4453
G1 X103.237 Y101.389 E0.5324
G1 X103.477 Y102.286 E0.5509
G1 X103.477 Y102.476 E0.5547
G1 X106.651 Y102.476 E0.6178
G1 X108.237 Y99.728 E0.6810
G1 X108.073 Y99.633 E0.6848
G1 X107.416 Y98.976 E0.7033
G1 X105.229 Y95.188 E0.7903
G1 X107.264 Y91.663 E0.8714
G1 X111.639 Y91.663 E0.9584
G1 X112.535 Y91.903 E0.9769
G1 X113.850 Y92.662 E1.0071
G1 X113.850 Y88.786 E1.0843
G1 X114.090 Y87.889 E1.1028
G1 X116.465 Y83.776 E1.1973
G1 X120.535 Y83.776 E1.2783
G1 X122.910 Y87.889 E1.3729
G1 X123.150 Y88.786 E1.3914
G1 X123.150 Y92.662 E1.4685
G1 X124.465 Y91.903 E1.4988
G1 X125.361 Y91.663 E1.5172
G1 X129.736 Y91.663 E1.6043
G1 X131.771 Y95.188 E1.6853
G1 X129.584 Y98.976 E1.7724
G1 X128.927 Y99.633 E1.7909
G1 X128.763 Y99.728 E1.7947
G1 X130.349 Y102.476 E1.8578
G1 X133.523 Y102.476 E1.9210
G1 X133.523 Y102.286 E1.9248
G1 X133.763 Y101.389 E1.9433
G1 X135.950 Y97.601 E2.0304
G1 X140.021 Y97.601 E2.1114
G1 X140.584 Y98.576 E2.1338
G1 X140.822 Y98.164 E2.1433
G1 X144.892 Y98.164 E2.2243
G1 X146.891 Y101.626 E2.3039
G1 X153.109 Y101.626 E2.4277
G1 X155.108 Y98.164 E2.5072
G1 X159.178 Y98.164 E2.5883
G1 X159.416 Y98.576 E2.5977
G1 X159.979 Y97.601 E2.6201
G1 X164.050 Y97.601 E2.7012
G1 X166.237 Y101.389 E2.7882
G1 X166.477 Y102.286 E2.8067
G1 X166.477 Y102.476 E2.8105
G1 X169.651 Y102.476 E2.8737
G1 X171.237 Y99.728 E2.9369
G1 X171.073 Y99.633 E2.9407
G1 X170.416 Y98.976 E2.9591
G1 X168.229 Y95.188 E3.0462
G1 X170.264 Y91.663 E3.1272
G1 X171.390 Y91.663 E3.1496
G1 X171.152 Y91.251 E3.1591
G1 X173.187 Y87.726 E3.2401
G1 X177.185 Y87.726 E3.3197
G1 X179.465 Y83.776 E3.4105
G1 X183.535 Y83.776 E3.4915
G1 X185.815 Y87.726 E3.5823
G1 X189.813 Y87.726 E3.6619
G1 X191.848 Y91.251 E3.7429
G1 X191.610 Y91.663 E3.7524
G1 X192.736 Y91.663 E3.7748
G1 X194.771 Y95.188 E3.8558
G1 X192.584 Y98.976 E3.9429
G1 X191.927 Y99.633 E3.9614
G1 X191.763 Y99.728 E3.9651
G1 X193.349 Y102.476 E4.0283
G1 X196.523 Y102.476 E4.0915
G1 X196.523 Y102.286 E4.0953
G1 X196.763 Y101.389 E4.1138
G1 X198.950 Y97.601 E4.2008
G1 X203.021 Y97.601 E4.2819
G1 X203.584 Y98.576 E4.3043
G1 X203.822 Y98.164 E4.3138
G1 X207.892 Y98.164 E4.3948
G1 X209.891 Y101.626 E4.4744
G1 X214.451 Y101.626 E4.5651
G1 X216.486 Y105.151 E4.6462
G1 X214.206 Y109.100 E4.7369
G1 X216.205 Y112.562 E4.8165
G1 X214.170 Y116.087 E4.8975
G1 X213.693 Y116.087 E4.9070
G1 X214.256 Y117.062 E4.9294
G1 X212.221 Y120.587 E5.0104
G1 X207.847 Y120.587 E5.0975
G1 X206.950 Y120.347 E5.1160
G1 X206.786 Y120.252 E5.1198
G1 X205.199 Y123.000 E5.1830
G1 X206.786 Y125.748 E5.2461
G1 X206.950 Y125.653 E5.2499
G1 X207.847 Y125.413 E5.2684
G1 X212.221 Y125.413 E5.3555
G1 X214.256 Y128.938 E5.4365
G1 X213.693 Y129.913 E5.4589
G1 X214.170 Y129.913 E5.4684
G1 X216.205 Y133.438 E5.5494
G1 X214.206 Y136.900 E5.6290
G1 X216.486 Y140.849 E5.7198
G1 X214.451 Y144.374 E5.8008
G1 X209.891 Y144.374 E5.8916
G1 X207.892 Y147.836 E5.9711
G1 X203.822 Y147.836 E6.0522
G1 X203.584 Y147.424 E6.0616
G1 X203.021 Y148.399 E6.0841
G1 X198.950 Y148.399 E6.1651
G1 X196.763 Y144.611 E6.2522
G1 X196.523 Y143.714 E6.2706
G1 X196.523 Y143.524 E6.2744
G1 X193.349 Y143.524 E6.3376
G1 X191.763 Y146.272 E6.4008
G1 X191.927 Y146.367 E6.4046
G1 X192.584 Y147.024 E6.4230
G1 X194.771 Y150.812 E6.5101
G1 X192.736 Y154.337 E6.5911
G1 X188.361 Y154.337 E6.6782
G1 X187.465 Y154.097 E6.6967
G1 X186.150 Y153.338 E6.7269
G1 X186.150 Y157.214 E6.8041
G1 X185.910 Y158.111 E6.8226
G1 X183.535 Y162.224 E6.9171
G1 X183.212 Y162.224 E6.9235
G1 X182.706 Y163.100 E6.9437
G1 X184.705 Y166.562 E7.0232
G1 X182.670 Y170.087 E7.1043
G1 X182.193 Y170.087 E7.1137
G1 X182.756 Y171.062 E7.1362
G1 X180.721 Y174.587 E7.2172
G1 X176.347 Y174.587 E7.3043
G1 X175.450 Y174.347 E7.3227
G1 X175.286 Y174.252 E7.3265
G1 X173.699 Y177.000 E7.3897
G1 X175.286 Y179.748 E7.4529
G1 X175.450 Y179.653 E7.4567
G1 X176.347 Y179.413 E7.4751
G1 X180.721 Y179.413 E7.5622
G1 X182.756 Y182.938 E7.6432
G1 X182.193 Y183.913 E7.6656
G1 X182.670 Y183.913 E7.6751
G1 X184.705 Y187.438 E7.7562
G1 X182.706 Y190.900 E7.8357
G1 X184.986 Y194.849 E7.9265
G1 X182.951 Y198.374 E8.0075
G1 X178.391 Y198.374 E8.0983
G1 X176.392 Y201.836 E8.1779
G1 X172.322 Y201.836 E8.2589
G1 X172.084 Y201.424 E8.2684
G1 X171.521 Y202.399 E8.2908
G1 X167.450 Y202.399 E8.3718
G1 X165.263 Y198.611 E8.4589
G1 X165.023 Y197.714 E8.4774
G1 X165.023 Y197.524 E8.4812
G1 X161.849 Y197.524 E8.5443
G1 X160.263 Y200.272 E8.6075
G1 X160.427 Y200.367 E8.6113
G1 X161.084 Y201.024 E8.6298
G1 X163.271 Y204.812 E8.7168
G1 X161.236 Y208.337 E8.7979
G1 X160.110 Y208.337 E8.8203
G1 X160.348 Y208.749 E8.8298
G1 X158.313 Y212.274 E8.9108
G1 X154.315 Y212.274 E8.9904
G1 X152.035 Y216.224 E9.0811
G1 X147.965 Y216.224 E9.1622
G1 X145.685 Y212.274 E9.2529
G1 X141.687 Y212.274 E9.3325
G1 X139.652 Y208.749 E9.4135
G1 X139.890 Y208.337 E9.4230
G1 X138.764 Y208.337 E9.4454
G1 X136.729 Y204.812 E9.5265
G1 X138.916 Y201.024 E9.6135
G1 X139.573 Y200.367 E9.6320
G1 X139.737 Y200.272 E9.6358
G1 X138.151 Y197.524 E9.6990
G1 X134.977 Y197.524 E9.7621
G1 X134.977 Y197.714 E9.7659
G1 X134.737 Y198.611 E9.7844
G1 X132.550 Y202.399 E9.8715
G1 X128.479 Y202.399 E9.9525
G1 X127.916 Y201.424 E9.9749
G1 X127.678 Y201.836 E9.9844
G1 X123.608 Y201.836 E10.0654
G1 X121.609 Y198.374 E10.1450
G1 X117.049 Y198.374 E10.2358
G1 X115.014 Y194.849 E10.3168
G1 X117.294 Y190.900 E10.4076
G1 X115.295 Y187.438 E10.4872
G1 X117.330 Y183.913 E10.5682
G1 X117.807 Y183.913 E10.5777
G1 X117.244 Y182.938 E10.6001
G1 X119.279 Y179.413 E10.6811
G1 X123.653 Y179.413 E10.7682
G1 X124.550 Y179.653 E10.7866
G1 X124.714 Y179.748 E10.7904
G1 X126.301 Y177.000 E10.8536
G1 X124.714 Y174.252 E10.9168
G1 X124.550 Y174.347 E10.9206
G1 X123.653 Y174.587 E10.9390
G1 X119.279 Y174.587 E11.0261
G1 X117.244 Y171.062 E11.1071
G1 X117.807 Y170.087 E11.1296
G1 X117.330 Y170.087 E11.1390
G1 X115.295 Y166.562 E11.2201
G1 X117.294 Y163.100 E11.2996
G1 X116.788 Y162.224 E11.3198
G1 X116.465 Y162.224 E11.3262
G1 X114.090 Y158.111 E11.4208
G1 X113.850 Y157.214 E11.4392
