; G-Code generated by Simplify3D(R) Version 4.1.2
;
;
;
;
; Dec 13, 2022 at 5:30:25 PM
; Settings Summary
;   processName,PLA A15
;   applyToModels,snowflake-slotted
;   profileName,PLA_A15_04_10_205 Tevo Tornado
;   profileVersion,2022-12-03 14:49:21
;   baseProfile,Creality CR-10(2)
;   printMaterial,PLA
;   printQuality,High
;   printExtruders,
;   extruderName,Primary Extruder
;   extruderToolheadNumber,0
;   extruderDiameter,0.4
;   extruderAutoWidth,0
;   extruderWidth,0.35
;   extrusionMultiplier,0.95
;   extruderUseRetract,1
;   extruderRetractionDistance,4
;   extruderExtraRestartDistance,0
;   extruderRetractionZLift,0.3
;   extruderRetractionSpeed,3000
;   extruderUseCoasting,1
;   extruderCoastingDistance,0.2
;   extruderUseWipe,0
;   extruderWipeDistance,5
;   primaryExtruder,0
;   layerHeight,0.12
;   topSolidLayers,6
;   bottomSolidLayers,5
;   perimeterOutlines,4
;   printPerimetersInsideOut,1
;   startPointOption,2
;   startPointOriginX,0
;   startPointOriginY,300
;   sequentialIslands,0
;   spiralVaseMode,0
;   firstLayerHeightPercentage,120
;   firstLayerWidthPercentage,100
;   firstLayerUnderspeed,0.25
;   useRaft,0
;   raftExtruder,0
;   raftTopLayers,3
;   raftBaseLayers,2
;   raftOffset,3
;   raftSeparationDistance,0.14
;   raftTopInfill,100
;   aboveRaftSpeedMultiplier,0.3
;   useSkirt,1
;   skirtExtruder,0
;   skirtLayers,2
;   skirtOutlines,2
;   skirtOffset,3
;   usePrimePillar,0
;   primePillarExtruder,999
;   primePillarWidth,12
;   primePillarLocation,7
;   primePillarSpeedMultiplier,1
;   useOozeShield,0
;   oozeShieldExtruder,999
;   oozeShieldOffset,2
;   oozeShieldOutlines,1
;   oozeShieldSidewallShape,1
;   oozeShieldSidewallAngle,30
;   oozeShieldSpeedMultiplier,1
;   infillExtruder,0
;   internalInfillPattern,Full Honeycomb
;   externalInfillPattern,Rectilinear
;   infillPercentage,10
;   outlineOverlapPercentage,15
;   infillExtrusionWidthPercentage,100
;   minInfillLength,5
;   infillLayerInterval,1
;   internalInfillAngles,0,120,-120
;   overlapInternalInfillAngles,0
;   externalInfillAngles,45,-45
;   generateSupport,0
;   supportExtruder,0
;   supportInfillPercentage,40
;   supportExtraInflation,0
;   supportBaseLayers,0
;   denseSupportExtruder,0
;   denseSupportLayers,0
;   denseSupportInfillPercentage,70
;   supportLayerInterval,1
;   supportHorizontalPartOffset,0.4
;   supportUpperSeparationLayers,1
;   supportLowerSeparationLayers,1
;   supportType,0
;   supportGridSpacing,4.5
;   maxOverhangAngle,45
;   supportAngles,0
;   temperatureName,Primary Extruder,Heated Bed
;   temperatureNumber,0,0
;   temperatureSetpointCount,2,2
;   temperatureSetpointLayers,1,2,1,2
;   temperatureSetpointTemperatures,210,205,55,50
;   temperatureStabilizeAtStartup,1,1
;   temperatureHeatedBed,0,1
;   fanLayers,1,2
;   fanSpeeds,0,100
;   blipFanToFullPower,0
;   adjustSpeedForCooling,1
;   minSpeedLayerTime,15
;   minCoolingSpeedSlowdown,20
;   increaseFanForCooling,1
;   minFanLayerTime,25
;   maxCoolingFanSpeed,100
;   increaseFanForBridging,1
;   bridgingFanSpeed,100
;   use5D,1
;   relativeEdistances,0
;   allowEaxisZeroing,1
;   independentExtruderAxes,0
;   includeM10123,0
;   stickySupport,1
;   applyToolheadOffsets,0
;   gcodeXoffset,0
;   gcodeYoffset,0
;   gcodeZoffset,0
;   overrideMachineDefinition,1
;   machineTypeOverride,0
;   strokeXoverride,300
;   strokeYoverride,300
;   strokeZoverride,400
;   originOffsetXoverride,0
;   originOffsetYoverride,0
;   originOffsetZoverride,0
;   homeXdirOverride,-1
;   homeYdirOverride,-1
;   homeZdirOverride,-1
;   flipXoverride,1
;   flipYoverride,-1
;   flipZoverride,1
;   toolheadOffsets,0,0|0,0|0,0|0,0|0,0|0,0
;   overrideFirmwareConfiguration,1
;   firmwareTypeOverride,RepRap (Marlin/Repetier/Sprinter)
;   GPXconfigOverride,r2
;   baudRateOverride,250000
;   overridePrinterModels,1
;   printerModelsOverride
;   startingGcode,;,; -]H.P.B[- MarshMalloW  ,; $VER: StartScript 1.02 (26.12.2019) MarshMalloW,;,; Begin Startcode,;,M117 *Preheat*     	; Preheat,;extruder0_temperature,M104 S[extruder0_temperature]  ,M109 S[extruder0_temperature] ,M109 R[extruder0_temperature] ,;,M117 *Auto-leveling*     	; Auto-leveling,M107                   	; Turn layer fan off,G21                    	; Set to metric [change to G20 if you want Imperial],G90                    	; Force coordinates to be absolute relative to the origin,G28                    	; Home X/Y/Z axis,G29                    	; Auto-leveling (BL-Touch),;,M117 *Start Clean*     	; Indicate nozzle clean in progress on LCD,G92 E0                 	; Set Extruder to 0 ,G1 X0 Y0 F2000         	; Move X and Y to 0 with speed 2000 (mm/min),G1 Z0.1 F1000          	; Move Z to   0.1 with speed 1000 (mm/min),G1 X8.0 F2000          	; Move X to   8.0 with speed 2000 (mm/min),G1 Y60.0 E4.0 F1000.0  	; Move Y to  60 and Extruder with 4.0 with speed 1000 (mm/min),G1 Y100.0 E8.5 F1000.0 	; Move Y to 100 and Extruder with 8.5 with speed 1000 (mm/min),G92 E0                 	; Set extruder to 0,G1 X16.0 F3000         	; Move X to 16.0 with speed 3000 (mm/min),G1 Y60.0 F3000         	; Move Y to 60.0 with speed 3000 (mm/min),M117 *End Clean*       	; Indicate nozzle clean in progress on LCD,G1 Z5 F3000            	; Move Z to  5.0 with speed 3000 (mm/min),G1 X20.0 F3000         	; Move X to 20.0 with speed 3000 (mm/min),G1 Y20.0 F3000         	; Move Y to 20.0 with speed 3000 (mm/min),; ,M117 *Printing...*     	; Start printing msg on LCD,;,; End Startcode,;,; Begin printing with sliced GCode after here,;
;   layerChangeGcode,
;   retractionGcode,
;   toolChangeGcode,
;   endingGcode,;,; init 181010,;,;M107 			; Fan off,;G1 E-1 F300 			; Retract the filament a bit before lifting the nozzle,;M104 S0 			; Turn off extruder,;M140 S0 			; Turn off bed,;G91			; Relative positioning,;G28 X0 Y0 			; Move X/Y to min endstops so the head is out of teh way,;M84 			; Disable motors,;G90 			; Absolute positioning,;M117 Print ready...,,;,; // From Cura 181010,; // End_gcode,G92 E0			; Zero the extruded length,;G1 E-30 F300		; Retract E -30,M106 S0			; Turn off cooling fan,M104 S0			; Turn off temperature,M140 S0		     	; Turn off bed,G91			; Relative positioning,G1 E-1 F300			; Retract the filament a bit before lifting the nozzle to release some of the pressure,G1 Z+20 E-5 X-20 Y-20 F7200	; Move Z up a bit and retract filament even more,G1 X0 Y150 F10000		; Move right min,M107			; Turn off layer fan,M84			; Disable motors,G90			; Absolute positioning,M117 *The-End* 		; End msg,;,
;   exportFileFormat,gcode
;   celebration,0
;   celebrationSong,Star Wars
;   postProcessing,D:\S3D_Thumbs\S3D_Thumbs.exe f="[output_filepath]" x=600 y=110 w=953 lw=400 lh=300 sw=32 sh=32 d=Y
;   defaultSpeed,4200
;   outlineUnderspeed,0.5
;   solidInfillUnderspeed,0.8
;   supportUnderspeed,0.8
;   rapidXYspeed,6000
;   rapidZspeed,1002
;   minBridgingArea,50
;   bridgingExtraInflation,0.2
;   bridgingExtrusionMultiplier,1
;   bridgingSpeedMultiplier,0.8
;   useFixedBridgingAngle,0
;   fixedBridgingAngle,0
;   applyBridgingToPerimeters,0
;   filamentDiameters,1.75|1.75|1.75|1.75|1.75|1.75
;   filamentPricesPerKg,30|46|46|46|46|46
;   filamentDensities,1.25|1.25|1.25|1.25|1.25|1.25
;   useMinPrintHeight,0
;   minPrintHeight,0
;   useMaxPrintHeight,0
;   maxPrintHeight,7
;   useDiaphragm,0
;   diaphragmLayerInterval,20
;   robustSlicing,1
;   mergeAllIntoSolid,0
;   onlyRetractWhenCrossingOutline,1
;   retractBetweenLayers,1
;   useRetractionMinTravel,0
;   retractionMinTravel,3
;   retractWhileWiping,1
;   onlyWipeOutlines,1
;   avoidCrossingOutline,0
;   maxMovementDetourFactor,3
;   toolChangeRetractionDistance,12
;   toolChangeExtraRestartDistance,-0.5
;   toolChangeRetractionSpeed,600
;   externalThinWallType,1
;   internalThinWallType,1
;   thinWallAllowedOverlapPercentage,10
;   singleExtrusionMinLength,1
;   singleExtrusionMinPrintingWidthPercentage,50
;   singleExtrusionMaxPrintingWidthPercentage,200
;   singleExtrusionEndpointExtension,0.2
;   horizontalSizeCompensation,0
G90
M82
M106 S0
M140 S55
M190 S55
;
; -]H.P.B[- MarshMalloW  
; $VER: StartScript 1.02 (26.12.2019) MarshMalloW
;
; Begin Startcode
;
M117 *Preheat*     	; Preheat
;extruder0_temperature
M104 S210  
M109 S210 
M109 R210 
;
M117 *Auto-leveling*     	; Auto-leveling
M107                   	; Turn layer fan off
G21                    	; Set to metric [change to G20 if you want Imperial]
G90                    	; Force coordinates to be absolute relative to the origin
G28                    	; Home X/Y/Z axis
G29                    	; Auto-leveling (BL-Touch)
;
M117 *Start Clean*     	; Indicate nozzle clean in progress on LCD
G92 E0                 	; Set Extruder to 0 
G1 X0 Y0 F2000         	; Move X and Y to 0 with speed 2000 (mm/min)
G1 Z0.1 F1000          	; Move Z to   0.1 with speed 1000 (mm/min)
G1 X8.0 F2000          	; Move X to   8.0 with speed 2000 (mm/min)
G1 Y60.0 E4.0 F1000.0  	; Move Y to  60 and Extruder with 4.0 with speed 1000 (mm/min)
G1 Y100.0 E8.5 F1000.0 	; Move Y to 100 and Extruder with 8.5 with speed 1000 (mm/min)
G92 E0                 	; Set extruder to 0
G1 X16.0 F3000         	; Move X to 16.0 with speed 3000 (mm/min)
G1 Y60.0 F3000         	; Move Y to 60.0 with speed 3000 (mm/min)
M117 *End Clean*       	; Indicate nozzle clean in progress on LCD
G1 Z5 F3000            	; Move Z to  5.0 with speed 3000 (mm/min)
G1 X20.0 F3000         	; Move X to 20.0 with speed 3000 (mm/min)
G1 Y20.0 F3000         	; Move Y to 20.0 with speed 3000 (mm/min)
; 
M117 *Printing...*     	; Start printing msg on LCD
;
; End Startcode
;
; Begin printing with sliced GCode after here
;
; process PLA A15
; layer 1, Z = 0.144
T0
G92 E0.0000
G1 E-4.0000 F3000
; feature skirt
; tool H0.144 W0.350
G1 Z0.300 F1002
G1 X64.744 Y86.676 F6000
G1 Z0.144 F1002
G1 E0.0000 F3000
G92 E0.0000
G1 X70.243 Y86.676 E0.1095 F1050
G1 X70.868 Y86.843 E0.1223
G1 X70.989 Y86.389 E0.1317
G1 X73.489 Y82.060 E0.2312
G1 X77.559 Y82.060 E0.3122
G1 X78.555 Y83.785 E0.3519
G1 X79.984 Y81.310 E0.4088
G1 X84.054 Y81.310 E0.4898
G1 X86.554 Y85.639 E0.5893
G1 X86.794 Y86.536 E0.6078
G1 X86.794 Y91.014 E0.6969
G1 X88.644 Y87.810 E0.7706
G1 X92.715 Y87.810 E0.8516
G1 X95.024 Y91.810 E0.9436
G1 X95.189 Y91.810 E0.9468
G1 X95.271 Y91.667 E0.9501
G1 X92.961 Y87.668 E1.0421
G1 X94.997 Y84.142 E1.1231
G1 X97.715 Y84.142 E1.1772
G1 X97.715 Y83.576 E1.1885
G1 X94.818 Y81.903 E1.2551
G1 X94.162 Y81.247 E1.2735
G1 X91.662 Y76.918 E1.3731
G1 X93.698 Y73.392 E1.4541
G1 X98.697 Y73.392 E1.5536
G1 X99.593 Y73.633 E1.5721
G1 X102.975 Y75.585 E1.6498
G1 X102.975 Y68.536 E1.7901
G1 X103.215 Y67.639 E1.8086
G1 X105.965 Y62.877 E1.9181
G1 X110.035 Y62.877 E1.9991
G1 X112.785 Y67.639 E2.1086
G1 X113.025 Y68.536 E2.1270
G1 X113.025 Y75.585 E2.2674
G1 X116.407 Y73.633 E2.3451
G1 X117.303 Y73.392 E2.3636
G1 X122.302 Y73.392 E2.4631
G1 X124.338 Y76.917 E2.5441
G1 X121.838 Y81.247 E2.6436
G1 X121.182 Y81.903 E2.6621
G1 X117.303 Y84.142 E2.7513
G1 X121.003 Y84.142 E2.8249
G1 X123.039 Y87.667 E2.9059
G1 X120.729 Y91.667 E2.9979
G1 X120.811 Y91.810 E3.0012
G1 X120.976 Y91.810 E3.0044
G1 X123.285 Y87.810 E3.0964
G1 X127.356 Y87.810 E3.1774
G1 X129.206 Y91.014 E3.2511
G1 X129.206 Y86.536 E3.3402
G1 X129.446 Y85.639 E3.3587
G1 X131.946 Y81.310 E3.4582
G1 X136.016 Y81.310 E3.5392
G1 X137.445 Y83.785 E3.5961
G1 X138.441 Y82.060 E3.6358
G1 X142.511 Y82.060 E3.7168
G1 X145.011 Y86.389 E3.8163
G1 X145.132 Y86.843 E3.8257
G1 X145.757 Y86.676 E3.8385
G1 X154.243 Y86.676 E4.0074
G1 X154.868 Y86.843 E4.0203
G1 X154.989 Y86.389 E4.0297
G1 X157.489 Y82.060 E4.1292
G1 X161.559 Y82.060 E4.2102
G1 X162.555 Y83.785 E4.2499
G1 X163.984 Y81.310 E4.3068
G1 X168.054 Y81.310 E4.3878
G1 X170.554 Y85.639 E4.4873
G1 X170.794 Y86.536 E4.5058
G1 X170.794 Y91.014 E4.5949
G1 X172.644 Y87.810 E4.6686
G1 X176.715 Y87.810 E4.7496
G1 X179.024 Y91.810 E4.8415
G1 X179.189 Y91.810 E4.8448
G1 X179.271 Y91.667 E4.8481
G1 X176.961 Y87.668 E4.9400
G1 X178.997 Y84.142 E5.0211
G1 X182.697 Y84.142 E5.0947
G1 X178.818 Y81.903 E5.1839
G1 X178.162 Y81.247 E5.2023
G1 X175.662 Y76.918 E5.3019
G1 X177.698 Y73.392 E5.3829
G1 X180.555 Y73.392 E5.4398
G1 X179.559 Y71.668 E5.4794
G1 X181.595 Y68.142 E5.5605
G1 X186.594 Y68.142 E5.6600
G1 X187.048 Y68.264 E5.6693
G1 X187.215 Y67.639 E5.6822
G1 X189.965 Y62.877 E5.7917
G1 X194.035 Y62.877 E5.8727
G1 X196.785 Y67.639 E5.9822
G1 X196.952 Y68.264 E5.9950
G1 X197.406 Y68.142 E6.0044
G1 X202.405 Y68.142 E6.1039
G1 X204.440 Y71.667 E6.1849
G1 X203.445 Y73.392 E6.2246
G1 X206.302 Y73.392 E6.2815
G1 X208.338 Y76.917 E6.3625
G1 X205.838 Y81.247 E6.4620
G1 X205.182 Y81.903 E6.4805
G1 X201.303 Y84.142 E6.5696
G1 X205.003 Y84.142 E6.6433
G1 X207.039 Y87.667 E6.7243
G1 X204.729 Y91.667 E6.8163
G1 X204.811 Y91.810 E6.8195
G1 X204.976 Y91.810 E6.8228
G1 X207.285 Y87.810 E6.9148
G1 X211.356 Y87.810 E6.9958
G1 X213.206 Y91.014 E7.0694
G1 X213.206 Y86.536 E7.1586
G1 X213.446 Y85.639 E7.1771
G1 X215.946 Y81.310 E7.2766
G1 X220.016 Y81.310 E7.3576
G1 X221.445 Y83.785 E7.4145
G1 X222.441 Y82.060 E7.4541
G1 X226.511 Y82.060 E7.5352
G1 X229.011 Y86.389 E7.6347
G1 X229.132 Y86.843 E7.6440
G1 X229.757 Y86.676 E7.6569
G1 X235.256 Y86.676 E7.7664
G1 X237.291 Y90.201 E7.8474
G1 X234.542 Y94.963 E7.9569
G1 X234.084 Y95.421 E7.9697
G1 X234.417 Y95.753 E7.9791
G1 X236.916 Y100.083 E8.0786
G1 X234.881 Y103.608 E8.1596
G1 X232.889 Y103.608 E8.1993
G1 X234.318 Y106.083 E8.2562
G1 X232.283 Y109.608 E8.3372
G1 X227.284 Y109.608 E8.4367
G1 X226.387 Y109.367 E8.4552
G1 X222.509 Y107.128 E8.5443
G1 X224.359 Y110.333 E8.6180
G1 X222.324 Y113.858 E8.6990
G1 X217.705 Y113.858 E8.7910
G1 X217.623 Y114.000 E8.7942
G1 X217.705 Y114.142 E8.7975
G1 X222.324 Y114.142 E8.8895
G1 X224.359 Y117.667 E8.9705
G1 X222.509 Y120.872 E9.0441
G1 X226.387 Y118.633 E9.1333
G1 X227.284 Y118.392 E9.1518
G1 X232.283 Y118.392 E9.2513
G1 X234.318 Y121.917 E9.3323
G1 X232.889 Y124.392 E9.3892
G1 X234.881 Y124.392 E9.4289
G1 X236.916 Y127.917 E9.5099
G1 X234.417 Y132.247 E9.6094
G1 X234.085 Y132.579 E9.6187
G1 X234.542 Y133.037 E9.6316
G1 X237.291 Y137.799 E9.7411
G1 X235.256 Y141.324 E9.8221
G1 X229.757 Y141.324 E9.9316
G1 X229.132 Y141.157 E9.9445
G1 X229.011 Y141.611 E9.9538
G1 X226.511 Y145.940 E10.0533
G1 X222.441 Y145.940 E10.1344
G1 X221.445 Y144.215 E10.1740
G1 X220.016 Y146.690 E10.2309
G1 X215.946 Y146.690 E10.3119
G1 X213.446 Y142.361 E10.4114
G1 X213.206 Y141.464 E10.4299
G1 X213.206 Y136.986 E10.5191
G1 X211.356 Y140.190 E10.5927
G1 X207.285 Y140.190 E10.6737
G1 X204.976 Y136.190 E10.7657
G1 X204.811 Y136.190 E10.7690
G1 X204.729 Y136.333 E10.7722
G1 X207.039 Y140.332 E10.8642
G1 X205.003 Y143.858 E10.9452
G1 X202.285 Y143.858 E10.9993
G1 X202.285 Y144.424 E11.0106
G1 X205.182 Y146.097 E11.0772
G1 X205.838 Y146.753 E11.0957
G1 X208.338 Y151.082 E11.1952
G1 X206.302 Y154.608 E11.2762
G1 X201.303 Y154.608 E11.3757
G1 X200.407 Y154.367 E11.3942
G1 X197.025 Y152.415 E11.4719
G1 X197.025 Y159.464 E11.6122
G1 X196.785 Y160.361 E11.6307
G1 X194.035 Y165.123 E11.7402
G1 X193.604 Y165.123 E11.7488
G1 X192.542 Y166.963 E11.7911
G1 X192.084 Y167.421 E11.8039
G1 X192.417 Y167.753 E11.8133
G1 X194.916 Y172.083 E11.9128
G1 X192.881 Y175.608 E11.9938
G1 X190.889 Y175.608 E12.0335
G1 X192.318 Y178.083 E12.0904
G1 X190.283 Y181.608 E12.1714
G1 X185.284 Y181.608 E12.2709
G1 X184.387 Y181.367 E12.2894
G1 X180.509 Y179.128 E12.3785
G1 X182.359 Y182.333 E12.4522
G1 X180.324 Y185.858 E12.5332
G1 X175.705 Y185.858 E12.6252
G1 X175.623 Y186.000 E12.6284
G1 X175.705 Y186.142 E12.6317
G1 X180.324 Y186.142 E12.7237
G1 X182.359 Y189.667 E12.8047
G1 X180.509 Y192.872 E12.8783
G1 X184.387 Y190.633 E12.9675
G1 X185.284 Y190.392 E12.9860
G1 X190.283 Y190.392 E13.0855
G1 X192.318 Y193.917 E13.1665
G1 X190.889 Y196.392 E13.2234
G1 X192.881 Y196.392 E13.2630
G1 X194.916 Y199.917 E13.3441
G1 X192.417 Y204.247 E13.4436
G1 X192.085 Y204.579 E13.4529
G1 X192.542 Y205.037 E13.4658
G1 X195.291 Y209.799 E13.5753
G1 X193.256 Y213.324 E13.6563
G1 X187.757 Y213.324 E13.7658
