; G-Code generated by Simplify3D(R) Version 4.1.2
;
;
;
;
; Dec 19, 2022 at 8:59:27 PM
; Settings Summary
;   processName,PLA A15
;   applyToModels,snowflake-slotted
;   profileName,PLA_B01_04_15_OS180_05 Tevo Tornado
;   profileVersion,2022-12-18 16:11:47
;   baseProfile,Creality CR-10(2)
;   printMaterial,PLA
;   printQuality,High
;   printExtruders,
;   extruderName,Primary Extruder
;   extruderToolheadNumber,0
;   extruderDiameter,0.4
;   extruderAutoWidth,0
;   extruderWidth,0.35
;   extrusionMultiplier,0.95
;   extruderUseRetract,1
;   extruderRetractionDistance,4
;   extruderExtraRestartDistance,0
;   extruderRetractionZLift,0.3
;   extruderRetractionSpeed,3000
;   extruderUseCoasting,1
;   extruderCoastingDistance,0.2
;   extruderUseWipe,0
;   extruderWipeDistance,5
;   primaryExtruder,0
;   layerHeight,0.12
;   topSolidLayers,6
;   bottomSolidLayers,5
;   perimeterOutlines,4
;   printPerimetersInsideOut,1
;   startPointOption,2
;   startPointOriginX,0
;   startPointOriginY,300
;   sequentialIslands,0
;   spiralVaseMode,0
;   firstLayerHeightPercentage,120
;   firstLayerWidthPercentage,100
;   firstLayerUnderspeed,0.25
;   useRaft,0
;   raftExtruder,0
;   raftTopLayers,3
;   raftBaseLayers,2
;   raftOffset,3
;   raftSeparationDistance,0.14
;   raftTopInfill,100
;   aboveRaftSpeedMultiplier,0.3
;   useSkirt,1
;   skirtExtruder,0
;   skirtLayers,2
;   skirtOutlines,2
;   skirtOffset,3
;   usePrimePillar,0
;   primePillarExtruder,999
;   primePillarWidth,12
;   primePillarLocation,7
;   primePillarSpeedMultiplier,1
;   useOozeShield,0
;   oozeShieldExtruder,999
;   oozeShieldOffset,2
;   oozeShieldOutlines,1
;   oozeShieldSidewallShape,1
;   oozeShieldSidewallAngle,30
;   oozeShieldSpeedMultiplier,1
;   infillExtruder,0
;   internalInfillPattern,Full Honeycomb
;   externalInfillPattern,Rectilinear
;   infillPercentage,15
;   outlineOverlapPercentage,15
;   infillExtrusionWidthPercentage,100
;   minInfillLength,5
;   infillLayerInterval,1
;   internalInfillAngles,0,120,-120
;   overlapInternalInfillAngles,0
;   externalInfillAngles,45,-45
;   generateSupport,0
;   supportExtruder,0
;   supportInfillPercentage,40
;   supportExtraInflation,0
;   supportBaseLayers,0
;   denseSupportExtruder,0
;   denseSupportLayers,0
;   denseSupportInfillPercentage,70
;   supportLayerInterval,1
;   supportHorizontalPartOffset,0.4
;   supportUpperSeparationLayers,1
;   supportLowerSeparationLayers,1
;   supportType,0
;   supportGridSpacing,4.5
;   maxOverhangAngle,45
;   supportAngles,0
;   temperatureName,Primary Extruder,Heated Bed
;   temperatureNumber,0,0
;   temperatureSetpointCount,2,2
;   temperatureSetpointLayers,1,2,1,2
;   temperatureSetpointTemperatures,185,180,10,5
;   temperatureStabilizeAtStartup,1,1
;   temperatureHeatedBed,0,1
;   fanLayers,1,2
;   fanSpeeds,0,100
;   blipFanToFullPower,0
;   adjustSpeedForCooling,1
;   minSpeedLayerTime,15
;   minCoolingSpeedSlowdown,20
;   increaseFanForCooling,1
;   minFanLayerTime,25
;   maxCoolingFanSpeed,100
;   increaseFanForBridging,1
;   bridgingFanSpeed,100
;   use5D,1
;   relativeEdistances,0
;   allowEaxisZeroing,1
;   independentExtruderAxes,0
;   includeM10123,0
;   stickySupport,1
;   applyToolheadOffsets,0
;   gcodeXoffset,0
;   gcodeYoffset,0
;   gcodeZoffset,0
;   overrideMachineDefinition,1
;   machineTypeOverride,0
;   strokeXoverride,300
;   strokeYoverride,300
;   strokeZoverride,400
;   originOffsetXoverride,0
;   originOffsetYoverride,0
;   originOffsetZoverride,0
;   homeXdirOverride,-1
;   homeYdirOverride,-1
;   homeZdirOverride,-1
;   flipXoverride,1
;   flipYoverride,-1
;   flipZoverride,1
;   toolheadOffsets,0,0|0,0|0,0|0,0|0,0|0,0
;   overrideFirmwareConfiguration,1
;   firmwareTypeOverride,RepRap (Marlin/Repetier/Sprinter)
;   GPXconfigOverride,r2
;   baudRateOverride,250000
;   overridePrinterModels,1
;   printerModelsOverride
;   startingGcode,;,; -]H.P.B[- MarshMalloW  ,; $VER: StartScript 1.03 (18.12.2022) MarshMalloW,;,; Begin Startcode,;,M117 *Preheat*	; Preheat,;extruder0_temperature,M104 S[extruder0_temperature],M109 S[extruder0_temperature],;M109 R[extruder0_temperature] ,;,M117 *Auto-leveling*     	; Auto-leveling,M107                   	; Turn layer fan off,G21                    	; Set to metric [change to G20 if you want Imperial],G90                    	; Force coordinates to be absolute relative to the origin,G28                    	; Home X/Y/Z axis,G29                    	; Auto-leveling (BL-Touch),;,M117 *Start Clean*     	; Indicate nozzle clean in progress on LCD,G92 E0                 	; Set Extruder to 0 ,G1 X0 Y0 F2000         	; Move X and Y to 0 with speed 2000 (mm/min),G1 Z0.1 F1000          	; Move Z to   0.1 with speed 1000 (mm/min),G1 X8.0 F2000          	; Move X to   8.0 with speed 2000 (mm/min),G1 Y60.0 E4.0 F1000.0  	; Move Y to  60 and Extruder with 4.0 with speed 1000 (mm/min),G1 Y100.0 E8.5 F1000.0 	; Move Y to 100 and Extruder with 8.5 with speed 1000 (mm/min),G92 E0                 	; Set extruder to 0,G1 X16.0 F3000         	; Move X to 16.0 with speed 3000 (mm/min),G1 Y60.0 F3000         	; Move Y to 60.0 with speed 3000 (mm/min),M117 *End Clean*       	; Indicate nozzle clean in progress on LCD,G1 Z5 F3000            	; Move Z to  5.0 with speed 3000 (mm/min),G1 X20.0 F3000         	; Move X to 20.0 with speed 3000 (mm/min),G1 Y20.0 F3000         	; Move Y to 20.0 with speed 3000 (mm/min),; ,M117 *Printing...*     	; Start printing msg on LCD,;,; End Startcode,;,; Begin printing with sliced GCode after here,;
;   layerChangeGcode,
;   retractionGcode,
;   toolChangeGcode,
;   endingGcode,;,; init 181010,;,;M107 			; Fan off,;G1 E-1 F300 			; Retract the filament a bit before lifting the nozzle,;M104 S0 			; Turn off extruder,;M140 S0 			; Turn off bed,;G91			; Relative positioning,;G28 X0 Y0 			; Move X/Y to min endstops so the head is out of teh way,;M84 			; Disable motors,;G90 			; Absolute positioning,;M117 Print ready...,,;,; // From Cura 181010,; // End_gcode,G92 E0			; Zero the extruded length,;G1 E-30 F300		; Retract E -30,M106 S0			; Turn off cooling fan,M104 S0			; Turn off temperature,M140 S0		     	; Turn off bed,G91			; Relative positioning,G1 E-1 F300			; Retract the filament a bit before lifting the nozzle to release some of the pressure,G1 Z+20 E-5 X-20 Y-20 F7200	; Move Z up a bit and retract filament even more,G1 X0 Y150 F10000		; Move right min,M107			; Turn off layer fan,M84			; Disable motors,G90			; Absolute positioning,M117 *The-End* 		; End msg,;,
;   exportFileFormat,gcode
;   celebration,0
;   celebrationSong,Star Wars
;   postProcessing,D:\S3D_Thumbs\S3D_Thumbs.exe f="[output_filepath]" x=600 y=110 w=953 lw=400 lh=300 sw=32 sh=32 d=Y
;   defaultSpeed,4200
;   outlineUnderspeed,0.5
;   solidInfillUnderspeed,0.8
;   supportUnderspeed,0.8
;   rapidXYspeed,6000
;   rapidZspeed,1002
;   minBridgingArea,50
;   bridgingExtraInflation,0.2
;   bridgingExtrusionMultiplier,1
;   bridgingSpeedMultiplier,0.8
;   useFixedBridgingAngle,0
;   fixedBridgingAngle,0
;   applyBridgingToPerimeters,0
;   filamentDiameters,1.75|1.75|1.75|1.75|1.75|1.75
;   filamentPricesPerKg,30|46|46|46|46|46
;   filamentDensities,1.25|1.25|1.25|1.25|1.25|1.25
;   useMinPrintHeight,0
;   minPrintHeight,0
;   useMaxPrintHeight,0
;   maxPrintHeight,50
;   useDiaphragm,0
;   diaphragmLayerInterval,20
;   robustSlicing,1
;   mergeAllIntoSolid,0
;   onlyRetractWhenCrossingOutline,1
;   retractBetweenLayers,1
;   useRetractionMinTravel,0
;   retractionMinTravel,3
;   retractWhileWiping,1
;   onlyWipeOutlines,1
;   avoidCrossingOutline,0
;   maxMovementDetourFactor,3
;   toolChangeRetractionDistance,12
;   toolChangeExtraRestartDistance,-0.5
;   toolChangeRetractionSpeed,600
;   externalThinWallType,1
;   internalThinWallType,1
;   thinWallAllowedOverlapPercentage,10
;   singleExtrusionMinLength,1
;   singleExtrusionMinPrintingWidthPercentage,50
;   singleExtrusionMaxPrintingWidthPercentage,200
;   singleExtrusionEndpointExtension,0.2
;   horizontalSizeCompensation,0
G90
M82
M106 S0
M140 S10
;
; -]H.P.B[- MarshMalloW  
; $VER: StartScript 1.03 (18.12.2022) MarshMalloW
;
; Begin Startcode
;
M117 *Preheat*	; Preheat
;extruder0_temperature
M104 S185
M109 S185
;M109 R185 
;
M117 *Auto-leveling*     	; Auto-leveling
M107                   	; Turn layer fan off
G21                    	; Set to metric [change to G20 if you want Imperial]
G90                    	; Force coordinates to be absolute relative to the origin
G28                    	; Home X/Y/Z axis
G29                    	; Auto-leveling (BL-Touch)
;
M117 *Start Clean*     	; Indicate nozzle clean in progress on LCD
G92 E0                 	; Set Extruder to 0 
G1 X0 Y0 F2000         	; Move X and Y to 0 with speed 2000 (mm/min)
G1 Z0.1 F1000          	; Move Z to   0.1 with speed 1000 (mm/min)
G1 X8.0 F2000          	; Move X to   8.0 with speed 2000 (mm/min)
G1 Y60.0 E4.0 F1000.0  	; Move Y to  60 and Extruder with 4.0 with speed 1000 (mm/min)
G1 Y100.0 E8.5 F1000.0 	; Move Y to 100 and Extruder with 8.5 with speed 1000 (mm/min)
G92 E0                 	; Set extruder to 0
G1 X16.0 F3000         	; Move X to 16.0 with speed 3000 (mm/min)
G1 Y60.0 F3000         	; Move Y to 60.0 with speed 3000 (mm/min)
M117 *End Clean*       	; Indicate nozzle clean in progress on LCD
G1 Z5 F3000            	; Move Z to  5.0 with speed 3000 (mm/min)
G1 X20.0 F3000         	; Move X to 20.0 with speed 3000 (mm/min)
G1 Y20.0 F3000         	; Move Y to 20.0 with speed 3000 (mm/min)
; 
M117 *Printing...*     	; Start printing msg on LCD
;
; End Startcode
;
; Begin printing with sliced GCode after here
;
; process PLA A15
; layer 1, Z = 0.144
T0
G92 E0.0000
G1 E-4.0000 F3000
; feature skirt
; tool H0.144 W0.350
G1 Z0.300 F1002
G1 X106.354 Y116.575 F6000
G1 Z0.144 F1002
G1 E0.0000 F3000
G92 E0.0000
G1 X109.394 Y116.575 E0.0605 F1050
G1 X110.727 Y114.267 E0.1136
G1 X113.758 Y114.267 E0.1739
G1 X113.974 Y113.892 E0.1825
G1 X118.045 Y113.892 E0.2635
G1 X119.920 Y117.142 E0.3382
G1 X120.422 Y117.142 E0.3482
G1 X120.671 Y116.706 E0.3583
G1 X118.796 Y113.459 E0.4329
G1 X120.831 Y109.934 E0.5139
G1 X124.580 Y109.934 E0.5886
G1 X124.725 Y109.972 E0.5916
G1 X124.725 Y109.036 E0.6102
G1 X124.965 Y108.139 E0.6287
G1 X126.965 Y104.676 E0.7083
G1 X131.035 Y104.676 E0.7893
G1 X133.035 Y108.139 E0.8689
G1 X133.275 Y109.036 E0.8874
G1 X133.275 Y109.972 E0.9060
G1 X133.420 Y109.934 E0.9090
G1 X137.169 Y109.934 E0.9836
G1 X139.204 Y113.459 E1.0647
G1 X137.327 Y116.708 E1.1394
G1 X137.578 Y117.142 E1.1494
G1 X138.081 Y117.139 E1.1594
G1 X139.955 Y113.892 E1.2340
G1 X144.026 Y113.892 E1.3151
G1 X144.242 Y114.267 E1.3237
G1 X147.273 Y114.267 E1.3840
G1 X148.606 Y116.575 E1.4371
G1 X151.394 Y116.575 E1.4926
G1 X152.727 Y114.267 E1.5456
G1 X155.758 Y114.267 E1.6060
G1 X155.974 Y113.892 E1.6146
G1 X160.045 Y113.892 E1.6956
G1 X161.920 Y117.142 E1.7703
G1 X162.422 Y117.142 E1.7803
G1 X162.671 Y116.706 E1.7904
G1 X160.796 Y113.459 E1.8650
G1 X162.831 Y109.934 E1.9460
G1 X163.264 Y109.934 E1.9546
G1 X164.780 Y107.309 E2.0150
G1 X167.445 Y107.309 E2.0680
G1 X168.965 Y104.676 E2.1285
G1 X173.035 Y104.676 E2.2096
G1 X174.555 Y107.309 E2.2701
G1 X177.220 Y107.309 E2.3231
G1 X178.736 Y109.934 E2.3835
G1 X179.169 Y109.934 E2.3921
G1 X181.204 Y113.459 E2.4731
G1 X179.327 Y116.708 E2.5478
G1 X179.578 Y117.142 E2.5578
G1 X180.081 Y117.139 E2.5678
G1 X181.955 Y113.892 E2.6425
G1 X186.026 Y113.892 E2.7235
G1 X186.242 Y114.267 E2.7321
G1 X189.273 Y114.267 E2.7925
G1 X190.606 Y116.575 E2.8455
G1 X193.646 Y116.575 E2.9060
G1 X195.681 Y120.100 E2.9871
G1 X194.161 Y122.733 E3.0476
G1 X195.493 Y125.041 E3.1006
G1 X193.978 Y127.666 E3.1610
G1 X194.194 Y128.041 E3.1696
G1 X192.159 Y131.566 E3.2506
G1 X188.407 Y131.565 E3.3253
G1 X188.156 Y132.000 E3.3353
G1 X188.410 Y132.434 E3.3453
G1 X192.159 Y132.434 E3.4200
G1 X194.194 Y135.959 E3.5010
G1 X193.978 Y136.334 E3.5096
G1 X195.493 Y138.959 E3.5700
G1 X194.161 Y141.267 E3.6230
G1 X195.681 Y143.899 E3.6835
G1 X193.646 Y147.424 E3.7645
G1 X190.606 Y147.424 E3.8251
G1 X189.273 Y149.732 E3.8781
G1 X186.242 Y149.733 E3.9384
G1 X186.026 Y150.107 E3.9471
G1 X181.955 Y150.108 E4.0281
G1 X180.080 Y146.858 E4.1028
G1 X179.578 Y146.858 E4.1128
G1 X179.329 Y147.294 E4.1228
G1 X181.204 Y150.541 E4.1975
G1 X179.169 Y154.066 E4.2785
G1 X175.420 Y154.066 E4.3531
G1 X175.275 Y154.028 E4.3561
G1 X175.275 Y154.964 E4.3747
G1 X175.035 Y155.861 E4.3932
G1 X173.269 Y158.920 E4.4635
G1 X174.493 Y161.041 E4.5123
G1 X172.978 Y163.666 E4.5726
G1 X173.194 Y164.041 E4.5813
G1 X171.159 Y167.566 E4.6623
G1 X167.407 Y167.565 E4.7370
G1 X167.156 Y168.000 E4.7470
G1 X167.410 Y168.434 E4.7570
G1 X171.159 Y168.434 E4.8317
G1 X173.194 Y171.959 E4.9127
G1 X172.978 Y172.334 E4.9213
G1 X174.493 Y174.959 E4.9816
G1 X173.161 Y177.267 E5.0347
G1 X174.681 Y179.899 E5.0952
G1 X172.646 Y183.424 E5.1762
G1 X169.606 Y183.424 E5.2367
G1 X168.273 Y185.733 E5.2898
G1 X165.242 Y185.733 E5.3501
G1 X165.026 Y186.107 E5.3587
G1 X160.955 Y186.108 E5.4398
G1 X159.080 Y182.858 E5.5145
G1 X158.578 Y182.858 E5.5245
G1 X158.329 Y183.294 E5.5345
G1 X160.204 Y186.541 E5.6091
G1 X158.169 Y190.066 E5.6902
G1 X157.736 Y190.066 E5.6988
G1 X156.220 Y192.691 E5.7591
G1 X153.555 Y192.691 E5.8122
G1 X152.035 Y195.324 E5.8727
G1 X147.965 Y195.324 E5.9537
G1 X146.445 Y192.691 E6.0142
G1 X143.780 Y192.691 E6.0673
G1 X142.264 Y190.066 E6.1276
G1 X141.831 Y190.066 E6.1362
G1 X139.796 Y186.541 E6.2173
G1 X141.673 Y183.292 E6.2920
G1 X141.422 Y182.858 E6.3020
G1 X140.919 Y182.861 E6.3120
G1 X139.045 Y186.108 E6.3866
G1 X134.974 Y186.107 E6.4677
G1 X134.758 Y185.733 E6.4763
G1 X131.727 Y185.732 E6.5366
G1 X130.394 Y183.424 E6.5897
G1 X127.354 Y183.424 E6.6502
G1 X125.319 Y179.899 E6.7312
G1 X126.839 Y177.267 E6.7917
G1 X125.507 Y174.959 E6.8448
G1 X127.022 Y172.334 E6.9051
G1 X126.806 Y171.959 E6.9137
G1 X128.841 Y168.434 E6.9948
G1 X132.593 Y168.435 E7.0695
G1 X132.844 Y168.000 E7.0794
G1 X132.590 Y167.566 E7.0895
G1 X128.841 Y167.566 E7.1641
G1 X126.806 Y164.041 E7.2452
G1 X127.022 Y163.666 E7.2538
G1 X125.507 Y161.041 E7.3141
G1 X126.731 Y158.920 E7.3629
G1 X124.965 Y155.861 E7.4332
G1 X124.725 Y154.964 E7.4517
G1 X124.725 Y154.028 E7.4703
G1 X124.580 Y154.066 E7.4733
G1 X120.831 Y154.066 E7.5479
G1 X118.796 Y150.541 E7.6289
G1 X120.673 Y147.292 E7.7036
G1 X120.422 Y146.858 E7.7136
G1 X119.919 Y146.861 E7.7237
G1 X118.045 Y150.107 E7.7983
G1 X113.974 Y150.108 E7.8793
G1 X113.758 Y149.732 E7.8880
G1 X110.727 Y149.733 E7.9483
G1 X109.394 Y147.424 E8.0013
G1 X106.354 Y147.424 E8.0619
G1 X104.319 Y143.899 E8.1429
G1 X105.839 Y141.267 E8.2034
G1 X104.507 Y138.959 E8.2565
G1 X106.022 Y136.334 E8.3168
G1 X105.806 Y135.959 E8.3254
G1 X107.841 Y132.434 E8.4064
G1 X111.593 Y132.435 E8.4811
G1 X111.844 Y132.000 E8.4911
G1 X111.590 Y131.566 E8.5012
G1 X107.841 Y131.566 E8.5758
G1 X105.806 Y128.041 E8.6568
G1 X106.022 Y127.666 E8.6655
G1 X104.507 Y125.041 E8.7258
G1 X105.839 Y122.733 E8.7788
G1 X104.319 Y120.100 E8.8394
G1 X106.354 Y116.575 E8.9204
G92 E0.0000
G1 E-4.0000 F3000
G1 Z0.444 F1002
G1 X106.556 Y116.925 F6000
G1 Z0.144 F1002
G1 E0.0000 F3000
G92 E0.0000
G1 X109.596 Y116.925 E0.0605 F1050
G1 X110.929 Y114.617 E0.1136
G1 X113.960 Y114.617 E0.1739
G1 X114.177 Y114.242 E0.1825
G1 X117.843 Y114.242 E0.2555
G1 X119.593 Y117.274 E0.3252
G1 X119.652 Y117.492 E0.3297
G1 X120.624 Y117.492 E0.3490
G1 X121.110 Y116.650 E0.3684
G1 X120.951 Y116.491 E0.3729
G1 X119.200 Y113.459 E0.4426
G1 X121.033 Y110.284 E0.5156
G1 X124.534 Y110.284 E0.5853
G1 X125.075 Y110.429 E0.5964
G1 X125.075 Y109.082 E0.6232
G1 X125.291 Y108.275 E0.6399
G1 X127.167 Y105.026 E0.7145
G1 X130.833 Y105.026 E0.7875
G1 X132.709 Y108.275 E0.8622
G1 X132.925 Y109.082 E0.8788
G1 X132.925 Y110.429 E0.9056
G1 X133.466 Y110.284 E0.9168
G1 X136.967 Y110.284 E0.9865
G1 X138.800 Y113.459 E1.0594
G1 X137.049 Y116.491 E1.1291
G1 X136.890 Y116.650 E1.1336
G1 X137.376 Y117.492 E1.1530
G1 X138.348 Y117.492 E1.1723
G1 X138.407 Y117.274 E1.1768
G1 X140.157 Y114.242 E1.2465
G1 X143.823 Y114.242 E1.3195
