; G-Code generated by Simplify3D(R) Version 4.1.2
; Jul 15, 2020 at 7:42:44 PM
; Settings Summary
;   processName,Process1
;   applyToModels,SupportPourCouvercleDeCasseroles_Middle
;   profileName,A04-04-15 Tevo Tornado
;   profileVersion,2020-07-01 20:14:39
;   baseProfile,Creality CR-10(2)
;   printMaterial,PLA
;   printQuality,Medium
;   printExtruders,
;   extruderName,Primary Extruder
;   extruderToolheadNumber,0
;   extruderDiameter,0.4
;   extruderAutoWidth,0
;   extruderWidth,0.35
;   extrusionMultiplier,0.95
;   extruderUseRetract,1
;   extruderRetractionDistance,4
;   extruderExtraRestartDistance,0
;   extruderRetractionZLift,0.3
;   extruderRetractionSpeed,3000
;   extruderUseCoasting,1
;   extruderCoastingDistance,0.8
;   extruderUseWipe,0
;   extruderWipeDistance,4
;   primaryExtruder,0
;   layerHeight,0.15
;   topSolidLayers,4
;   bottomSolidLayers,3
;   perimeterOutlines,3
;   printPerimetersInsideOut,0
;   startPointOption,1
;   startPointOriginX,0
;   startPointOriginY,300
;   sequentialIslands,0
;   spiralVaseMode,0
;   firstLayerHeightPercentage,120
;   firstLayerWidthPercentage,100
;   firstLayerUnderspeed,0.5
;   useRaft,0
;   raftExtruder,0
;   raftTopLayers,3
;   raftBaseLayers,2
;   raftOffset,3
;   raftSeparationDistance,0.14
;   raftTopInfill,100
;   aboveRaftSpeedMultiplier,0.3
;   useSkirt,1
;   skirtExtruder,0
;   skirtLayers,1
;   skirtOutlines,3
;   skirtOffset,2
;   usePrimePillar,0
;   primePillarExtruder,999
;   primePillarWidth,12
;   primePillarLocation,7
;   primePillarSpeedMultiplier,1
;   useOozeShield,0
;   oozeShieldExtruder,999
;   oozeShieldOffset,2
;   oozeShieldOutlines,1
;   oozeShieldSidewallShape,1
;   oozeShieldSidewallAngle,30
;   oozeShieldSpeedMultiplier,1
;   infillExtruder,0
;   internalInfillPattern,Rectilinear
;   externalInfillPattern,Rectilinear
;   infillPercentage,15
;   outlineOverlapPercentage,15
;   infillExtrusionWidthPercentage,100
;   minInfillLength,5
;   infillLayerInterval,1
;   internalInfillAngles,45,-45
;   overlapInternalInfillAngles,0
;   externalInfillAngles,45,-45
;   generateSupport,0
;   supportExtruder,0
;   supportInfillPercentage,30
;   supportExtraInflation,0
;   supportBaseLayers,0
;   denseSupportExtruder,0
;   denseSupportLayers,0
;   denseSupportInfillPercentage,70
;   supportLayerInterval,1
;   supportHorizontalPartOffset,0.4
;   supportUpperSeparationLayers,1
;   supportLowerSeparationLayers,1
;   supportType,0
;   supportGridSpacing,4.5
;   maxOverhangAngle,45
;   supportAngles,0
;   temperatureName,Primary Extruder,Heated Bed
;   temperatureNumber,0,0
;   temperatureSetpointCount,1,1
;   temperatureSetpointLayers,1,1
;   temperatureSetpointTemperatures,215,55
;   temperatureStabilizeAtStartup,1,1
;   temperatureHeatedBed,0,1
;   fanLayers,1,2
;   fanSpeeds,0,100
;   blipFanToFullPower,0
;   adjustSpeedForCooling,1
;   minSpeedLayerTime,15
;   minCoolingSpeedSlowdown,50
;   increaseFanForCooling,1
;   minFanLayerTime,25
;   maxCoolingFanSpeed,100
;   increaseFanForBridging,1
;   bridgingFanSpeed,100
;   use5D,1
;   relativeEdistances,0
;   allowEaxisZeroing,1
;   independentExtruderAxes,0
;   includeM10123,0
;   stickySupport,1
;   applyToolheadOffsets,0
;   gcodeXoffset,0
;   gcodeYoffset,0
;   gcodeZoffset,0
;   overrideMachineDefinition,1
;   machineTypeOverride,0
;   strokeXoverride,300
;   strokeYoverride,300
;   strokeZoverride,400
;   originOffsetXoverride,0
;   originOffsetYoverride,0
;   originOffsetZoverride,0
;   homeXdirOverride,-1
;   homeYdirOverride,-1
;   homeZdirOverride,-1
;   flipXoverride,1
;   flipYoverride,-1
;   flipZoverride,1
;   toolheadOffsets,0,0|0,0|0,0|0,0|0,0|0,0
;   overrideFirmwareConfiguration,1
;   firmwareTypeOverride,RepRap (Marlin/Repetier/Sprinter)
;   GPXconfigOverride,r2
;   baudRateOverride,250000
;   overridePrinterModels,1
;   printerModelsOverride
;   startingGcode,;,; -]H.P.B[- MarshMalloW  ,; $VER: StartScript 1.02 (26.12.2019) MarshMalloW,;,; Begin Startcode,;,M117 *Preheat*     	; Preheat,;extruder0_temperature,M104 S[extruder0_temperature]  ,M109 S[extruder0_temperature] ,M109 R[extruder0_temperature] ,;,M117 *Auto-leveling*     	; Auto-leveling,M107                   	; Turn layer fan off,G21                    	; Set to metric [change to G20 if you want Imperial],G90                    	; Force coordinates to be absolute relative to the origin,G28                    	; Home X/Y/Z axis,G29                    	; Auto-leveling (BL-Touch),;,M117 *Start Clean*     	; Indicate nozzle clean in progress on LCD,G92 E0                 	; Set Extruder to 0 ,G1 X0 Y0 F2000         	; Move X and Y to 0 with speed 2000 (mm/min),G1 Z0.1 F1000          	; Move Z to   0.1 with speed 1000 (mm/min),G1 X8.0 F2000          	; Move X to   8.0 with speed 2000 (mm/min),G1 Y60.0 E4.0 F1000.0  	; Move Y to  60 and Extruder with 4.0 with speed 1000 (mm/min),G1 Y100.0 E8.5 F1000.0 	; Move Y to 100 and Extruder with 8.5 with speed 1000 (mm/min),G92 E0                 	; Set extruder to 0,G1 X16.0 F3000         	; Move X to 16.0 with speed 3000 (mm/min),G1 Y60.0 F3000         	; Move Y to 60.0 with speed 3000 (mm/min),M117 *End Clean*       	; Indicate nozzle clean in progress on LCD,G1 Z5 F3000            	; Move Z to  5.0 with speed 3000 (mm/min),G1 X20.0 F3000         	; Move X to 20.0 with speed 3000 (mm/min),G1 Y20.0 F3000         	; Move Y to 20.0 with speed 3000 (mm/min),; ,M117 *Printing...*     	; Start printing msg on LCD,;,; End Startcode,;,; Begin printing with sliced GCode after here,;
;   layerChangeGcode,
;   retractionGcode,
;   toolChangeGcode,
;   endingGcode,;,; init 181010,;,;M107 			; Fan off,;G1 E-1 F300 			; Retract the filament a bit before lifting the nozzle,;M104 S0 			; Turn off extruder,;M140 S0 			; Turn off bed,;G91			; Relative positioning,;G28 X0 Y0 			; Move X/Y to min endstops so the head is out of teh way,;M84 			; Disable motors,;G90 			; Absolute positioning,;M117 Print ready...,,;,; // From Cura 181010,; // End_gcode,G92 E0			; Zero the extruded length,;G1 E-30 F300		; Retract E -30,M106 S0			; Turn off cooling fan,M104 S0			; Turn off temperature,M140 S0		     	; Turn off bed,G91			; Relative positioning,G1 E-1 F300			; Retract the filament a bit before lifting the nozzle to release some of the pressure,G1 Z+20 E-5 X-20 Y-20 F7200	; Move Z up a bit and retract filament even more,G1 X0 Y150 F10000		; Move right min,M107			; Turn off layer fan,M84			; Disable motors,G90			; Absolute positioning,M117 *The-End* 		; End msg,;,
;   exportFileFormat,gcode
;   celebration,0
;   celebrationSong,Star Wars
;   postProcessing,|{REPLACE "; layer " "M117 INDICATOR-Layer"}|{REPLACE ", Z = " "\n; Z="}
;   defaultSpeed,1800
;   outlineUnderspeed,0.5
;   solidInfillUnderspeed,0.8
;   supportUnderspeed,0.8
;   rapidXYspeed,6000
;   rapidZspeed,1002
;   minBridgingArea,50
;   bridgingExtraInflation,0.2
;   bridgingExtrusionMultiplier,1
;   bridgingSpeedMultiplier,0.6
;   useFixedBridgingAngle,0
;   fixedBridgingAngle,0
;   applyBridgingToPerimeters,0
;   filamentDiameters,1.75|1.75|1.75|1.75|1.75|1.75
;   filamentPricesPerKg,30|46|46|46|46|46
;   filamentDensities,1.25|1.25|1.25|1.25|1.25|1.25
;   useMinPrintHeight,0
;   minPrintHeight,0
;   useMaxPrintHeight,0
;   maxPrintHeight,50
;   useDiaphragm,0
;   diaphragmLayerInterval,20
;   robustSlicing,1
;   mergeAllIntoSolid,0
;   onlyRetractWhenCrossingOutline,1
;   retractBetweenLayers,0
;   useRetractionMinTravel,0
;   retractionMinTravel,3
;   retractWhileWiping,0
;   onlyWipeOutlines,1
;   avoidCrossingOutline,1
;   maxMovementDetourFactor,3
;   toolChangeRetractionDistance,12
;   toolChangeExtraRestartDistance,-0.5
;   toolChangeRetractionSpeed,600
;   externalThinWallType,1
;   internalThinWallType,1
;   thinWallAllowedOverlapPercentage,10
;   singleExtrusionMinLength,1
;   singleExtrusionMinPrintingWidthPercentage,50
;   singleExtrusionMaxPrintingWidthPercentage,200
;   singleExtrusionEndpointExtension,0.2
;   horizontalSizeCompensation,0
G90
M82
M106 S0
M140 S55
M190 S55
;
; -]H.P.B[- MarshMalloW  
; $VER: StartScript 1.02 (26.12.2019) MarshMalloW
;
; Begin Startcode
;
M117 *Preheat*     	; Preheat
;extruder0_temperature
M104 S215  
M109 S215 
M109 R215 
;
M117 *Auto-leveling*     	; Auto-leveling
M107                   	; Turn layer fan off
G21                    	; Set to metric [change to G20 if you want Imperial]
G90                    	; Force coordinates to be absolute relative to the origin
G28                    	; Home X/Y/Z axis
G29                    	; Auto-leveling (BL-Touch)
;
M117 *Start Clean*     	; Indicate nozzle clean in progress on LCD
G92 E0                 	; Set Extruder to 0 
G1 X0 Y0 F2000         	; Move X and Y to 0 with speed 2000 (mm/min)
G1 Z0.1 F1000          	; Move Z to   0.1 with speed 1000 (mm/min)
G1 X8.0 F2000          	; Move X to   8.0 with speed 2000 (mm/min)
G1 Y60.0 E4.0 F1000.0  	; Move Y to  60 and Extruder with 4.0 with speed 1000 (mm/min)
G1 Y100.0 E8.5 F1000.0 	; Move Y to 100 and Extruder with 8.5 with speed 1000 (mm/min)
G92 E0                 	; Set extruder to 0
G1 X16.0 F3000         	; Move X to 16.0 with speed 3000 (mm/min)
G1 Y60.0 F3000         	; Move Y to 60.0 with speed 3000 (mm/min)
M117 *End Clean*       	; Indicate nozzle clean in progress on LCD
G1 Z5 F3000            	; Move Z to  5.0 with speed 3000 (mm/min)
G1 X20.0 F3000         	; Move X to 20.0 with speed 3000 (mm/min)
G1 Y20.0 F3000         	; Move Y to 20.0 with speed 3000 (mm/min)
; 
M117 *Printing...*     	; Start printing msg on LCD
;
; End Startcode
;
; Begin printing with sliced GCode after here
;
; process Process1
M117 INDICATOR-Layer1
; Z=0.180
T0
G92 E0.0000
G1 E-4.0000 F3000
; feature skirt
; tool H0.180 W0.350
G1 Z0.300 F1002
G1 X232.882 Y35.618 F6000
G1 Z0.180 F1002
G1 E0.0000 F3000
G92 E0.0000
G1 X241.510 Y77.507 E1.0642 F900
G1 X240.200 Y79.496 E1.1235
G1 X236.953 Y80.165 E1.2060
G1 X237.810 Y84.328 E1.3117
G1 X241.058 Y83.659 E1.3942
G1 X243.047 Y84.968 E1.4535
G1 X251.525 Y126.133 E2.4993
G1 X250.929 Y127.699 E2.5410
G1 X242.872 Y133.691 E2.7908
G1 X243.579 Y137.125 E2.8781
G1 X243.783 Y137.245 E2.8839
G1 X245.036 Y138.167 E2.9227
G1 X245.259 Y138.370 E2.9301
G1 X246.292 Y139.533 E2.9689
G1 X246.468 Y139.778 E2.9764
G1 X247.237 Y141.130 E3.0151
G1 X247.358 Y141.406 E3.0226
G1 X247.829 Y142.889 E3.0613
G1 X247.890 Y143.184 E3.0688
G1 X248.043 Y144.732 E3.1075
G1 X248.041 Y145.033 E3.1150
G1 X247.869 Y146.579 E3.1537
G1 X247.804 Y146.874 E3.1612
G1 X247.314 Y148.350 E3.1999
G1 X247.190 Y148.625 E3.2074
G1 X246.404 Y149.967 E3.2461
G1 X246.225 Y150.210 E3.2536
G1 X245.177 Y151.359 E3.2923
G1 X244.951 Y151.559 E3.2998
G1 X243.687 Y152.466 E3.3385
G1 X243.425 Y152.615 E3.3460
G1 X242.000 Y153.239 E3.3847
G1 X241.713 Y153.330 E3.3922
G1 X240.189 Y153.644 E3.4309
G1 X239.889 Y153.673 E3.4384
G1 X238.334 Y153.664 E3.4771
G1 X238.034 Y153.630 E3.4846
G1 X236.515 Y153.297 E3.5234
G1 X236.229 Y153.202 E3.5309
G1 X234.811 Y152.560 E3.5696
G1 X234.551 Y152.408 E3.5771
G1 X233.299 Y151.486 E3.6158
G1 X233.076 Y151.283 E3.6233
G1 X232.042 Y150.120 E3.6620
G1 X231.867 Y149.875 E3.6695
G1 X231.097 Y148.523 E3.7082
G1 X230.977 Y148.247 E3.7157
G1 X230.505 Y146.764 E3.7544
G1 X230.444 Y146.469 E3.7619
G1 X230.292 Y144.921 E3.8006
G1 X230.293 Y144.620 E3.8081
G1 X230.466 Y143.074 E3.8468
G1 X230.530 Y142.779 E3.8543
G1 X230.762 Y142.080 E3.8726
G1 X229.454 Y142.757 E3.9093
G1 X229.313 Y142.821 E3.9131
G1 X226.216 Y144.019 E3.9958
G1 X226.068 Y144.067 E3.9996
G1 X222.860 Y144.924 E4.0823
G1 X222.708 Y144.956 E4.0861
G1 X219.426 Y145.462 E4.1688
G1 X219.271 Y145.478 E4.1726
G1 X215.975 Y145.626 E4.2547
G1 X215.862 Y145.626 E4.2575
G1 X209.355 Y145.406 E4.4195
G1 X209.284 Y145.402 E4.4213
G1 X202.818 Y144.862 E4.5828
G1 X202.747 Y144.855 E4.5845
G1 X196.315 Y143.997 E4.7460
G1 X196.245 Y143.986 E4.7478
G1 X189.863 Y142.811 E4.9092
G1 X189.793 Y142.797 E4.9110
G1 X183.477 Y141.309 E5.0725
G1 X183.409 Y141.291 E5.0742
G1 X177.173 Y139.493 E5.2357
G1 X177.106 Y139.472 E5.2375
G1 X170.933 Y137.357 E5.3998
G1 X170.801 Y137.304 E5.4034
G1 X168.825 Y136.401 E5.4574
G1 X168.581 Y136.258 E5.4644
G1 X166.763 Y134.946 E5.5203
G1 X166.551 Y134.759 E5.5273
G1 X165.024 Y133.116 E5.5831
G1 X164.853 Y132.892 E5.5901
G1 X163.675 Y130.983 E5.6459
G1 X163.551 Y130.729 E5.6530
G1 X162.768 Y128.627 E5.7088
G1 X162.696 Y128.354 E5.7158
G1 X162.339 Y126.140 E5.7716
G1 X162.321 Y125.858 E5.7786
G1 X162.402 Y123.617 E5.8344
G1 X162.440 Y123.337 E5.8415
G1 X162.957 Y121.154 E5.8973
G1 X163.049 Y120.887 E5.9043
G1 X163.982 Y118.848 E5.9601
G1 X164.124 Y118.603 E5.9671
G1 X165.437 Y116.785 E6.0229
G1 X165.624 Y116.573 E6.0300
G1 X167.266 Y115.046 E6.0858
G1 X167.491 Y114.875 E6.0928
G1 X169.399 Y113.697 E6.1486
G1 X169.653 Y113.573 E6.1557
G1 X171.755 Y112.790 E6.2115
G1 X172.028 Y112.718 E6.2185
G1 X174.242 Y112.361 E6.2743
G1 X174.524 Y112.343 E6.2813
G1 X176.766 Y112.424 E6.3371
G1 X177.045 Y112.462 E6.3442
G1 X179.210 Y112.975 E6.3995
G1 X179.443 Y113.052 E6.4056
G1 X184.074 Y115.028 E6.5309
G1 X188.622 Y116.556 E6.6503
G1 X193.276 Y117.718 E6.7697
G1 X198.009 Y118.509 E6.8890
G1 X202.789 Y118.922 E7.0084
G1 X207.480 Y118.955 E7.1251
G1 X208.373 Y118.824 E7.1476
G1 X209.113 Y118.533 E7.1674
G1 X209.769 Y118.084 E7.1872
G1 X210.306 Y117.498 E7.2070
G1 X210.698 Y116.806 E7.2268
G1 X210.924 Y116.043 E7.2465
G1 X210.972 Y115.249 E7.2663
G1 X210.839 Y114.465 E7.2861
G1 X210.489 Y113.623 E7.3088
G1 X207.729 Y109.034 E7.4421
G1 X204.602 Y104.543 E7.5782
G1 X201.184 Y100.270 E7.7144
G1 X197.489 Y96.235 E7.8505
G1 X193.534 Y92.454 E7.9867
G1 X189.335 Y88.945 E8.1228
G1 X184.912 Y85.724 E8.2590
G1 X180.285 Y82.804 E8.3951
G1 X175.473 Y80.199 E8.5313
G1 X170.499 Y77.920 E8.6674
G1 X165.383 Y75.978 E8.8036
G1 X160.150 Y74.380 E8.9397
G1 X154.822 Y73.134 E9.0759
G1 X149.423 Y72.246 E9.2120
G1 X143.977 Y71.720 E9.3482
G1 X138.507 Y71.557 E9.4843
G1 X133.040 Y71.759 E9.6205
G1 X127.597 Y72.325 E9.7566
G1 X122.205 Y73.251 E9.8928
G1 X116.886 Y74.535 E10.0289
G1 X111.664 Y76.170 E10.1651
G1 X106.451 Y78.192 E10.3042
G1 X106.407 Y78.209 E10.3054
G1 X104.401 Y78.912 E10.3583
G1 X104.126 Y78.978 E10.3653
G1 X101.906 Y79.293 E10.4211
G1 X101.624 Y79.305 E10.4281
G1 X99.384 Y79.180 E10.4839
G1 X99.105 Y79.137 E10.4910
G1 X96.933 Y78.578 E10.5468
G1 X96.668 Y78.481 E10.5538
G1 X94.647 Y77.509 E10.6096
G1 X94.405 Y77.362 E10.6166
G1 X92.613 Y76.014 E10.6724
G1 X92.404 Y75.823 E10.6795
G1 X90.909 Y74.152 E10.7353
G1 X90.742 Y73.924 E10.7423
G1 X89.602 Y71.992 E10.7981
G1 X89.483 Y71.736 E10.8051
G1 X88.741 Y69.620 E10.8610
G1 X88.674 Y69.345 E10.8680
G1 X88.360 Y67.124 E10.9238
G1 X88.348 Y66.842 E10.9308
G1 X88.471 Y64.622 E10.9862
G1 X88.514 Y64.345 E10.9931
G1 X89.074 Y62.155 E11.0494
G1 X89.171 Y61.888 E11.0565
G1 X90.144 Y59.865 E11.1123
G1 X90.291 Y59.624 E11.1193
G1 X91.638 Y57.831 E11.1751
G1 X91.830 Y57.623 E11.1822
G1 X93.501 Y56.128 E11.2380
G1 X93.729 Y55.961 E11.2450
G1 X95.662 Y54.820 E11.3009
G1 X95.922 Y54.699 E11.3080
G1 X102.821 Y52.303 E11.4897
G1 X102.898 Y52.279 E11.4917
G1 X109.820 Y50.299 E11.6709
G1 X109.897 Y50.279 E11.6728
G1 X116.919 Y48.686 E11.8520
G1 X116.997 Y48.671 E11.8540
G1 X124.096 Y47.470 E12.0331
G1 X124.176 Y47.459 E12.0351
G1 X131.331 Y46.655 E12.2143
G1 X131.410 Y46.648 E12.2163
G1 X138.599 Y46.242 E12.3954
G1 X138.679 Y46.240 E12.3974
G1 X145.878 Y46.234 E12.5766
G1 X145.958 Y46.236 E12.5786
G1 X153.148 Y46.630 E12.7577
G1 X153.227 Y46.636 E12.7597
G1 X160.384 Y47.429 E12.9389
G1 X160.463 Y47.440 E12.9409
G1 X167.564 Y48.628 E13.1200
G1 X167.642 Y48.644 E13.1220
G1 X174.667 Y50.225 E13.3012
G1 X174.744 Y50.245 E13.3031
G1 X181.670 Y52.214 E13.4823
G1 X181.746 Y52.238 E13.4843
G1 X188.551 Y54.588 E13.6634
G1 X188.626 Y54.616 E13.6654
G1 X195.150 Y57.284 E13.8408
G1 X196.243 Y57.634 E13.8694
G1 X197.193 Y57.729 E13.8931
G1 X198.142 Y57.622 E13.9169
G1 X199.048 Y57.319 E13.9407
G1 X200.002 Y56.755 E13.9682
G1 X215.769 Y45.030 E14.4572
G1 X218.716 Y46.153 E14.5356
G1 X219.980 Y52.289 E14.6915
