; G-Code generated by Simplify3D(R) Version 4.1.2
; Jul 13, 2020 at 1:12:49 AM
; Settings Summary
;   processName,Process1
;   applyToModels,SupportPourCouvercleDeCasseroles_Begin
;   profileName,A04-04-15 Tevo Tornado
;   profileVersion,2020-07-01 20:14:39
;   baseProfile,Creality CR-10(2)
;   printMaterial,PLA
;   printQuality,Medium
;   printExtruders,
;   extruderName,Primary Extruder
;   extruderToolheadNumber,0
;   extruderDiameter,0.4
;   extruderAutoWidth,0
;   extruderWidth,0.35
;   extrusionMultiplier,0.95
;   extruderUseRetract,1
;   extruderRetractionDistance,4
;   extruderExtraRestartDistance,0
;   extruderRetractionZLift,0.3
;   extruderRetractionSpeed,3000
;   extruderUseCoasting,1
;   extruderCoastingDistance,0.8
;   extruderUseWipe,0
;   extruderWipeDistance,4
;   primaryExtruder,0
;   layerHeight,0.15
;   topSolidLayers,4
;   bottomSolidLayers,3
;   perimeterOutlines,3
;   printPerimetersInsideOut,0
;   startPointOption,1
;   startPointOriginX,0
;   startPointOriginY,300
;   sequentialIslands,0
;   spiralVaseMode,0
;   firstLayerHeightPercentage,120
;   firstLayerWidthPercentage,100
;   firstLayerUnderspeed,0.5
;   useRaft,0
;   raftExtruder,0
;   raftTopLayers,3
;   raftBaseLayers,2
;   raftOffset,3
;   raftSeparationDistance,0.14
;   raftTopInfill,100
;   aboveRaftSpeedMultiplier,0.3
;   useSkirt,1
;   skirtExtruder,0
;   skirtLayers,1
;   skirtOutlines,3
;   skirtOffset,2
;   usePrimePillar,0
;   primePillarExtruder,999
;   primePillarWidth,12
;   primePillarLocation,7
;   primePillarSpeedMultiplier,1
;   useOozeShield,0
;   oozeShieldExtruder,999
;   oozeShieldOffset,2
;   oozeShieldOutlines,1
;   oozeShieldSidewallShape,1
;   oozeShieldSidewallAngle,30
;   oozeShieldSpeedMultiplier,1
;   infillExtruder,0
;   internalInfillPattern,Rectilinear
;   externalInfillPattern,Rectilinear
;   infillPercentage,15
;   outlineOverlapPercentage,15
;   infillExtrusionWidthPercentage,100
;   minInfillLength,5
;   infillLayerInterval,1
;   internalInfillAngles,45,-45
;   overlapInternalInfillAngles,0
;   externalInfillAngles,45,-45
;   generateSupport,0
;   supportExtruder,0
;   supportInfillPercentage,30
;   supportExtraInflation,0
;   supportBaseLayers,0
;   denseSupportExtruder,0
;   denseSupportLayers,0
;   denseSupportInfillPercentage,70
;   supportLayerInterval,1
;   supportHorizontalPartOffset,0.4
;   supportUpperSeparationLayers,1
;   supportLowerSeparationLayers,1
;   supportType,0
;   supportGridSpacing,4.5
;   maxOverhangAngle,45
;   supportAngles,0
;   temperatureName,Primary Extruder,Heated Bed
;   temperatureNumber,0,0
;   temperatureSetpointCount,1,1
;   temperatureSetpointLayers,1,1
;   temperatureSetpointTemperatures,215,55
;   temperatureStabilizeAtStartup,1,1
;   temperatureHeatedBed,0,1
;   fanLayers,1,2
;   fanSpeeds,0,100
;   blipFanToFullPower,0
;   adjustSpeedForCooling,1
;   minSpeedLayerTime,15
;   minCoolingSpeedSlowdown,50
;   increaseFanForCooling,1
;   minFanLayerTime,25
;   maxCoolingFanSpeed,100
;   increaseFanForBridging,1
;   bridgingFanSpeed,100
;   use5D,1
;   relativeEdistances,0
;   allowEaxisZeroing,1
;   independentExtruderAxes,0
;   includeM10123,0
;   stickySupport,1
;   applyToolheadOffsets,0
;   gcodeXoffset,0
;   gcodeYoffset,0
;   gcodeZoffset,0
;   overrideMachineDefinition,1
;   machineTypeOverride,0
;   strokeXoverride,300
;   strokeYoverride,300
;   strokeZoverride,400
;   originOffsetXoverride,0
;   originOffsetYoverride,0
;   originOffsetZoverride,0
;   homeXdirOverride,-1
;   homeYdirOverride,-1
;   homeZdirOverride,-1
;   flipXoverride,1
;   flipYoverride,-1
;   flipZoverride,1
;   toolheadOffsets,0,0|0,0|0,0|0,0|0,0|0,0
;   overrideFirmwareConfiguration,1
;   firmwareTypeOverride,RepRap (Marlin/Repetier/Sprinter)
;   GPXconfigOverride,r2
;   baudRateOverride,250000
;   overridePrinterModels,1
;   printerModelsOverride
;   startingGcode,;,; -]H.P.B[- MarshMalloW  ,; $VER: StartScript 1.02 (26.12.2019) MarshMalloW,;,; Begin Startcode,;,M117 *Preheat*     	; Preheat,;extruder0_temperature,M104 S[extruder0_temperature]  ,M109 S[extruder0_temperature] ,M109 R[extruder0_temperature] ,;,M117 *Auto-leveling*     	; Auto-leveling,M107                   	; Turn layer fan off,G21                    	; Set to metric [change to G20 if you want Imperial],G90                    	; Force coordinates to be absolute relative to the origin,G28                    	; Home X/Y/Z axis,G29                    	; Auto-leveling (BL-Touch),;,M117 *Start Clean*     	; Indicate nozzle clean in progress on LCD,G92 E0                 	; Set Extruder to 0 ,G1 X0 Y0 F2000         	; Move X and Y to 0 with speed 2000 (mm/min),G1 Z0.1 F1000          	; Move Z to   0.1 with speed 1000 (mm/min),G1 X8.0 F2000          	; Move X to   8.0 with speed 2000 (mm/min),G1 Y60.0 E4.0 F1000.0  	; Move Y to  60 and Extruder with 4.0 with speed 1000 (mm/min),G1 Y100.0 E8.5 F1000.0 	; Move Y to 100 and Extruder with 8.5 with speed 1000 (mm/min),G92 E0                 	; Set extruder to 0,G1 X16.0 F3000         	; Move X to 16.0 with speed 3000 (mm/min),G1 Y60.0 F3000         	; Move Y to 60.0 with speed 3000 (mm/min),M117 *End Clean*       	; Indicate nozzle clean in progress on LCD,G1 Z5 F3000            	; Move Z to  5.0 with speed 3000 (mm/min),G1 X20.0 F3000         	; Move X to 20.0 with speed 3000 (mm/min),G1 Y20.0 F3000         	; Move Y to 20.0 with speed 3000 (mm/min),; ,M117 *Printing...*     	; Start printing msg on LCD,;,; End Startcode,;,; Begin printing with sliced GCode after here,;
;   layerChangeGcode,
;   retractionGcode,
;   toolChangeGcode,
;   endingGcode,;,; init 181010,;,;M107 			; Fan off,;G1 E-1 F300 			; Retract the filament a bit before lifting the nozzle,;M104 S0 			; Turn off extruder,;M140 S0 			; Turn off bed,;G91			; Relative positioning,;G28 X0 Y0 			; Move X/Y to min endstops so the head is out of teh way,;M84 			; Disable motors,;G90 			; Absolute positioning,;M117 Print ready...,,;,; // From Cura 181010,; // End_gcode,G92 E0			; Zero the extruded length,;G1 E-30 F300		; Retract E -30,M106 S0			; Turn off cooling fan,M104 S0			; Turn off temperature,M140 S0		     	; Turn off bed,G91			; Relative positioning,G1 E-1 F300			; Retract the filament a bit before lifting the nozzle to release some of the pressure,G1 Z+20 E-5 X-20 Y-20 F7200	; Move Z up a bit and retract filament even more,G1 X0 Y150 F10000		; Move right min,M107			; Turn off layer fan,M84			; Disable motors,G90			; Absolute positioning,M117 *The-End* 		; End msg,;,
;   exportFileFormat,gcode
;   celebration,0
;   celebrationSong,Star Wars
;   postProcessing,|{REPLACE "; layer " "M117 INDICATOR-Layer"}|{REPLACE ", Z = " "\n; Z="}
;   defaultSpeed,1800
;   outlineUnderspeed,0.5
;   solidInfillUnderspeed,0.8
;   supportUnderspeed,0.8
;   rapidXYspeed,6000
;   rapidZspeed,1002
;   minBridgingArea,50
;   bridgingExtraInflation,0.2
;   bridgingExtrusionMultiplier,1
;   bridgingSpeedMultiplier,0.6
;   useFixedBridgingAngle,0
;   fixedBridgingAngle,0
;   applyBridgingToPerimeters,0
;   filamentDiameters,1.75|1.75|1.75|1.75|1.75|1.75
;   filamentPricesPerKg,30|46|46|46|46|46
;   filamentDensities,1.25|1.25|1.25|1.25|1.25|1.25
;   useMinPrintHeight,0
;   minPrintHeight,0
;   useMaxPrintHeight,0
;   maxPrintHeight,50
;   useDiaphragm,0
;   diaphragmLayerInterval,20
;   robustSlicing,1
;   mergeAllIntoSolid,0
;   onlyRetractWhenCrossingOutline,1
;   retractBetweenLayers,0
;   useRetractionMinTravel,0
;   retractionMinTravel,3
;   retractWhileWiping,0
;   onlyWipeOutlines,1
;   avoidCrossingOutline,1
;   maxMovementDetourFactor,3
;   toolChangeRetractionDistance,12
;   toolChangeExtraRestartDistance,-0.5
;   toolChangeRetractionSpeed,600
;   externalThinWallType,1
;   internalThinWallType,1
;   thinWallAllowedOverlapPercentage,10
;   singleExtrusionMinLength,1
;   singleExtrusionMinPrintingWidthPercentage,50
;   singleExtrusionMaxPrintingWidthPercentage,200
;   singleExtrusionEndpointExtension,0.2
;   horizontalSizeCompensation,0
G90
M82
M106 S0
M140 S55
M190 S55
;
; -]H.P.B[- MarshMalloW  
; $VER: StartScript 1.02 (26.12.2019) MarshMalloW
;
; Begin Startcode
;
M117 *Preheat*     	; Preheat
;extruder0_temperature
M104 S215  
M109 S215 
M109 R215 
;
M117 *Auto-leveling*     	; Auto-leveling
M107                   	; Turn layer fan off
G21                    	; Set to metric [change to G20 if you want Imperial]
G90                    	; Force coordinates to be absolute relative to the origin
G28                    	; Home X/Y/Z axis
G29                    	; Auto-leveling (BL-Touch)
;
M117 *Start Clean*     	; Indicate nozzle clean in progress on LCD
G92 E0                 	; Set Extruder to 0 
G1 X0 Y0 F2000         	; Move X and Y to 0 with speed 2000 (mm/min)
G1 Z0.1 F1000          	; Move Z to   0.1 with speed 1000 (mm/min)
G1 X8.0 F2000          	; Move X to   8.0 with speed 2000 (mm/min)
G1 Y60.0 E4.0 F1000.0  	; Move Y to  60 and Extruder with 4.0 with speed 1000 (mm/min)
G1 Y100.0 E8.5 F1000.0 	; Move Y to 100 and Extruder with 8.5 with speed 1000 (mm/min)
G92 E0                 	; Set extruder to 0
G1 X16.0 F3000         	; Move X to 16.0 with speed 3000 (mm/min)
G1 Y60.0 F3000         	; Move Y to 60.0 with speed 3000 (mm/min)
M117 *End Clean*       	; Indicate nozzle clean in progress on LCD
G1 Z5 F3000            	; Move Z to  5.0 with speed 3000 (mm/min)
G1 X20.0 F3000         	; Move X to 20.0 with speed 3000 (mm/min)
G1 Y20.0 F3000         	; Move Y to 20.0 with speed 3000 (mm/min)
; 
M117 *Printing...*     	; Start printing msg on LCD
;
; End Startcode
;
; Begin printing with sliced GCode after here
;
; process Process1
M117 INDICATOR-Layer1
; Z=0.180
T0
G92 E0.0000
G1 E-4.0000 F3000
; feature skirt
; tool H0.180 W0.350
G1 Z0.300 F1002
G1 X116.329 Y44.894 F6000
G1 Z0.180 F1002
G1 E0.0000 F3000
G92 E0.0000
G1 X123.525 Y45.128 E0.1792 F900
G1 X123.605 Y45.133 E0.1811
G1 X130.777 Y45.766 E0.3603
G1 X130.856 Y45.775 E0.3623
G1 X137.982 Y46.805 E0.5414
G1 X138.061 Y46.819 E0.5434
G1 X145.119 Y48.244 E0.7226
G1 X145.197 Y48.261 E0.7246
G1 X152.164 Y50.076 E0.9037
G1 X152.241 Y50.098 E0.9057
G1 X159.097 Y52.296 E1.0849
G1 X159.173 Y52.323 E1.0869
G1 X165.896 Y54.899 E1.2660
G1 X165.970 Y54.929 E1.2680
G1 X172.540 Y57.874 E1.4472
G1 X172.612 Y57.909 E1.4491
G1 X179.008 Y61.215 E1.6283
G1 X179.078 Y61.253 E1.6303
G1 X185.150 Y64.832 E1.8057
G1 X186.181 Y65.336 E1.8342
G1 X187.108 Y65.567 E1.8580
G1 X188.063 Y65.598 E1.8818
G1 X189.003 Y65.428 E1.9055
G1 X190.027 Y65.008 E1.9331
G1 X222.853 Y47.287 E2.8613
G1 X225.608 Y48.823 E2.9398
G1 X228.117 Y91.517 E4.0040
G1 X226.534 Y93.297 E4.0632
G1 X223.224 Y93.492 E4.1457
G1 X223.474 Y97.734 E4.2515
G1 X226.784 Y97.540 E4.3340
G1 X228.564 Y99.122 E4.3933
G1 X231.029 Y141.079 E5.4391
G1 X230.213 Y142.543 E5.4808
G1 X221.378 Y147.312 E5.7306
G1 X221.584 Y150.813 E5.8179
G1 X221.768 Y150.960 E5.8237
G1 X222.875 Y152.054 E5.8624
G1 X223.066 Y152.286 E5.8699
G1 X223.922 Y153.586 E5.9086
G1 X224.060 Y153.853 E5.9161
G1 X224.627 Y155.302 E5.9549
G1 X224.707 Y155.593 E5.9624
G1 X224.960 Y157.128 E6.0011
G1 X224.978 Y157.429 E6.0086
G1 X224.906 Y158.983 E6.0473
G1 X224.861 Y159.281 E6.0548
G1 X224.468 Y160.786 E6.0935
G1 X224.362 Y161.068 E6.1010
G1 X223.664 Y162.458 E6.1397
G1 X223.502 Y162.712 E6.1472
G1 X222.530 Y163.927 E6.1859
G1 X222.318 Y164.142 E6.1934
G1 X221.116 Y165.128 E6.2321
G1 X220.864 Y165.294 E6.2396
G1 X219.482 Y166.009 E6.2783
G1 X219.202 Y166.119 E6.2858
G1 X217.702 Y166.531 E6.3245
G1 X217.404 Y166.580 E6.3320
G1 X215.851 Y166.671 E6.3707
G1 X215.550 Y166.657 E6.3782
G1 X214.012 Y166.424 E6.4169
G1 X213.721 Y166.348 E6.4244
G1 X212.265 Y165.799 E6.4631
G1 X211.996 Y165.664 E6.4706
G1 X210.685 Y164.825 E6.5093
G1 X210.450 Y164.637 E6.5168
G1 X209.343 Y163.544 E6.5556
G1 X209.152 Y163.311 E6.5631
G1 X208.296 Y162.012 E6.6018
G1 X208.158 Y161.744 E6.6093
G1 X207.591 Y160.295 E6.6480
G1 X207.511 Y160.005 E6.6555
G1 X207.258 Y158.470 E6.6942
G1 X207.241 Y158.169 E6.7017
G1 X207.312 Y156.615 E6.7404
G1 X207.357 Y156.317 E6.7479
G1 X207.751 Y154.812 E6.7866
G1 X207.857 Y154.530 E6.7941
G1 X208.187 Y153.871 E6.8124
G1 X206.795 Y154.353 E6.8491
G1 X206.646 Y154.395 E6.8529
G1 X203.409 Y155.135 E6.9356
G1 X203.256 Y155.162 E6.9394
G1 X199.958 Y155.548 E7.0220
G1 X199.802 Y155.558 E7.0259
G1 X196.482 Y155.587 E7.1085
G1 X196.327 Y155.579 E7.1124
G1 X193.043 Y155.252 E7.1945
G1 X192.931 Y155.236 E7.1973
G1 X186.524 Y154.081 E7.3593
G1 X186.455 Y154.067 E7.3611
G1 X180.133 Y152.602 E7.5226
G1 X180.064 Y152.585 E7.5243
G1 X173.823 Y150.810 E7.6858
G1 X173.755 Y150.789 E7.6876
G1 X167.608 Y148.708 E7.8490
G1 X167.542 Y148.684 E7.8508
G1 X161.505 Y146.302 E8.0123
G1 X161.440 Y146.275 E8.0140
G1 X155.528 Y143.598 E8.1755
G1 X155.464 Y143.567 E8.1773
G1 X149.661 Y140.586 E8.3396
G1 X149.538 Y140.515 E8.3431
G1 X147.713 Y139.336 E8.3972
G1 X147.491 Y139.160 E8.4042
G1 X145.881 Y137.600 E8.4600
G1 X145.698 Y137.384 E8.4671
G1 X144.423 Y135.539 E8.5229
G1 X144.286 Y135.292 E8.5299
G1 X143.395 Y133.234 E8.5857
G1 X143.309 Y132.965 E8.5927
G1 X142.837 Y130.772 E8.6486
G1 X142.805 Y130.491 E8.6556
G1 X142.770 Y128.249 E8.7114
G1 X142.793 Y127.967 E8.7184
G1 X143.196 Y125.761 E8.7742
G1 X143.274 Y125.489 E8.7813
G1 X144.100 Y123.404 E8.8371
G1 X144.229 Y123.153 E8.8441
G1 X145.446 Y121.269 E8.8999
G1 X145.621 Y121.048 E8.9069
G1 X147.182 Y119.437 E8.9627
G1 X147.398 Y119.254 E8.9698
G1 X149.243 Y117.979 E9.0256
G1 X149.490 Y117.842 E9.0326
G1 X151.548 Y116.952 E9.0884
G1 X151.817 Y116.865 E9.0954
G1 X154.010 Y116.393 E9.1512
G1 X154.290 Y116.361 E9.1583
G1 X156.533 Y116.326 E9.2141
G1 X156.815 Y116.349 E9.2211
G1 X159.021 Y116.752 E9.2769
G1 X159.292 Y116.830 E9.2839
G1 X161.361 Y117.649 E9.3393
G1 X161.580 Y117.759 E9.3454
G1 X165.878 Y120.381 E9.4707
G1 X170.159 Y122.547 E9.5901
G1 X174.598 Y124.368 E9.7094
G1 X179.167 Y125.831 E9.8288
G1 X183.838 Y126.928 E9.9482
G1 X188.475 Y127.636 E10.0649
G1 X189.378 Y127.634 E10.0874
G1 X190.152 Y127.454 E10.1072
G1 X190.866 Y127.103 E10.1270
G1 X191.482 Y126.600 E10.1468
G1 X191.969 Y125.972 E10.1665
G1 X192.302 Y125.250 E10.1863
G1 X192.464 Y124.471 E10.2061
G1 X192.446 Y123.676 E10.2259
G1 X192.220 Y122.793 E10.2486
G1 X190.149 Y117.854 E10.3819
G1 X187.702 Y112.960 E10.5180
G1 X184.935 Y108.239 E10.6542
G1 X181.859 Y103.714 E10.7903
G1 X178.489 Y99.404 E10.9265
G1 X174.839 Y95.327 E11.0626
G1 X170.926 Y91.503 E11.1988
G1 X166.767 Y87.947 E11.3349
G1 X162.380 Y84.677 E11.4711
G1 X157.785 Y81.706 E11.6072
G1 X153.003 Y79.047 E11.7434
G1 X148.054 Y76.713 E11.8795
G1 X142.961 Y74.713 E12.0157
G1 X137.746 Y73.057 E12.1518
G1 X132.432 Y71.752 E12.2880
G1 X127.043 Y70.804 E12.4241
G1 X121.603 Y70.217 E12.5603
G1 X116.136 Y69.993 E12.6964
G1 X110.666 Y70.134 E12.8326
G1 X105.218 Y70.639 E12.9687
G1 X99.815 Y71.505 E13.1049
G1 X94.366 Y72.756 E13.2440
G1 X94.319 Y72.766 E13.2452
G1 X92.233 Y73.173 E13.2980
G1 X91.952 Y73.200 E13.3051
G1 X89.709 Y73.192 E13.3609
G1 X89.428 Y73.163 E13.3679
G1 X87.230 Y72.717 E13.4237
G1 X86.960 Y72.634 E13.4308
G1 X84.891 Y71.768 E13.4866
G1 X84.643 Y71.634 E13.4936
G1 X82.782 Y70.381 E13.5494
G1 X82.565 Y70.201 E13.5564
G1 X80.985 Y68.609 E13.6122
G1 X80.806 Y68.390 E13.6193
G1 X79.567 Y66.521 E13.6751
G1 X79.435 Y66.271 E13.6821
G1 X78.584 Y64.196 E13.7379
G1 X78.503 Y63.925 E13.7449
G1 X78.074 Y61.724 E13.8007
G1 X78.047 Y61.443 E13.8078
G1 X78.056 Y59.200 E13.8636
G1 X78.084 Y58.919 E13.8706
G1 X78.530 Y56.721 E13.9264
G1 X78.613 Y56.451 E13.9334
G1 X79.479 Y54.382 E13.9892
G1 X79.613 Y54.133 E13.9963
G1 X80.866 Y52.273 E14.0521
G1 X81.046 Y52.055 E14.0591
G1 X82.638 Y50.475 E14.1149
G1 X82.857 Y50.297 E14.1220
G1 X84.726 Y49.058 E14.1778
G1 X84.976 Y48.926 E14.1848
G1 X87.036 Y48.081 E14.2402
G1 X87.310 Y47.999 E14.2473
G1 X94.499 Y46.615 E14.4295
G1 X94.578 Y46.602 E14.4315
G1 X101.714 Y45.638 E14.6106
G1 X101.793 Y45.630 E14.6126
G1 X108.971 Y45.064 E14.7918
G1 X109.051 Y45.060 E14.7938
G1 X116.249 Y44.894 E14.9729
G1 X116.329 Y44.894 E14.9749
G92 E0.0000
G1 E-4.0000 F3000
G1 Z0.480 F1002
