; G-Code generated by Simplify3D(R) Version 4.1.2
; Jul 14, 2020 at 12:03:02 AM
; Settings Summary
;   processName,Process1
;   applyToModels,SupportPourCouvercleDeCasseroles_Fixation,SupportPourCouvercleDeCasseroles_Fixation(2)
;   profileName,A04-04-15 Tevo Tornado
;   profileVersion,2020-07-01 20:14:39
;   baseProfile,Creality CR-10(2)
;   printMaterial,PLA
;   printQuality,Medium
;   printExtruders,
;   extruderName,Primary Extruder
;   extruderToolheadNumber,0
;   extruderDiameter,0.4
;   extruderAutoWidth,0
;   extruderWidth,0.35
;   extrusionMultiplier,0.95
;   extruderUseRetract,1
;   extruderRetractionDistance,4
;   extruderExtraRestartDistance,0
;   extruderRetractionZLift,0.3
;   extruderRetractionSpeed,3000
;   extruderUseCoasting,1
;   extruderCoastingDistance,0.8
;   extruderUseWipe,0
;   extruderWipeDistance,4
;   primaryExtruder,0
;   layerHeight,0.15
;   topSolidLayers,4
;   bottomSolidLayers,3
;   perimeterOutlines,3
;   printPerimetersInsideOut,0
;   startPointOption,1
;   startPointOriginX,0
;   startPointOriginY,300
;   sequentialIslands,0
;   spiralVaseMode,0
;   firstLayerHeightPercentage,120
;   firstLayerWidthPercentage,100
;   firstLayerUnderspeed,0.5
;   useRaft,0
;   raftExtruder,0
;   raftTopLayers,3
;   raftBaseLayers,2
;   raftOffset,3
;   raftSeparationDistance,0.14
;   raftTopInfill,100
;   aboveRaftSpeedMultiplier,0.3
;   useSkirt,1
;   skirtExtruder,0
;   skirtLayers,1
;   skirtOutlines,3
;   skirtOffset,2
;   usePrimePillar,0
;   primePillarExtruder,999
;   primePillarWidth,12
;   primePillarLocation,7
;   primePillarSpeedMultiplier,1
;   useOozeShield,0
;   oozeShieldExtruder,999
;   oozeShieldOffset,2
;   oozeShieldOutlines,1
;   oozeShieldSidewallShape,1
;   oozeShieldSidewallAngle,30
;   oozeShieldSpeedMultiplier,1
;   infillExtruder,0
;   internalInfillPattern,Rectilinear
;   externalInfillPattern,Rectilinear
;   infillPercentage,15
;   outlineOverlapPercentage,15
;   infillExtrusionWidthPercentage,100
;   minInfillLength,5
;   infillLayerInterval,1
;   internalInfillAngles,45,-45
;   overlapInternalInfillAngles,0
;   externalInfillAngles,45,-45
;   generateSupport,0
;   supportExtruder,0
;   supportInfillPercentage,30
;   supportExtraInflation,0
;   supportBaseLayers,0
;   denseSupportExtruder,0
;   denseSupportLayers,0
;   denseSupportInfillPercentage,70
;   supportLayerInterval,1
;   supportHorizontalPartOffset,0.4
;   supportUpperSeparationLayers,1
;   supportLowerSeparationLayers,1
;   supportType,0
;   supportGridSpacing,4.5
;   maxOverhangAngle,45
;   supportAngles,0
;   temperatureName,Primary Extruder,Heated Bed
;   temperatureNumber,0,0
;   temperatureSetpointCount,1,1
;   temperatureSetpointLayers,1,1
;   temperatureSetpointTemperatures,215,55
;   temperatureStabilizeAtStartup,1,1
;   temperatureHeatedBed,0,1
;   fanLayers,1,2
;   fanSpeeds,0,100
;   blipFanToFullPower,0
;   adjustSpeedForCooling,1
;   minSpeedLayerTime,15
;   minCoolingSpeedSlowdown,50
;   increaseFanForCooling,1
;   minFanLayerTime,25
;   maxCoolingFanSpeed,100
;   increaseFanForBridging,1
;   bridgingFanSpeed,100
;   use5D,1
;   relativeEdistances,0
;   allowEaxisZeroing,1
;   independentExtruderAxes,0
;   includeM10123,0
;   stickySupport,1
;   applyToolheadOffsets,0
;   gcodeXoffset,0
;   gcodeYoffset,0
;   gcodeZoffset,0
;   overrideMachineDefinition,1
;   machineTypeOverride,0
;   strokeXoverride,300
;   strokeYoverride,300
;   strokeZoverride,400
;   originOffsetXoverride,0
;   originOffsetYoverride,0
;   originOffsetZoverride,0
;   homeXdirOverride,-1
;   homeYdirOverride,-1
;   homeZdirOverride,-1
;   flipXoverride,1
;   flipYoverride,-1
;   flipZoverride,1
;   toolheadOffsets,0,0|0,0|0,0|0,0|0,0|0,0
;   overrideFirmwareConfiguration,1
;   firmwareTypeOverride,RepRap (Marlin/Repetier/Sprinter)
;   GPXconfigOverride,r2
;   baudRateOverride,250000
;   overridePrinterModels,1
;   printerModelsOverride
;   startingGcode,;,; -]H.P.B[- MarshMalloW  ,; $VER: StartScript 1.02 (26.12.2019) MarshMalloW,;,; Begin Startcode,;,M117 *Preheat*     	; Preheat,;extruder0_temperature,M104 S[extruder0_temperature]  ,M109 S[extruder0_temperature] ,M109 R[extruder0_temperature] ,;,M117 *Auto-leveling*     	; Auto-leveling,M107                   	; Turn layer fan off,G21                    	; Set to metric [change to G20 if you want Imperial],G90                    	; Force coordinates to be absolute relative to the origin,G28                    	; Home X/Y/Z axis,G29                    	; Auto-leveling (BL-Touch),;,M117 *Start Clean*     	; Indicate nozzle clean in progress on LCD,G92 E0                 	; Set Extruder to 0 ,G1 X0 Y0 F2000         	; Move X and Y to 0 with speed 2000 (mm/min),G1 Z0.1 F1000          	; Move Z to   0.1 with speed 1000 (mm/min),G1 X8.0 F2000          	; Move X to   8.0 with speed 2000 (mm/min),G1 Y60.0 E4.0 F1000.0  	; Move Y to  60 and Extruder with 4.0 with speed 1000 (mm/min),G1 Y100.0 E8.5 F1000.0 	; Move Y to 100 and Extruder with 8.5 with speed 1000 (mm/min),G92 E0                 	; Set extruder to 0,G1 X16.0 F3000         	; Move X to 16.0 with speed 3000 (mm/min),G1 Y60.0 F3000         	; Move Y to 60.0 with speed 3000 (mm/min),M117 *End Clean*       	; Indicate nozzle clean in progress on LCD,G1 Z5 F3000            	; Move Z to  5.0 with speed 3000 (mm/min),G1 X20.0 F3000         	; Move X to 20.0 with speed 3000 (mm/min),G1 Y20.0 F3000         	; Move Y to 20.0 with speed 3000 (mm/min),; ,M117 *Printing...*     	; Start printing msg on LCD,;,; End Startcode,;,; Begin printing with sliced GCode after here,;
;   layerChangeGcode,
;   retractionGcode,
;   toolChangeGcode,
;   endingGcode,;,; init 181010,;,;M107 			; Fan off,;G1 E-1 F300 			; Retract the filament a bit before lifting the nozzle,;M104 S0 			; Turn off extruder,;M140 S0 			; Turn off bed,;G91			; Relative positioning,;G28 X0 Y0 			; Move X/Y to min endstops so the head is out of teh way,;M84 			; Disable motors,;G90 			; Absolute positioning,;M117 Print ready...,,;,; // From Cura 181010,; // End_gcode,G92 E0			; Zero the extruded length,;G1 E-30 F300		; Retract E -30,M106 S0			; Turn off cooling fan,M104 S0			; Turn off temperature,M140 S0		     	; Turn off bed,G91			; Relative positioning,G1 E-1 F300			; Retract the filament a bit before lifting the nozzle to release some of the pressure,G1 Z+20 E-5 X-20 Y-20 F7200	; Move Z up a bit and retract filament even more,G1 X0 Y150 F10000		; Move right min,M107			; Turn off layer fan,M84			; Disable motors,G90			; Absolute positioning,M117 *The-End* 		; End msg,;,
;   exportFileFormat,gcode
;   celebration,0
;   celebrationSong,Star Wars
;   postProcessing,|{REPLACE "; layer " "M117 INDICATOR-Layer"}|{REPLACE ", Z = " "\n; Z="}
;   defaultSpeed,1800
;   outlineUnderspeed,0.5
;   solidInfillUnderspeed,0.8
;   supportUnderspeed,0.8
;   rapidXYspeed,6000
;   rapidZspeed,1002
;   minBridgingArea,50
;   bridgingExtraInflation,0.2
;   bridgingExtrusionMultiplier,1
;   bridgingSpeedMultiplier,0.6
;   useFixedBridgingAngle,0
;   fixedBridgingAngle,0
;   applyBridgingToPerimeters,0
;   filamentDiameters,1.75|1.75|1.75|1.75|1.75|1.75
;   filamentPricesPerKg,30|46|46|46|46|46
;   filamentDensities,1.25|1.25|1.25|1.25|1.25|1.25
;   useMinPrintHeight,0
;   minPrintHeight,0
;   useMaxPrintHeight,0
;   maxPrintHeight,50
;   useDiaphragm,0
;   diaphragmLayerInterval,20
;   robustSlicing,1
;   mergeAllIntoSolid,0
;   onlyRetractWhenCrossingOutline,1
;   retractBetweenLayers,0
;   useRetractionMinTravel,0
;   retractionMinTravel,3
;   retractWhileWiping,0
;   onlyWipeOutlines,1
;   avoidCrossingOutline,1
;   maxMovementDetourFactor,3
;   toolChangeRetractionDistance,12
;   toolChangeExtraRestartDistance,-0.5
;   toolChangeRetractionSpeed,600
;   externalThinWallType,1
;   internalThinWallType,1
;   thinWallAllowedOverlapPercentage,10
;   singleExtrusionMinLength,1
;   singleExtrusionMinPrintingWidthPercentage,50
;   singleExtrusionMaxPrintingWidthPercentage,200
;   singleExtrusionEndpointExtension,0.2
;   horizontalSizeCompensation,0
G90
M82
M106 S0
M140 S55
M190 S55
;
; -]H.P.B[- MarshMalloW  
; $VER: StartScript 1.02 (26.12.2019) MarshMalloW
;
; Begin Startcode
;
M117 *Preheat*     	; Preheat
;extruder0_temperature
M104 S215  
M109 S215 
M109 R215 
;
M117 *Auto-leveling*     	; Auto-leveling
M107                   	; Turn layer fan off
G21                    	; Set to metric [change to G20 if you want Imperial]
G90                    	; Force coordinates to be absolute relative to the origin
G28                    	; Home X/Y/Z axis
G29                    	; Auto-leveling (BL-Touch)
;
M117 *Start Clean*     	; Indicate nozzle clean in progress on LCD
G92 E0                 	; Set Extruder to 0 
G1 X0 Y0 F2000         	; Move X and Y to 0 with speed 2000 (mm/min)
G1 Z0.1 F1000          	; Move Z to   0.1 with speed 1000 (mm/min)
G1 X8.0 F2000          	; Move X to   8.0 with speed 2000 (mm/min)
G1 Y60.0 E4.0 F1000.0  	; Move Y to  60 and Extruder with 4.0 with speed 1000 (mm/min)
G1 Y100.0 E8.5 F1000.0 	; Move Y to 100 and Extruder with 8.5 with speed 1000 (mm/min)
G92 E0                 	; Set extruder to 0
G1 X16.0 F3000         	; Move X to 16.0 with speed 3000 (mm/min)
G1 Y60.0 F3000         	; Move Y to 60.0 with speed 3000 (mm/min)
M117 *End Clean*       	; Indicate nozzle clean in progress on LCD
G1 Z5 F3000            	; Move Z to  5.0 with speed 3000 (mm/min)
G1 X20.0 F3000         	; Move X to 20.0 with speed 3000 (mm/min)
G1 Y20.0 F3000         	; Move Y to 20.0 with speed 3000 (mm/min)
; 
M117 *Printing...*     	; Start printing msg on LCD
;
; End Startcode
;
; Begin printing with sliced GCode after here
;
; process Process1
M117 INDICATOR-Layer1
; Z=0.180
T0
G92 E0.0000
G1 E-4.0000 F3000
; feature skirt
; tool H0.180 W0.350
G1 Z0.300 F1002
G1 X150.266 Y92.126 F6000
G1 Z0.180 F1002
G1 E0.0000 F3000
G92 E0.0000
G1 X152.117 Y92.334 E0.0463 F900
G1 X152.432 Y92.406 E0.0544
G1 X154.196 Y93.023 E0.1009
G1 X154.487 Y93.163 E0.1089
G1 X156.068 Y94.157 E0.1554
G1 X156.321 Y94.358 E0.1634
G1 X157.642 Y95.679 E0.2099
G1 X157.843 Y95.932 E0.2179
G1 X158.837 Y97.513 E0.2644
G1 X158.977 Y97.804 E0.2725
G1 X159.594 Y99.567 E0.3189
G1 X159.666 Y99.882 E0.3270
G1 X159.866 Y101.658 E0.3714
G1 X159.875 Y101.819 E0.3755
G1 X159.875 Y106.191 E0.4842
G1 X158.191 Y107.875 E0.5435
G1 X157.875 Y107.875 E0.5514
G1 X157.875 Y112.125 E0.6571
G1 X158.191 Y112.125 E0.6650
G1 X159.875 Y113.809 E0.7242
G1 X159.875 Y186.191 E2.5253
G1 X158.191 Y187.875 E2.5846
G1 X157.875 Y187.875 E2.5924
G1 X157.875 Y192.125 E2.6982
G1 X158.191 Y192.125 E2.7060
G1 X159.875 Y193.809 E2.7653
G1 X159.875 Y198.181 E2.8741
G1 X159.866 Y198.342 E2.8781
G1 X159.666 Y200.118 E2.9225
G1 X159.594 Y200.433 E2.9306
G1 X158.977 Y202.196 E2.9771
G1 X158.837 Y202.487 E2.9851
G1 X157.843 Y204.068 E3.0316
G1 X157.642 Y204.321 E3.0396
G1 X156.321 Y205.642 E3.0861
G1 X156.068 Y205.843 E3.0941
G1 X154.487 Y206.837 E3.1406
G1 X154.196 Y206.977 E3.1486
G1 X152.424 Y207.597 E3.1954
G1 X152.090 Y207.671 E3.2039
G1 X150.034 Y207.876 E3.2553
G1 X149.729 Y207.874 E3.2629
G1 X147.882 Y207.666 E3.3091
G1 X147.567 Y207.594 E3.3171
G1 X145.804 Y206.977 E3.3636
G1 X145.513 Y206.837 E3.3717
G1 X143.932 Y205.843 E3.4181
G1 X143.679 Y205.642 E3.4262
G1 X142.358 Y204.321 E3.4727
G1 X142.157 Y204.068 E3.4807
G1 X141.163 Y202.487 E3.5272
G1 X141.023 Y202.196 E3.5352
G1 X140.406 Y200.433 E3.5817
G1 X140.334 Y200.118 E3.5897
G1 X140.134 Y198.342 E3.6342
G1 X140.125 Y198.181 E3.6382
G1 X140.125 Y193.809 E3.7470
G1 X141.809 Y192.125 E3.8063
G1 X142.125 Y192.125 E3.8141
G1 X142.125 Y187.875 E3.9199
G1 X141.809 Y187.875 E3.9277
G1 X140.125 Y186.191 E3.9870
G1 X140.125 Y113.809 E5.7880
G1 X141.809 Y112.125 E5.8473
G1 X142.125 Y112.125 E5.8552
G1 X142.125 Y107.875 E5.9609
G1 X141.809 Y107.875 E5.9688
G1 X140.125 Y106.191 E6.0280
G1 X140.125 Y101.819 E6.1368
G1 X140.134 Y101.658 E6.1408
G1 X140.334 Y99.882 E6.1853
G1 X140.406 Y99.567 E6.1933
G1 X141.023 Y97.804 E6.2398
G1 X141.163 Y97.513 E6.2479
G1 X142.157 Y95.932 E6.2943
G1 X142.358 Y95.679 E6.3024
G1 X143.679 Y94.358 E6.3489
G1 X143.932 Y94.157 E6.3569
G1 X145.513 Y93.163 E6.4034
G1 X145.804 Y93.023 E6.4114
G1 X147.576 Y92.403 E6.4581
G1 X147.909 Y92.329 E6.4666
G1 X149.962 Y92.124 E6.5179
G1 X150.266 Y92.126 E6.5255
G92 E0.0000
G1 E-4.0000 F3000
G1 Z0.480 F1002
G1 X150.088 Y95.175 F6000
G1 X150.102 Y95.177
G1 X145.175 Y186.309
G1 X145.175 Y195.175
G1 X144.696 Y195.175
G1 X144.337 Y201.806
G1 X144.643 Y202.292
G1 X145.708 Y203.357
G1 X144.134 Y205.557
G1 Z0.180 F1002
G1 E0.0000 F3000
G92 E0.0000
G1 X143.913 Y205.380 E0.0071 F900
G1 X142.620 Y204.087 E0.0526
G1 X142.443 Y203.865 E0.0596
G1 X141.470 Y202.317 E0.1051
G1 X141.347 Y202.062 E0.1122
G1 X140.743 Y200.335 E0.1577
G1 X140.680 Y200.059 E0.1647
G1 X140.483 Y198.312 E0.2085
G1 X140.475 Y198.171 E0.2120
G1 X140.475 Y193.954 E0.3169
G1 X141.954 Y192.475 E0.3690
G1 X142.475 Y192.475 E0.3819
G1 X142.475 Y187.525 E0.5051
G1 X141.954 Y187.525 E0.5181
G1 X140.475 Y186.046 E0.5701
G1 X140.475 Y113.954 E2.3640
G1 X141.954 Y112.475 E2.4160
G1 X142.475 Y112.475 E2.4290
G1 X142.475 Y107.525 E2.5521
G1 X141.954 Y107.525 E2.5651
G1 X140.475 Y106.046 E2.6171
G1 X140.475 Y101.829 E2.7221
G1 X140.483 Y101.688 E2.7256
G1 X140.680 Y99.941 E2.7693
G1 X140.743 Y99.664 E2.7764
G1 X141.347 Y97.938 E2.8219
G1 X141.470 Y97.683 E2.8289
G1 X142.443 Y96.134 E2.8745
G1 X142.620 Y95.913 E2.8815
G1 X143.913 Y94.620 E2.9270
G1 X144.134 Y94.443 E2.9341
G1 X145.683 Y93.470 E2.9796
G1 X145.938 Y93.347 E2.9866
G1 X147.672 Y92.740 E3.0323
G1 X147.965 Y92.675 E3.0398
G1 X149.978 Y92.474 E3.0901
G1 X150.246 Y92.476 E3.0968
G1 X152.059 Y92.680 E3.1422
G1 X152.335 Y92.743 E3.1493
G1 X154.062 Y93.347 E3.1948
G1 X154.317 Y93.470 E3.2018
G1 X155.866 Y94.443 E3.2473
G1 X156.087 Y94.620 E3.2544
G1 X157.380 Y95.913 E3.2999
G1 X157.557 Y96.134 E3.3069
G1 X158.530 Y97.683 E3.3524
G1 X158.653 Y97.938 E3.3595
G1 X159.257 Y99.664 E3.4050
G1 X159.320 Y99.941 E3.4121
G1 X159.517 Y101.688 E3.4558
G1 X159.525 Y101.829 E3.4593
G1 X159.525 Y106.046 E3.5642
G1 X158.046 Y107.525 E3.6163
G1 X157.525 Y107.525 E3.6293
G1 X157.525 Y112.475 E3.7524
G1 X158.046 Y112.475 E3.7654
G1 X159.525 Y113.954 E3.8174
G1 X159.525 Y186.046 E5.6113
G1 X158.046 Y187.525 E5.6633
G1 X157.525 Y187.525 E5.6763
G1 X157.525 Y192.475 E5.7995
G1 X158.046 Y192.475 E5.8124
G1 X159.525 Y193.954 E5.8645
G1 X159.525 Y198.171 E5.9694
G1 X159.517 Y198.312 E5.9729
G1 X159.320 Y200.059 E6.0167
G1 X159.257 Y200.335 E6.0237
G1 X158.653 Y202.062 E6.0692
G1 X158.530 Y202.317 E6.0763
G1 X157.557 Y203.865 E6.1218
G1 X157.380 Y204.087 E6.1288
G1 X156.087 Y205.380 E6.1743
G1 X155.866 Y205.557 E6.1814
G1 X154.317 Y206.530 E6.2269
G1 X154.062 Y206.653 E6.2340
G1 X152.328 Y207.260 E6.2797
G1 X152.035 Y207.325 E6.2871
G1 X150.017 Y207.526 E6.3376
G1 X149.750 Y207.524 E6.3442
G1 X147.941 Y207.320 E6.3895
G1 X147.664 Y207.257 E6.3966
G1 X145.938 Y206.653 E6.4421
G1 X145.683 Y206.530 E6.4491
G1 X144.134 Y205.557 E6.4946
G92 E0.0000
G1 E-4.0000 F3000
G1 Z0.480 F1002
G1 X145.708 Y203.357 F6000
G1 X144.643 Y202.292
G1 X144.601 Y202.225
G1 X156.781 Y115.175
G1 X154.825 Y115.175
G1 X154.825 Y104.825
G1 X156.825 Y104.825
G1 X157.901 Y107.175
G1 Z0.180 F1002
G1 E0.0000 F3000
G92 E0.0000
G1 X157.175 Y107.175 E0.0181 F900
G1 X157.175 Y112.825 E0.1587
G1 X157.901 Y112.825 E0.1767
G1 X159.175 Y114.099 E0.2215
G1 X159.175 Y185.901 E2.0082
G1 X157.901 Y187.175 E2.0530
G1 X157.175 Y187.175 E2.0711
G1 X157.175 Y192.825 E2.2117
G1 X157.901 Y192.825 E2.2297
G1 X159.175 Y194.099 E2.2746
G1 X159.175 Y198.161 E2.3756
G1 X159.168 Y198.283 E2.3787
G1 X158.975 Y200.000 E2.4217
G1 X158.920 Y200.238 E2.4277
G1 X158.329 Y201.927 E2.4723
G1 X158.223 Y202.148 E2.4784
G1 X157.271 Y203.663 E2.5229
G1 X157.119 Y203.854 E2.5290
G1 X155.854 Y205.119 E2.5735
G1 X155.663 Y205.271 E2.5796
G1 X154.148 Y206.223 E2.6241
G1 X153.927 Y206.329 E2.6302
G1 X152.232 Y206.923 E2.6749
G1 X151.980 Y206.978 E2.6813
G1 X150.001 Y207.176 E2.7308
G1 X149.771 Y207.174 E2.7365
