; G-Code generated by Simplify3D(R) Version 4.1.2
; Jul 15, 2020 at 8:28:57 PM
; Settings Summary
;   processName,Process1
;   applyToModels,SupportPourCouvercleDeCasseroles_End
;   profileName,A04-04-15 Tevo Tornado
;   profileVersion,2020-07-01 20:14:39
;   baseProfile,Creality CR-10(2)
;   printMaterial,PLA
;   printQuality,Medium
;   printExtruders,
;   extruderName,Primary Extruder
;   extruderToolheadNumber,0
;   extruderDiameter,0.4
;   extruderAutoWidth,0
;   extruderWidth,0.35
;   extrusionMultiplier,0.95
;   extruderUseRetract,1
;   extruderRetractionDistance,4
;   extruderExtraRestartDistance,0
;   extruderRetractionZLift,0.3
;   extruderRetractionSpeed,3000
;   extruderUseCoasting,1
;   extruderCoastingDistance,0.8
;   extruderUseWipe,0
;   extruderWipeDistance,4
;   primaryExtruder,0
;   layerHeight,0.15
;   topSolidLayers,4
;   bottomSolidLayers,3
;   perimeterOutlines,3
;   printPerimetersInsideOut,0
;   startPointOption,1
;   startPointOriginX,0
;   startPointOriginY,300
;   sequentialIslands,0
;   spiralVaseMode,0
;   firstLayerHeightPercentage,120
;   firstLayerWidthPercentage,100
;   firstLayerUnderspeed,0.5
;   useRaft,0
;   raftExtruder,0
;   raftTopLayers,3
;   raftBaseLayers,2
;   raftOffset,3
;   raftSeparationDistance,0.14
;   raftTopInfill,100
;   aboveRaftSpeedMultiplier,0.3
;   useSkirt,1
;   skirtExtruder,0
;   skirtLayers,1
;   skirtOutlines,3
;   skirtOffset,2
;   usePrimePillar,0
;   primePillarExtruder,999
;   primePillarWidth,12
;   primePillarLocation,7
;   primePillarSpeedMultiplier,1
;   useOozeShield,0
;   oozeShieldExtruder,999
;   oozeShieldOffset,2
;   oozeShieldOutlines,1
;   oozeShieldSidewallShape,1
;   oozeShieldSidewallAngle,30
;   oozeShieldSpeedMultiplier,1
;   infillExtruder,0
;   internalInfillPattern,Rectilinear
;   externalInfillPattern,Rectilinear
;   infillPercentage,15
;   outlineOverlapPercentage,15
;   infillExtrusionWidthPercentage,100
;   minInfillLength,5
;   infillLayerInterval,1
;   internalInfillAngles,45,-45
;   overlapInternalInfillAngles,0
;   externalInfillAngles,45,-45
;   generateSupport,0
;   supportExtruder,0
;   supportInfillPercentage,30
;   supportExtraInflation,0
;   supportBaseLayers,0
;   denseSupportExtruder,0
;   denseSupportLayers,0
;   denseSupportInfillPercentage,70
;   supportLayerInterval,1
;   supportHorizontalPartOffset,0.4
;   supportUpperSeparationLayers,1
;   supportLowerSeparationLayers,1
;   supportType,0
;   supportGridSpacing,4.5
;   maxOverhangAngle,45
;   supportAngles,0
;   temperatureName,Primary Extruder,Heated Bed
;   temperatureNumber,0,0
;   temperatureSetpointCount,1,1
;   temperatureSetpointLayers,1,1
;   temperatureSetpointTemperatures,215,55
;   temperatureStabilizeAtStartup,1,1
;   temperatureHeatedBed,0,1
;   fanLayers,1,2
;   fanSpeeds,0,100
;   blipFanToFullPower,0
;   adjustSpeedForCooling,1
;   minSpeedLayerTime,15
;   minCoolingSpeedSlowdown,50
;   increaseFanForCooling,1
;   minFanLayerTime,25
;   maxCoolingFanSpeed,100
;   increaseFanForBridging,1
;   bridgingFanSpeed,100
;   use5D,1
;   relativeEdistances,0
;   allowEaxisZeroing,1
;   independentExtruderAxes,0
;   includeM10123,0
;   stickySupport,1
;   applyToolheadOffsets,0
;   gcodeXoffset,0
;   gcodeYoffset,0
;   gcodeZoffset,0
;   overrideMachineDefinition,1
;   machineTypeOverride,0
;   strokeXoverride,300
;   strokeYoverride,300
;   strokeZoverride,400
;   originOffsetXoverride,0
;   originOffsetYoverride,0
;   originOffsetZoverride,0
;   homeXdirOverride,-1
;   homeYdirOverride,-1
;   homeZdirOverride,-1
;   flipXoverride,1
;   flipYoverride,-1
;   flipZoverride,1
;   toolheadOffsets,0,0|0,0|0,0|0,0|0,0|0,0
;   overrideFirmwareConfiguration,1
;   firmwareTypeOverride,RepRap (Marlin/Repetier/Sprinter)
;   GPXconfigOverride,r2
;   baudRateOverride,250000
;   overridePrinterModels,1
;   printerModelsOverride
;   startingGcode,;,; -]H.P.B[- MarshMalloW  ,; $VER: StartScript 1.02 (26.12.2019) MarshMalloW,;,; Begin Startcode,;,M117 *Preheat*     	; Preheat,;extruder0_temperature,M104 S[extruder0_temperature]  ,M109 S[extruder0_temperature] ,M109 R[extruder0_temperature] ,;,M117 *Auto-leveling*     	; Auto-leveling,M107                   	; Turn layer fan off,G21                    	; Set to metric [change to G20 if you want Imperial],G90                    	; Force coordinates to be absolute relative to the origin,G28                    	; Home X/Y/Z axis,G29                    	; Auto-leveling (BL-Touch),;,M117 *Start Clean*     	; Indicate nozzle clean in progress on LCD,G92 E0                 	; Set Extruder to 0 ,G1 X0 Y0 F2000         	; Move X and Y to 0 with speed 2000 (mm/min),G1 Z0.1 F1000          	; Move Z to   0.1 with speed 1000 (mm/min),G1 X8.0 F2000          	; Move X to   8.0 with speed 2000 (mm/min),G1 Y60.0 E4.0 F1000.0  	; Move Y to  60 and Extruder with 4.0 with speed 1000 (mm/min),G1 Y100.0 E8.5 F1000.0 	; Move Y to 100 and Extruder with 8.5 with speed 1000 (mm/min),G92 E0                 	; Set extruder to 0,G1 X16.0 F3000         	; Move X to 16.0 with speed 3000 (mm/min),G1 Y60.0 F3000         	; Move Y to 60.0 with speed 3000 (mm/min),M117 *End Clean*       	; Indicate nozzle clean in progress on LCD,G1 Z5 F3000            	; Move Z to  5.0 with speed 3000 (mm/min),G1 X20.0 F3000         	; Move X to 20.0 with speed 3000 (mm/min),G1 Y20.0 F3000         	; Move Y to 20.0 with speed 3000 (mm/min),; ,M117 *Printing...*     	; Start printing msg on LCD,;,; End Startcode,;,; Begin printing with sliced GCode after here,;
;   layerChangeGcode,
;   retractionGcode,
;   toolChangeGcode,
;   endingGcode,;,; init 181010,;,;M107 			; Fan off,;G1 E-1 F300 			; Retract the filament a bit before lifting the nozzle,;M104 S0 			; Turn off extruder,;M140 S0 			; Turn off bed,;G91			; Relative positioning,;G28 X0 Y0 			; Move X/Y to min endstops so the head is out of teh way,;M84 			; Disable motors,;G90 			; Absolute positioning,;M117 Print ready...,,;,; // From Cura 181010,; // End_gcode,G92 E0			; Zero the extruded length,;G1 E-30 F300		; Retract E -30,M106 S0			; Turn off cooling fan,M104 S0			; Turn off temperature,M140 S0		     	; Turn off bed,G91			; Relative positioning,G1 E-1 F300			; Retract the filament a bit before lifting the nozzle to release some of the pressure,G1 Z+20 E-5 X-20 Y-20 F7200	; Move Z up a bit and retract filament even more,G1 X0 Y150 F10000		; Move right min,M107			; Turn off layer fan,M84			; Disable motors,G90			; Absolute positioning,M117 *The-End* 		; End msg,;,
;   exportFileFormat,gcode
;   celebration,0
;   celebrationSong,Star Wars
;   postProcessing,|{REPLACE "; layer " "M117 INDICATOR-Layer"}|{REPLACE ", Z = " "\n; Z="}
;   defaultSpeed,1800
;   outlineUnderspeed,0.5
;   solidInfillUnderspeed,0.8
;   supportUnderspeed,0.8
;   rapidXYspeed,6000
;   rapidZspeed,1002
;   minBridgingArea,50
;   bridgingExtraInflation,0.2
;   bridgingExtrusionMultiplier,1
;   bridgingSpeedMultiplier,0.6
;   useFixedBridgingAngle,0
;   fixedBridgingAngle,0
;   applyBridgingToPerimeters,0
;   filamentDiameters,1.75|1.75|1.75|1.75|1.75|1.75
;   filamentPricesPerKg,30|46|46|46|46|46
;   filamentDensities,1.25|1.25|1.25|1.25|1.25|1.25
;   useMinPrintHeight,0
;   minPrintHeight,0
;   useMaxPrintHeight,0
;   maxPrintHeight,50
;   useDiaphragm,0
;   diaphragmLayerInterval,20
;   robustSlicing,1
;   mergeAllIntoSolid,0
;   onlyRetractWhenCrossingOutline,1
;   retractBetweenLayers,0
;   useRetractionMinTravel,0
;   retractionMinTravel,3
;   retractWhileWiping,0
;   onlyWipeOutlines,1
;   avoidCrossingOutline,1
;   maxMovementDetourFactor,3
;   toolChangeRetractionDistance,12
;   toolChangeExtraRestartDistance,-0.5
;   toolChangeRetractionSpeed,600
;   externalThinWallType,1
;   internalThinWallType,1
;   thinWallAllowedOverlapPercentage,10
;   singleExtrusionMinLength,1
;   singleExtrusionMinPrintingWidthPercentage,50
;   singleExtrusionMaxPrintingWidthPercentage,200
;   singleExtrusionEndpointExtension,0.2
;   horizontalSizeCompensation,0
G90
M82
M106 S0
M140 S55
M190 S55
;
; -]H.P.B[- MarshMalloW  
; $VER: StartScript 1.02 (26.12.2019) MarshMalloW
;
; Begin Startcode
;
M117 *Preheat*     	; Preheat
;extruder0_temperature
M104 S215  
M109 S215 
M109 R215 
;
M117 *Auto-leveling*     	; Auto-leveling
M107                   	; Turn layer fan off
G21                    	; Set to metric [change to G20 if you want Imperial]
G90                    	; Force coordinates to be absolute relative to the origin
G28                    	; Home X/Y/Z axis
G29                    	; Auto-leveling (BL-Touch)
;
M117 *Start Clean*     	; Indicate nozzle clean in progress on LCD
G92 E0                 	; Set Extruder to 0 
G1 X0 Y0 F2000         	; Move X and Y to 0 with speed 2000 (mm/min)
G1 Z0.1 F1000          	; Move Z to   0.1 with speed 1000 (mm/min)
G1 X8.0 F2000          	; Move X to   8.0 with speed 2000 (mm/min)
G1 Y60.0 E4.0 F1000.0  	; Move Y to  60 and Extruder with 4.0 with speed 1000 (mm/min)
G1 Y100.0 E8.5 F1000.0 	; Move Y to 100 and Extruder with 8.5 with speed 1000 (mm/min)
G92 E0                 	; Set extruder to 0
G1 X16.0 F3000         	; Move X to 16.0 with speed 3000 (mm/min)
G1 Y60.0 F3000         	; Move Y to 60.0 with speed 3000 (mm/min)
M117 *End Clean*       	; Indicate nozzle clean in progress on LCD
G1 Z5 F3000            	; Move Z to  5.0 with speed 3000 (mm/min)
G1 X20.0 F3000         	; Move X to 20.0 with speed 3000 (mm/min)
G1 Y20.0 F3000         	; Move Y to 20.0 with speed 3000 (mm/min)
; 
M117 *Printing...*     	; Start printing msg on LCD
;
; End Startcode
;
; Begin printing with sliced GCode after here
;
; process Process1
M117 INDICATOR-Layer1
; Z=0.180
T0
G92 E0.0000
G1 E-4.0000 F3000
; feature skirt
; tool H0.180 W0.350
G1 Z0.300 F1002
G1 X232.222 Y32.306 F6000
G1 Z0.180 F1002
G1 E0.0000 F3000
G92 E0.0000
G1 X241.978 Y73.946 E1.0642 F900
G1 X240.723 Y75.970 E1.1235
G1 X237.494 Y76.727 E1.2060
G1 X238.464 Y80.865 E1.3117
G1 X241.692 Y80.108 E1.3942
G1 X243.716 Y81.364 E1.4535
G1 X253.304 Y122.284 E2.4993
G1 X252.750 Y123.866 E2.5410
G1 X237.477 Y135.878 E3.0245
G1 X237.415 Y135.925 E3.0264
G1 X234.730 Y137.811 E3.1081
G1 X234.598 Y137.894 E3.1119
G1 X231.690 Y139.498 E3.1946
G1 X231.550 Y139.566 E3.1984
G1 X228.487 Y140.847 E3.2810
G1 X228.341 Y140.900 E3.2849
G1 X225.157 Y141.843 E3.3675
G1 X225.006 Y141.879 E3.3714
G1 X221.739 Y142.474 E3.4540
G1 X221.585 Y142.493 E3.4579
G1 X218.293 Y142.730 E3.5400
G1 X218.180 Y142.734 E3.5428
G1 X211.670 Y142.690 E3.7048
G1 X211.599 Y142.687 E3.7066
G1 X205.120 Y142.323 E3.8681
G1 X205.050 Y142.317 E3.8698
G1 X198.597 Y141.633 E4.0313
G1 X198.526 Y141.624 E4.0330
G1 X192.115 Y140.623 E4.1945
G1 X192.045 Y140.610 E4.1963
G1 X185.691 Y139.293 E4.3578
G1 X185.622 Y139.277 E4.3595
G1 X179.340 Y137.649 E4.5210
G1 X179.272 Y137.629 E4.5228
G1 X173.045 Y135.682 E4.6851
G1 X172.911 Y135.633 E4.6886
G1 X170.912 Y134.783 E4.7427
G1 X170.664 Y134.647 E4.7497
G1 X168.811 Y133.384 E4.8055
G1 X168.594 Y133.203 E4.8126
G1 X167.023 Y131.602 E4.8684
G1 X166.846 Y131.382 E4.8754
G1 X165.617 Y129.506 E4.9312
G1 X165.486 Y129.256 E4.9382
G1 X164.647 Y127.176 E4.9940
G1 X164.567 Y126.905 E5.0011
G1 X164.150 Y124.701 E5.0569
G1 X164.125 Y124.420 E5.0639
G1 X164.146 Y122.177 E5.1197
G1 X164.176 Y121.896 E5.1267
G1 X164.634 Y119.701 E5.1826
G1 X164.718 Y119.431 E5.1896
G1 X165.596 Y117.367 E5.2454
G1 X165.731 Y117.119 E5.2524
G1 X166.994 Y115.266 E5.3082
G1 X167.175 Y115.049 E5.3153
G1 X168.776 Y113.478 E5.3711
G1 X168.996 Y113.301 E5.3781
G1 X170.872 Y112.072 E5.4339
G1 X171.122 Y111.941 E5.4409
G1 X173.202 Y111.102 E5.4967
G1 X173.473 Y111.022 E5.5038
G1 X175.677 Y110.605 E5.5596
G1 X175.958 Y110.580 E5.5666
G1 X178.201 Y110.601 E5.6224
G1 X178.482 Y110.631 E5.6294
G1 X180.660 Y111.085 E5.6848
G1 X180.895 Y111.156 E5.6909
G1 X185.577 Y113.006 E5.8162
G1 X190.165 Y114.410 E5.9356
G1 X194.849 Y115.447 E6.0549
G1 X199.601 Y116.109 E6.1743
G1 X204.391 Y116.393 E6.2937
G1 X209.080 Y116.299 E6.4104
G1 X209.970 Y116.144 E6.4329
G1 X210.702 Y115.833 E6.4527
G1 X211.345 Y115.366 E6.4725
G1 X211.867 Y114.766 E6.4922
G1 X212.240 Y114.063 E6.5120
G1 X212.444 Y113.295 E6.5318
G1 X212.471 Y112.500 E6.5516
G1 X212.318 Y111.720 E6.5714
G1 X211.944 Y110.888 E6.5941
G1 X209.061 Y106.375 E6.7273
G1 X205.815 Y101.970 E6.8635
G1 X202.283 Y97.791 E6.9996
G1 X198.480 Y93.857 E7.1358
G1 X194.424 Y90.185 E7.2719
G1 X190.132 Y86.791 E7.4081
G1 X185.623 Y83.690 E7.5443
G1 X180.919 Y80.896 E7.6804
G1 X176.038 Y78.422 E7.8166
G1 X171.004 Y76.279 E7.9527
G1 X165.838 Y74.475 E8.0889
G1 X160.564 Y73.019 E8.2250
G1 X155.204 Y71.918 E8.3612
G1 X149.783 Y71.176 E8.4973
G1 X144.324 Y70.797 E8.6335
G1 X138.853 Y70.782 E8.7696
G1 X133.392 Y71.132 E8.9058
G1 X127.967 Y71.844 E9.0419
G1 X122.601 Y72.916 E9.1781
G1 X117.319 Y74.343 E9.3142
G1 X112.144 Y76.119 E9.4504
G1 X106.987 Y78.281 E9.5895
G1 X106.943 Y78.299 E9.5907
G1 X104.957 Y79.056 E9.6435
G1 X104.685 Y79.130 E9.6506
G1 X102.473 Y79.504 E9.7064
G1 X102.192 Y79.524 E9.7134
G1 X99.950 Y79.460 E9.7692
G1 X99.669 Y79.424 E9.7762
G1 X97.483 Y78.924 E9.8321
G1 X97.215 Y78.834 E9.8391
G1 X95.169 Y77.917 E9.8949
G1 X94.923 Y77.777 E9.9019
G1 X93.095 Y76.478 E9.9577
G1 X92.882 Y76.293 E9.9648
G1 X91.342 Y74.662 E10.0206
G1 X91.169 Y74.439 E10.0276
G1 X89.977 Y72.539 E10.0834
G1 X89.851 Y72.286 E10.0904
G1 X89.052 Y70.190 E10.1462
G1 X88.978 Y69.918 E10.1533
G1 X88.603 Y67.706 E10.2091
G1 X88.584 Y67.425 E10.2161
G1 X88.648 Y65.183 E10.2719
G1 X88.684 Y64.903 E10.2789
G1 X89.184 Y62.716 E10.3347
G1 X89.274 Y62.448 E10.3418
G1 X90.191 Y60.402 E10.3976
G1 X90.331 Y60.156 E10.4046
G1 X91.619 Y58.343 E10.4600
G1 X91.802 Y58.132 E10.4669
G1 X93.443 Y56.577 E10.5232
G1 X93.668 Y56.403 E10.5302
G1 X95.571 Y55.209 E10.5861
G1 X95.827 Y55.081 E10.5933
G1 X102.659 Y52.500 E10.7750
G1 X102.735 Y52.474 E10.7770
G1 X109.601 Y50.307 E10.9561
G1 X109.678 Y50.285 E10.9581
G1 X116.654 Y48.503 E11.1373
G1 X116.732 Y48.485 E11.1393
G1 X123.796 Y47.093 E11.3184
G1 X123.875 Y47.080 E11.3204
G1 X131.005 Y46.083 E11.4996
G1 X131.085 Y46.074 E11.5016
G1 X138.260 Y45.474 E11.6807
G1 X138.340 Y45.469 E11.6827
G1 X145.537 Y45.269 E11.8619
G1 X145.617 Y45.269 E11.8638
G1 X152.814 Y45.468 E12.0430
G1 X152.894 Y45.473 E12.0450
G1 X160.069 Y46.072 E12.2241
G1 X160.148 Y46.080 E12.2261
G1 X167.279 Y47.077 E12.4053
G1 X167.358 Y47.090 E12.4073
G1 X174.422 Y48.481 E12.5864
G1 X174.500 Y48.498 E12.5884
G1 X181.476 Y50.279 E12.7676
G1 X181.553 Y50.301 E12.7696
G1 X188.420 Y52.467 E12.9487
G1 X188.495 Y52.493 E12.9507
G1 X195.089 Y54.983 E13.1261
G1 X196.191 Y55.304 E13.1546
G1 X197.143 Y55.373 E13.1784
G1 X198.089 Y55.241 E13.2022
G1 X198.986 Y54.914 E13.2259
G1 X199.924 Y54.324 E13.2535
G1 X215.369 Y42.177 E13.7424
G1 X218.346 Y43.220 E13.8209
G1 X219.775 Y49.319 E13.9768
G1 X219.445 Y50.660 E14.0112
G1 X218.372 Y51.903 E14.0520
G1 X218.059 Y52.472 E14.0682
G1 X217.871 Y53.095 E14.0844
G1 X217.816 Y53.742 E14.1005
G1 X217.897 Y54.387 E14.1167
G1 X218.111 Y55.001 E14.1329
G1 X218.448 Y55.557 E14.1491
G1 X218.892 Y56.031 E14.1652
G1 X219.426 Y56.402 E14.1814
G1 X220.025 Y56.654 E14.1976
G1 X220.664 Y56.776 E14.2138
G1 X221.313 Y56.763 E14.2299
G1 X221.946 Y56.614 E14.2461
G1 X222.535 Y56.338 E14.2623
G1 X223.052 Y55.945 E14.2785
G1 X223.477 Y55.453 E14.2946
G1 X223.791 Y54.883 E14.3108
G1 X223.979 Y54.261 E14.3270
G1 X224.033 Y53.613 E14.3431
G1 X223.952 Y52.969 E14.3593
G1 X223.738 Y52.355 E14.3755
G1 X223.402 Y51.799 E14.3917
G1 X222.957 Y51.325 E14.4078
G1 X222.423 Y50.954 E14.4240
G1 X220.909 Y50.317 E14.4649
G1 X220.018 Y49.262 E14.4992
G1 X218.120 Y41.159 E14.7063
G1 X218.674 Y39.577 E14.7480
G1 X229.245 Y31.263 E15.0827
G1 X232.222 Y32.306 E15.1612
G92 E0.0000
G1 E-4.0000 F3000
G1 Z0.480 F1002
G1 X229.675 Y34.805 F6000
G1 X221.306 Y41.387
G1 X222.810 Y47.808
G1 X223.901 Y48.267
G1 X224.961 Y49.004
G1 X225.845 Y49.945
G1 X226.513 Y51.050
G1 X226.938 Y52.269
G1 X227.099 Y53.550
G1 X226.991 Y54.837
G1 X226.617 Y56.073
G1 X225.995 Y57.204
G1 X225.151 Y58.181
G1 X224.123 Y58.961
