; G-Code generated by Simplify3D(R) Version 4.1.2
; Jul 11, 2020 at 8:44:02 PM
; Settings Summary
;   processName,Process1
;   applyToModels,SupportPourCouvercleDeCasseroles02
;   profileName,A04-04-15 Tevo Tornado
;   profileVersion,2020-07-01 20:14:39
;   baseProfile,Creality CR-10(2)
;   printMaterial,PLA
;   printQuality,Medium
;   printExtruders,
;   extruderName,Primary Extruder
;   extruderToolheadNumber,0
;   extruderDiameter,0.4
;   extruderAutoWidth,0
;   extruderWidth,0.35
;   extrusionMultiplier,0.95
;   extruderUseRetract,1
;   extruderRetractionDistance,4
;   extruderExtraRestartDistance,0
;   extruderRetractionZLift,0.3
;   extruderRetractionSpeed,3000
;   extruderUseCoasting,1
;   extruderCoastingDistance,0.8
;   extruderUseWipe,0
;   extruderWipeDistance,4
;   primaryExtruder,0
;   layerHeight,0.15
;   topSolidLayers,4
;   bottomSolidLayers,3
;   perimeterOutlines,3
;   printPerimetersInsideOut,0
;   startPointOption,1
;   startPointOriginX,0
;   startPointOriginY,300
;   sequentialIslands,0
;   spiralVaseMode,0
;   firstLayerHeightPercentage,120
;   firstLayerWidthPercentage,100
;   firstLayerUnderspeed,0.5
;   useRaft,0
;   raftExtruder,0
;   raftTopLayers,3
;   raftBaseLayers,2
;   raftOffset,3
;   raftSeparationDistance,0.14
;   raftTopInfill,100
;   aboveRaftSpeedMultiplier,0.3
;   useSkirt,1
;   skirtExtruder,0
;   skirtLayers,1
;   skirtOutlines,3
;   skirtOffset,2
;   usePrimePillar,0
;   primePillarExtruder,999
;   primePillarWidth,12
;   primePillarLocation,7
;   primePillarSpeedMultiplier,1
;   useOozeShield,0
;   oozeShieldExtruder,999
;   oozeShieldOffset,2
;   oozeShieldOutlines,1
;   oozeShieldSidewallShape,1
;   oozeShieldSidewallAngle,30
;   oozeShieldSpeedMultiplier,1
;   infillExtruder,0
;   internalInfillPattern,Rectilinear
;   externalInfillPattern,Rectilinear
;   infillPercentage,15
;   outlineOverlapPercentage,15
;   infillExtrusionWidthPercentage,100
;   minInfillLength,5
;   infillLayerInterval,1
;   internalInfillAngles,45,-45
;   overlapInternalInfillAngles,0
;   externalInfillAngles,45,-45
;   generateSupport,0
;   supportExtruder,0
;   supportInfillPercentage,30
;   supportExtraInflation,0
;   supportBaseLayers,0
;   denseSupportExtruder,0
;   denseSupportLayers,0
;   denseSupportInfillPercentage,70
;   supportLayerInterval,1
;   supportHorizontalPartOffset,0.4
;   supportUpperSeparationLayers,1
;   supportLowerSeparationLayers,1
;   supportType,0
;   supportGridSpacing,4.5
;   maxOverhangAngle,45
;   supportAngles,0
;   temperatureName,Primary Extruder,Heated Bed
;   temperatureNumber,0,0
;   temperatureSetpointCount,1,1
;   temperatureSetpointLayers,1,1
;   temperatureSetpointTemperatures,215,55
;   temperatureStabilizeAtStartup,1,1
;   temperatureHeatedBed,0,1
;   fanLayers,1,2
;   fanSpeeds,0,100
;   blipFanToFullPower,0
;   adjustSpeedForCooling,1
;   minSpeedLayerTime,15
;   minCoolingSpeedSlowdown,50
;   increaseFanForCooling,1
;   minFanLayerTime,25
;   maxCoolingFanSpeed,100
;   increaseFanForBridging,1
;   bridgingFanSpeed,100
;   use5D,1
;   relativeEdistances,0
;   allowEaxisZeroing,1
;   independentExtruderAxes,0
;   includeM10123,0
;   stickySupport,1
;   applyToolheadOffsets,0
;   gcodeXoffset,0
;   gcodeYoffset,0
;   gcodeZoffset,0
;   overrideMachineDefinition,1
;   machineTypeOverride,0
;   strokeXoverride,300
;   strokeYoverride,300
;   strokeZoverride,400
;   originOffsetXoverride,0
;   originOffsetYoverride,0
;   originOffsetZoverride,0
;   homeXdirOverride,-1
;   homeYdirOverride,-1
;   homeZdirOverride,-1
;   flipXoverride,1
;   flipYoverride,-1
;   flipZoverride,1
;   toolheadOffsets,0,0|0,0|0,0|0,0|0,0|0,0
;   overrideFirmwareConfiguration,1
;   firmwareTypeOverride,RepRap (Marlin/Repetier/Sprinter)
;   GPXconfigOverride,r2
;   baudRateOverride,250000
;   overridePrinterModels,1
;   printerModelsOverride
;   startingGcode,;,; -]H.P.B[- MarshMalloW  ,; $VER: StartScript 1.02 (26.12.2019) MarshMalloW,;,; Begin Startcode,;,M117 *Preheat*     	; Preheat,;extruder0_temperature,M104 S[extruder0_temperature]  ,M109 S[extruder0_temperature] ,M109 R[extruder0_temperature] ,;,M117 *Auto-leveling*     	; Auto-leveling,M107                   	; Turn layer fan off,G21                    	; Set to metric [change to G20 if you want Imperial],G90                    	; Force coordinates to be absolute relative to the origin,G28                    	; Home X/Y/Z axis,G29                    	; Auto-leveling (BL-Touch),;,M117 *Start Clean*     	; Indicate nozzle clean in progress on LCD,G92 E0                 	; Set Extruder to 0 ,G1 X0 Y0 F2000         	; Move X and Y to 0 with speed 2000 (mm/min),G1 Z0.1 F1000          	; Move Z to   0.1 with speed 1000 (mm/min),G1 X8.0 F2000          	; Move X to   8.0 with speed 2000 (mm/min),G1 Y60.0 E4.0 F1000.0  	; Move Y to  60 and Extruder with 4.0 with speed 1000 (mm/min),G1 Y100.0 E8.5 F1000.0 	; Move Y to 100 and Extruder with 8.5 with speed 1000 (mm/min),G92 E0                 	; Set extruder to 0,G1 X16.0 F3000         	; Move X to 16.0 with speed 3000 (mm/min),G1 Y60.0 F3000         	; Move Y to 60.0 with speed 3000 (mm/min),M117 *End Clean*       	; Indicate nozzle clean in progress on LCD,G1 Z5 F3000            	; Move Z to  5.0 with speed 3000 (mm/min),G1 X20.0 F3000         	; Move X to 20.0 with speed 3000 (mm/min),G1 Y20.0 F3000         	; Move Y to 20.0 with speed 3000 (mm/min),; ,M117 *Printing...*     	; Start printing msg on LCD,;,; End Startcode,;,; Begin printing with sliced GCode after here,;
;   layerChangeGcode,
;   retractionGcode,
;   toolChangeGcode,
;   endingGcode,;,; init 181010,;,;M107 			; Fan off,;G1 E-1 F300 			; Retract the filament a bit before lifting the nozzle,;M104 S0 			; Turn off extruder,;M140 S0 			; Turn off bed,;G91			; Relative positioning,;G28 X0 Y0 			; Move X/Y to min endstops so the head is out of teh way,;M84 			; Disable motors,;G90 			; Absolute positioning,;M117 Print ready...,,;,; // From Cura 181010,; // End_gcode,G92 E0			; Zero the extruded length,;G1 E-30 F300		; Retract E -30,M106 S0			; Turn off cooling fan,M104 S0			; Turn off temperature,M140 S0		     	; Turn off bed,G91			; Relative positioning,G1 E-1 F300			; Retract the filament a bit before lifting the nozzle to release some of the pressure,G1 Z+20 E-5 X-20 Y-20 F7200	; Move Z up a bit and retract filament even more,G1 X0 Y150 F10000		; Move right min,M107			; Turn off layer fan,M84			; Disable motors,G90			; Absolute positioning,M117 *The-End* 		; End msg,;,
;   exportFileFormat,gcode
;   celebration,0
;   celebrationSong,Star Wars
;   postProcessing,|{REPLACE "; layer " "M117 INDICATOR-Layer"}|{REPLACE ", Z = " "\n; Z="}
;   defaultSpeed,1800
;   outlineUnderspeed,0.5
;   solidInfillUnderspeed,0.8
;   supportUnderspeed,0.8
;   rapidXYspeed,6000
;   rapidZspeed,1002
;   minBridgingArea,50
;   bridgingExtraInflation,0.2
;   bridgingExtrusionMultiplier,1
;   bridgingSpeedMultiplier,0.6
;   useFixedBridgingAngle,0
;   fixedBridgingAngle,0
;   applyBridgingToPerimeters,0
;   filamentDiameters,1.75|1.75|1.75|1.75|1.75|1.75
;   filamentPricesPerKg,30|46|46|46|46|46
;   filamentDensities,1.25|1.25|1.25|1.25|1.25|1.25
;   useMinPrintHeight,0
;   minPrintHeight,0
;   useMaxPrintHeight,0
;   maxPrintHeight,50
;   useDiaphragm,0
;   diaphragmLayerInterval,20
;   robustSlicing,1
;   mergeAllIntoSolid,0
;   onlyRetractWhenCrossingOutline,1
;   retractBetweenLayers,0
;   useRetractionMinTravel,0
;   retractionMinTravel,3
;   retractWhileWiping,0
;   onlyWipeOutlines,1
;   avoidCrossingOutline,1
;   maxMovementDetourFactor,3
;   toolChangeRetractionDistance,12
;   toolChangeExtraRestartDistance,-0.5
;   toolChangeRetractionSpeed,600
;   externalThinWallType,1
;   internalThinWallType,1
;   thinWallAllowedOverlapPercentage,10
;   singleExtrusionMinLength,1
;   singleExtrusionMinPrintingWidthPercentage,50
;   singleExtrusionMaxPrintingWidthPercentage,200
;   singleExtrusionEndpointExtension,0.2
;   horizontalSizeCompensation,0
G90
M82
M106 S0
M140 S55
M190 S55
;
; -]H.P.B[- MarshMalloW  
; $VER: StartScript 1.02 (26.12.2019) MarshMalloW
;
; Begin Startcode
;
M117 *Preheat*     	; Preheat
;extruder0_temperature
M104 S215  
M109 S215 
M109 R215 
;
M117 *Auto-leveling*     	; Auto-leveling
M107                   	; Turn layer fan off
G21                    	; Set to metric [change to G20 if you want Imperial]
G90                    	; Force coordinates to be absolute relative to the origin
G28                    	; Home X/Y/Z axis
G29                    	; Auto-leveling (BL-Touch)
;
M117 *Start Clean*     	; Indicate nozzle clean in progress on LCD
G92 E0                 	; Set Extruder to 0 
G1 X0 Y0 F2000         	; Move X and Y to 0 with speed 2000 (mm/min)
G1 Z0.1 F1000          	; Move Z to   0.1 with speed 1000 (mm/min)
G1 X8.0 F2000          	; Move X to   8.0 with speed 2000 (mm/min)
G1 Y60.0 E4.0 F1000.0  	; Move Y to  60 and Extruder with 4.0 with speed 1000 (mm/min)
G1 Y100.0 E8.5 F1000.0 	; Move Y to 100 and Extruder with 8.5 with speed 1000 (mm/min)
G92 E0                 	; Set extruder to 0
G1 X16.0 F3000         	; Move X to 16.0 with speed 3000 (mm/min)
G1 Y60.0 F3000         	; Move Y to 60.0 with speed 3000 (mm/min)
M117 *End Clean*       	; Indicate nozzle clean in progress on LCD
G1 Z5 F3000            	; Move Z to  5.0 with speed 3000 (mm/min)
G1 X20.0 F3000         	; Move X to 20.0 with speed 3000 (mm/min)
G1 Y20.0 F3000         	; Move Y to 20.0 with speed 3000 (mm/min)
; 
M117 *Printing...*     	; Start printing msg on LCD
;
; End Startcode
;
; Begin printing with sliced GCode after here
;
; process Process1
M117 INDICATOR-Layer1
; Z=0.180
T0
G92 E0.0000
G1 E-4.0000 F3000
; feature skirt
; tool H0.180 W0.350
G1 Z0.300 F1002
G1 X196.606 Y76.878 F6000
G1 Z0.180 F1002
G1 E0.0000 F3000
G92 E0.0000
G1 X204.818 Y94.488 E0.4835 F900
G1 X204.849 Y94.560 E0.4854
G1 X206.073 Y97.605 E0.5671
G1 X206.123 Y97.752 E0.5709
G1 X207.023 Y100.948 E0.6536
G1 X207.056 Y101.100 E0.6574
G1 X207.605 Y104.375 E0.7401
G1 X207.623 Y104.530 E0.7439
G1 X207.815 Y107.845 E0.8266
G1 X207.816 Y108.000 E0.8304
G1 X207.649 Y111.317 E0.9131
G1 X207.633 Y111.471 E0.9169
G1 X207.113 Y114.730 E0.9990
G1 X207.091 Y114.841 E1.0018
G1 X205.563 Y121.169 E1.1638
G1 X205.544 Y121.237 E1.1656
G1 X203.712 Y127.462 E1.3271
G1 X203.690 Y127.530 E1.3288
G1 X201.552 Y133.657 E1.4903
G1 X201.527 Y133.723 E1.4921
G1 X199.089 Y139.737 E1.6535
G1 X199.061 Y139.802 E1.6553
G1 X196.329 Y145.689 E1.8168
G1 X196.298 Y145.752 E1.8185
G1 X193.279 Y151.496 E1.9800
G1 X193.245 Y151.558 E1.9818
G1 X189.928 Y157.177 E2.1441
G1 X189.850 Y157.296 E2.1477
G1 X188.566 Y159.049 E2.2017
G1 X188.378 Y159.259 E2.2088
G1 X186.725 Y160.776 E2.2646
G1 X186.499 Y160.945 E2.2716
G1 X184.583 Y162.110 E2.3274
G1 X184.328 Y162.232 E2.3344
G1 X182.221 Y163.001 E2.3902
G1 X181.947 Y163.071 E2.3973
G1 X179.731 Y163.413 E2.4531
G1 X179.449 Y163.429 E2.4601
G1 X177.208 Y163.333 E2.5159
G1 X176.928 Y163.293 E2.5229
G1 X174.750 Y162.761 E2.5787
G1 X174.483 Y162.668 E2.5858
G1 X172.450 Y161.721 E2.6416
G1 X172.207 Y161.577 E2.6486
G1 X170.397 Y160.252 E2.7044
G1 X170.187 Y160.064 E2.7114
G1 X168.670 Y158.411 E2.7673
G1 X168.501 Y158.185 E2.7743
G1 X167.336 Y156.269 E2.8301
G1 X167.214 Y156.014 E2.8371
G1 X166.445 Y153.907 E2.8929
G1 X166.375 Y153.633 E2.9000
G1 X166.032 Y151.417 E2.9558
G1 X166.017 Y151.135 E2.9628
G1 X166.113 Y148.894 E3.0186
G1 X166.153 Y148.614 E3.0256
G1 X166.685 Y146.435 E3.0814
G1 X166.778 Y146.169 E3.0885
G1 X167.717 Y144.152 E3.1438
G1 X167.839 Y143.939 E3.1499
G1 X170.709 Y139.803 E3.2752
G1 X173.123 Y135.656 E3.3946
G1 X175.201 Y131.331 E3.5140
G1 X176.930 Y126.856 E3.6333
G1 X178.299 Y122.258 E3.7527
G1 X179.277 Y117.670 E3.8695
G1 X179.329 Y116.769 E3.8919
G1 X179.194 Y115.985 E3.9117
G1 X178.885 Y115.252 E3.9315
G1 X178.420 Y114.607 E3.9513
G1 X177.821 Y114.084 E3.9711
G1 X177.120 Y113.709 E3.9909
G1 X176.352 Y113.502 E4.0106
G1 X175.557 Y113.474 E4.0304
G1 X174.662 Y113.647 E4.0531
G1 X169.610 Y115.425 E4.1864
G1 X164.581 Y117.581 E4.3225
G1 X159.706 Y120.067 E4.4587
G1 X155.009 Y122.871 E4.5948
G1 X150.508 Y125.983 E4.7310
G1 X146.224 Y129.388 E4.8671
G1 X142.177 Y133.070 E5.0033
G1 X138.383 Y137.013 E5.1394
G1 X134.861 Y141.200 E5.2756
G1 X131.626 Y145.613 E5.4117
G1 X128.691 Y150.231 E5.5479
G1 X126.071 Y155.034 E5.6840
G1 X123.776 Y160.002 E5.8202
G1 X121.817 Y165.111 E5.9563
G1 X120.203 Y170.339 E6.0925
G1 X118.940 Y175.663 E6.2286
G1 X118.035 Y181.059 E6.3648
G1 X117.491 Y186.504 E6.5009
G1 X117.310 Y191.972 E6.6371
G1 X117.495 Y197.441 E6.7732
G1 X118.043 Y202.885 E6.9094
G1 X118.972 Y208.399 E7.0485
G1 X118.979 Y208.445 E7.0497
G1 X119.263 Y210.552 E7.1026
G1 X119.273 Y210.834 E7.1096
G1 X119.133 Y213.072 E7.1654
G1 X119.088 Y213.351 E7.1724
G1 X118.514 Y215.520 E7.2283
G1 X118.416 Y215.784 E7.2353
G1 X117.430 Y217.799 E7.2911
G1 X117.281 Y218.039 E7.2981
G1 X115.921 Y219.823 E7.3539
G1 X115.729 Y220.029 E7.3610
G1 X114.047 Y221.513 E7.4168
G1 X113.818 Y221.679 E7.4238
G1 X111.879 Y222.806 E7.4796
G1 X111.622 Y222.923 E7.4866
G1 X109.501 Y223.651 E7.5424
G1 X109.226 Y223.716 E7.5495
G1 X107.003 Y224.015 E7.6053
G1 X106.721 Y224.025 E7.6123
G1 X104.482 Y223.885 E7.6681
G1 X104.203 Y223.840 E7.6751
G1 X102.035 Y223.266 E7.7309
G1 X101.771 Y223.168 E7.7380
G1 X99.756 Y222.182 E7.7938
G1 X99.516 Y222.033 E7.8008
G1 X97.732 Y220.673 E7.8566
G1 X97.525 Y220.481 E7.8636
G1 X96.042 Y218.799 E7.9195
G1 X95.876 Y218.570 E7.9265
G1 X94.749 Y216.631 E7.9823
G1 X94.632 Y216.374 E7.9893
G1 X93.904 Y214.251 E8.0452
G1 X93.838 Y213.972 E8.0523
G1 X92.883 Y206.731 E8.2340
G1 X92.875 Y206.652 E8.2360
G1 X92.332 Y199.472 E8.4152
G1 X92.328 Y199.392 E8.4172
G1 X92.184 Y192.194 E8.5963
G1 X92.185 Y192.114 E8.5983
G1 X92.441 Y184.918 E8.7775
G1 X92.446 Y184.839 E8.7795
G1 X93.102 Y177.669 E8.9586
G1 X93.111 Y177.589 E8.9606
G1 X94.164 Y170.467 E9.1398
G1 X94.178 Y170.388 E9.1417
G1 X95.624 Y163.335 E9.3209
G1 X95.642 Y163.257 E9.3229
G1 X97.478 Y156.295 E9.5020
G1 X97.501 Y156.218 E9.5040
G1 X99.721 Y149.369 E9.6832
G1 X99.748 Y149.294 E9.6852
G1 X102.344 Y142.578 E9.8643
G1 X102.375 Y142.505 E9.8663
G1 X105.341 Y135.944 E10.0455
G1 X105.376 Y135.872 E10.0475
G1 X108.701 Y129.486 E10.2266
G1 X108.740 Y129.416 E10.2286
G1 X112.415 Y123.225 E10.4078
G1 X112.458 Y123.157 E10.4098
G1 X116.387 Y117.305 E10.5851
G1 X116.950 Y116.306 E10.6137
G1 X117.235 Y115.394 E10.6375
G1 X117.322 Y114.443 E10.6612
G1 X117.208 Y113.495 E10.6850
G1 X116.848 Y112.447 E10.7125
G1 X101.083 Y78.638 E11.6408
G1 X102.778 Y75.978 E11.7193
G1 X195.193 Y75.978 E14.0188
G1 X196.606 Y76.878 E14.0605
G92 E0.0000
G1 E-4.0000 F3000
G1 Z0.480 F1002
G1 X194.244 Y79.028 F6000
G1 X194.558 Y79.703
G1 X171.481 Y111.533
G1 X168.502 Y112.581
G1 X163.286 Y114.817
G1 X158.230 Y117.396
G1 X153.358 Y120.305
G1 X148.690 Y123.532
G1 X144.247 Y127.063
G1 X140.049 Y130.882
G1 X136.115 Y134.972
G1 X132.462 Y139.315
G1 X129.106 Y143.891
G1 X126.063 Y148.681
G1 X123.345 Y153.663
G1 X120.965 Y158.815
G1 X118.933 Y164.114
G1 X117.258 Y169.536
G1 X115.949 Y175.058
G1 X115.010 Y180.655
G1 X114.446 Y186.302
G1 X117.141 Y186.480
G1 Z0.180 F1002
G1 E0.0000 F3000
G92 E0.0000
G1 X116.960 Y191.972 E0.1367 F900
G1 X117.145 Y197.464 E0.2735
G1 X117.696 Y202.932 E0.4102
G1 X118.627 Y208.454 E0.5495
G1 X118.633 Y208.495 E0.5506
G1 X118.914 Y210.581 E0.6030
G1 X118.923 Y210.829 E0.6091
G1 X118.785 Y213.034 E0.6641
G1 X118.745 Y213.278 E0.6703
G1 X118.180 Y215.413 E0.7252
G1 X118.094 Y215.646 E0.7314
G1 X117.123 Y217.629 E0.7863
G1 X116.993 Y217.841 E0.7925
G1 X115.654 Y219.597 E0.8475
G1 X115.485 Y219.778 E0.8536
G1 X113.829 Y221.239 E0.9086
G1 X113.627 Y221.385 E0.9148
G1 X111.718 Y222.495 E0.9697
G1 X111.493 Y222.598 E0.9759
G1 X109.403 Y223.314 E1.0308
G1 X109.162 Y223.371 E1.0370
G1 X106.973 Y223.666 E1.0920
G1 X106.725 Y223.675 E1.0981
G1 X104.521 Y223.537 E1.1531
G1 X104.276 Y223.497 E1.1593
G1 X102.142 Y222.932 E1.2142
G1 X101.909 Y222.846 E1.2204
G1 X99.925 Y221.875 E1.2753
G1 X99.714 Y221.745 E1.2815
