; G-Code generated by Simplify3D(R) Version 4.1.2
; Jul 12, 2020 at 9:34:44 PM
; Settings Summary
;   processName,Process1
;   applyToModels,SupportPourCouvercleDeCasseroles_Begin
;   profileName,A04-04-15 Tevo Tornado
;   profileVersion,2020-07-01 20:14:39
;   baseProfile,Creality CR-10(2)
;   printMaterial,PLA
;   printQuality,Medium
;   printExtruders,
;   extruderName,Primary Extruder
;   extruderToolheadNumber,0
;   extruderDiameter,0.4
;   extruderAutoWidth,0
;   extruderWidth,0.35
;   extrusionMultiplier,0.95
;   extruderUseRetract,1
;   extruderRetractionDistance,4
;   extruderExtraRestartDistance,0
;   extruderRetractionZLift,0.3
;   extruderRetractionSpeed,3000
;   extruderUseCoasting,1
;   extruderCoastingDistance,0.8
;   extruderUseWipe,0
;   extruderWipeDistance,4
;   primaryExtruder,0
;   layerHeight,0.15
;   topSolidLayers,4
;   bottomSolidLayers,3
;   perimeterOutlines,3
;   printPerimetersInsideOut,0
;   startPointOption,1
;   startPointOriginX,0
;   startPointOriginY,300
;   sequentialIslands,0
;   spiralVaseMode,0
;   firstLayerHeightPercentage,120
;   firstLayerWidthPercentage,100
;   firstLayerUnderspeed,0.5
;   useRaft,0
;   raftExtruder,0
;   raftTopLayers,3
;   raftBaseLayers,2
;   raftOffset,3
;   raftSeparationDistance,0.14
;   raftTopInfill,100
;   aboveRaftSpeedMultiplier,0.3
;   useSkirt,1
;   skirtExtruder,0
;   skirtLayers,1
;   skirtOutlines,3
;   skirtOffset,2
;   usePrimePillar,0
;   primePillarExtruder,999
;   primePillarWidth,12
;   primePillarLocation,7
;   primePillarSpeedMultiplier,1
;   useOozeShield,0
;   oozeShieldExtruder,999
;   oozeShieldOffset,2
;   oozeShieldOutlines,1
;   oozeShieldSidewallShape,1
;   oozeShieldSidewallAngle,30
;   oozeShieldSpeedMultiplier,1
;   infillExtruder,0
;   internalInfillPattern,Rectilinear
;   externalInfillPattern,Rectilinear
;   infillPercentage,15
;   outlineOverlapPercentage,15
;   infillExtrusionWidthPercentage,100
;   minInfillLength,5
;   infillLayerInterval,1
;   internalInfillAngles,45,-45
;   overlapInternalInfillAngles,0
;   externalInfillAngles,45,-45
;   generateSupport,0
;   supportExtruder,0
;   supportInfillPercentage,30
;   supportExtraInflation,0
;   supportBaseLayers,0
;   denseSupportExtruder,0
;   denseSupportLayers,0
;   denseSupportInfillPercentage,70
;   supportLayerInterval,1
;   supportHorizontalPartOffset,0.4
;   supportUpperSeparationLayers,1
;   supportLowerSeparationLayers,1
;   supportType,0
;   supportGridSpacing,4.5
;   maxOverhangAngle,45
;   supportAngles,0
;   temperatureName,Primary Extruder,Heated Bed
;   temperatureNumber,0,0
;   temperatureSetpointCount,1,1
;   temperatureSetpointLayers,1,1
;   temperatureSetpointTemperatures,215,55
;   temperatureStabilizeAtStartup,1,1
;   temperatureHeatedBed,0,1
;   fanLayers,1,2
;   fanSpeeds,0,100
;   blipFanToFullPower,0
;   adjustSpeedForCooling,1
;   minSpeedLayerTime,15
;   minCoolingSpeedSlowdown,50
;   increaseFanForCooling,1
;   minFanLayerTime,25
;   maxCoolingFanSpeed,100
;   increaseFanForBridging,1
;   bridgingFanSpeed,100
;   use5D,1
;   relativeEdistances,0
;   allowEaxisZeroing,1
;   independentExtruderAxes,0
;   includeM10123,0
;   stickySupport,1
;   applyToolheadOffsets,0
;   gcodeXoffset,0
;   gcodeYoffset,0
;   gcodeZoffset,0
;   overrideMachineDefinition,1
;   machineTypeOverride,0
;   strokeXoverride,300
;   strokeYoverride,300
;   strokeZoverride,400
;   originOffsetXoverride,0
;   originOffsetYoverride,0
;   originOffsetZoverride,0
;   homeXdirOverride,-1
;   homeYdirOverride,-1
;   homeZdirOverride,-1
;   flipXoverride,1
;   flipYoverride,-1
;   flipZoverride,1
;   toolheadOffsets,0,0|0,0|0,0|0,0|0,0|0,0
;   overrideFirmwareConfiguration,1
;   firmwareTypeOverride,RepRap (Marlin/Repetier/Sprinter)
;   GPXconfigOverride,r2
;   baudRateOverride,250000
;   overridePrinterModels,1
;   printerModelsOverride
;   startingGcode,;,; -]H.P.B[- MarshMalloW  ,; $VER: StartScript 1.02 (26.12.2019) MarshMalloW,;,; Begin Startcode,;,M117 *Preheat*     	; Preheat,;extruder0_temperature,M104 S[extruder0_temperature]  ,M109 S[extruder0_temperature] ,M109 R[extruder0_temperature] ,;,M117 *Auto-leveling*     	; Auto-leveling,M107                   	; Turn layer fan off,G21                    	; Set to metric [change to G20 if you want Imperial],G90                    	; Force coordinates to be absolute relative to the origin,G28                    	; Home X/Y/Z axis,G29                    	; Auto-leveling (BL-Touch),;,M117 *Start Clean*     	; Indicate nozzle clean in progress on LCD,G92 E0                 	; Set Extruder to 0 ,G1 X0 Y0 F2000         	; Move X and Y to 0 with speed 2000 (mm/min),G1 Z0.1 F1000          	; Move Z to   0.1 with speed 1000 (mm/min),G1 X8.0 F2000          	; Move X to   8.0 with speed 2000 (mm/min),G1 Y60.0 E4.0 F1000.0  	; Move Y to  60 and Extruder with 4.0 with speed 1000 (mm/min),G1 Y100.0 E8.5 F1000.0 	; Move Y to 100 and Extruder with 8.5 with speed 1000 (mm/min),G92 E0                 	; Set extruder to 0,G1 X16.0 F3000         	; Move X to 16.0 with speed 3000 (mm/min),G1 Y60.0 F3000         	; Move Y to 60.0 with speed 3000 (mm/min),M117 *End Clean*       	; Indicate nozzle clean in progress on LCD,G1 Z5 F3000            	; Move Z to  5.0 with speed 3000 (mm/min),G1 X20.0 F3000         	; Move X to 20.0 with speed 3000 (mm/min),G1 Y20.0 F3000         	; Move Y to 20.0 with speed 3000 (mm/min),; ,M117 *Printing...*     	; Start printing msg on LCD,;,; End Startcode,;,; Begin printing with sliced GCode after here,;
;   layerChangeGcode,
;   retractionGcode,
;   toolChangeGcode,
;   endingGcode,;,; init 181010,;,;M107 			; Fan off,;G1 E-1 F300 			; Retract the filament a bit before lifting the nozzle,;M104 S0 			; Turn off extruder,;M140 S0 			; Turn off bed,;G91			; Relative positioning,;G28 X0 Y0 			; Move X/Y to min endstops so the head is out of teh way,;M84 			; Disable motors,;G90 			; Absolute positioning,;M117 Print ready...,,;,; // From Cura 181010,; // End_gcode,G92 E0			; Zero the extruded length,;G1 E-30 F300		; Retract E -30,M106 S0			; Turn off cooling fan,M104 S0			; Turn off temperature,M140 S0		     	; Turn off bed,G91			; Relative positioning,G1 E-1 F300			; Retract the filament a bit before lifting the nozzle to release some of the pressure,G1 Z+20 E-5 X-20 Y-20 F7200	; Move Z up a bit and retract filament even more,G1 X0 Y150 F10000		; Move right min,M107			; Turn off layer fan,M84			; Disable motors,G90			; Absolute positioning,M117 *The-End* 		; End msg,;,
;   exportFileFormat,gcode
;   celebration,0
;   celebrationSong,Star Wars
;   postProcessing,|{REPLACE "; layer " "M117 INDICATOR-Layer"}|{REPLACE ", Z = " "\n; Z="}
;   defaultSpeed,1800
;   outlineUnderspeed,0.5
;   solidInfillUnderspeed,0.8
;   supportUnderspeed,0.8
;   rapidXYspeed,6000
;   rapidZspeed,1002
;   minBridgingArea,50
;   bridgingExtraInflation,0.2
;   bridgingExtrusionMultiplier,1
;   bridgingSpeedMultiplier,0.6
;   useFixedBridgingAngle,0
;   fixedBridgingAngle,0
;   applyBridgingToPerimeters,0
;   filamentDiameters,1.75|1.75|1.75|1.75|1.75|1.75
;   filamentPricesPerKg,30|46|46|46|46|46
;   filamentDensities,1.25|1.25|1.25|1.25|1.25|1.25
;   useMinPrintHeight,0
;   minPrintHeight,0
;   useMaxPrintHeight,0
;   maxPrintHeight,50
;   useDiaphragm,0
;   diaphragmLayerInterval,20
;   robustSlicing,1
;   mergeAllIntoSolid,0
;   onlyRetractWhenCrossingOutline,1
;   retractBetweenLayers,0
;   useRetractionMinTravel,0
;   retractionMinTravel,3
;   retractWhileWiping,0
;   onlyWipeOutlines,1
;   avoidCrossingOutline,1
;   maxMovementDetourFactor,3
;   toolChangeRetractionDistance,12
;   toolChangeExtraRestartDistance,-0.5
;   toolChangeRetractionSpeed,600
;   externalThinWallType,1
;   internalThinWallType,1
;   thinWallAllowedOverlapPercentage,10
;   singleExtrusionMinLength,1
;   singleExtrusionMinPrintingWidthPercentage,50
;   singleExtrusionMaxPrintingWidthPercentage,200
;   singleExtrusionEndpointExtension,0.2
;   horizontalSizeCompensation,0
G90
M82
M106 S0
M140 S55
M190 S55
;
; -]H.P.B[- MarshMalloW  
; $VER: StartScript 1.02 (26.12.2019) MarshMalloW
;
; Begin Startcode
;
M117 *Preheat*     	; Preheat
;extruder0_temperature
M104 S215  
M109 S215 
M109 R215 
;
M117 *Auto-leveling*     	; Auto-leveling
M107                   	; Turn layer fan off
G21                    	; Set to metric [change to G20 if you want Imperial]
G90                    	; Force coordinates to be absolute relative to the origin
G28                    	; Home X/Y/Z axis
G29                    	; Auto-leveling (BL-Touch)
;
M117 *Start Clean*     	; Indicate nozzle clean in progress on LCD
G92 E0                 	; Set Extruder to 0 
G1 X0 Y0 F2000         	; Move X and Y to 0 with speed 2000 (mm/min)
G1 Z0.1 F1000          	; Move Z to   0.1 with speed 1000 (mm/min)
G1 X8.0 F2000          	; Move X to   8.0 with speed 2000 (mm/min)
G1 Y60.0 E4.0 F1000.0  	; Move Y to  60 and Extruder with 4.0 with speed 1000 (mm/min)
G1 Y100.0 E8.5 F1000.0 	; Move Y to 100 and Extruder with 8.5 with speed 1000 (mm/min)
G92 E0                 	; Set extruder to 0
G1 X16.0 F3000         	; Move X to 16.0 with speed 3000 (mm/min)
G1 Y60.0 F3000         	; Move Y to 60.0 with speed 3000 (mm/min)
M117 *End Clean*       	; Indicate nozzle clean in progress on LCD
G1 Z5 F3000            	; Move Z to  5.0 with speed 3000 (mm/min)
G1 X20.0 F3000         	; Move X to 20.0 with speed 3000 (mm/min)
G1 Y20.0 F3000         	; Move Y to 20.0 with speed 3000 (mm/min)
; 
M117 *Printing...*     	; Start printing msg on LCD
;
; End Startcode
;
; Begin printing with sliced GCode after here
;
; process Process1
M117 INDICATOR-Layer1
; Z=0.180
T0
G92 E0.0000
G1 E-4.0000 F3000
; feature skirt
; tool H0.180 W0.350
G1 Z0.300 F1002
G1 X141.212 Y77.662 F6000
G1 Z0.180 F1002
G1 E0.0000 F3000
G92 E0.0000
G1 X141.212 Y80.978 E0.0825 F900
G1 X145.462 Y80.978 E0.1883
G1 X145.462 Y77.662 E0.2708
G1 X147.146 Y75.978 E0.3300
G1 X189.175 Y75.978 E1.3758
G1 X190.589 Y76.878 E1.4175
G1 X194.832 Y85.978 E1.6674
G1 X198.339 Y85.978 E1.7546
G1 X198.497 Y85.802 E1.7605
G1 X199.653 Y84.762 E1.7992
G1 X199.897 Y84.584 E1.8067
G1 X201.244 Y83.807 E1.8454
G1 X201.519 Y83.684 E1.8529
G1 X202.999 Y83.203 E1.8916
G1 X203.293 Y83.141 E1.8991
G1 X204.841 Y82.978 E1.9378
G1 X205.142 Y82.978 E1.9453
G1 X206.689 Y83.141 E1.9840
G1 X206.984 Y83.203 E1.9915
G1 X208.463 Y83.684 E2.0302
G1 X208.739 Y83.807 E2.0377
G1 X210.086 Y84.584 E2.0764
G1 X210.330 Y84.762 E2.0839
G1 X211.486 Y85.802 E2.1227
G1 X211.688 Y86.026 E2.1302
G1 X212.602 Y87.285 E2.1689
G1 X212.753 Y87.546 E2.1764
G1 X213.385 Y88.967 E2.2151
G1 X213.478 Y89.254 E2.2226
G1 X213.802 Y90.775 E2.2613
G1 X213.833 Y91.075 E2.2688
G1 X213.833 Y92.631 E2.3075
G1 X213.802 Y92.930 E2.3150
G1 X213.478 Y94.452 E2.3537
G1 X213.385 Y94.739 E2.3612
G1 X212.753 Y96.160 E2.3999
G1 X212.602 Y96.421 E2.4074
G1 X211.688 Y97.680 E2.4461
G1 X211.486 Y97.903 E2.4536
G1 X210.330 Y98.944 E2.4923
G1 X210.086 Y99.122 E2.4998
G1 X208.739 Y99.899 E2.5385
G1 X208.463 Y100.022 E2.5460
G1 X206.984 Y100.503 E2.5847
G1 X206.689 Y100.565 E2.5922
G1 X205.142 Y100.728 E2.6309
G1 X204.841 Y100.728 E2.6384
G1 X203.293 Y100.565 E2.6772
G1 X202.999 Y100.503 E2.6846
G1 X201.519 Y100.022 E2.7234
G1 X201.244 Y99.899 E2.7309
G1 X200.606 Y99.531 E2.7492
G1 X201.005 Y100.949 E2.7858
G1 X201.039 Y101.100 E2.7897
G1 X201.588 Y104.375 E2.8723
G1 X201.605 Y104.530 E2.8762
G1 X201.797 Y107.845 E2.9588
G1 X201.798 Y108.000 E2.9627
G1 X201.632 Y111.317 E3.0453
G1 X201.615 Y111.471 E3.0492
G1 X201.096 Y114.730 E3.1313
G1 X201.073 Y114.841 E3.1341
G1 X199.545 Y121.169 E3.2961
G1 X199.527 Y121.238 E3.2978
G1 X197.694 Y127.462 E3.4593
G1 X197.672 Y127.530 E3.4611
G1 X195.534 Y133.657 E3.6226
G1 X195.509 Y133.723 E3.6243
G1 X193.071 Y139.737 E3.7858
G1 X193.043 Y139.802 E3.7876
G1 X190.312 Y145.689 E3.9490
G1 X190.280 Y145.752 E3.9508
G1 X187.262 Y151.496 E4.1123
G1 X187.227 Y151.558 E4.1140
G1 X183.910 Y157.177 E4.2764
G1 X183.832 Y157.296 E4.2799
G1 X182.549 Y159.049 E4.3340
G1 X182.360 Y159.259 E4.3410
G1 X180.708 Y160.776 E4.3968
G1 X180.482 Y160.945 E4.4038
G1 X178.565 Y162.110 E4.4596
G1 X178.310 Y162.232 E4.4667
G1 X176.203 Y163.001 E4.5225
G1 X175.930 Y163.071 E4.5295
G1 X173.713 Y163.413 E4.5853
G1 X173.431 Y163.429 E4.5923
G1 X171.190 Y163.333 E4.6481
G1 X170.911 Y163.293 E4.6552
G1 X168.732 Y162.761 E4.7110
G1 X168.465 Y162.668 E4.7180
G1 X166.432 Y161.721 E4.7738
G1 X166.189 Y161.577 E4.7808
G1 X164.379 Y160.252 E4.8367
G1 X164.169 Y160.064 E4.8437
G1 X162.653 Y158.411 E4.8995
G1 X162.483 Y158.185 E4.9065
G1 X161.318 Y156.269 E4.9623
G1 X161.196 Y156.014 E4.9694
G1 X160.428 Y153.907 E5.0252
G1 X160.357 Y153.633 E5.0322
G1 X160.015 Y151.417 E5.0880
G1 X159.999 Y151.135 E5.0950
G1 X160.096 Y148.894 E5.1508
G1 X160.135 Y148.614 E5.1579
G1 X160.667 Y146.435 E5.2137
G1 X160.761 Y146.169 E5.2207
G1 X161.699 Y144.152 E5.2761
G1 X161.822 Y143.939 E5.2822
G1 X164.691 Y139.803 E5.4074
G1 X167.105 Y135.656 E5.5268
G1 X169.183 Y131.332 E5.6462
G1 X170.912 Y126.856 E5.7656
G1 X172.281 Y122.258 E5.8850
G1 X173.260 Y117.670 E6.0017
G1 X173.311 Y116.769 E6.0242
G1 X173.176 Y115.985 E6.0439
G1 X172.868 Y115.252 E6.0637
G1 X172.402 Y114.608 E6.0835
G1 X171.803 Y114.084 E6.1033
G1 X171.102 Y113.710 E6.1231
G1 X170.334 Y113.502 E6.1429
G1 X169.540 Y113.474 E6.1627
G1 X168.645 Y113.647 E6.1853
G1 X163.592 Y115.425 E6.3186
G1 X158.563 Y117.581 E6.4548
G1 X153.689 Y120.067 E6.5909
G1 X148.991 Y122.872 E6.7271
G1 X144.490 Y125.983 E6.8632
G1 X140.207 Y129.388 E6.9994
G1 X136.159 Y133.070 E7.1355
G1 X132.366 Y137.013 E7.2717
G1 X128.844 Y141.200 E7.4078
G1 X125.608 Y145.613 E7.5440
G1 X122.673 Y150.231 E7.6801
G1 X120.053 Y155.034 E7.8163
G1 X117.758 Y160.002 E7.9524
G1 X115.799 Y165.111 E8.0886
G1 X114.185 Y170.339 E8.2247
G1 X112.922 Y175.663 E8.3609
G1 X112.017 Y181.059 E8.4970
G1 X111.473 Y186.504 E8.6332
G1 X111.293 Y191.972 E8.7693
G1 X111.477 Y197.441 E8.9055
G1 X112.025 Y202.885 E9.0416
G1 X112.954 Y208.399 E9.1807
G1 X112.961 Y208.445 E9.1819
G1 X113.245 Y210.552 E9.2348
G1 X113.255 Y210.834 E9.2418
G1 X113.115 Y213.073 E9.2976
G1 X113.070 Y213.351 E9.3047
G1 X112.496 Y215.520 E9.3605
G1 X112.398 Y215.784 E9.3675
G1 X111.412 Y217.799 E9.4233
G1 X111.263 Y218.039 E9.4304
G1 X109.903 Y219.823 E9.4862
G1 X109.711 Y220.029 E9.4932
G1 X108.029 Y221.513 E9.5490
G1 X107.800 Y221.679 E9.5560
G1 X105.861 Y222.806 E9.6118
G1 X105.604 Y222.923 E9.6189
G1 X103.483 Y223.651 E9.6747
G1 X103.208 Y223.716 E9.6817
G1 X100.985 Y224.015 E9.7375
G1 X100.703 Y224.025 E9.7445
G1 X98.464 Y223.885 E9.8003
G1 X98.186 Y223.840 E9.8074
G1 X96.017 Y223.266 E9.8632
G1 X95.753 Y223.168 E9.8702
G1 X93.738 Y222.182 E9.9260
G1 X93.498 Y222.033 E9.9330
G1 X91.714 Y220.673 E9.9888
G1 X91.508 Y220.481 E9.9959
G1 X90.024 Y218.799 E10.0517
G1 X89.858 Y218.570 E10.0587
G1 X88.731 Y216.631 E10.1145
G1 X88.614 Y216.374 E10.1216
G1 X87.886 Y214.251 E10.1774
G1 X87.820 Y213.972 E10.1845
G1 X86.865 Y206.731 E10.3663
G1 X86.857 Y206.652 E10.3683
G1 X86.314 Y199.472 E10.5474
G1 X86.310 Y199.392 E10.5494
G1 X86.166 Y192.194 E10.7286
G1 X86.167 Y192.114 E10.7305
G1 X86.423 Y184.918 E10.9097
G1 X86.428 Y184.839 E10.9117
G1 X87.084 Y177.669 E11.0908
G1 X87.093 Y177.589 E11.0928
G1 X88.146 Y170.467 E11.2720
G1 X88.160 Y170.388 E11.2740
G1 X89.606 Y163.335 E11.4531
G1 X89.624 Y163.257 E11.4551
G1 X91.461 Y156.295 E11.6343
G1 X91.483 Y156.218 E11.6363
G1 X93.703 Y149.369 E11.8154
G1 X93.730 Y149.294 E11.8174
G1 X96.326 Y142.578 E11.9966
G1 X96.357 Y142.505 E11.9986
G1 X99.323 Y135.944 E12.1777
G1 X99.358 Y135.872 E12.1797
G1 X102.683 Y129.486 E12.3589
G1 X102.722 Y129.416 E12.3608
G1 X106.397 Y123.225 E12.5400
G1 X106.440 Y123.157 E12.5420
G1 X110.368 Y117.305 E12.7174
G1 X110.932 Y116.306 E12.7459
G1 X111.217 Y115.394 E12.7697
G1 X111.304 Y114.443 E12.7935
G1 X111.190 Y113.495 E12.8172
G1 X110.830 Y112.447 E12.8448
G1 X95.065 Y78.638 E13.7730
G1 X96.760 Y75.978 E13.8515
G1 X139.528 Y75.978 E14.9157
G1 X141.212 Y77.662 E14.9749
G92 E0.0000
G1 E-4.0000 F3000
