; G-Code generated by Simplify3D(R) Version 4.1.2
; Jul 11, 2020 at 2:52:57 AM
; Settings Summary
;   processName,Process1
;   applyToModels,SupportPourCouvercleDeCasseroles
;   profileName,A04-04-15 Tevo Tornado
;   profileVersion,2020-07-01 20:14:39
;   baseProfile,Creality CR-10(2)
;   printMaterial,PLA
;   printQuality,Medium
;   printExtruders,
;   extruderName,Primary Extruder
;   extruderToolheadNumber,0
;   extruderDiameter,0.4
;   extruderAutoWidth,0
;   extruderWidth,0.35
;   extrusionMultiplier,0.95
;   extruderUseRetract,1
;   extruderRetractionDistance,4
;   extruderExtraRestartDistance,0
;   extruderRetractionZLift,0.3
;   extruderRetractionSpeed,3000
;   extruderUseCoasting,1
;   extruderCoastingDistance,0.8
;   extruderUseWipe,0
;   extruderWipeDistance,4
;   primaryExtruder,0
;   layerHeight,0.15
;   topSolidLayers,4
;   bottomSolidLayers,3
;   perimeterOutlines,3
;   printPerimetersInsideOut,0
;   startPointOption,1
;   startPointOriginX,0
;   startPointOriginY,300
;   sequentialIslands,0
;   spiralVaseMode,0
;   firstLayerHeightPercentage,120
;   firstLayerWidthPercentage,100
;   firstLayerUnderspeed,0.5
;   useRaft,0
;   raftExtruder,0
;   raftTopLayers,3
;   raftBaseLayers,2
;   raftOffset,3
;   raftSeparationDistance,0.14
;   raftTopInfill,100
;   aboveRaftSpeedMultiplier,0.3
;   useSkirt,1
;   skirtExtruder,0
;   skirtLayers,1
;   skirtOutlines,3
;   skirtOffset,2
;   usePrimePillar,0
;   primePillarExtruder,999
;   primePillarWidth,12
;   primePillarLocation,7
;   primePillarSpeedMultiplier,1
;   useOozeShield,0
;   oozeShieldExtruder,999
;   oozeShieldOffset,2
;   oozeShieldOutlines,1
;   oozeShieldSidewallShape,1
;   oozeShieldSidewallAngle,30
;   oozeShieldSpeedMultiplier,1
;   infillExtruder,0
;   internalInfillPattern,Rectilinear
;   externalInfillPattern,Rectilinear
;   infillPercentage,15
;   outlineOverlapPercentage,15
;   infillExtrusionWidthPercentage,100
;   minInfillLength,5
;   infillLayerInterval,1
;   internalInfillAngles,45,-45
;   overlapInternalInfillAngles,0
;   externalInfillAngles,45,-45
;   generateSupport,0
;   supportExtruder,0
;   supportInfillPercentage,30
;   supportExtraInflation,0
;   supportBaseLayers,0
;   denseSupportExtruder,0
;   denseSupportLayers,0
;   denseSupportInfillPercentage,70
;   supportLayerInterval,1
;   supportHorizontalPartOffset,0.4
;   supportUpperSeparationLayers,1
;   supportLowerSeparationLayers,1
;   supportType,0
;   supportGridSpacing,4.5
;   maxOverhangAngle,45
;   supportAngles,0
;   temperatureName,Primary Extruder,Heated Bed
;   temperatureNumber,0,0
;   temperatureSetpointCount,1,1
;   temperatureSetpointLayers,1,1
;   temperatureSetpointTemperatures,215,55
;   temperatureStabilizeAtStartup,1,1
;   temperatureHeatedBed,0,1
;   fanLayers,1,2
;   fanSpeeds,0,100
;   blipFanToFullPower,0
;   adjustSpeedForCooling,1
;   minSpeedLayerTime,15
;   minCoolingSpeedSlowdown,50
;   increaseFanForCooling,1
;   minFanLayerTime,25
;   maxCoolingFanSpeed,100
;   increaseFanForBridging,1
;   bridgingFanSpeed,100
;   use5D,1
;   relativeEdistances,0
;   allowEaxisZeroing,1
;   independentExtruderAxes,0
;   includeM10123,0
;   stickySupport,1
;   applyToolheadOffsets,0
;   gcodeXoffset,0
;   gcodeYoffset,0
;   gcodeZoffset,0
;   overrideMachineDefinition,1
;   machineTypeOverride,0
;   strokeXoverride,300
;   strokeYoverride,300
;   strokeZoverride,400
;   originOffsetXoverride,0
;   originOffsetYoverride,0
;   originOffsetZoverride,0
;   homeXdirOverride,-1
;   homeYdirOverride,-1
;   homeZdirOverride,-1
;   flipXoverride,1
;   flipYoverride,-1
;   flipZoverride,1
;   toolheadOffsets,0,0|0,0|0,0|0,0|0,0|0,0
;   overrideFirmwareConfiguration,1
;   firmwareTypeOverride,RepRap (Marlin/Repetier/Sprinter)
;   GPXconfigOverride,r2
;   baudRateOverride,250000
;   overridePrinterModels,1
;   printerModelsOverride
;   startingGcode,;,; -]H.P.B[- MarshMalloW  ,; $VER: StartScript 1.02 (26.12.2019) MarshMalloW,;,; Begin Startcode,;,M117 *Preheat*     	; Preheat,;extruder0_temperature,M104 S[extruder0_temperature]  ,M109 S[extruder0_temperature] ,M109 R[extruder0_temperature] ,;,M117 *Auto-leveling*     	; Auto-leveling,M107                   	; Turn layer fan off,G21                    	; Set to metric [change to G20 if you want Imperial],G90                    	; Force coordinates to be absolute relative to the origin,G28                    	; Home X/Y/Z axis,G29                    	; Auto-leveling (BL-Touch),;,M117 *Start Clean*     	; Indicate nozzle clean in progress on LCD,G92 E0                 	; Set Extruder to 0 ,G1 X0 Y0 F2000         	; Move X and Y to 0 with speed 2000 (mm/min),G1 Z0.1 F1000          	; Move Z to   0.1 with speed 1000 (mm/min),G1 X8.0 F2000          	; Move X to   8.0 with speed 2000 (mm/min),G1 Y60.0 E4.0 F1000.0  	; Move Y to  60 and Extruder with 4.0 with speed 1000 (mm/min),G1 Y100.0 E8.5 F1000.0 	; Move Y to 100 and Extruder with 8.5 with speed 1000 (mm/min),G92 E0                 	; Set extruder to 0,G1 X16.0 F3000         	; Move X to 16.0 with speed 3000 (mm/min),G1 Y60.0 F3000         	; Move Y to 60.0 with speed 3000 (mm/min),M117 *End Clean*       	; Indicate nozzle clean in progress on LCD,G1 Z5 F3000            	; Move Z to  5.0 with speed 3000 (mm/min),G1 X20.0 F3000         	; Move X to 20.0 with speed 3000 (mm/min),G1 Y20.0 F3000         	; Move Y to 20.0 with speed 3000 (mm/min),; ,M117 *Printing...*     	; Start printing msg on LCD,;,; End Startcode,;,; Begin printing with sliced GCode after here,;
;   layerChangeGcode,
;   retractionGcode,
;   toolChangeGcode,
;   endingGcode,;,; init 181010,;,;M107 			; Fan off,;G1 E-1 F300 			; Retract the filament a bit before lifting the nozzle,;M104 S0 			; Turn off extruder,;M140 S0 			; Turn off bed,;G91			; Relative positioning,;G28 X0 Y0 			; Move X/Y to min endstops so the head is out of teh way,;M84 			; Disable motors,;G90 			; Absolute positioning,;M117 Print ready...,,;,; // From Cura 181010,; // End_gcode,G92 E0			; Zero the extruded length,;G1 E-30 F300		; Retract E -30,M106 S0			; Turn off cooling fan,M104 S0			; Turn off temperature,M140 S0		     	; Turn off bed,G91			; Relative positioning,G1 E-1 F300			; Retract the filament a bit before lifting the nozzle to release some of the pressure,G1 Z+20 E-5 X-20 Y-20 F7200	; Move Z up a bit and retract filament even more,G1 X0 Y150 F10000		; Move right min,M107			; Turn off layer fan,M84			; Disable motors,G90			; Absolute positioning,M117 *The-End* 		; End msg,;,
;   exportFileFormat,gcode
;   celebration,0
;   celebrationSong,Star Wars
;   postProcessing,|{REPLACE "; layer " "M117 INDICATOR-Layer"}|{REPLACE ", Z = " "\n; Z="}
;   defaultSpeed,1800
;   outlineUnderspeed,0.5
;   solidInfillUnderspeed,0.8
;   supportUnderspeed,0.8
;   rapidXYspeed,6000
;   rapidZspeed,1002
;   minBridgingArea,50
;   bridgingExtraInflation,0.2
;   bridgingExtrusionMultiplier,1
;   bridgingSpeedMultiplier,0.6
;   useFixedBridgingAngle,0
;   fixedBridgingAngle,0
;   applyBridgingToPerimeters,0
;   filamentDiameters,1.75|1.75|1.75|1.75|1.75|1.75
;   filamentPricesPerKg,30|46|46|46|46|46
;   filamentDensities,1.25|1.25|1.25|1.25|1.25|1.25
;   useMinPrintHeight,0
;   minPrintHeight,0
;   useMaxPrintHeight,0
;   maxPrintHeight,50
;   useDiaphragm,0
;   diaphragmLayerInterval,20
;   robustSlicing,1
;   mergeAllIntoSolid,0
;   onlyRetractWhenCrossingOutline,1
;   retractBetweenLayers,0
;   useRetractionMinTravel,0
;   retractionMinTravel,3
;   retractWhileWiping,0
;   onlyWipeOutlines,1
;   avoidCrossingOutline,1
;   maxMovementDetourFactor,3
;   toolChangeRetractionDistance,12
;   toolChangeExtraRestartDistance,-0.5
;   toolChangeRetractionSpeed,600
;   externalThinWallType,1
;   internalThinWallType,1
;   thinWallAllowedOverlapPercentage,10
;   singleExtrusionMinLength,1
;   singleExtrusionMinPrintingWidthPercentage,50
;   singleExtrusionMaxPrintingWidthPercentage,200
;   singleExtrusionEndpointExtension,0.2
;   horizontalSizeCompensation,0
G90
M82
M106 S0
M140 S55
M190 S55
;
; -]H.P.B[- MarshMalloW  
; $VER: StartScript 1.02 (26.12.2019) MarshMalloW
;
; Begin Startcode
;
M117 *Preheat*     	; Preheat
;extruder0_temperature
M104 S215  
M109 S215 
M109 R215 
;
M117 *Auto-leveling*     	; Auto-leveling
M107                   	; Turn layer fan off
G21                    	; Set to metric [change to G20 if you want Imperial]
G90                    	; Force coordinates to be absolute relative to the origin
G28                    	; Home X/Y/Z axis
G29                    	; Auto-leveling (BL-Touch)
;
M117 *Start Clean*     	; Indicate nozzle clean in progress on LCD
G92 E0                 	; Set Extruder to 0 
G1 X0 Y0 F2000         	; Move X and Y to 0 with speed 2000 (mm/min)
G1 Z0.1 F1000          	; Move Z to   0.1 with speed 1000 (mm/min)
G1 X8.0 F2000          	; Move X to   8.0 with speed 2000 (mm/min)
G1 Y60.0 E4.0 F1000.0  	; Move Y to  60 and Extruder with 4.0 with speed 1000 (mm/min)
G1 Y100.0 E8.5 F1000.0 	; Move Y to 100 and Extruder with 8.5 with speed 1000 (mm/min)
G92 E0                 	; Set extruder to 0
G1 X16.0 F3000         	; Move X to 16.0 with speed 3000 (mm/min)
G1 Y60.0 F3000         	; Move Y to 60.0 with speed 3000 (mm/min)
M117 *End Clean*       	; Indicate nozzle clean in progress on LCD
G1 Z5 F3000            	; Move Z to  5.0 with speed 3000 (mm/min)
G1 X20.0 F3000         	; Move X to 20.0 with speed 3000 (mm/min)
G1 Y20.0 F3000         	; Move Y to 20.0 with speed 3000 (mm/min)
; 
M117 *Printing...*     	; Start printing msg on LCD
;
; End Startcode
;
; Begin printing with sliced GCode after here
;
; process Process1
M117 INDICATOR-Layer1
; Z=0.180
T0
G92 E0.0000
G1 E-4.0000 F3000
; feature skirt
; tool H0.180 W0.350
G1 Z0.300 F1002
G1 X189.282 Y76.999 F6000
G1 Z0.180 F1002
G1 E0.0000 F3000
G92 E0.0000
G1 X202.366 Y105.057 E0.7704 F900
G1 X202.449 Y105.285 E0.7764
G1 X203.851 Y110.400 E0.9084
G1 X203.874 Y110.500 E0.9109
G1 X204.893 Y115.633 E1.0411
G1 X204.909 Y115.735 E1.0437
G1 X205.558 Y120.928 E1.1739
G1 X205.567 Y121.030 E1.1765
G1 X205.843 Y126.256 E1.3067
G1 X205.845 Y126.359 E1.3092
G1 X205.747 Y131.591 E1.4395
G1 X205.742 Y131.694 E1.4420
G1 X205.270 Y136.906 E1.5722
G1 X205.257 Y137.008 E1.5748
G1 X204.414 Y142.173 E1.7050
G1 X204.394 Y142.273 E1.7076
G1 X203.184 Y147.365 E1.8378
G1 X203.157 Y147.464 E1.8403
G1 X201.572 Y152.501 E1.9717
G1 X201.500 Y152.684 E1.9766
G1 X200.560 Y154.673 E2.0314
G1 X200.415 Y154.915 E2.0384
G1 X199.079 Y156.717 E2.0942
G1 X198.889 Y156.926 E2.1012
G1 X197.227 Y158.432 E2.1570
G1 X197.000 Y158.601 E2.1641
G1 X195.077 Y159.754 E2.2199
G1 X194.821 Y159.875 E2.2269
G1 X192.710 Y160.630 E2.2827
G1 X192.436 Y160.699 E2.2897
G1 X190.217 Y161.028 E2.3456
G1 X189.935 Y161.042 E2.3526
G1 X187.695 Y160.932 E2.4084
G1 X187.415 Y160.891 E2.4154
G1 X185.240 Y160.346 E2.4712
G1 X184.974 Y160.251 E2.4783
G1 X182.946 Y159.292 E2.5341
G1 X182.704 Y159.147 E2.5411
G1 X180.902 Y157.811 E2.5969
G1 X180.693 Y157.621 E2.6039
G1 X179.187 Y155.959 E2.6597
G1 X179.019 Y155.733 E2.6668
G1 X177.865 Y153.809 E2.7226
G1 X177.745 Y153.554 E2.7296
G1 X176.989 Y151.442 E2.7854
G1 X176.920 Y151.168 E2.7924
G1 X176.591 Y148.949 E2.8482
G1 X176.577 Y148.667 E2.8553
G1 X176.687 Y146.427 E2.9111
G1 X176.728 Y146.148 E2.9181
G1 X177.220 Y144.185 E2.9685
G1 X177.949 Y140.411 E3.0641
G1 X178.384 Y136.623 E3.1590
G1 X178.528 Y132.814 E3.2538
G1 X178.380 Y129.004 E3.3487
G1 X177.942 Y125.217 E3.4436
G1 X177.215 Y121.474 E3.5384
G1 X176.232 Y117.901 E3.6306
G1 X175.784 Y116.895 E3.6580
G1 X175.188 Y116.101 E3.6828
G1 X174.429 Y115.459 E3.7075
G1 X173.547 Y115.002 E3.7322
G1 X172.585 Y114.754 E3.7569
G1 X171.591 Y114.726 E3.7816
G1 X170.617 Y114.920 E3.8064
G1 X169.608 Y115.372 E3.8339
G1 X165.440 Y118.034 E3.9569
G1 X161.378 Y121.045 E4.0827
G1 X157.535 Y124.331 E4.2086
G1 X153.930 Y127.876 E4.3344
G1 X150.579 Y131.663 E4.4602
G1 X147.500 Y135.674 E4.5860
G1 X144.706 Y139.889 E4.7118
G1 X142.212 Y144.287 E4.8377
G1 X140.030 Y148.848 E4.9635
G1 X138.169 Y153.550 E5.0893
G1 X136.640 Y158.370 E5.2151
G1 X135.449 Y163.284 E5.3409
G1 X134.603 Y168.269 E5.4668
G1 X134.105 Y173.301 E5.5926
G1 X133.957 Y178.355 E5.7184
G1 X134.161 Y183.408 E5.8442
G1 X134.715 Y188.434 E5.9700
G1 X135.617 Y193.409 E6.0958
G1 X136.863 Y198.310 E6.2217
G1 X138.445 Y203.112 E6.3475
G1 X140.472 Y208.072 E6.4808
G1 X140.571 Y208.461 E6.4908
G1 X140.821 Y210.750 E6.5481
G1 X140.824 Y211.033 E6.5551
G1 X140.627 Y213.267 E6.6109
G1 X140.575 Y213.544 E6.6180
G1 X139.947 Y215.697 E6.6738
G1 X139.842 Y215.959 E6.6808
G1 X138.805 Y217.949 E6.7366
G1 X138.651 Y218.185 E6.7436
G1 X137.246 Y219.934 E6.7994
G1 X137.049 Y220.136 E6.8065
G1 X135.330 Y221.577 E6.8623
G1 X135.097 Y221.736 E6.8693
G1 X133.130 Y222.814 E6.9251
G1 X132.871 Y222.925 E6.9321
G1 X130.731 Y223.599 E6.9879
G1 X130.455 Y223.657 E6.9950
G1 X128.225 Y223.900 E7.0508
G1 X127.943 Y223.903 E7.0578
G1 X125.709 Y223.707 E7.1136
G1 X125.431 Y223.655 E7.1206
G1 X123.278 Y223.027 E7.1764
G1 X123.016 Y222.921 E7.1835
G1 X121.027 Y221.885 E7.2393
G1 X120.790 Y221.731 E7.2463
G1 X119.042 Y220.326 E7.3021
G1 X118.840 Y220.129 E7.3092
G1 X117.399 Y218.410 E7.3650
G1 X117.239 Y218.177 E7.3720
G1 X116.161 Y216.210 E7.4278
G1 X116.050 Y215.950 E7.4348
G1 X115.448 Y214.038 E7.4847
G1 X113.112 Y208.063 E7.6443
G1 X113.084 Y207.986 E7.6464
G1 X111.049 Y201.757 E7.8094
G1 X111.026 Y201.678 E7.8115
G1 X109.348 Y195.343 E7.9746
G1 X109.329 Y195.263 E7.9766
G1 X108.015 Y188.843 E8.1397
G1 X108.001 Y188.762 E8.1417
G1 X107.054 Y182.277 E8.3048
G1 X107.044 Y182.196 E8.3068
G1 X106.468 Y175.667 E8.4699
G1 X106.463 Y175.586 E8.4719
G1 X106.259 Y169.035 E8.6350
G1 X106.259 Y168.953 E8.6370
G1 X106.428 Y162.402 E8.8001
G1 X106.433 Y162.320 E8.8022
G1 X106.974 Y155.789 E8.9652
G1 X106.984 Y155.707 E8.9673
G1 X107.896 Y149.217 E9.1303
G1 X107.910 Y149.137 E9.1324
G1 X109.190 Y142.709 E9.2954
G1 X109.208 Y142.630 E9.2975
G1 X110.852 Y136.285 E9.4606
G1 X110.875 Y136.207 E9.4626
G1 X112.849 Y130.055 E9.6234
G1 X113.410 Y128.063 E9.6748
G1 X113.690 Y126.148 E9.7230
G1 X113.720 Y124.213 E9.7712
G1 X113.502 Y122.290 E9.8193
G1 X113.037 Y120.412 E9.8675
G1 X112.300 Y118.522 E9.9179
G1 X93.758 Y78.759 E11.0096
G1 X95.453 Y76.098 E11.0881
G1 X187.868 Y76.098 E13.3877
G1 X189.282 Y76.999 E13.4294
G92 E0.0000
G1 E-4.0000 F3000
G1 Z0.480 F1002
G1 X186.919 Y79.148 F6000
G1 X187.717 Y80.859
G1 X174.971 Y112.305
G1 X174.643 Y112.135
G1 X173.014 Y111.715
G1 X171.333 Y111.667
G1 X169.684 Y111.996
G1 X168.155 Y112.681
G1 X163.709 Y115.520
G1 X159.477 Y118.658
G1 X155.473 Y122.082
G1 X151.716 Y125.776
G1 X148.225 Y129.722
G1 X145.016 Y133.900
G1 X142.105 Y138.292
G1 X139.507 Y142.875
G1 X137.233 Y147.628
G1 X135.294 Y152.527
G1 X133.701 Y157.549
G1 X132.460 Y162.669
G1 X131.578 Y167.863
G1 X131.059 Y173.106
G1 X130.905 Y178.372
G1 X131.118 Y183.637
G1 X131.695 Y188.874
G1 X132.635 Y194.058
G1 X133.933 Y199.164
G1 X135.582 Y204.168
G1 X138.117 Y203.233
G1 Z0.180 F1002
G1 E0.0000 F3000
G92 E0.0000
G1 X140.139 Y208.181 E0.1330 F900
G1 X140.225 Y208.523 E0.1418
G1 X140.471 Y210.771 E0.1980
G1 X140.473 Y211.019 E0.2042
G1 X140.280 Y213.219 E0.2592
G1 X140.234 Y213.463 E0.2653
G1 X139.616 Y215.583 E0.3203
G1 X139.523 Y215.813 E0.3265
G1 X138.503 Y217.772 E0.3814
G1 X138.367 Y217.979 E0.3876
G1 X136.984 Y219.701 E0.4425
G1 X136.811 Y219.879 E0.4487
G1 X135.118 Y221.298 E0.5037
G1 X134.914 Y221.438 E0.5098
G1 X132.977 Y222.499 E0.5648
G1 X132.749 Y222.596 E0.5710
G1 X130.643 Y223.260 E0.6259
G1 X130.400 Y223.311 E0.6321
G1 X128.204 Y223.551 E0.6870
G1 X127.956 Y223.553 E0.6932
G1 X125.756 Y223.360 E0.7482
G1 X125.513 Y223.314 E0.7543
G1 X123.392 Y222.695 E0.8093
G1 X123.162 Y222.603 E0.8155
G1 X121.204 Y221.583 E0.8704
G1 X120.996 Y221.447 E0.8766
G1 X119.274 Y220.064 E0.9315
G1 X119.097 Y219.891 E0.9377
G1 X117.678 Y218.198 E0.9927
G1 X117.538 Y217.994 E0.9988
G1 X116.476 Y216.057 E1.0538
G1 X116.379 Y215.829 E1.0600
G1 X115.778 Y213.922 E1.1097
G1 X113.440 Y207.941 E1.2695
G1 X113.415 Y207.873 E1.2713
