; G-Code generated by Simplify3D(R) Version 4.1.2
; Jul 12, 2020 at 9:34:03 PM
; Settings Summary
;   processName,Process1
;   applyToModels,SupportPourCouvercleDeCasseroles_Fixation
;   profileName,A04-04-15 Tevo Tornado
;   profileVersion,2020-07-01 20:14:39
;   baseProfile,Creality CR-10(2)
;   printMaterial,PLA
;   printQuality,Medium
;   printExtruders,
;   extruderName,Primary Extruder
;   extruderToolheadNumber,0
;   extruderDiameter,0.4
;   extruderAutoWidth,0
;   extruderWidth,0.35
;   extrusionMultiplier,0.95
;   extruderUseRetract,1
;   extruderRetractionDistance,4
;   extruderExtraRestartDistance,0
;   extruderRetractionZLift,0.3
;   extruderRetractionSpeed,3000
;   extruderUseCoasting,1
;   extruderCoastingDistance,0.8
;   extruderUseWipe,0
;   extruderWipeDistance,4
;   primaryExtruder,0
;   layerHeight,0.15
;   topSolidLayers,4
;   bottomSolidLayers,3
;   perimeterOutlines,3
;   printPerimetersInsideOut,0
;   startPointOption,1
;   startPointOriginX,0
;   startPointOriginY,300
;   sequentialIslands,0
;   spiralVaseMode,0
;   firstLayerHeightPercentage,120
;   firstLayerWidthPercentage,100
;   firstLayerUnderspeed,0.5
;   useRaft,0
;   raftExtruder,0
;   raftTopLayers,3
;   raftBaseLayers,2
;   raftOffset,3
;   raftSeparationDistance,0.14
;   raftTopInfill,100
;   aboveRaftSpeedMultiplier,0.3
;   useSkirt,1
;   skirtExtruder,0
;   skirtLayers,1
;   skirtOutlines,3
;   skirtOffset,2
;   usePrimePillar,0
;   primePillarExtruder,999
;   primePillarWidth,12
;   primePillarLocation,7
;   primePillarSpeedMultiplier,1
;   useOozeShield,0
;   oozeShieldExtruder,999
;   oozeShieldOffset,2
;   oozeShieldOutlines,1
;   oozeShieldSidewallShape,1
;   oozeShieldSidewallAngle,30
;   oozeShieldSpeedMultiplier,1
;   infillExtruder,0
;   internalInfillPattern,Rectilinear
;   externalInfillPattern,Rectilinear
;   infillPercentage,15
;   outlineOverlapPercentage,15
;   infillExtrusionWidthPercentage,100
;   minInfillLength,5
;   infillLayerInterval,1
;   internalInfillAngles,45,-45
;   overlapInternalInfillAngles,0
;   externalInfillAngles,45,-45
;   generateSupport,0
;   supportExtruder,0
;   supportInfillPercentage,30
;   supportExtraInflation,0
;   supportBaseLayers,0
;   denseSupportExtruder,0
;   denseSupportLayers,0
;   denseSupportInfillPercentage,70
;   supportLayerInterval,1
;   supportHorizontalPartOffset,0.4
;   supportUpperSeparationLayers,1
;   supportLowerSeparationLayers,1
;   supportType,0
;   supportGridSpacing,4.5
;   maxOverhangAngle,45
;   supportAngles,0
;   temperatureName,Primary Extruder,Heated Bed
;   temperatureNumber,0,0
;   temperatureSetpointCount,1,1
;   temperatureSetpointLayers,1,1
;   temperatureSetpointTemperatures,215,55
;   temperatureStabilizeAtStartup,1,1
;   temperatureHeatedBed,0,1
;   fanLayers,1,2
;   fanSpeeds,0,100
;   blipFanToFullPower,0
;   adjustSpeedForCooling,1
;   minSpeedLayerTime,15
;   minCoolingSpeedSlowdown,50
;   increaseFanForCooling,1
;   minFanLayerTime,25
;   maxCoolingFanSpeed,100
;   increaseFanForBridging,1
;   bridgingFanSpeed,100
;   use5D,1
;   relativeEdistances,0
;   allowEaxisZeroing,1
;   independentExtruderAxes,0
;   includeM10123,0
;   stickySupport,1
;   applyToolheadOffsets,0
;   gcodeXoffset,0
;   gcodeYoffset,0
;   gcodeZoffset,0
;   overrideMachineDefinition,1
;   machineTypeOverride,0
;   strokeXoverride,300
;   strokeYoverride,300
;   strokeZoverride,400
;   originOffsetXoverride,0
;   originOffsetYoverride,0
;   originOffsetZoverride,0
;   homeXdirOverride,-1
;   homeYdirOverride,-1
;   homeZdirOverride,-1
;   flipXoverride,1
;   flipYoverride,-1
;   flipZoverride,1
;   toolheadOffsets,0,0|0,0|0,0|0,0|0,0|0,0
;   overrideFirmwareConfiguration,1
;   firmwareTypeOverride,RepRap (Marlin/Repetier/Sprinter)
;   GPXconfigOverride,r2
;   baudRateOverride,250000
;   overridePrinterModels,1
;   printerModelsOverride
;   startingGcode,;,; -]H.P.B[- MarshMalloW  ,; $VER: StartScript 1.02 (26.12.2019) MarshMalloW,;,; Begin Startcode,;,M117 *Preheat*     	; Preheat,;extruder0_temperature,M104 S[extruder0_temperature]  ,M109 S[extruder0_temperature] ,M109 R[extruder0_temperature] ,;,M117 *Auto-leveling*     	; Auto-leveling,M107                   	; Turn layer fan off,G21                    	; Set to metric [change to G20 if you want Imperial],G90                    	; Force coordinates to be absolute relative to the origin,G28                    	; Home X/Y/Z axis,G29                    	; Auto-leveling (BL-Touch),;,M117 *Start Clean*     	; Indicate nozzle clean in progress on LCD,G92 E0                 	; Set Extruder to 0 ,G1 X0 Y0 F2000         	; Move X and Y to 0 with speed 2000 (mm/min),G1 Z0.1 F1000          	; Move Z to   0.1 with speed 1000 (mm/min),G1 X8.0 F2000          	; Move X to   8.0 with speed 2000 (mm/min),G1 Y60.0 E4.0 F1000.0  	; Move Y to  60 and Extruder with 4.0 with speed 1000 (mm/min),G1 Y100.0 E8.5 F1000.0 	; Move Y to 100 and Extruder with 8.5 with speed 1000 (mm/min),G92 E0                 	; Set extruder to 0,G1 X16.0 F3000         	; Move X to 16.0 with speed 3000 (mm/min),G1 Y60.0 F3000         	; Move Y to 60.0 with speed 3000 (mm/min),M117 *End Clean*       	; Indicate nozzle clean in progress on LCD,G1 Z5 F3000            	; Move Z to  5.0 with speed 3000 (mm/min),G1 X20.0 F3000         	; Move X to 20.0 with speed 3000 (mm/min),G1 Y20.0 F3000         	; Move Y to 20.0 with speed 3000 (mm/min),; ,M117 *Printing...*     	; Start printing msg on LCD,;,; End Startcode,;,; Begin printing with sliced GCode after here,;
;   layerChangeGcode,
;   retractionGcode,
;   toolChangeGcode,
;   endingGcode,;,; init 181010,;,;M107 			; Fan off,;G1 E-1 F300 			; Retract the filament a bit before lifting the nozzle,;M104 S0 			; Turn off extruder,;M140 S0 			; Turn off bed,;G91			; Relative positioning,;G28 X0 Y0 			; Move X/Y to min endstops so the head is out of teh way,;M84 			; Disable motors,;G90 			; Absolute positioning,;M117 Print ready...,,;,; // From Cura 181010,; // End_gcode,G92 E0			; Zero the extruded length,;G1 E-30 F300		; Retract E -30,M106 S0			; Turn off cooling fan,M104 S0			; Turn off temperature,M140 S0		     	; Turn off bed,G91			; Relative positioning,G1 E-1 F300			; Retract the filament a bit before lifting the nozzle to release some of the pressure,G1 Z+20 E-5 X-20 Y-20 F7200	; Move Z up a bit and retract filament even more,G1 X0 Y150 F10000		; Move right min,M107			; Turn off layer fan,M84			; Disable motors,G90			; Absolute positioning,M117 *The-End* 		; End msg,;,
;   exportFileFormat,gcode
;   celebration,0
;   celebrationSong,Star Wars
;   postProcessing,|{REPLACE "; layer " "M117 INDICATOR-Layer"}|{REPLACE ", Z = " "\n; Z="}
;   defaultSpeed,1800
;   outlineUnderspeed,0.5
;   solidInfillUnderspeed,0.8
;   supportUnderspeed,0.8
;   rapidXYspeed,6000
;   rapidZspeed,1002
;   minBridgingArea,50
;   bridgingExtraInflation,0.2
;   bridgingExtrusionMultiplier,1
;   bridgingSpeedMultiplier,0.6
;   useFixedBridgingAngle,0
;   fixedBridgingAngle,0
;   applyBridgingToPerimeters,0
;   filamentDiameters,1.75|1.75|1.75|1.75|1.75|1.75
;   filamentPricesPerKg,30|46|46|46|46|46
;   filamentDensities,1.25|1.25|1.25|1.25|1.25|1.25
;   useMinPrintHeight,0
;   minPrintHeight,0
;   useMaxPrintHeight,0
;   maxPrintHeight,50
;   useDiaphragm,0
;   diaphragmLayerInterval,20
;   robustSlicing,1
;   mergeAllIntoSolid,0
;   onlyRetractWhenCrossingOutline,1
;   retractBetweenLayers,0
;   useRetractionMinTravel,0
;   retractionMinTravel,3
;   retractWhileWiping,0
;   onlyWipeOutlines,1
;   avoidCrossingOutline,1
;   maxMovementDetourFactor,3
;   toolChangeRetractionDistance,12
;   toolChangeExtraRestartDistance,-0.5
;   toolChangeRetractionSpeed,600
;   externalThinWallType,1
;   internalThinWallType,1
;   thinWallAllowedOverlapPercentage,10
;   singleExtrusionMinLength,1
;   singleExtrusionMinPrintingWidthPercentage,50
;   singleExtrusionMaxPrintingWidthPercentage,200
;   singleExtrusionEndpointExtension,0.2
;   horizontalSizeCompensation,0
G90
M82
M106 S0
M140 S55
M190 S55
;
; -]H.P.B[- MarshMalloW  
; $VER: StartScript 1.02 (26.12.2019) MarshMalloW
;
; Begin Startcode
;
M117 *Preheat*     	; Preheat
;extruder0_temperature
M104 S215  
M109 S215 
M109 R215 
;
M117 *Auto-leveling*     	; Auto-leveling
M107                   	; Turn layer fan off
G21                    	; Set to metric [change to G20 if you want Imperial]
G90                    	; Force coordinates to be absolute relative to the origin
G28                    	; Home X/Y/Z axis
G29                    	; Auto-leveling (BL-Touch)
;
M117 *Start Clean*     	; Indicate nozzle clean in progress on LCD
G92 E0                 	; Set Extruder to 0 
G1 X0 Y0 F2000         	; Move X and Y to 0 with speed 2000 (mm/min)
G1 Z0.1 F1000          	; Move Z to   0.1 with speed 1000 (mm/min)
G1 X8.0 F2000          	; Move X to   8.0 with speed 2000 (mm/min)
G1 Y60.0 E4.0 F1000.0  	; Move Y to  60 and Extruder with 4.0 with speed 1000 (mm/min)
G1 Y100.0 E8.5 F1000.0 	; Move Y to 100 and Extruder with 8.5 with speed 1000 (mm/min)
G92 E0                 	; Set extruder to 0
G1 X16.0 F3000         	; Move X to 16.0 with speed 3000 (mm/min)
G1 Y60.0 F3000         	; Move Y to 60.0 with speed 3000 (mm/min)
M117 *End Clean*       	; Indicate nozzle clean in progress on LCD
G1 Z5 F3000            	; Move Z to  5.0 with speed 3000 (mm/min)
G1 X20.0 F3000         	; Move X to 20.0 with speed 3000 (mm/min)
G1 Y20.0 F3000         	; Move Y to 20.0 with speed 3000 (mm/min)
; 
M117 *Printing...*     	; Start printing msg on LCD
;
; End Startcode
;
; Begin printing with sliced GCode after here
;
; process Process1
M117 INDICATOR-Layer1
; Z=0.180
T0
G92 E0.0000
G1 E-4.0000 F3000
; feature skirt
; tool H0.180 W0.350
G1 Z0.300 F1002
G1 X152.091 Y92.329 F6000
G1 Z0.180 F1002
G1 E0.0000 F3000
G92 E0.0000
G1 X152.424 Y92.403 E0.0085 F900
G1 X154.196 Y93.023 E0.0552
G1 X154.487 Y93.163 E0.0632
G1 X156.068 Y94.157 E0.1097
G1 X156.321 Y94.358 E0.1177
G1 X157.642 Y95.679 E0.1642
G1 X157.843 Y95.932 E0.1723
G1 X158.837 Y97.513 E0.2187
G1 X158.977 Y97.804 E0.2268
G1 X159.594 Y99.567 E0.2733
G1 X159.666 Y99.882 E0.2813
G1 X159.866 Y101.658 E0.3258
G1 X159.875 Y101.819 E0.3298
G1 X159.875 Y198.181 E2.7275
G1 X159.866 Y198.342 E2.7315
G1 X159.666 Y200.118 E2.7760
G1 X159.594 Y200.433 E2.7840
G1 X158.977 Y202.196 E2.8305
G1 X158.837 Y202.487 E2.8386
G1 X157.843 Y204.068 E2.8850
G1 X157.642 Y204.321 E2.8931
G1 X156.321 Y205.642 E2.9396
G1 X156.068 Y205.843 E2.9476
G1 X154.487 Y206.837 E2.9941
G1 X154.196 Y206.977 E3.0021
G1 X152.424 Y207.597 E3.0488
G1 X152.090 Y207.671 E3.0573
G1 X150.034 Y207.876 E3.1087
G1 X149.729 Y207.874 E3.1163
G1 X147.882 Y207.666 E3.1626
G1 X147.567 Y207.594 E3.1706
G1 X145.804 Y206.977 E3.2171
G1 X145.513 Y206.837 E3.2251
G1 X143.932 Y205.843 E3.2716
G1 X143.679 Y205.642 E3.2796
G1 X142.358 Y204.321 E3.3261
G1 X142.157 Y204.068 E3.3342
G1 X141.163 Y202.487 E3.3806
G1 X141.023 Y202.196 E3.3887
G1 X140.406 Y200.433 E3.4351
G1 X140.334 Y200.118 E3.4432
G1 X140.134 Y198.342 E3.4877
G1 X140.125 Y198.181 E3.4917
G1 X140.125 Y101.819 E5.8894
G1 X140.134 Y101.658 E5.8934
G1 X140.334 Y99.882 E5.9379
G1 X140.406 Y99.567 E5.9459
G1 X141.023 Y97.804 E5.9924
G1 X141.163 Y97.513 E6.0004
G1 X142.157 Y95.932 E6.0469
G1 X142.358 Y95.679 E6.0550
G1 X143.679 Y94.358 E6.1014
G1 X143.932 Y94.157 E6.1095
G1 X145.513 Y93.163 E6.1560
G1 X145.804 Y93.023 E6.1640
G1 X147.568 Y92.406 E6.2105
G1 X147.883 Y92.334 E6.2185
G1 X149.734 Y92.126 E6.2649
G1 X150.038 Y92.124 E6.2724
G1 X152.091 Y92.329 E6.3238
G92 E0.0000
G1 E-4.0000 F3000
G1 Z0.480 F1002
G1 X151.596 Y95.345 F6000
G1 X151.915 Y95.456
G1 X145.856 Y203.450
G1 X146.983 Y204.158
G1 X145.683 Y206.530
G1 Z0.180 F1002
G1 E0.0000 F3000
G92 E0.0000
G1 X144.134 Y205.557 E0.0455 F900
G1 X143.913 Y205.380 E0.0526
G1 X142.620 Y204.087 E0.0981
G1 X142.443 Y203.865 E0.1051
G1 X141.470 Y202.317 E0.1506
G1 X141.347 Y202.062 E0.1577
G1 X140.743 Y200.335 E0.2032
G1 X140.680 Y200.059 E0.2102
G1 X140.483 Y198.312 E0.2540
G1 X140.475 Y198.171 E0.2575
G1 X140.475 Y101.829 E2.6547
G1 X140.483 Y101.688 E2.6583
G1 X140.680 Y99.941 E2.7020
G1 X140.743 Y99.664 E2.7091
G1 X141.347 Y97.938 E2.7546
G1 X141.470 Y97.683 E2.7616
G1 X142.443 Y96.134 E2.8071
G1 X142.620 Y95.913 E2.8142
G1 X143.913 Y94.620 E2.8597
G1 X144.134 Y94.443 E2.8667
G1 X145.683 Y93.470 E2.9123
G1 X145.938 Y93.347 E2.9193
G1 X147.665 Y92.743 E2.9648
G1 X147.941 Y92.680 E2.9719
G1 X149.754 Y92.476 E3.0173
G1 X150.022 Y92.474 E3.0239
G1 X152.035 Y92.675 E3.0743
G1 X152.328 Y92.740 E3.0817
G1 X154.062 Y93.347 E3.1274
G1 X154.317 Y93.470 E3.1345
G1 X155.866 Y94.443 E3.1800
G1 X156.087 Y94.620 E3.1871
G1 X157.380 Y95.913 E3.2326
G1 X157.557 Y96.134 E3.2396
G1 X158.530 Y97.683 E3.2851
G1 X158.653 Y97.938 E3.2922
G1 X159.257 Y99.664 E3.3377
G1 X159.320 Y99.941 E3.3447
G1 X159.517 Y101.688 E3.3885
G1 X159.525 Y101.829 E3.3920
G1 X159.525 Y198.171 E5.7892
G1 X159.517 Y198.312 E5.7928
G1 X159.320 Y200.059 E5.8365
G1 X159.257 Y200.335 E5.8436
G1 X158.653 Y202.062 E5.8891
G1 X158.530 Y202.317 E5.8961
G1 X157.557 Y203.865 E5.9416
G1 X157.380 Y204.087 E5.9487
G1 X156.087 Y205.380 E5.9942
G1 X155.866 Y205.557 E6.0012
G1 X154.317 Y206.530 E6.0468
G1 X154.062 Y206.653 E6.0538
G1 X152.328 Y207.260 E6.0995
G1 X152.035 Y207.325 E6.1070
G1 X150.017 Y207.526 E6.1574
G1 X149.750 Y207.524 E6.1641
G1 X147.941 Y207.320 E6.2094
G1 X147.664 Y207.257 E6.2164
G1 X145.938 Y206.653 E6.2619
G1 X145.683 Y206.530 E6.2690
G92 E0.0000
G1 E-4.0000 F3000
G1 Z0.480 F1002
G1 X146.983 Y204.158 F6000
G1 X146.052 Y203.573
G1 X156.825 Y117.229
G1 X156.825 Y101.910
G1 X156.655 Y100.404
G1 X158.975 Y100.000
G1 Z0.180 F1002
G1 E0.0000 F3000
G92 E0.0000
G1 X159.168 Y101.717 E0.0430 F900
G1 X159.175 Y101.839 E0.0460
G1 X159.175 Y198.161 E2.4428
G1 X159.168 Y198.283 E2.4458
G1 X158.975 Y200.000 E2.4888
G1 X158.920 Y200.238 E2.4949
G1 X158.329 Y201.927 E2.5394
G1 X158.223 Y202.148 E2.5455
G1 X157.271 Y203.663 E2.5900
G1 X157.119 Y203.854 E2.5961
G1 X155.854 Y205.119 E2.6407
G1 X155.663 Y205.271 E2.6467
G1 X154.148 Y206.223 E2.6913
G1 X153.927 Y206.329 E2.6973
G1 X152.232 Y206.923 E2.7420
G1 X151.980 Y206.978 E2.7485
G1 X150.001 Y207.176 E2.7979
G1 X149.771 Y207.174 E2.8037
G1 X148.000 Y206.975 E2.8480
G1 X147.762 Y206.920 E2.8541
G1 X146.073 Y206.329 E2.8986
G1 X145.852 Y206.223 E2.9047
G1 X144.337 Y205.271 E2.9492
G1 X144.146 Y205.119 E2.9553
G1 X142.881 Y203.854 E2.9998
G1 X142.729 Y203.663 E3.0059
G1 X141.777 Y202.148 E3.0504
G1 X141.671 Y201.927 E3.0565
G1 X141.080 Y200.238 E3.1010
G1 X141.025 Y200.000 E3.1071
G1 X140.832 Y198.283 E3.1501
G1 X140.825 Y198.161 E3.1532
G1 X140.825 Y101.839 E5.5499
G1 X140.832 Y101.717 E5.5529
G1 X141.025 Y100.000 E5.5960
G1 X141.080 Y99.762 E5.6020
G1 X141.671 Y98.073 E5.6466
G1 X141.777 Y97.852 E5.6526
G1 X142.729 Y96.337 E5.6972
G1 X142.881 Y96.146 E5.7032
G1 X144.146 Y94.881 E5.7478
G1 X144.337 Y94.729 E5.7538
G1 X145.852 Y93.777 E5.7984
G1 X146.073 Y93.671 E5.8044
G1 X147.762 Y93.080 E5.8490
G1 X148.000 Y93.025 E5.8551
G1 X149.775 Y92.826 E5.8995
G1 X150.005 Y92.824 E5.9052
G1 X151.980 Y93.022 E5.9546
G1 X152.232 Y93.077 E5.9610
G1 X153.927 Y93.671 E6.0057
G1 X154.148 Y93.777 E6.0118
G1 X155.663 Y94.729 E6.0563
G1 X155.854 Y94.881 E6.0624
G1 X157.119 Y96.146 E6.1069
G1 X157.271 Y96.337 E6.1130
G1 X158.223 Y97.852 E6.1575
G1 X158.329 Y98.073 E6.1636
G1 X158.920 Y99.762 E6.2081
G1 X158.975 Y100.000 E6.2142
G92 E0.0000
G1 E-4.0000 F3000
; feature outer perimeter
G1 Z0.480 F1002
G1 X156.655 Y100.404 F6000
G1 X156.536 Y100.063
G1 X143.345 Y100.404
G1 Z0.180 F1002
G1 E0.0000 F3000
G92 E0.0000
G1 X143.842 Y98.983 E0.0375 F450
G1 X144.643 Y97.708 E0.0749
G1 X145.708 Y96.643 E0.1124
G1 X146.983 Y95.842 E0.1499
G1 X148.404 Y95.345 E0.1873
G1 X149.912 Y95.175 E0.2251
G1 X150.116 Y95.178 E0.2302
G1 X151.596 Y95.345 E0.2672
G1 X153.017 Y95.842 E0.3047
G1 X154.292 Y96.643 E0.3422
G1 X155.357 Y97.708 E0.3796
G1 X156.158 Y98.983 E0.4171
G1 X156.655 Y100.404 E0.4546
G1 X156.825 Y101.910 E0.4923
G1 X156.825 Y198.090 E2.8855
