; G-Code generated by Simplify3D(R) Version 4.1.2
; Apr 15, 2020 at 1:05:56 PM
; Settings Summary
;   processName,Process1
;   applyToModels,Surgical_Mask_Strap_Remix
;   profileName,A04-04-15 Tevo Tornado
;   profileVersion,2020-04-14 23:59:13
;   baseProfile,Creality CR-10(2)
;   printMaterial,PLA
;   printQuality,Medium
;   printExtruders,
;   extruderName,Primary Extruder
;   extruderToolheadNumber,0
;   extruderDiameter,0.4
;   extruderAutoWidth,0
;   extruderWidth,0.35
;   extrusionMultiplier,0.95
;   extruderUseRetract,1
;   extruderRetractionDistance,4
;   extruderExtraRestartDistance,0
;   extruderRetractionZLift,0.3
;   extruderRetractionSpeed,3000
;   extruderUseCoasting,1
;   extruderCoastingDistance,0.8
;   extruderUseWipe,0
;   extruderWipeDistance,4
;   primaryExtruder,0
;   layerHeight,0.15
;   topSolidLayers,4
;   bottomSolidLayers,3
;   perimeterOutlines,3
;   printPerimetersInsideOut,0
;   startPointOption,1
;   startPointOriginX,0
;   startPointOriginY,300
;   sequentialIslands,0
;   spiralVaseMode,0
;   firstLayerHeightPercentage,120
;   firstLayerWidthPercentage,100
;   firstLayerUnderspeed,0.5
;   useRaft,0
;   raftExtruder,0
;   raftTopLayers,3
;   raftBaseLayers,2
;   raftOffset,3
;   raftSeparationDistance,0.14
;   raftTopInfill,100
;   aboveRaftSpeedMultiplier,0.3
;   useSkirt,1
;   skirtExtruder,0
;   skirtLayers,1
;   skirtOutlines,3
;   skirtOffset,2
;   usePrimePillar,0
;   primePillarExtruder,999
;   primePillarWidth,12
;   primePillarLocation,7
;   primePillarSpeedMultiplier,1
;   useOozeShield,0
;   oozeShieldExtruder,999
;   oozeShieldOffset,2
;   oozeShieldOutlines,1
;   oozeShieldSidewallShape,1
;   oozeShieldSidewallAngle,30
;   oozeShieldSpeedMultiplier,1
;   infillExtruder,0
;   internalInfillPattern,Rectilinear
;   externalInfillPattern,Rectilinear
;   infillPercentage,15
;   outlineOverlapPercentage,15
;   infillExtrusionWidthPercentage,100
;   minInfillLength,5
;   infillLayerInterval,1
;   internalInfillAngles,45,-45
;   overlapInternalInfillAngles,0
;   externalInfillAngles,45,-45
;   generateSupport,0
;   supportExtruder,0
;   supportInfillPercentage,30
;   supportExtraInflation,0
;   supportBaseLayers,0
;   denseSupportExtruder,0
;   denseSupportLayers,0
;   denseSupportInfillPercentage,70
;   supportLayerInterval,1
;   supportHorizontalPartOffset,0.4
;   supportUpperSeparationLayers,1
;   supportLowerSeparationLayers,1
;   supportType,0
;   supportGridSpacing,4.5
;   maxOverhangAngle,45
;   supportAngles,0
;   temperatureName,Primary Extruder,Heated Bed
;   temperatureNumber,0,0
;   temperatureSetpointCount,1,1
;   temperatureSetpointLayers,1,1
;   temperatureSetpointTemperatures,215,55
;   temperatureStabilizeAtStartup,1,1
;   temperatureHeatedBed,0,1
;   fanLayers,1,2
;   fanSpeeds,0,100
;   blipFanToFullPower,0
;   adjustSpeedForCooling,1
;   minSpeedLayerTime,15
;   minCoolingSpeedSlowdown,50
;   increaseFanForCooling,1
;   minFanLayerTime,25
;   maxCoolingFanSpeed,100
;   increaseFanForBridging,1
;   bridgingFanSpeed,100
;   use5D,1
;   relativeEdistances,0
;   allowEaxisZeroing,1
;   independentExtruderAxes,0
;   includeM10123,0
;   stickySupport,1
;   applyToolheadOffsets,0
;   gcodeXoffset,0
;   gcodeYoffset,0
;   gcodeZoffset,0
;   overrideMachineDefinition,1
;   machineTypeOverride,0
;   strokeXoverride,300
;   strokeYoverride,300
;   strokeZoverride,400
;   originOffsetXoverride,0
;   originOffsetYoverride,0
;   originOffsetZoverride,0
;   homeXdirOverride,-1
;   homeYdirOverride,-1
;   homeZdirOverride,-1
;   flipXoverride,1
;   flipYoverride,-1
;   flipZoverride,1
;   toolheadOffsets,0,0|0,0|0,0|0,0|0,0|0,0
;   overrideFirmwareConfiguration,1
;   firmwareTypeOverride,RepRap (Marlin/Repetier/Sprinter)
;   GPXconfigOverride,r2
;   baudRateOverride,250000
;   overridePrinterModels,1
;   printerModelsOverride
;   startingGcode,;,; -]H.P.B[- MarshMalloW  ,; $VER: StartScript 1.02 (26.12.2019) MarshMalloW,;,; Begin Startcode,;,M117 *Preheat*     	; Preheat,;extruder0_temperature,M104 S[extruder0_temperature]  ,M109 S[extruder0_temperature] ,M109 R[extruder0_temperature] ,;,M117 *Auto-leveling*     	; Auto-leveling,M107                   	; Turn layer fan off,G21                    	; Set to metric [change to G20 if you want Imperial],G90                    	; Force coordinates to be absolute relative to the origin,G28                    	; Home X/Y/Z axis,G29                    	; Auto-leveling (BL-Touch),;,M117 *Start Clean*     	; Indicate nozzle clean in progress on LCD,G92 E0                 	; Set Extruder to 0 ,G1 X0 Y0 F2000         	; Move X and Y to 0 with speed 2000 (mm/min),G1 Z0.1 F1000          	; Move Z to   0.1 with speed 1000 (mm/min),G1 X8.0 F2000          	; Move X to   8.0 with speed 2000 (mm/min),G1 Y60.0 E4.0 F1000.0  	; Move Y to  60 and Extruder with 4.0 with speed 1000 (mm/min),G1 Y100.0 E8.5 F1000.0 	; Move Y to 100 and Extruder with 8.5 with speed 1000 (mm/min),G92 E0                 	; Set extruder to 0,G1 X16.0 F3000         	; Move X to 16.0 with speed 3000 (mm/min),G1 Y60.0 F3000         	; Move Y to 60.0 with speed 3000 (mm/min),M117 *End Clean*       	; Indicate nozzle clean in progress on LCD,G1 Z5 F3000            	; Move Z to  5.0 with speed 3000 (mm/min),G1 X20.0 F3000         	; Move X to 20.0 with speed 3000 (mm/min),G1 Y20.0 F3000         	; Move Y to 20.0 with speed 3000 (mm/min),; ,M117 *Printing...*     	; Start printing msg on LCD,;,; End Startcode,;,; Begin printing with sliced GCode after here,;
;   layerChangeGcode,
;   retractionGcode,
;   toolChangeGcode,
;   endingGcode,;,; init 181010,;,;M107 			; Fan off,;G1 E-1 F300 			; Retract the filament a bit before lifting the nozzle,;M104 S0 			; Turn off extruder,;M140 S0 			; Turn off bed,;G91			; Relative positioning,;G28 X0 Y0 			; Move X/Y to min endstops so the head is out of teh way,;M84 			; Disable motors,;G90 			; Absolute positioning,;M117 Print ready...,,;,; // From Cura 181010,; // End_gcode,G92 E0			; Zero the extruded length,;G1 E-30 F300		; Retract E -30,M106 S0			; Turn off cooling fan,M104 S0			; Turn off temperature,M140 S0		     	; Turn off bed,G91			; Relative positioning,G1 E-1 F300			; Retract the filament a bit before lifting the nozzle to release some of the pressure,G1 Z+20 E-5 X-20 Y-20 F7200	; Move Z up a bit and retract filament even more,G1 X0 Y150 F10000		; Move right min,M107			; Turn off layer fan,M84			; Disable motors,G90			; Absolute positioning,M117 *The-End* 		; End msg,;,
;   exportFileFormat,gcode
;   celebration,0
;   celebrationSong,Star Wars
;   postProcessing,|{REPLACE "; layer " "M117 INDICATOR-Layer"}|{REPLACE ", Z = " "; Z="}
;   defaultSpeed,1800
;   outlineUnderspeed,0.5
;   solidInfillUnderspeed,0.8
;   supportUnderspeed,0.8
;   rapidXYspeed,6000
;   rapidZspeed,1002
;   minBridgingArea,50
;   bridgingExtraInflation,0.2
;   bridgingExtrusionMultiplier,1
;   bridgingSpeedMultiplier,0.6
;   useFixedBridgingAngle,0
;   fixedBridgingAngle,0
;   applyBridgingToPerimeters,0
;   filamentDiameters,1.75|1.75|1.75|1.75|1.75|1.75
;   filamentPricesPerKg,30|46|46|46|46|46
;   filamentDensities,1.25|1.25|1.25|1.25|1.25|1.25
;   useMinPrintHeight,0
;   minPrintHeight,0
;   useMaxPrintHeight,0
;   maxPrintHeight,9
;   useDiaphragm,0
;   diaphragmLayerInterval,20
;   robustSlicing,1
;   mergeAllIntoSolid,0
;   onlyRetractWhenCrossingOutline,1
;   retractBetweenLayers,0
;   useRetractionMinTravel,0
;   retractionMinTravel,3
;   retractWhileWiping,0
;   onlyWipeOutlines,1
;   avoidCrossingOutline,1
;   maxMovementDetourFactor,3
;   toolChangeRetractionDistance,12
;   toolChangeExtraRestartDistance,-0.5
;   toolChangeRetractionSpeed,600
;   externalThinWallType,1
;   internalThinWallType,1
;   thinWallAllowedOverlapPercentage,10
;   singleExtrusionMinLength,1
;   singleExtrusionMinPrintingWidthPercentage,50
;   singleExtrusionMaxPrintingWidthPercentage,200
;   singleExtrusionEndpointExtension,0.2
;   horizontalSizeCompensation,0
G90
M82
M106 S0
M140 S55
M190 S55
;
; -]H.P.B[- MarshMalloW  
; $VER: StartScript 1.02 (26.12.2019) MarshMalloW
;
; Begin Startcode
;
M117 *Preheat*     	; Preheat
;extruder0_temperature
M104 S215  
M109 S215 
M109 R215 
;
M117 *Auto-leveling*     	; Auto-leveling
M107                   	; Turn layer fan off
G21                    	; Set to metric [change to G20 if you want Imperial]
G90                    	; Force coordinates to be absolute relative to the origin
G28                    	; Home X/Y/Z axis
G29                    	; Auto-leveling (BL-Touch)
;
M117 *Start Clean*     	; Indicate nozzle clean in progress on LCD
G92 E0                 	; Set Extruder to 0 
G1 X0 Y0 F2000         	; Move X and Y to 0 with speed 2000 (mm/min)
G1 Z0.1 F1000          	; Move Z to   0.1 with speed 1000 (mm/min)
G1 X8.0 F2000          	; Move X to   8.0 with speed 2000 (mm/min)
G1 Y60.0 E4.0 F1000.0  	; Move Y to  60 and Extruder with 4.0 with speed 1000 (mm/min)
G1 Y100.0 E8.5 F1000.0 	; Move Y to 100 and Extruder with 8.5 with speed 1000 (mm/min)
G92 E0                 	; Set extruder to 0
G1 X16.0 F3000         	; Move X to 16.0 with speed 3000 (mm/min)
G1 Y60.0 F3000         	; Move Y to 60.0 with speed 3000 (mm/min)
M117 *End Clean*       	; Indicate nozzle clean in progress on LCD
G1 Z5 F3000            	; Move Z to  5.0 with speed 3000 (mm/min)
G1 X20.0 F3000         	; Move X to 20.0 with speed 3000 (mm/min)
G1 Y20.0 F3000         	; Move Y to 20.0 with speed 3000 (mm/min)
; 
M117 *Printing...*     	; Start printing msg on LCD
;
; End Startcode
;
; Begin printing with sliced GCode after here
;
; process Process1
M117 INDICATOR-Layer1; Z=0.180
T0
G92 E0.0000
G1 E-4.0000 F3000
; feature skirt
; tool H0.180 W0.350
G1 Z0.300 F1002
G1 X179.412 Y68.077 F6000
G1 Z0.180 F1002
G1 E0.0000 F3000
G92 E0.0000
G1 X180.469 Y68.216 E0.0265 F900
G1 X180.835 Y68.314 E0.0360
G1 X181.905 Y68.758 E0.0648
G1 X182.229 Y68.945 E0.0741
G1 X183.151 Y69.650 E0.1030
G1 X183.420 Y69.919 E0.1125
G1 X184.126 Y70.841 E0.1413
G1 X184.313 Y71.166 E0.1507
G1 X185.019 Y72.871 E0.1966
G1 X197.273 Y74.480 E0.5041
G1 X197.273 Y73.382 E0.5314
G1 X197.322 Y73.008 E0.5408
G1 X197.623 Y71.888 E0.5697
G1 X197.766 Y71.541 E0.5790
G1 X198.345 Y70.537 E0.6079
G1 X198.575 Y70.237 E0.6173
G1 X199.396 Y69.417 E0.6461
G1 X199.695 Y69.187 E0.6555
G1 X200.701 Y68.607 E0.6844
G1 X201.050 Y68.462 E0.6938
G1 X202.170 Y68.163 E0.7227
G1 X202.543 Y68.114 E0.7320
G1 X203.701 Y68.114 E0.7608
G1 X204.073 Y68.163 E0.7702
G1 X205.195 Y68.462 E0.7991
G1 X205.545 Y68.607 E0.8085
G1 X206.550 Y69.188 E0.8374
G1 X206.849 Y69.417 E0.8468
G1 X207.669 Y70.237 E0.8756
G1 X207.899 Y70.537 E0.8850
G1 X208.478 Y71.541 E0.9139
G1 X208.622 Y71.888 E0.9232
G1 X208.922 Y73.008 E0.9520
G1 X208.972 Y73.382 E0.9614
G1 X208.972 Y74.448 E0.9880
G1 X208.959 Y74.636 E0.9926
G1 X208.781 Y75.991 E1.0267
G1 X209.171 Y76.042 E1.0364
G1 X209.171 Y74.949 E1.0636
G1 X209.220 Y74.575 E1.0730
G1 X209.520 Y73.455 E1.1019
G1 X209.664 Y73.107 E1.1112
G1 X210.243 Y72.103 E1.1401
G1 X210.473 Y71.803 E1.1495
G1 X211.294 Y70.982 E1.1784
G1 X211.594 Y70.753 E1.1878
G1 X212.598 Y70.173 E1.2166
G1 X212.945 Y70.030 E1.2260
G1 X214.066 Y69.729 E1.2548
G1 X214.440 Y69.680 E1.2642
G1 X215.600 Y69.680 E1.2931
G1 X215.975 Y69.729 E1.3025
G1 X217.094 Y70.030 E1.3313
G1 X217.440 Y70.173 E1.3406
G1 X218.446 Y70.752 E1.3695
G1 X218.747 Y70.983 E1.3790
G1 X219.567 Y71.804 E1.4078
G1 X219.795 Y72.102 E1.4172
G1 X220.375 Y73.105 E1.4460
G1 X220.520 Y73.454 E1.4554
G1 X220.820 Y74.575 E1.4843
G1 X220.870 Y74.949 E1.4937
G1 X220.870 Y76.015 E1.5202
G1 X220.857 Y76.203 E1.5249
G1 X220.679 Y77.553 E1.5588
G1 X221.069 Y77.604 E1.5685
G1 X221.069 Y76.516 E1.5956
G1 X221.117 Y76.144 E1.6049
G1 X221.417 Y75.022 E1.6338
G1 X221.562 Y74.672 E1.6433
G1 X222.143 Y73.667 E1.6721
G1 X222.372 Y73.369 E1.6815
G1 X223.192 Y72.548 E1.7104
G1 X223.492 Y72.319 E1.7198
G1 X224.496 Y71.740 E1.7486
G1 X224.843 Y71.596 E1.7579
G1 X225.962 Y71.295 E1.7868
G1 X226.337 Y71.246 E1.7962
G1 X227.498 Y71.246 E1.8251
G1 X227.873 Y71.295 E1.8345
G1 X228.992 Y71.596 E1.8633
G1 X229.339 Y71.740 E1.8727
G1 X230.343 Y72.319 E1.9015
G1 X230.643 Y72.548 E1.9109
G1 X231.463 Y73.369 E1.9398
G1 X231.692 Y73.667 E1.9491
G1 X232.273 Y74.672 E1.9780
G1 X232.418 Y75.022 E1.9875
G1 X232.718 Y76.144 E2.0163
G1 X232.767 Y76.516 E2.0257
G1 X232.767 Y77.581 E2.0522
G1 X232.754 Y77.769 E2.0569
G1 X232.577 Y79.115 E2.0906
G1 X232.966 Y79.166 E2.1004
G1 X232.966 Y78.081 E2.1274
G1 X233.015 Y77.707 E2.1368
G1 X233.316 Y76.587 E2.1656
G1 X233.459 Y76.240 E2.1750
G1 X234.038 Y75.236 E2.2038
G1 X234.268 Y74.936 E2.2132
G1 X235.089 Y74.116 E2.2421
G1 X235.388 Y73.886 E2.2515
G1 X236.394 Y73.306 E2.2804
G1 X236.743 Y73.161 E2.2898
G1 X237.863 Y72.862 E2.3186
G1 X238.236 Y72.813 E2.3280
G1 X239.394 Y72.813 E2.3568
G1 X239.766 Y72.862 E2.3661
G1 X240.888 Y73.161 E2.3950
G1 X241.238 Y73.306 E2.4045
G1 X242.243 Y73.887 E2.4333
G1 X242.542 Y74.116 E2.4427
G1 X243.362 Y74.936 E2.4716
G1 X243.592 Y75.236 E2.4810
G1 X244.171 Y76.240 E2.5098
G1 X244.315 Y76.587 E2.5192
G1 X244.615 Y77.707 E2.5480
G1 X244.665 Y78.081 E2.5574
G1 X244.665 Y79.147 E2.5839
G1 X244.652 Y79.335 E2.5886
G1 X241.883 Y100.370 E3.1165
G1 X241.846 Y100.554 E3.1212
G1 X241.571 Y101.583 E3.1477
G1 X241.426 Y101.933 E3.1571
G1 X240.845 Y102.938 E3.1860
G1 X240.616 Y103.236 E3.1954
G1 X239.797 Y104.056 E3.2242
G1 X239.498 Y104.285 E3.2336
G1 X238.493 Y104.866 E3.2624
G1 X238.143 Y105.011 E3.2719
G1 X237.021 Y105.310 E3.3008
G1 X236.649 Y105.359 E3.3101
G1 X235.491 Y105.359 E3.3389
G1 X235.118 Y105.310 E3.3483
G1 X233.998 Y105.011 E3.3771
G1 X233.649 Y104.866 E3.3865
G1 X232.642 Y104.285 E3.4155
G1 X232.342 Y104.055 E3.4249
G1 X231.523 Y103.234 E3.4537
G1 X231.295 Y102.937 E3.4630
G1 X230.715 Y101.934 E3.4919
G1 X230.571 Y101.585 E3.5013
G1 X230.270 Y100.465 E3.5301
G1 X230.221 Y100.091 E3.5395
G1 X230.221 Y98.929 E3.5684
G1 X230.270 Y98.555 E3.5778
G1 X230.571 Y97.434 E3.6067
G1 X230.676 Y97.182 E3.6135
G1 X230.207 Y97.120 E3.6252
G1 X229.986 Y98.803 E3.6675
G1 X229.949 Y98.988 E3.6722
G1 X229.673 Y100.019 E3.6987
G1 X229.528 Y100.367 E3.7081
G1 X228.947 Y101.372 E3.7370
G1 X228.718 Y101.670 E3.7463
G1 X227.898 Y102.490 E3.7752
G1 X227.598 Y102.720 E3.7846
G1 X226.594 Y103.299 E3.8134
G1 X226.247 Y103.443 E3.8228
G1 X225.128 Y103.743 E3.8516
G1 X224.753 Y103.793 E3.8610
G1 X223.593 Y103.793 E3.8899
G1 X223.219 Y103.744 E3.8993
G1 X222.098 Y103.443 E3.9282
G1 X221.751 Y103.299 E3.9375
G1 X220.747 Y102.720 E3.9664
G1 X220.447 Y102.490 E3.9758
G1 X219.627 Y101.670 E4.0046
G1 X219.398 Y101.372 E4.0140
G1 X218.817 Y100.367 E4.0429
G1 X218.672 Y100.016 E4.0523
G1 X218.372 Y98.895 E4.0812
G1 X218.324 Y98.523 E4.0905
G1 X218.324 Y97.364 E4.1194
G1 X218.372 Y96.991 E4.1287
G1 X218.672 Y95.871 E4.1576
G1 X218.776 Y95.620 E4.1643
G1 X218.309 Y95.558 E4.1761
G1 X218.088 Y97.238 E4.2182
G1 X218.051 Y97.423 E4.2229
G1 X217.775 Y98.451 E4.2494
G1 X217.631 Y98.797 E4.2587
G1 X217.052 Y99.803 E4.2876
G1 X216.821 Y100.104 E4.2970
G1 X216.000 Y100.924 E4.3259
G1 X215.703 Y101.152 E4.3352
G1 X214.699 Y101.732 E4.3641
G1 X214.351 Y101.877 E4.3735
G1 X213.229 Y102.178 E4.4024
G1 X212.855 Y102.227 E4.4117
G1 X211.695 Y102.227 E4.4406
G1 X211.321 Y102.178 E4.4500
G1 X210.200 Y101.877 E4.4789
G1 X209.851 Y101.732 E4.4883
G1 X208.847 Y101.152 E4.5171
G1 X208.550 Y100.924 E4.5264
G1 X207.729 Y100.104 E4.5553
G1 X207.498 Y99.803 E4.5648
G1 X206.919 Y98.797 E4.5936
G1 X206.775 Y98.451 E4.6030
G1 X206.475 Y97.332 E4.6318
G1 X206.426 Y96.958 E4.6412
G1 X206.426 Y95.797 E4.6701
G1 X206.475 Y95.423 E4.6795
G1 X206.775 Y94.303 E4.7083
G1 X206.877 Y94.058 E4.7149
G1 X206.410 Y93.996 E4.7266
G1 X206.190 Y95.671 E4.7687
G1 X206.153 Y95.855 E4.7733
G1 X205.878 Y96.884 E4.7998
G1 X205.733 Y97.234 E4.8093
G1 X205.152 Y98.239 E4.8381
G1 X204.923 Y98.537 E4.8475
G1 X204.104 Y99.357 E4.8763
G1 X203.805 Y99.586 E4.8857
G1 X202.800 Y100.167 E4.9146
G1 X202.450 Y100.312 E4.9240
G1 X201.328 Y100.611 E4.9529
G1 X200.956 Y100.660 E4.9622
