; G-Code generated by Simplify3D(R) Version 4.1.2
; Apr 15, 2020 at 6:35:09 PM
; Settings Summary
;   processName,Process1
;   applyToModels,Surgical_Mask_Strap_Remix
;   profileName,A03-04-15 Tevo Tornado (experimental)
;   profileVersion,2020-04-15 13:25:45
;   baseProfile,Creality CR-10(2)
;   printMaterial,PLA
;   printQuality,Medium
;   printExtruders,
;   extruderName,Primary Extruder
;   extruderToolheadNumber,0
;   extruderDiameter,0.4
;   extruderAutoWidth,0
;   extruderWidth,0.35
;   extrusionMultiplier,0.95
;   extruderUseRetract,1
;   extruderRetractionDistance,4
;   extruderExtraRestartDistance,0
;   extruderRetractionZLift,0.3
;   extruderRetractionSpeed,4200
;   extruderUseCoasting,0
;   extruderCoastingDistance,0.2
;   extruderUseWipe,0
;   extruderWipeDistance,4
;   primaryExtruder,0
;   layerHeight,0.15
;   topSolidLayers,4
;   bottomSolidLayers,3
;   perimeterOutlines,3
;   printPerimetersInsideOut,0
;   startPointOption,1
;   startPointOriginX,0
;   startPointOriginY,300
;   sequentialIslands,0
;   spiralVaseMode,0
;   firstLayerHeightPercentage,120
;   firstLayerWidthPercentage,100
;   firstLayerUnderspeed,0.5
;   useRaft,0
;   raftExtruder,0
;   raftTopLayers,3
;   raftBaseLayers,2
;   raftOffset,3
;   raftSeparationDistance,0.14
;   raftTopInfill,100
;   aboveRaftSpeedMultiplier,0.3
;   useSkirt,1
;   skirtExtruder,0
;   skirtLayers,1
;   skirtOutlines,3
;   skirtOffset,2
;   usePrimePillar,0
;   primePillarExtruder,999
;   primePillarWidth,12
;   primePillarLocation,7
;   primePillarSpeedMultiplier,1
;   useOozeShield,0
;   oozeShieldExtruder,999
;   oozeShieldOffset,2
;   oozeShieldOutlines,1
;   oozeShieldSidewallShape,1
;   oozeShieldSidewallAngle,30
;   oozeShieldSpeedMultiplier,1
;   infillExtruder,0
;   internalInfillPattern,Rectilinear
;   externalInfillPattern,Rectilinear
;   infillPercentage,15
;   outlineOverlapPercentage,15
;   infillExtrusionWidthPercentage,100
;   minInfillLength,5
;   infillLayerInterval,1
;   internalInfillAngles,45,-45
;   overlapInternalInfillAngles,0
;   externalInfillAngles,45,-45
;   generateSupport,0
;   supportExtruder,0
;   supportInfillPercentage,30
;   supportExtraInflation,0
;   supportBaseLayers,0
;   denseSupportExtruder,0
;   denseSupportLayers,0
;   denseSupportInfillPercentage,70
;   supportLayerInterval,1
;   supportHorizontalPartOffset,0.4
;   supportUpperSeparationLayers,1
;   supportLowerSeparationLayers,1
;   supportType,0
;   supportGridSpacing,4.5
;   maxOverhangAngle,45
;   supportAngles,0
;   temperatureName,Primary Extruder,Heated Bed
;   temperatureNumber,0,0
;   temperatureSetpointCount,1,1
;   temperatureSetpointLayers,1,1
;   temperatureSetpointTemperatures,215,55
;   temperatureStabilizeAtStartup,1,1
;   temperatureHeatedBed,0,1
;   fanLayers,1,2
;   fanSpeeds,0,100
;   blipFanToFullPower,0
;   adjustSpeedForCooling,1
;   minSpeedLayerTime,15
;   minCoolingSpeedSlowdown,50
;   increaseFanForCooling,1
;   minFanLayerTime,25
;   maxCoolingFanSpeed,100
;   increaseFanForBridging,1
;   bridgingFanSpeed,100
;   use5D,1
;   relativeEdistances,0
;   allowEaxisZeroing,1
;   independentExtruderAxes,0
;   includeM10123,0
;   stickySupport,1
;   applyToolheadOffsets,0
;   gcodeXoffset,0
;   gcodeYoffset,0
;   gcodeZoffset,0
;   overrideMachineDefinition,1
;   machineTypeOverride,0
;   strokeXoverride,300
;   strokeYoverride,300
;   strokeZoverride,400
;   originOffsetXoverride,0
;   originOffsetYoverride,0
;   originOffsetZoverride,0
;   homeXdirOverride,-1
;   homeYdirOverride,-1
;   homeZdirOverride,-1
;   flipXoverride,1
;   flipYoverride,-1
;   flipZoverride,1
;   toolheadOffsets,0,0|0,0|0,0|0,0|0,0|0,0
;   overrideFirmwareConfiguration,1
;   firmwareTypeOverride,RepRap (Marlin/Repetier/Sprinter)
;   GPXconfigOverride,r2
;   baudRateOverride,250000
;   overridePrinterModels,1
;   printerModelsOverride
;   startingGcode,;,; -]H.P.B[- MarshMalloW  ,; $VER: StartScript 1.02 (26.12.2019) MarshMalloW,;,; Begin Startcode,;,M117 *Preheat*     	; Preheat,;extruder0_temperature,M104 S[extruder0_temperature]  ,M109 S[extruder0_temperature] ,M109 R[extruder0_temperature] ,;,M117 *Auto-leveling*     	; Auto-leveling,M107                   	; Turn layer fan off,G21                    	; Set to metric [change to G20 if you want Imperial],G90                    	; Force coordinates to be absolute relative to the origin,G28                    	; Home X/Y/Z axis,G29                    	; Auto-leveling (BL-Touch),;,M117 *Start Clean*     	; Indicate nozzle clean in progress on LCD,G92 E0                 	; Set Extruder to 0 ,G1 X0 Y0 F2000         	; Move X and Y to 0 with speed 2000 (mm/min),G1 Z0.1 F1000          	; Move Z to   0.1 with speed 1000 (mm/min),G1 X8.0 F2000          	; Move X to   8.0 with speed 2000 (mm/min),G1 Y60.0 E4.0 F1000.0  	; Move Y to  60 and Extruder with 4.0 with speed 1000 (mm/min),G1 Y100.0 E8.5 F1000.0 	; Move Y to 100 and Extruder with 8.5 with speed 1000 (mm/min),G92 E0                 	; Set extruder to 0,G1 X16.0 F3000         	; Move X to 16.0 with speed 3000 (mm/min),G1 Y60.0 F3000         	; Move Y to 60.0 with speed 3000 (mm/min),M117 *End Clean*       	; Indicate nozzle clean in progress on LCD,G1 Z5 F3000            	; Move Z to  5.0 with speed 3000 (mm/min),G1 X20.0 F3000         	; Move X to 20.0 with speed 3000 (mm/min),G1 Y20.0 F3000         	; Move Y to 20.0 with speed 3000 (mm/min),; ,M117 *Printing...*     	; Start printing msg on LCD,;,; End Startcode,;,; Begin printing with sliced GCode after here,;
;   layerChangeGcode,
;   retractionGcode,
;   toolChangeGcode,
;   endingGcode,;,; init 181010,;,;M107 			; Fan off,;G1 E-1 F300 			; Retract the filament a bit before lifting the nozzle,;M104 S0 			; Turn off extruder,;M140 S0 			; Turn off bed,;G91			; Relative positioning,;G28 X0 Y0 			; Move X/Y to min endstops so the head is out of teh way,;M84 			; Disable motors,;G90 			; Absolute positioning,;M117 Print ready...,,;,; // From Cura 181010,; // End_gcode,G92 E0			; Zero the extruded length,;G1 E-30 F300		; Retract E -30,M106 S0			; Turn off cooling fan,M104 S0			; Turn off temperature,M140 S0		     	; Turn off bed,G91			; Relative positioning,G1 E-1 F300			; Retract the filament a bit before lifting the nozzle to release some of the pressure,G1 Z+20 E-5 X-20 Y-20 F7200	; Move Z up a bit and retract filament even more,G1 X0 Y150 F10000		; Move right min,M107			; Turn off layer fan,M84			; Disable motors,G90			; Absolute positioning,M117 *The-End* 		; End msg,;,
;   exportFileFormat,gcode
;   celebration,0
;   celebrationSong,Star Wars
;   postProcessing,
;   defaultSpeed,1800
;   outlineUnderspeed,0.5
;   solidInfillUnderspeed,0.8
;   supportUnderspeed,0.8
;   rapidXYspeed,6000
;   rapidZspeed,1002
;   minBridgingArea,50
;   bridgingExtraInflation,0.2
;   bridgingExtrusionMultiplier,1
;   bridgingSpeedMultiplier,0.6
;   useFixedBridgingAngle,0
;   fixedBridgingAngle,0
;   applyBridgingToPerimeters,0
;   filamentDiameters,1.75|1.75|1.75|1.75|1.75|1.75
;   filamentPricesPerKg,30|46|46|46|46|46
;   filamentDensities,1.25|1.25|1.25|1.25|1.25|1.25
;   useMinPrintHeight,0
;   minPrintHeight,0
;   useMaxPrintHeight,0
;   maxPrintHeight,9
;   useDiaphragm,0
;   diaphragmLayerInterval,20
;   robustSlicing,1
;   mergeAllIntoSolid,0
;   onlyRetractWhenCrossingOutline,1
;   retractBetweenLayers,0
;   useRetractionMinTravel,0
;   retractionMinTravel,3
;   retractWhileWiping,0
;   onlyWipeOutlines,1
;   avoidCrossingOutline,0
;   maxMovementDetourFactor,3
;   toolChangeRetractionDistance,12
;   toolChangeExtraRestartDistance,-0.5
;   toolChangeRetractionSpeed,600
;   externalThinWallType,1
;   internalThinWallType,1
;   thinWallAllowedOverlapPercentage,10
;   singleExtrusionMinLength,1
;   singleExtrusionMinPrintingWidthPercentage,50
;   singleExtrusionMaxPrintingWidthPercentage,200
;   singleExtrusionEndpointExtension,0.2
;   horizontalSizeCompensation,0
G90
M82
M106 S0
M140 S55
M190 S55
;
; -]H.P.B[- MarshMalloW  
; $VER: StartScript 1.02 (26.12.2019) MarshMalloW
;
; Begin Startcode
;
M117 *Preheat*     	; Preheat
;extruder0_temperature
M104 S215  
M109 S215 
M109 R215 
;
M117 *Auto-leveling*     	; Auto-leveling
M107                   	; Turn layer fan off
G21                    	; Set to metric [change to G20 if you want Imperial]
G90                    	; Force coordinates to be absolute relative to the origin
G28                    	; Home X/Y/Z axis
G29                    	; Auto-leveling (BL-Touch)
;
M117 *Start Clean*     	; Indicate nozzle clean in progress on LCD
G92 E0                 	; Set Extruder to 0 
G1 X0 Y0 F2000         	; Move X and Y to 0 with speed 2000 (mm/min)
G1 Z0.1 F1000          	; Move Z to   0.1 with speed 1000 (mm/min)
G1 X8.0 F2000          	; Move X to   8.0 with speed 2000 (mm/min)
G1 Y60.0 E4.0 F1000.0  	; Move Y to  60 and Extruder with 4.0 with speed 1000 (mm/min)
G1 Y100.0 E8.5 F1000.0 	; Move Y to 100 and Extruder with 8.5 with speed 1000 (mm/min)
G92 E0                 	; Set extruder to 0
G1 X16.0 F3000         	; Move X to 16.0 with speed 3000 (mm/min)
G1 Y60.0 F3000         	; Move Y to 60.0 with speed 3000 (mm/min)
M117 *End Clean*       	; Indicate nozzle clean in progress on LCD
G1 Z5 F3000            	; Move Z to  5.0 with speed 3000 (mm/min)
G1 X20.0 F3000         	; Move X to 20.0 with speed 3000 (mm/min)
G1 Y20.0 F3000         	; Move Y to 20.0 with speed 3000 (mm/min)
; 
M117 *Printing...*     	; Start printing msg on LCD
;
; End Startcode
;
; Begin printing with sliced GCode after here
;
; process Process1
; layer 1, Z = 0.180
T0
G92 E0.0000
G1 E-4.0000 F4200
; feature skirt
; tool H0.180 W0.350
G1 Z0.300 F1002
G1 X175.518 Y28.436 F6000
G1 Z0.180 F1002
G1 E0.0000 F4200
G92 E0.0000
G1 X176.704 Y28.715 E0.0303 F900
G1 X177.109 Y28.879 E0.0412
G1 X178.065 Y29.445 E0.0688
G1 X178.244 Y29.570 E0.0743
G1 X194.720 Y43.086 E0.6045
G1 X194.876 Y43.234 E0.6099
G1 X195.619 Y44.058 E0.6375
G1 X195.852 Y44.407 E0.6479
G1 X196.375 Y45.510 E0.6783
G1 X196.492 Y45.878 E0.6879
G1 X196.704 Y47.083 E0.7184
G1 X196.722 Y47.440 E0.7273
G1 X196.631 Y48.667 E0.7579
G1 X196.566 Y49.000 E0.7663
G1 X196.189 Y50.177 E0.7971
G1 X196.057 Y50.473 E0.8051
G1 X195.426 Y51.537 E0.8359
G1 X195.231 Y51.796 E0.8440
G1 X194.380 Y52.691 E0.8747
G1 X194.121 Y52.906 E0.8831
G1 X193.087 Y53.578 E0.9138
G1 X192.763 Y53.735 E0.9227
G1 X191.605 Y54.126 E0.9531
G1 X191.227 Y54.200 E0.9627
G1 X190.010 Y54.271 E0.9931
G1 X189.594 Y54.235 E1.0035
G1 X188.407 Y53.955 E1.0338
G1 X188.002 Y53.792 E1.0447
G1 X186.952 Y53.170 E1.0750
G1 X186.614 Y52.893 E1.0859
G1 X185.798 Y51.987 E1.1162
G1 X185.748 Y51.911 E1.1185
G1 X184.884 Y53.055 E1.1542
G1 X186.305 Y54.220 E1.1999
G1 X186.462 Y54.370 E1.2053
G1 X187.205 Y55.195 E1.2329
G1 X187.436 Y55.542 E1.2433
G1 X187.959 Y56.645 E1.2737
G1 X188.077 Y57.013 E1.2833
G1 X188.289 Y58.219 E1.3137
G1 X188.307 Y58.578 E1.3227
G1 X188.214 Y59.803 E1.3533
G1 X188.150 Y60.132 E1.3616
G1 X187.776 Y61.309 E1.3923
G1 X187.642 Y61.606 E1.4004
G1 X187.011 Y62.672 E1.4313
G1 X186.815 Y62.931 E1.4394
G1 X185.963 Y63.827 E1.4701
G1 X185.704 Y64.041 E1.4785
G1 X184.674 Y64.711 E1.5091
G1 X184.351 Y64.868 E1.5180
G1 X183.192 Y65.261 E1.5484
G1 X182.812 Y65.335 E1.5581
G1 X181.593 Y65.407 E1.5885
G1 X181.175 Y65.370 E1.5989
G1 X179.988 Y65.088 E1.6293
G1 X179.585 Y64.925 E1.6401
G1 X178.538 Y64.305 E1.6704
G1 X178.201 Y64.030 E1.6812
G1 X177.385 Y63.125 E1.7115
G1 X177.335 Y63.050 E1.7137
G1 X176.472 Y64.193 E1.7494
G1 X177.890 Y65.356 E1.7950
G1 X178.047 Y65.506 E1.8004
G1 X178.788 Y66.329 E1.8280
G1 X179.018 Y66.674 E1.8383
G1 X179.543 Y67.776 E1.8687
G1 X179.662 Y68.148 E1.8784
G1 X179.873 Y69.354 E1.9088
G1 X179.891 Y69.710 E1.9177
G1 X179.800 Y70.936 E1.9483
G1 X179.736 Y71.267 E1.9567
G1 X179.360 Y72.445 E1.9875
G1 X179.227 Y72.742 E1.9956
G1 X178.596 Y73.807 E2.0264
G1 X178.399 Y74.067 E2.0345
G1 X177.547 Y74.962 E2.0652
G1 X177.287 Y75.178 E2.0736
G1 X176.256 Y75.847 E2.1042
G1 X175.935 Y76.002 E2.1131
G1 X174.777 Y76.397 E2.1435
G1 X174.393 Y76.471 E2.1533
G1 X173.175 Y76.540 E2.1836
G1 X172.762 Y76.504 E2.1939
G1 X171.576 Y76.225 E2.2242
G1 X171.171 Y76.061 E2.2351
G1 X170.122 Y75.440 E2.2655
G1 X169.784 Y75.163 E2.2763
G1 X168.968 Y74.257 E2.3067
G1 X168.922 Y74.188 E2.3087
G1 X168.060 Y75.330 E2.3443
G1 X169.474 Y76.491 E2.3898
G1 X169.629 Y76.639 E2.3952
G1 X170.372 Y77.462 E2.4228
G1 X170.605 Y77.811 E2.4332
G1 X171.128 Y78.914 E2.4636
G1 X171.246 Y79.282 E2.4732
G1 X171.458 Y80.487 E2.5037
G1 X171.476 Y80.844 E2.5126
G1 X171.384 Y82.072 E2.5432
G1 X171.320 Y82.404 E2.5516
G1 X170.943 Y83.582 E2.5824
G1 X170.810 Y83.877 E2.5904
G1 X170.180 Y84.942 E2.6212
G1 X169.984 Y85.200 E2.6293
G1 X169.133 Y86.095 E2.6600
G1 X168.874 Y86.311 E2.6684
G1 X167.841 Y86.982 E2.6991
G1 X167.517 Y87.139 E2.7080
G1 X166.359 Y87.531 E2.7384
G1 X165.980 Y87.605 E2.7480
G1 X164.763 Y87.676 E2.7784
G1 X164.347 Y87.640 E2.7888
G1 X163.161 Y87.360 E2.8191
G1 X162.756 Y87.197 E2.8300
G1 X161.706 Y86.575 E2.8603
G1 X161.369 Y86.299 E2.8712
G1 X160.552 Y85.392 E2.9015
G1 X160.509 Y85.327 E2.9035
G1 X154.594 Y93.158 E3.1477
G1 X154.722 Y93.605 E3.1592
G1 X154.777 Y93.961 E3.1682
G1 X154.801 Y94.795 E3.1889
G1 X154.779 Y95.089 E3.1963
G1 X154.670 Y95.698 E3.2117
G1 X154.625 Y95.880 E3.2163
G1 X154.441 Y96.459 E3.2315
G1 X154.374 Y96.631 E3.2361
G1 X154.001 Y97.433 E3.2581
G1 X153.935 Y97.558 E3.2616
G1 X126.445 Y143.971 E4.6039
G1 X126.366 Y144.090 E4.6074
G1 X125.843 Y144.802 E4.6294
G1 X125.724 Y144.944 E4.6340
G1 X125.305 Y145.384 E4.6491
G1 X125.167 Y145.510 E4.6538
G1 X124.685 Y145.898 E4.6691
G1 X124.438 Y146.059 E4.6765
G1 X123.696 Y146.439 E4.6972
G1 X123.357 Y146.562 E4.7062
G1 X122.903 Y146.665 E4.7178
G1 X118.878 Y155.615 E4.9620
G1 X118.956 Y155.621 E4.9639
G1 X120.144 Y155.902 E4.9943
G1 X120.548 Y156.065 E5.0051
G1 X121.598 Y156.686 E5.0355
G1 X121.936 Y156.963 E5.0463
G1 X122.751 Y157.869 E5.0767
G1 X122.983 Y158.217 E5.0871
G1 X123.505 Y159.318 E5.1174
G1 X123.622 Y159.685 E5.1270
G1 X123.836 Y160.889 E5.1574
G1 X123.854 Y161.249 E5.1664
G1 X123.761 Y162.477 E5.1970
G1 X123.697 Y162.809 E5.2054
G1 X123.321 Y163.985 E5.2362
G1 X123.188 Y164.281 E5.2442
G1 X122.558 Y165.345 E5.2750
G1 X122.363 Y165.603 E5.2831
G1 X121.511 Y166.500 E5.3138
G1 X121.250 Y166.716 E5.3223
G1 X120.218 Y167.386 E5.3529
G1 X119.896 Y167.542 E5.3618
G1 X118.738 Y167.935 E5.3922
G1 X118.358 Y168.009 E5.4018
G1 X117.139 Y168.080 E5.4322
G1 X116.722 Y168.044 E5.4426
G1 X115.643 Y167.788 E5.4702
G1 X115.438 Y167.723 E5.4756
G1 X113.741 Y167.041 E5.5211
G1 X113.154 Y168.346 E5.5567
G1 X113.236 Y168.353 E5.5588
G1 X114.423 Y168.633 E5.5891
G1 X114.828 Y168.796 E5.6000
G1 X115.877 Y169.418 E5.6303
G1 X116.215 Y169.695 E5.6412
G1 X117.030 Y170.600 E5.6715
G1 X117.260 Y170.945 E5.6818
G1 X117.785 Y172.047 E5.7122
G1 X117.904 Y172.419 E5.7219
G1 X118.115 Y173.624 E5.7524
G1 X118.133 Y173.980 E5.7612
G1 X118.042 Y175.206 E5.7918
G1 X117.977 Y175.537 E5.8002
G1 X117.602 Y176.715 E5.8310
G1 X117.469 Y177.012 E5.8391
G1 X116.838 Y178.078 E5.8699
G1 X116.641 Y178.337 E5.8780
G1 X115.789 Y179.233 E5.9088
G1 X115.529 Y179.448 E5.9171
G1 X114.498 Y180.117 E5.9477
G1 X114.177 Y180.273 E5.9566
G1 X113.019 Y180.667 E5.9871
G1 X112.635 Y180.742 E5.9968
G1 X111.416 Y180.811 E6.0271
G1 X111.003 Y180.774 E6.0375
G1 X109.925 Y180.520 E6.0650
G1 X109.718 Y180.455 E6.0704
G1 X108.017 Y179.770 E6.1161
G1 X107.429 Y181.076 E6.1517
G1 X107.519 Y181.084 E6.1539
G1 X108.705 Y181.365 E6.1843
G1 X109.108 Y181.528 E6.1951
G1 X110.155 Y182.149 E6.2254
G1 X110.491 Y182.424 E6.2362
G1 X111.309 Y183.329 E6.2665
G1 X111.542 Y183.678 E6.2770
G1 X112.066 Y184.781 E6.3074
G1 X112.183 Y185.150 E6.3170
G1 X112.395 Y186.355 E6.3474
G1 X112.413 Y186.714 E6.3564
G1 X112.321 Y187.940 E6.3870
G1 X112.257 Y188.269 E6.3953
G1 X111.881 Y189.447 E6.4261
G1 X111.748 Y189.744 E6.4342
G1 X111.117 Y190.809 E6.4650
G1 X110.920 Y191.069 E6.4731
G1 X110.069 Y191.963 E6.5038
G1 X109.811 Y192.177 E6.5122
G1 X108.780 Y192.848 E6.5428
G1 X108.457 Y193.004 E6.5517
