; G-Code generated by Simplify3D(R) Version 4.1.2
; Apr 15, 2020 at 3:48:18 PM
; Settings Summary
;   processName,Process1
;   applyToModels,Surgical_Mask_Strap_Remix
;   profileName,A04-04-15 Tevo Tornado
;   profileVersion,2020-04-15 13:05:51
;   baseProfile,Creality CR-10(2)
;   printMaterial,PLA
;   printQuality,Medium
;   printExtruders,
;   extruderName,Primary Extruder
;   extruderToolheadNumber,0
;   extruderDiameter,0.4
;   extruderAutoWidth,0
;   extruderWidth,0.35
;   extrusionMultiplier,0.95
;   extruderUseRetract,1
;   extruderRetractionDistance,4
;   extruderExtraRestartDistance,0
;   extruderRetractionZLift,0.3
;   extruderRetractionSpeed,3000
;   extruderUseCoasting,1
;   extruderCoastingDistance,0.8
;   extruderUseWipe,0
;   extruderWipeDistance,4
;   primaryExtruder,0
;   layerHeight,0.15
;   topSolidLayers,4
;   bottomSolidLayers,3
;   perimeterOutlines,3
;   printPerimetersInsideOut,0
;   startPointOption,1
;   startPointOriginX,0
;   startPointOriginY,300
;   sequentialIslands,0
;   spiralVaseMode,0
;   firstLayerHeightPercentage,120
;   firstLayerWidthPercentage,100
;   firstLayerUnderspeed,0.5
;   useRaft,0
;   raftExtruder,0
;   raftTopLayers,3
;   raftBaseLayers,2
;   raftOffset,3
;   raftSeparationDistance,0.14
;   raftTopInfill,100
;   aboveRaftSpeedMultiplier,0.3
;   useSkirt,1
;   skirtExtruder,0
;   skirtLayers,1
;   skirtOutlines,3
;   skirtOffset,2
;   usePrimePillar,0
;   primePillarExtruder,999
;   primePillarWidth,12
;   primePillarLocation,7
;   primePillarSpeedMultiplier,1
;   useOozeShield,0
;   oozeShieldExtruder,999
;   oozeShieldOffset,2
;   oozeShieldOutlines,1
;   oozeShieldSidewallShape,1
;   oozeShieldSidewallAngle,30
;   oozeShieldSpeedMultiplier,1
;   infillExtruder,0
;   internalInfillPattern,Rectilinear
;   externalInfillPattern,Rectilinear
;   infillPercentage,15
;   outlineOverlapPercentage,15
;   infillExtrusionWidthPercentage,100
;   minInfillLength,5
;   infillLayerInterval,1
;   internalInfillAngles,45,-45
;   overlapInternalInfillAngles,0
;   externalInfillAngles,45,-45
;   generateSupport,0
;   supportExtruder,0
;   supportInfillPercentage,30
;   supportExtraInflation,0
;   supportBaseLayers,0
;   denseSupportExtruder,0
;   denseSupportLayers,0
;   denseSupportInfillPercentage,70
;   supportLayerInterval,1
;   supportHorizontalPartOffset,0.4
;   supportUpperSeparationLayers,1
;   supportLowerSeparationLayers,1
;   supportType,0
;   supportGridSpacing,4.5
;   maxOverhangAngle,45
;   supportAngles,0
;   temperatureName,Primary Extruder,Heated Bed
;   temperatureNumber,0,0
;   temperatureSetpointCount,1,1
;   temperatureSetpointLayers,1,1
;   temperatureSetpointTemperatures,215,55
;   temperatureStabilizeAtStartup,1,1
;   temperatureHeatedBed,0,1
;   fanLayers,1,2
;   fanSpeeds,0,100
;   blipFanToFullPower,0
;   adjustSpeedForCooling,1
;   minSpeedLayerTime,15
;   minCoolingSpeedSlowdown,50
;   increaseFanForCooling,1
;   minFanLayerTime,25
;   maxCoolingFanSpeed,100
;   increaseFanForBridging,1
;   bridgingFanSpeed,100
;   use5D,1
;   relativeEdistances,0
;   allowEaxisZeroing,1
;   independentExtruderAxes,0
;   includeM10123,0
;   stickySupport,1
;   applyToolheadOffsets,0
;   gcodeXoffset,0
;   gcodeYoffset,0
;   gcodeZoffset,0
;   overrideMachineDefinition,1
;   machineTypeOverride,0
;   strokeXoverride,300
;   strokeYoverride,300
;   strokeZoverride,400
;   originOffsetXoverride,0
;   originOffsetYoverride,0
;   originOffsetZoverride,0
;   homeXdirOverride,-1
;   homeYdirOverride,-1
;   homeZdirOverride,-1
;   flipXoverride,1
;   flipYoverride,-1
;   flipZoverride,1
;   toolheadOffsets,0,0|0,0|0,0|0,0|0,0|0,0
;   overrideFirmwareConfiguration,1
;   firmwareTypeOverride,RepRap (Marlin/Repetier/Sprinter)
;   GPXconfigOverride,r2
;   baudRateOverride,250000
;   overridePrinterModels,1
;   printerModelsOverride
;   startingGcode,;,; -]H.P.B[- MarshMalloW  ,; $VER: StartScript 1.02 (26.12.2019) MarshMalloW,;,; Begin Startcode,;,M117 *Preheat*     	; Preheat,;extruder0_temperature,M104 S[extruder0_temperature]  ,M109 S[extruder0_temperature] ,M109 R[extruder0_temperature] ,;,M117 *Auto-leveling*     	; Auto-leveling,M107                   	; Turn layer fan off,G21                    	; Set to metric [change to G20 if you want Imperial],G90                    	; Force coordinates to be absolute relative to the origin,G28                    	; Home X/Y/Z axis,G29                    	; Auto-leveling (BL-Touch),;,M117 *Start Clean*     	; Indicate nozzle clean in progress on LCD,G92 E0                 	; Set Extruder to 0 ,G1 X0 Y0 F2000         	; Move X and Y to 0 with speed 2000 (mm/min),G1 Z0.1 F1000          	; Move Z to   0.1 with speed 1000 (mm/min),G1 X8.0 F2000          	; Move X to   8.0 with speed 2000 (mm/min),G1 Y60.0 E4.0 F1000.0  	; Move Y to  60 and Extruder with 4.0 with speed 1000 (mm/min),G1 Y100.0 E8.5 F1000.0 	; Move Y to 100 and Extruder with 8.5 with speed 1000 (mm/min),G92 E0                 	; Set extruder to 0,G1 X16.0 F3000         	; Move X to 16.0 with speed 3000 (mm/min),G1 Y60.0 F3000         	; Move Y to 60.0 with speed 3000 (mm/min),M117 *End Clean*       	; Indicate nozzle clean in progress on LCD,G1 Z5 F3000            	; Move Z to  5.0 with speed 3000 (mm/min),G1 X20.0 F3000         	; Move X to 20.0 with speed 3000 (mm/min),G1 Y20.0 F3000         	; Move Y to 20.0 with speed 3000 (mm/min),; ,M117 *Printing...*     	; Start printing msg on LCD,;,; End Startcode,;,; Begin printing with sliced GCode after here,;
;   layerChangeGcode,
;   retractionGcode,
;   toolChangeGcode,
;   endingGcode,;,; init 181010,;,;M107 			; Fan off,;G1 E-1 F300 			; Retract the filament a bit before lifting the nozzle,;M104 S0 			; Turn off extruder,;M140 S0 			; Turn off bed,;G91			; Relative positioning,;G28 X0 Y0 			; Move X/Y to min endstops so the head is out of teh way,;M84 			; Disable motors,;G90 			; Absolute positioning,;M117 Print ready...,,;,; // From Cura 181010,; // End_gcode,G92 E0			; Zero the extruded length,;G1 E-30 F300		; Retract E -30,M106 S0			; Turn off cooling fan,M104 S0			; Turn off temperature,M140 S0		     	; Turn off bed,G91			; Relative positioning,G1 E-1 F300			; Retract the filament a bit before lifting the nozzle to release some of the pressure,G1 Z+20 E-5 X-20 Y-20 F7200	; Move Z up a bit and retract filament even more,G1 X0 Y150 F10000		; Move right min,M107			; Turn off layer fan,M84			; Disable motors,G90			; Absolute positioning,M117 *The-End* 		; End msg,;,
;   exportFileFormat,gcode
;   celebration,0
;   celebrationSong,Star Wars
;   postProcessing,|{REPLACE "; layer " "M117 INDICATOR-Layer"}|{REPLACE ", Z = " "\n; Z="}
;   defaultSpeed,1800
;   outlineUnderspeed,0.5
;   solidInfillUnderspeed,0.8
;   supportUnderspeed,0.8
;   rapidXYspeed,6000
;   rapidZspeed,1002
;   minBridgingArea,50
;   bridgingExtraInflation,0.2
;   bridgingExtrusionMultiplier,1
;   bridgingSpeedMultiplier,0.6
;   useFixedBridgingAngle,0
;   fixedBridgingAngle,0
;   applyBridgingToPerimeters,0
;   filamentDiameters,1.75|1.75|1.75|1.75|1.75|1.75
;   filamentPricesPerKg,30|46|46|46|46|46
;   filamentDensities,1.25|1.25|1.25|1.25|1.25|1.25
;   useMinPrintHeight,0
;   minPrintHeight,0
;   useMaxPrintHeight,0
;   maxPrintHeight,9
;   useDiaphragm,0
;   diaphragmLayerInterval,20
;   robustSlicing,1
;   mergeAllIntoSolid,0
;   onlyRetractWhenCrossingOutline,1
;   retractBetweenLayers,0
;   useRetractionMinTravel,0
;   retractionMinTravel,3
;   retractWhileWiping,0
;   onlyWipeOutlines,1
;   avoidCrossingOutline,1
;   maxMovementDetourFactor,3
;   toolChangeRetractionDistance,12
;   toolChangeExtraRestartDistance,-0.5
;   toolChangeRetractionSpeed,600
;   externalThinWallType,1
;   internalThinWallType,1
;   thinWallAllowedOverlapPercentage,10
;   singleExtrusionMinLength,1
;   singleExtrusionMinPrintingWidthPercentage,50
;   singleExtrusionMaxPrintingWidthPercentage,200
;   singleExtrusionEndpointExtension,0.2
;   horizontalSizeCompensation,0
G90
M82
M106 S0
M140 S55
M190 S55
;
; -]H.P.B[- MarshMalloW  
; $VER: StartScript 1.02 (26.12.2019) MarshMalloW
;
; Begin Startcode
;
M117 *Preheat*     	; Preheat
;extruder0_temperature
M104 S215  
M109 S215 
M109 R215 
;
M117 *Auto-leveling*     	; Auto-leveling
M107                   	; Turn layer fan off
G21                    	; Set to metric [change to G20 if you want Imperial]
G90                    	; Force coordinates to be absolute relative to the origin
G28                    	; Home X/Y/Z axis
G29                    	; Auto-leveling (BL-Touch)
;
M117 *Start Clean*     	; Indicate nozzle clean in progress on LCD
G92 E0                 	; Set Extruder to 0 
G1 X0 Y0 F2000         	; Move X and Y to 0 with speed 2000 (mm/min)
G1 Z0.1 F1000          	; Move Z to   0.1 with speed 1000 (mm/min)
G1 X8.0 F2000          	; Move X to   8.0 with speed 2000 (mm/min)
G1 Y60.0 E4.0 F1000.0  	; Move Y to  60 and Extruder with 4.0 with speed 1000 (mm/min)
G1 Y100.0 E8.5 F1000.0 	; Move Y to 100 and Extruder with 8.5 with speed 1000 (mm/min)
G92 E0                 	; Set extruder to 0
G1 X16.0 F3000         	; Move X to 16.0 with speed 3000 (mm/min)
G1 Y60.0 F3000         	; Move Y to 60.0 with speed 3000 (mm/min)
M117 *End Clean*       	; Indicate nozzle clean in progress on LCD
G1 Z5 F3000            	; Move Z to  5.0 with speed 3000 (mm/min)
G1 X20.0 F3000         	; Move X to 20.0 with speed 3000 (mm/min)
G1 Y20.0 F3000         	; Move Y to 20.0 with speed 3000 (mm/min)
; 
M117 *Printing...*     	; Start printing msg on LCD
;
; End Startcode
;
; Begin printing with sliced GCode after here
;
; process Process1
M117 INDICATOR-Layer1
; Z=0.180
T0
G92 E0.0000
G1 E-4.0000 F3000
; feature skirt
; tool H0.180 W0.350
G1 Z0.300 F1002
G1 X173.537 Y55.411 F6000
G1 Z0.180 F1002
G1 E0.0000 F3000
G92 E0.0000
G1 X174.687 Y55.540 E0.0288 F900
G1 X175.009 Y55.615 E0.0370
G1 X176.170 Y56.028 E0.0677
G1 X176.478 Y56.181 E0.0763
G1 X177.504 Y56.855 E0.1068
G1 X177.789 Y57.100 E0.1161
G1 X178.602 Y58.012 E0.1466
G1 X178.825 Y58.346 E0.1565
G1 X179.703 Y60.163 E0.2068
G1 X194.920 Y61.877 E0.5878
G1 X194.920 Y60.689 E0.6174
G1 X194.986 Y60.257 E0.6282
G1 X195.350 Y59.095 E0.6585
G1 X195.529 Y58.720 E0.6689
G1 X196.209 Y57.708 E0.6992
G1 X196.468 Y57.418 E0.7089
G1 X197.397 Y56.621 E0.7393
G1 X197.696 Y56.423 E0.7483
G1 X198.800 Y55.876 E0.7789
G1 X199.117 Y55.763 E0.7873
G1 X200.321 Y55.487 E0.8180
G1 X200.644 Y55.451 E0.8261
G1 X201.880 Y55.451 E0.8569
G1 X202.202 Y55.487 E0.8649
G1 X203.408 Y55.763 E0.8957
G1 X203.727 Y55.877 E0.9041
G1 X204.829 Y56.423 E0.9348
G1 X205.127 Y56.621 E0.9437
G1 X206.056 Y57.418 E0.9741
G1 X206.314 Y57.708 E0.9838
G1 X206.995 Y58.720 E1.0141
G1 X207.174 Y59.095 E1.0245
G1 X207.538 Y60.257 E1.0548
G1 X207.604 Y60.689 E1.0656
G1 X207.604 Y61.800 E1.0933
G1 X207.588 Y62.018 E1.0987
G1 X207.394 Y63.282 E1.1305
G1 X208.789 Y63.439 E1.1655
G1 X208.789 Y62.256 E1.1949
G1 X208.855 Y61.825 E1.2058
G1 X209.219 Y60.661 E1.2361
G1 X209.399 Y60.286 E1.2464
G1 X210.079 Y59.274 E1.2768
G1 X210.337 Y58.984 E1.2864
G1 X211.267 Y58.187 E1.3169
G1 X211.566 Y57.988 E1.3259
G1 X212.668 Y57.443 E1.3565
G1 X212.985 Y57.330 E1.3648
G1 X214.189 Y57.053 E1.3956
G1 X214.513 Y57.017 E1.4037
G1 X215.751 Y57.017 E1.4345
G1 X216.075 Y57.053 E1.4426
G1 X217.277 Y57.331 E1.4733
G1 X217.593 Y57.443 E1.4816
G1 X218.696 Y57.988 E1.5122
G1 X218.997 Y58.187 E1.5212
G1 X219.925 Y58.985 E1.5517
G1 X220.182 Y59.273 E1.5613
G1 X220.863 Y60.284 E1.5916
G1 X221.044 Y60.660 E1.6020
G1 X221.408 Y61.825 E1.6324
G1 X221.474 Y62.256 E1.6432
G1 X221.474 Y63.367 E1.6709
G1 X221.457 Y63.586 E1.6763
G1 X221.264 Y64.844 E1.7080
G1 X222.659 Y65.001 E1.7429
G1 X222.659 Y63.824 E1.7722
G1 X222.724 Y63.394 E1.7830
G1 X223.086 Y62.229 E1.8134
G1 X223.268 Y61.851 E1.8238
G1 X223.950 Y60.838 E1.8542
G1 X224.207 Y60.549 E1.8638
G1 X225.136 Y59.752 E1.8943
G1 X225.436 Y59.554 E1.9032
G1 X226.538 Y59.009 E1.9338
G1 X226.853 Y58.897 E1.9421
G1 X228.057 Y58.619 E1.9729
G1 X228.381 Y58.583 E1.9810
G1 X229.620 Y58.583 E2.0118
G1 X229.944 Y58.619 E2.0199
G1 X231.147 Y58.897 E2.0507
G1 X231.463 Y59.009 E2.0590
G1 X232.565 Y59.554 E2.0896
G1 X232.865 Y59.753 E2.0985
G1 X233.794 Y60.550 E2.1290
G1 X234.051 Y60.838 E2.1386
G1 X234.733 Y61.851 E2.1690
G1 X234.915 Y62.229 E2.1794
G1 X235.277 Y63.394 E2.2098
G1 X235.342 Y63.823 E2.2206
G1 X235.342 Y64.933 E2.2482
G1 X235.326 Y65.151 E2.2536
G1 X235.133 Y66.406 E2.2852
G1 X236.527 Y66.563 E2.3201
G1 X236.527 Y65.388 E2.3494
G1 X236.593 Y64.956 E2.3602
G1 X236.957 Y63.794 E2.3905
G1 X237.137 Y63.419 E2.4009
G1 X237.817 Y62.407 E2.4312
G1 X238.075 Y62.117 E2.4409
G1 X239.005 Y61.320 E2.4713
G1 X239.304 Y61.122 E2.4803
G1 X240.407 Y60.575 E2.5109
G1 X240.725 Y60.462 E2.5193
G1 X241.929 Y60.186 E2.5500
G1 X242.251 Y60.150 E2.5581
G1 X243.488 Y60.150 E2.5889
G1 X243.809 Y60.186 E2.5969
G1 X245.015 Y60.462 E2.6277
G1 X245.334 Y60.576 E2.6361
G1 X246.436 Y61.123 E2.6668
G1 X246.735 Y61.320 E2.6757
G1 X247.664 Y62.117 E2.7061
G1 X247.922 Y62.407 E2.7158
G1 X248.602 Y63.419 E2.7461
G1 X248.782 Y63.794 E2.7565
G1 X249.146 Y64.957 E2.7868
G1 X249.212 Y65.388 E2.7976
G1 X249.212 Y66.499 E2.8253
G1 X249.195 Y66.717 E2.8307
G1 X245.962 Y87.781 E3.3610
G1 X245.914 Y87.991 E3.3663
G1 X245.584 Y89.050 E3.3939
G1 X245.403 Y89.428 E3.4044
G1 X244.720 Y90.440 E3.4348
G1 X244.463 Y90.729 E3.4444
G1 X243.535 Y91.525 E3.4748
G1 X243.236 Y91.723 E3.4837
G1 X242.134 Y92.269 E3.5143
G1 X241.815 Y92.383 E3.5228
G1 X240.610 Y92.659 E3.5535
G1 X240.288 Y92.696 E3.5616
G1 X239.051 Y92.696 E3.5924
G1 X238.729 Y92.659 E3.6004
G1 X237.525 Y92.383 E3.6312
G1 X237.207 Y92.270 E3.6396
G1 X236.103 Y91.723 E3.6702
G1 X235.803 Y91.524 E3.6792
G1 X234.876 Y90.727 E3.7096
G1 X234.619 Y90.439 E3.7192
G1 X233.938 Y89.428 E3.7495
G1 X233.757 Y89.052 E3.7599
G1 X233.393 Y87.889 E3.7902
G1 X233.327 Y87.457 E3.8011
G1 X233.327 Y86.236 E3.8315
G1 X233.393 Y85.804 E3.8424
G1 X233.757 Y84.641 E3.8727
G1 X233.797 Y84.559 E3.8750
G1 X232.372 Y84.398 E3.9106
G1 X232.094 Y86.215 E3.9563
G1 X232.045 Y86.426 E3.9617
G1 X231.714 Y87.486 E3.9894
G1 X231.533 Y87.862 E3.9998
G1 X230.851 Y88.874 E4.0301
G1 X230.594 Y89.163 E4.0398
G1 X229.665 Y89.960 E4.0702
G1 X229.365 Y90.158 E4.0791
G1 X228.263 Y90.703 E4.1097
G1 X227.948 Y90.816 E4.1181
G1 X226.744 Y91.093 E4.1488
G1 X226.420 Y91.130 E4.1569
G1 X225.182 Y91.130 E4.1877
G1 X224.859 Y91.093 E4.1958
G1 X223.654 Y90.816 E4.2266
G1 X223.338 Y90.703 E4.2349
G1 X222.236 Y90.158 E4.2655
G1 X221.936 Y89.960 E4.2745
G1 X221.008 Y89.163 E4.3049
G1 X220.750 Y88.874 E4.3145
G1 X220.068 Y87.862 E4.3449
G1 X219.886 Y87.483 E4.3554
G1 X219.524 Y86.318 E4.3857
G1 X219.459 Y85.889 E4.3965
G1 X219.459 Y84.671 E4.4268
G1 X219.524 Y84.241 E4.4376
G1 X219.886 Y83.078 E4.4680
G1 X219.925 Y82.997 E4.4702
G1 X218.503 Y82.836 E4.5058
G1 X218.224 Y84.649 E4.5515
G1 X218.175 Y84.861 E4.5569
G1 X217.844 Y85.918 E4.5844
G1 X217.665 Y86.292 E4.5948
G1 X216.985 Y87.305 E4.6251
G1 X216.725 Y87.597 E4.6348
G1 X215.795 Y88.393 E4.6653
G1 X215.498 Y88.590 E4.6742
G1 X214.397 Y89.136 E4.7048
G1 X214.079 Y89.250 E4.7132
G1 X212.874 Y89.527 E4.7439
G1 X212.551 Y89.564 E4.7520
G1 X211.313 Y89.564 E4.7828
G1 X210.989 Y89.527 E4.7909
G1 X209.784 Y89.250 E4.8217
G1 X209.467 Y89.136 E4.8301
G1 X208.365 Y88.590 E4.8607
G1 X208.068 Y88.393 E4.8695
G1 X207.138 Y87.597 E4.9000
G1 X206.879 Y87.305 E4.9097
G1 X206.198 Y86.292 E4.9401
G1 X206.019 Y85.918 E4.9504
G1 X205.655 Y84.756 E4.9807
G1 X205.589 Y84.324 E4.9916
G1 X205.589 Y83.104 E5.0219
G1 X205.655 Y82.673 E5.0328
G1 X206.019 Y81.509 E5.0631
G1 X206.055 Y81.435 E5.0652
G1 X204.633 Y81.274 E5.1008
G1 X204.355 Y83.082 E5.1463
G1 X204.306 Y83.292 E5.1517
G1 X203.977 Y84.351 E5.1793
G1 X203.795 Y84.729 E5.1897
G1 X203.113 Y85.741 E5.2201
G1 X202.856 Y86.030 E5.2297
G1 X201.928 Y86.826 E5.2601
G1 X201.629 Y87.024 E5.2690
G1 X200.527 Y87.570 E5.2996
G1 X200.208 Y87.684 E5.3081
G1 X199.002 Y87.960 E5.3388
G1 X198.680 Y87.997 E5.3469
G1 X197.444 Y87.997 E5.3777
G1 X197.121 Y87.960 E5.3857
