; G-Code generated by Simplify3D(R) Version 4.1.2
; Apr 29, 2020 at 8:12:28 PM
; Settings Summary
;   processName,Process1
;   applyToModels,LedControlBox_Bottom
;   profileName,A04-04-25 Tevo Tornado
;   profileVersion,2020-04-15 13:31:35
;   baseProfile,Creality CR-10(2)
;   printMaterial,PLA
;   printQuality,Medium
;   printExtruders,
;   extruderName,Primary Extruder
;   extruderToolheadNumber,0
;   extruderDiameter,0.4
;   extruderAutoWidth,0
;   extruderWidth,0.35
;   extrusionMultiplier,0.95
;   extruderUseRetract,1
;   extruderRetractionDistance,4
;   extruderExtraRestartDistance,0
;   extruderRetractionZLift,0.3
;   extruderRetractionSpeed,3000
;   extruderUseCoasting,1
;   extruderCoastingDistance,0.8
;   extruderUseWipe,0
;   extruderWipeDistance,4
;   primaryExtruder,0
;   layerHeight,0.15
;   topSolidLayers,4
;   bottomSolidLayers,3
;   perimeterOutlines,3
;   printPerimetersInsideOut,0
;   startPointOption,1
;   startPointOriginX,0
;   startPointOriginY,300
;   sequentialIslands,0
;   spiralVaseMode,0
;   firstLayerHeightPercentage,120
;   firstLayerWidthPercentage,100
;   firstLayerUnderspeed,0.35
;   useRaft,0
;   raftExtruder,0
;   raftTopLayers,3
;   raftBaseLayers,2
;   raftOffset,3
;   raftSeparationDistance,0.14
;   raftTopInfill,100
;   aboveRaftSpeedMultiplier,0.3
;   useSkirt,1
;   skirtExtruder,0
;   skirtLayers,1
;   skirtOutlines,3
;   skirtOffset,2
;   usePrimePillar,0
;   primePillarExtruder,999
;   primePillarWidth,12
;   primePillarLocation,7
;   primePillarSpeedMultiplier,1
;   useOozeShield,0
;   oozeShieldExtruder,999
;   oozeShieldOffset,2
;   oozeShieldOutlines,1
;   oozeShieldSidewallShape,1
;   oozeShieldSidewallAngle,30
;   oozeShieldSpeedMultiplier,1
;   infillExtruder,0
;   internalInfillPattern,Rectilinear
;   externalInfillPattern,Rectilinear
;   infillPercentage,15
;   outlineOverlapPercentage,15
;   infillExtrusionWidthPercentage,100
;   minInfillLength,5
;   infillLayerInterval,1
;   internalInfillAngles,45,-45
;   overlapInternalInfillAngles,0
;   externalInfillAngles,45,-45
;   generateSupport,0
;   supportExtruder,0
;   supportInfillPercentage,30
;   supportExtraInflation,0
;   supportBaseLayers,0
;   denseSupportExtruder,0
;   denseSupportLayers,0
;   denseSupportInfillPercentage,70
;   supportLayerInterval,1
;   supportHorizontalPartOffset,0.4
;   supportUpperSeparationLayers,1
;   supportLowerSeparationLayers,1
;   supportType,0
;   supportGridSpacing,4.5
;   maxOverhangAngle,45
;   supportAngles,0
;   temperatureName,Primary Extruder,Heated Bed
;   temperatureNumber,0,0
;   temperatureSetpointCount,1,1
;   temperatureSetpointLayers,1,1
;   temperatureSetpointTemperatures,215,55
;   temperatureStabilizeAtStartup,1,1
;   temperatureHeatedBed,0,1
;   fanLayers,1,2
;   fanSpeeds,0,100
;   blipFanToFullPower,0
;   adjustSpeedForCooling,1
;   minSpeedLayerTime,15
;   minCoolingSpeedSlowdown,50
;   increaseFanForCooling,1
;   minFanLayerTime,25
;   maxCoolingFanSpeed,100
;   increaseFanForBridging,1
;   bridgingFanSpeed,100
;   use5D,1
;   relativeEdistances,0
;   allowEaxisZeroing,1
;   independentExtruderAxes,0
;   includeM10123,0
;   stickySupport,1
;   applyToolheadOffsets,0
;   gcodeXoffset,0
;   gcodeYoffset,0
;   gcodeZoffset,0
;   overrideMachineDefinition,1
;   machineTypeOverride,0
;   strokeXoverride,300
;   strokeYoverride,300
;   strokeZoverride,400
;   originOffsetXoverride,0
;   originOffsetYoverride,0
;   originOffsetZoverride,0
;   homeXdirOverride,-1
;   homeYdirOverride,-1
;   homeZdirOverride,-1
;   flipXoverride,1
;   flipYoverride,-1
;   flipZoverride,1
;   toolheadOffsets,0,0|0,0|0,0|0,0|0,0|0,0
;   overrideFirmwareConfiguration,1
;   firmwareTypeOverride,RepRap (Marlin/Repetier/Sprinter)
;   GPXconfigOverride,r2
;   baudRateOverride,250000
;   overridePrinterModels,1
;   printerModelsOverride
;   startingGcode,;,; -]H.P.B[- MarshMalloW  ,; $VER: StartScript 1.02 (26.12.2019) MarshMalloW,;,; Begin Startcode,;,M117 *Preheat*     	; Preheat,;extruder0_temperature,M104 S[extruder0_temperature]  ,M109 S[extruder0_temperature] ,M109 R[extruder0_temperature] ,;,M117 *Auto-leveling*     	; Auto-leveling,M107                   	; Turn layer fan off,G21                    	; Set to metric [change to G20 if you want Imperial],G90                    	; Force coordinates to be absolute relative to the origin,G28                    	; Home X/Y/Z axis,G29                    	; Auto-leveling (BL-Touch),;,M117 *Start Clean*     	; Indicate nozzle clean in progress on LCD,G92 E0                 	; Set Extruder to 0 ,G1 X0 Y0 F2000         	; Move X and Y to 0 with speed 2000 (mm/min),G1 Z0.1 F1000          	; Move Z to   0.1 with speed 1000 (mm/min),G1 X8.0 F2000          	; Move X to   8.0 with speed 2000 (mm/min),G1 Y60.0 E4.0 F1000.0  	; Move Y to  60 and Extruder with 4.0 with speed 1000 (mm/min),G1 Y100.0 E8.5 F1000.0 	; Move Y to 100 and Extruder with 8.5 with speed 1000 (mm/min),G92 E0                 	; Set extruder to 0,G1 X16.0 F3000         	; Move X to 16.0 with speed 3000 (mm/min),G1 Y60.0 F3000         	; Move Y to 60.0 with speed 3000 (mm/min),M117 *End Clean*       	; Indicate nozzle clean in progress on LCD,G1 Z5 F3000            	; Move Z to  5.0 with speed 3000 (mm/min),G1 X20.0 F3000         	; Move X to 20.0 with speed 3000 (mm/min),G1 Y20.0 F3000         	; Move Y to 20.0 with speed 3000 (mm/min),; ,M117 *Printing...*     	; Start printing msg on LCD,;,; End Startcode,;,; Begin printing with sliced GCode after here,;
;   layerChangeGcode,
;   retractionGcode,
;   toolChangeGcode,
;   endingGcode,;,; init 181010,;,;M107 			; Fan off,;G1 E-1 F300 			; Retract the filament a bit before lifting the nozzle,;M104 S0 			; Turn off extruder,;M140 S0 			; Turn off bed,;G91			; Relative positioning,;G28 X0 Y0 			; Move X/Y to min endstops so the head is out of teh way,;M84 			; Disable motors,;G90 			; Absolute positioning,;M117 Print ready...,,;,; // From Cura 181010,; // End_gcode,G92 E0			; Zero the extruded length,;G1 E-30 F300		; Retract E -30,M106 S0			; Turn off cooling fan,M104 S0			; Turn off temperature,M140 S0		     	; Turn off bed,G91			; Relative positioning,G1 E-1 F300			; Retract the filament a bit before lifting the nozzle to release some of the pressure,G1 Z+20 E-5 X-20 Y-20 F7200	; Move Z up a bit and retract filament even more,G1 X0 Y150 F10000		; Move right min,M107			; Turn off layer fan,M84			; Disable motors,G90			; Absolute positioning,M117 *The-End* 		; End msg,;,
;   exportFileFormat,gcode
;   celebration,0
;   celebrationSong,Star Wars
;   postProcessing,|{REPLACE "; layer " "M117 INDICATOR-Layer"}|{REPLACE ", Z = " "\n; Z="}
;   defaultSpeed,1800
;   outlineUnderspeed,0.5
;   solidInfillUnderspeed,0.8
;   supportUnderspeed,0.8
;   rapidXYspeed,6000
;   rapidZspeed,1002
;   minBridgingArea,50
;   bridgingExtraInflation,0.2
;   bridgingExtrusionMultiplier,1
;   bridgingSpeedMultiplier,0.6
;   useFixedBridgingAngle,0
;   fixedBridgingAngle,0
;   applyBridgingToPerimeters,0
;   filamentDiameters,1.75|1.75|1.75|1.75|1.75|1.75
;   filamentPricesPerKg,30|46|46|46|46|46
;   filamentDensities,1.25|1.25|1.25|1.25|1.25|1.25
;   useMinPrintHeight,0
;   minPrintHeight,0
;   useMaxPrintHeight,0
;   maxPrintHeight,9
;   useDiaphragm,0
;   diaphragmLayerInterval,20
;   robustSlicing,1
;   mergeAllIntoSolid,0
;   onlyRetractWhenCrossingOutline,1
;   retractBetweenLayers,0
;   useRetractionMinTravel,0
;   retractionMinTravel,3
;   retractWhileWiping,0
;   onlyWipeOutlines,1
;   avoidCrossingOutline,1
;   maxMovementDetourFactor,3
;   toolChangeRetractionDistance,12
;   toolChangeExtraRestartDistance,-0.5
;   toolChangeRetractionSpeed,600
;   externalThinWallType,1
;   internalThinWallType,1
;   thinWallAllowedOverlapPercentage,10
;   singleExtrusionMinLength,1
;   singleExtrusionMinPrintingWidthPercentage,50
;   singleExtrusionMaxPrintingWidthPercentage,200
;   singleExtrusionEndpointExtension,0.2
;   horizontalSizeCompensation,0
G90
M82
M106 S0
M140 S55
M190 S55
;
; -]H.P.B[- MarshMalloW  
; $VER: StartScript 1.02 (26.12.2019) MarshMalloW
;
; Begin Startcode
;
M117 *Preheat*     	; Preheat
;extruder0_temperature
M104 S215  
M109 S215 
M109 R215 
;
M117 *Auto-leveling*     	; Auto-leveling
M107                   	; Turn layer fan off
G21                    	; Set to metric [change to G20 if you want Imperial]
G90                    	; Force coordinates to be absolute relative to the origin
G28                    	; Home X/Y/Z axis
G29                    	; Auto-leveling (BL-Touch)
;
M117 *Start Clean*     	; Indicate nozzle clean in progress on LCD
G92 E0                 	; Set Extruder to 0 
G1 X0 Y0 F2000         	; Move X and Y to 0 with speed 2000 (mm/min)
G1 Z0.1 F1000          	; Move Z to   0.1 with speed 1000 (mm/min)
G1 X8.0 F2000          	; Move X to   8.0 with speed 2000 (mm/min)
G1 Y60.0 E4.0 F1000.0  	; Move Y to  60 and Extruder with 4.0 with speed 1000 (mm/min)
G1 Y100.0 E8.5 F1000.0 	; Move Y to 100 and Extruder with 8.5 with speed 1000 (mm/min)
G92 E0                 	; Set extruder to 0
G1 X16.0 F3000         	; Move X to 16.0 with speed 3000 (mm/min)
G1 Y60.0 F3000         	; Move Y to 60.0 with speed 3000 (mm/min)
M117 *End Clean*       	; Indicate nozzle clean in progress on LCD
G1 Z5 F3000            	; Move Z to  5.0 with speed 3000 (mm/min)
G1 X20.0 F3000         	; Move X to 20.0 with speed 3000 (mm/min)
G1 Y20.0 F3000         	; Move Y to 20.0 with speed 3000 (mm/min)
; 
M117 *Printing...*     	; Start printing msg on LCD
;
; End Startcode
;
; Begin printing with sliced GCode after here
;
; process Process1
M117 INDICATOR-Layer1
; Z=0.180
T0
G92 E0.0000
G1 E-4.0000 F3000
; feature skirt
; tool H0.180 W0.350
G1 Z0.300 F1002
G1 X210.495 Y59.612 F6000
G1 Z0.180 F1002
G1 E0.0000 F3000
G92 E0.0000
G1 X210.495 Y103.993 E1.1043 F630
G1 X208.811 Y105.678 E1.1636
G1 X87.330 Y105.678 E4.1864
G1 X85.645 Y103.993 E4.2457
G1 X85.645 Y59.612 E5.3500
G1 X87.330 Y57.928 E5.4093
G1 X208.811 Y57.928 E8.4321
G1 X210.495 Y59.612 E8.4913
G92 E0.0000
G1 E-4.0000 F3000
G1 Z0.480 F1002
G1 X207.445 Y60.978 F6000
G1 X206.651 Y60.978
G1 X89.432 Y102.628
G1 X88.695 Y102.628
G1 X85.995 Y103.848
G1 Z0.180 F1002
G1 E0.0000 F3000
G92 E0.0000
G1 X85.995 Y59.757 E1.0971 F630
G1 X87.475 Y58.278 E1.1492
G1 X208.666 Y58.278 E4.1648
G1 X210.145 Y59.757 E4.2168
G1 X210.145 Y103.848 E5.3139
G1 X208.666 Y105.328 E5.3660
G1 X87.475 Y105.328 E8.3816
G1 X85.995 Y103.848 E8.4336
G92 E0.0000
G1 E-4.0000 F3000
G1 Z0.480 F1002
G1 X209.795 Y103.703 F6000
G1 Z0.180 F1002
G1 E0.0000 F3000
G92 E0.0000
G1 X208.521 Y104.978 E0.0448 F630
G1 X87.620 Y104.978 E3.0532
G1 X86.345 Y103.703 E3.0980
G1 X86.345 Y59.902 E4.1879
G1 X87.620 Y58.628 E4.2328
G1 X208.521 Y58.628 E7.2411
G1 X209.795 Y59.902 E7.2860
G1 X209.795 Y103.703 E8.3759
G92 E0.0000
G1 E-4.0000 F3000
; feature outer perimeter
G1 Z0.480 F1002
G1 X207.445 Y60.978 F6000
G1 Z0.180 F1002
G1 E0.0000 F3000
G92 E0.0000
G1 X207.445 Y102.628 E1.0364 F315
G1 X88.695 Y102.628 E3.9912
G1 X88.695 Y60.978 E5.0276
G1 X206.645 Y60.978 E7.9625
G1 X207.445 Y60.978 F315
; feature inner perimeter
G1 X207.095 Y61.328 F6000
G92 E0.0000
G1 X207.095 Y102.278 E1.0189 F472
G1 X89.045 Y102.278 E3.9564
G1 X89.045 Y61.328 E4.9753
G1 X206.295 Y61.328 E7.8928
G1 X207.095 Y61.328 F472
G1 X206.745 Y61.678 F6000
G92 E0.0000
G1 X206.745 Y101.928 E1.0015 F472
G1 X89.395 Y101.928 E3.9215
G1 X89.395 Y61.678 E4.9230
G1 X205.945 Y61.678 E7.8231
G1 X206.745 Y61.678 F472
; feature solid layer
G1 X205.954 Y61.975 F6000
G92 E0.0000
G1 X206.448 Y62.469 E0.0174 F504
G1 X206.448 Y62.964 E0.0297
G1 X205.459 Y61.975 E0.0645
G1 X204.964 Y61.975 E0.0768
G1 X206.448 Y63.459 E0.1290
G1 X206.448 Y63.954 E0.1413
G1 X204.469 Y61.975 E0.2110
G1 X203.974 Y61.975 E0.2233
G1 X206.448 Y64.449 E0.3104
G1 X206.448 Y64.944 E0.3227
G1 X203.479 Y61.975 E0.4271
G1 X202.984 Y61.975 E0.4395
G1 X206.448 Y65.439 E0.5613
G1 X206.448 Y65.934 E0.5737
G1 X202.489 Y61.975 E0.7130
G1 X201.994 Y61.975 E0.7253
G1 X206.448 Y66.429 E0.8820
G1 X206.448 Y66.924 E0.8943
G1 X201.499 Y61.975 E1.0685
G1 X201.004 Y61.975 E1.0808
G1 X206.448 Y67.419 E1.2723
G1 X206.448 Y67.914 E1.2847
G1 X200.509 Y61.975 E1.4936
G1 X200.014 Y61.975 E1.5060
G1 X206.448 Y68.409 E1.7324
G1 X206.448 Y68.904 E1.7447
G1 X199.519 Y61.975 E1.9885
G1 X199.024 Y61.975 E2.0008
G1 X206.448 Y69.399 E2.2620
G1 X206.448 Y69.894 E2.2743
G1 X198.529 Y61.975 E2.5530
G1 X198.034 Y61.975 E2.5653
G1 X206.448 Y70.389 E2.8614
G1 X206.448 Y70.884 E2.8737
G1 X197.539 Y61.975 E3.1872
G1 X197.044 Y61.975 E3.1995
G1 X206.448 Y71.379 E3.5304
G1 X206.448 Y71.874 E3.5427
G1 X196.550 Y61.975 E3.8910
G1 X196.055 Y61.975 E3.9034
G1 X206.448 Y72.368 E4.2691
G1 X206.448 Y72.863 E4.2814
G1 X195.560 Y61.975 E4.6646
G1 X195.065 Y61.975 E4.6769
G1 X206.448 Y73.358 E5.0775
G1 X206.448 Y73.853 E5.0898
G1 X194.570 Y61.975 E5.5078
G1 X194.075 Y61.975 E5.5201
G1 X206.448 Y74.348 E5.9555
G1 X206.448 Y74.843 E5.9678
G1 X193.580 Y61.975 E6.4206
G1 X193.085 Y61.975 E6.4330
G1 X206.448 Y75.338 E6.9032
G1 X206.448 Y75.833 E6.9155
G1 X192.590 Y61.975 E7.4032
G1 X192.095 Y61.975 E7.4155
G1 X206.448 Y76.328 E7.9206
G1 X206.448 Y76.823 E7.9329
G1 X191.600 Y61.975 E8.4554
G1 X191.105 Y61.975 E8.4677
G1 X206.448 Y77.318 E9.0076
G1 X206.448 Y77.813 E9.0200
G1 X190.610 Y61.975 E9.5773
G1 X190.115 Y61.975 E9.5896
G1 X206.448 Y78.308 E10.1644
G1 X206.448 Y78.803 E10.1767
G1 X189.620 Y61.975 E10.7689
G1 X189.125 Y61.975 E10.7812
G1 X206.448 Y79.298 E11.3908
G1 X206.448 Y79.793 E11.4031
G1 X188.630 Y61.975 E12.0301
G1 X188.135 Y61.975 E12.0424
G1 X206.448 Y80.288 E12.6868
G1 X206.448 Y80.783 E12.6992
G1 X187.640 Y61.975 E13.3610
G1 X187.145 Y61.975 E13.3733
G1 X206.448 Y81.278 E14.0526
G1 X206.448 Y81.773 E14.0649
G1 X186.650 Y61.975 E14.7616
G1 X186.155 Y61.975 E14.7739
G1 X206.448 Y82.268 E15.4880
G1 X206.448 Y82.763 E15.5003
G1 X185.660 Y61.975 E16.2318
G1 X185.165 Y61.975 E16.2441
G1 X206.448 Y83.258 E16.9931
G1 X206.448 Y83.753 E17.0054
G1 X184.670 Y61.975 E17.7717
G1 X184.175 Y61.975 E17.7841
G1 X206.448 Y84.248 E18.5678
G1 X206.448 Y84.743 E18.5801
G1 X183.680 Y61.975 E19.3813
G1 X183.185 Y61.975 E19.3936
G1 X206.448 Y85.238 E20.2122
G1 X206.448 Y85.733 E20.2246
G1 X182.690 Y61.975 E21.0606
G1 X182.195 Y61.975 E21.0729
G1 X206.448 Y86.228 E21.9263
G1 X206.448 Y86.723 E21.9387
G1 X181.700 Y61.975 E22.8095
G1 X181.205 Y61.975 E22.8218
G1 X206.448 Y87.218 E23.7101
G1 X206.448 Y87.713 E23.7224
G1 X180.710 Y61.975 E24.6281
G1 X180.215 Y61.975 E24.6404
G1 X206.448 Y88.208 E25.5636
G1 X206.448 Y88.703 E25.5759
G1 X179.720 Y61.975 E26.5164
G1 X179.225 Y61.975 E26.5287
G1 X206.448 Y89.198 E27.4867
G1 X206.448 Y89.693 E27.4990
G1 X178.730 Y61.975 E28.4744
G1 X178.235 Y61.975 E28.4867
G1 X206.448 Y90.188 E29.4795
G1 X206.448 Y90.683 E29.4918
G1 X177.740 Y61.975 E30.5020
G1 X177.246 Y61.975 E30.5143
G1 X206.448 Y91.178 E31.5419
G1 X206.448 Y91.672 E31.5542
G1 X176.751 Y61.975 E32.5993
G1 X176.256 Y61.975 E32.6116
G1 X206.448 Y92.167 E33.6740
G1 X206.448 Y92.662 E33.6864
G1 X175.761 Y61.975 E34.7662
G1 X175.266 Y61.975 E34.7785
G1 X206.448 Y93.157 E35.8758
G1 X206.448 Y93.652 E35.8882
G1 X174.771 Y61.975 E37.0029
G1 X174.276 Y61.975 E37.0152
G1 X206.448 Y94.147 E38.1473
G1 X206.448 Y94.642 E38.1596
G1 X173.781 Y61.975 E39.3092
G1 X173.286 Y61.975 E39.3215
G1 X206.448 Y95.137 E40.4884
G1 X206.448 Y95.632 E40.5008
G1 X172.791 Y61.975 E41.6851
G1 X172.296 Y61.975 E41.6975
G1 X206.448 Y96.127 E42.8993
G1 X206.448 Y96.622 E42.9116
G1 X171.801 Y61.975 E44.1308
G1 X171.306 Y61.975 E44.1431
G1 X206.448 Y97.117 E45.3798
G1 X206.448 Y97.612 E45.3921
G1 X170.811 Y61.975 E46.6461
G1 X170.316 Y61.975 E46.6584
G1 X206.448 Y98.107 E47.9299
G1 X206.448 Y98.602 E47.9422
G1 X169.821 Y61.975 E49.2311
G1 X169.326 Y61.975 E49.2434
G1 X206.448 Y99.097 E50.5497
G1 X206.448 Y99.592 E50.5621
G1 X168.831 Y61.975 E51.8858
G1 X168.336 Y61.975 E51.8981
G1 X206.448 Y100.087 E53.2392
G1 X206.448 Y100.582 E53.2516
G1 X167.841 Y61.975 E54.6101
G1 X167.346 Y61.975 E54.6224
