; G-Code generated by Simplify3D(R) Version 4.1.2
; Apr 29, 2020 at 4:01:52 PM
; Settings Summary
;   processName,Process1
;   applyToModels,LedControlBox_Top
;   profileName,A04-04-25s Tevo Tornado
;   profileVersion,2020-04-15 13:31:35
;   baseProfile,Creality CR-10(2)
;   printMaterial,PLA
;   printQuality,Medium
;   printExtruders,
;   extruderName,Primary Extruder
;   extruderToolheadNumber,0
;   extruderDiameter,0.4
;   extruderAutoWidth,0
;   extruderWidth,0.35
;   extrusionMultiplier,0.95
;   extruderUseRetract,1
;   extruderRetractionDistance,4
;   extruderExtraRestartDistance,0
;   extruderRetractionZLift,0.3
;   extruderRetractionSpeed,3000
;   extruderUseCoasting,1
;   extruderCoastingDistance,0.8
;   extruderUseWipe,0
;   extruderWipeDistance,4
;   primaryExtruder,0
;   layerHeight,0.15
;   topSolidLayers,4
;   bottomSolidLayers,3
;   perimeterOutlines,3
;   printPerimetersInsideOut,0
;   startPointOption,1
;   startPointOriginX,0
;   startPointOriginY,300
;   sequentialIslands,0
;   spiralVaseMode,0
;   firstLayerHeightPercentage,120
;   firstLayerWidthPercentage,100
;   firstLayerUnderspeed,0.35
;   useRaft,0
;   raftExtruder,0
;   raftTopLayers,3
;   raftBaseLayers,2
;   raftOffset,3
;   raftSeparationDistance,0.14
;   raftTopInfill,100
;   aboveRaftSpeedMultiplier,0.3
;   useSkirt,1
;   skirtExtruder,0
;   skirtLayers,1
;   skirtOutlines,3
;   skirtOffset,2
;   usePrimePillar,0
;   primePillarExtruder,999
;   primePillarWidth,12
;   primePillarLocation,7
;   primePillarSpeedMultiplier,1
;   useOozeShield,0
;   oozeShieldExtruder,999
;   oozeShieldOffset,2
;   oozeShieldOutlines,1
;   oozeShieldSidewallShape,1
;   oozeShieldSidewallAngle,30
;   oozeShieldSpeedMultiplier,1
;   infillExtruder,0
;   internalInfillPattern,Rectilinear
;   externalInfillPattern,Rectilinear
;   infillPercentage,15
;   outlineOverlapPercentage,15
;   infillExtrusionWidthPercentage,100
;   minInfillLength,5
;   infillLayerInterval,1
;   internalInfillAngles,45,-45
;   overlapInternalInfillAngles,0
;   externalInfillAngles,45,-45
;   generateSupport,1
;   supportExtruder,0
;   supportInfillPercentage,30
;   supportExtraInflation,0
;   supportBaseLayers,0
;   denseSupportExtruder,0
;   denseSupportLayers,0
;   denseSupportInfillPercentage,70
;   supportLayerInterval,1
;   supportHorizontalPartOffset,0.4
;   supportUpperSeparationLayers,1
;   supportLowerSeparationLayers,1
;   supportType,0
;   supportGridSpacing,4.5
;   maxOverhangAngle,45
;   supportAngles,0
;   temperatureName,Primary Extruder,Heated Bed
;   temperatureNumber,0,0
;   temperatureSetpointCount,1,1
;   temperatureSetpointLayers,1,1
;   temperatureSetpointTemperatures,215,55
;   temperatureStabilizeAtStartup,1,1
;   temperatureHeatedBed,0,1
;   fanLayers,1,2
;   fanSpeeds,0,100
;   blipFanToFullPower,0
;   adjustSpeedForCooling,1
;   minSpeedLayerTime,15
;   minCoolingSpeedSlowdown,50
;   increaseFanForCooling,1
;   minFanLayerTime,25
;   maxCoolingFanSpeed,100
;   increaseFanForBridging,1
;   bridgingFanSpeed,100
;   use5D,1
;   relativeEdistances,0
;   allowEaxisZeroing,1
;   independentExtruderAxes,0
;   includeM10123,0
;   stickySupport,1
;   applyToolheadOffsets,0
;   gcodeXoffset,0
;   gcodeYoffset,0
;   gcodeZoffset,0
;   overrideMachineDefinition,1
;   machineTypeOverride,0
;   strokeXoverride,300
;   strokeYoverride,300
;   strokeZoverride,400
;   originOffsetXoverride,0
;   originOffsetYoverride,0
;   originOffsetZoverride,0
;   homeXdirOverride,-1
;   homeYdirOverride,-1
;   homeZdirOverride,-1
;   flipXoverride,1
;   flipYoverride,-1
;   flipZoverride,1
;   toolheadOffsets,0,0|0,0|0,0|0,0|0,0|0,0
;   overrideFirmwareConfiguration,1
;   firmwareTypeOverride,RepRap (Marlin/Repetier/Sprinter)
;   GPXconfigOverride,r2
;   baudRateOverride,250000
;   overridePrinterModels,1
;   printerModelsOverride
;   startingGcode,;,; -]H.P.B[- MarshMalloW  ,; $VER: StartScript 1.02 (26.12.2019) MarshMalloW,;,; Begin Startcode,;,M117 *Preheat*     	; Preheat,;extruder0_temperature,M104 S[extruder0_temperature]  ,M109 S[extruder0_temperature] ,M109 R[extruder0_temperature] ,;,M117 *Auto-leveling*     	; Auto-leveling,M107                   	; Turn layer fan off,G21                    	; Set to metric [change to G20 if you want Imperial],G90                    	; Force coordinates to be absolute relative to the origin,G28                    	; Home X/Y/Z axis,G29                    	; Auto-leveling (BL-Touch),;,M117 *Start Clean*     	; Indicate nozzle clean in progress on LCD,G92 E0                 	; Set Extruder to 0 ,G1 X0 Y0 F2000         	; Move X and Y to 0 with speed 2000 (mm/min),G1 Z0.1 F1000          	; Move Z to   0.1 with speed 1000 (mm/min),G1 X8.0 F2000          	; Move X to   8.0 with speed 2000 (mm/min),G1 Y60.0 E4.0 F1000.0  	; Move Y to  60 and Extruder with 4.0 with speed 1000 (mm/min),G1 Y100.0 E8.5 F1000.0 	; Move Y to 100 and Extruder with 8.5 with speed 1000 (mm/min),G92 E0                 	; Set extruder to 0,G1 X16.0 F3000         	; Move X to 16.0 with speed 3000 (mm/min),G1 Y60.0 F3000         	; Move Y to 60.0 with speed 3000 (mm/min),M117 *End Clean*       	; Indicate nozzle clean in progress on LCD,G1 Z5 F3000            	; Move Z to  5.0 with speed 3000 (mm/min),G1 X20.0 F3000         	; Move X to 20.0 with speed 3000 (mm/min),G1 Y20.0 F3000         	; Move Y to 20.0 with speed 3000 (mm/min),; ,M117 *Printing...*     	; Start printing msg on LCD,;,; End Startcode,;,; Begin printing with sliced GCode after here,;
;   layerChangeGcode,
;   retractionGcode,
;   toolChangeGcode,
;   endingGcode,;,; init 181010,;,;M107 			; Fan off,;G1 E-1 F300 			; Retract the filament a bit before lifting the nozzle,;M104 S0 			; Turn off extruder,;M140 S0 			; Turn off bed,;G91			; Relative positioning,;G28 X0 Y0 			; Move X/Y to min endstops so the head is out of teh way,;M84 			; Disable motors,;G90 			; Absolute positioning,;M117 Print ready...,,;,; // From Cura 181010,; // End_gcode,G92 E0			; Zero the extruded length,;G1 E-30 F300		; Retract E -30,M106 S0			; Turn off cooling fan,M104 S0			; Turn off temperature,M140 S0		     	; Turn off bed,G91			; Relative positioning,G1 E-1 F300			; Retract the filament a bit before lifting the nozzle to release some of the pressure,G1 Z+20 E-5 X-20 Y-20 F7200	; Move Z up a bit and retract filament even more,G1 X0 Y150 F10000		; Move right min,M107			; Turn off layer fan,M84			; Disable motors,G90			; Absolute positioning,M117 *The-End* 		; End msg,;,
;   exportFileFormat,gcode
;   celebration,0
;   celebrationSong,Star Wars
;   postProcessing,|{REPLACE "; layer " "M117 INDICATOR-Layer"}|{REPLACE ", Z = " "\n; Z="}
;   defaultSpeed,1800
;   outlineUnderspeed,0.5
;   solidInfillUnderspeed,0.8
;   supportUnderspeed,0.8
;   rapidXYspeed,6000
;   rapidZspeed,1002
;   minBridgingArea,50
;   bridgingExtraInflation,0.2
;   bridgingExtrusionMultiplier,1
;   bridgingSpeedMultiplier,0.6
;   useFixedBridgingAngle,0
;   fixedBridgingAngle,0
;   applyBridgingToPerimeters,0
;   filamentDiameters,1.75|1.75|1.75|1.75|1.75|1.75
;   filamentPricesPerKg,30|46|46|46|46|46
;   filamentDensities,1.25|1.25|1.25|1.25|1.25|1.25
;   useMinPrintHeight,0
;   minPrintHeight,0
;   useMaxPrintHeight,0
;   maxPrintHeight,9
;   useDiaphragm,0
;   diaphragmLayerInterval,20
;   robustSlicing,1
;   mergeAllIntoSolid,0
;   onlyRetractWhenCrossingOutline,1
;   retractBetweenLayers,0
;   useRetractionMinTravel,0
;   retractionMinTravel,3
;   retractWhileWiping,0
;   onlyWipeOutlines,1
;   avoidCrossingOutline,1
;   maxMovementDetourFactor,3
;   toolChangeRetractionDistance,12
;   toolChangeExtraRestartDistance,-0.5
;   toolChangeRetractionSpeed,600
;   externalThinWallType,1
;   internalThinWallType,1
;   thinWallAllowedOverlapPercentage,10
;   singleExtrusionMinLength,1
;   singleExtrusionMinPrintingWidthPercentage,50
;   singleExtrusionMaxPrintingWidthPercentage,200
;   singleExtrusionEndpointExtension,0.2
;   horizontalSizeCompensation,0
G90
M82
M106 S0
M140 S55
M190 S55
;
; -]H.P.B[- MarshMalloW  
; $VER: StartScript 1.02 (26.12.2019) MarshMalloW
;
; Begin Startcode
;
M117 *Preheat*     	; Preheat
;extruder0_temperature
M104 S215  
M109 S215 
M109 R215 
;
M117 *Auto-leveling*     	; Auto-leveling
M107                   	; Turn layer fan off
G21                    	; Set to metric [change to G20 if you want Imperial]
G90                    	; Force coordinates to be absolute relative to the origin
G28                    	; Home X/Y/Z axis
G29                    	; Auto-leveling (BL-Touch)
;
M117 *Start Clean*     	; Indicate nozzle clean in progress on LCD
G92 E0                 	; Set Extruder to 0 
G1 X0 Y0 F2000         	; Move X and Y to 0 with speed 2000 (mm/min)
G1 Z0.1 F1000          	; Move Z to   0.1 with speed 1000 (mm/min)
G1 X8.0 F2000          	; Move X to   8.0 with speed 2000 (mm/min)
G1 Y60.0 E4.0 F1000.0  	; Move Y to  60 and Extruder with 4.0 with speed 1000 (mm/min)
G1 Y100.0 E8.5 F1000.0 	; Move Y to 100 and Extruder with 8.5 with speed 1000 (mm/min)
G92 E0                 	; Set extruder to 0
G1 X16.0 F3000         	; Move X to 16.0 with speed 3000 (mm/min)
G1 Y60.0 F3000         	; Move Y to 60.0 with speed 3000 (mm/min)
M117 *End Clean*       	; Indicate nozzle clean in progress on LCD
G1 Z5 F3000            	; Move Z to  5.0 with speed 3000 (mm/min)
G1 X20.0 F3000         	; Move X to 20.0 with speed 3000 (mm/min)
G1 Y20.0 F3000         	; Move Y to 20.0 with speed 3000 (mm/min)
; 
M117 *Printing...*     	; Start printing msg on LCD
;
; End Startcode
;
; Begin printing with sliced GCode after here
;
; process Process1
M117 INDICATOR-Layer1
; Z=0.180
T0
G92 E0.0000
G1 E-4.0000 F3000
; feature skirt
; tool H0.180 W0.350
G1 Z0.300 F1002
G1 X211.595 Y128.339 F6000
G1 Z0.180 F1002
G1 E0.0000 F3000
G92 E0.0000
G1 X211.595 Y171.661 E1.0780 F630
G1 X209.911 Y173.345 E1.1372
G1 X90.089 Y173.345 E4.1187
G1 X88.405 Y171.661 E4.1780
G1 X88.405 Y128.339 E5.2559
G1 X90.089 Y126.655 E5.3152
G1 X209.911 Y126.655 E8.2967
G1 X211.595 Y128.339 E8.3560
G92 E0.0000
G1 E-4.0000 F3000
G1 Z0.480 F1002
G1 X205.375 Y133.175 F6000
G1 X197.837 Y133.175
G1 X193.142 Y134.825
G1 X96.275 Y134.825
G1 X96.275 Y165.175
G1 X106.795 Y165.175
G1 X102.101 Y166.825
G1 X94.625 Y166.825
G1 X88.755 Y171.516
G1 Z0.180 F1002
G1 E0.0000 F3000
G92 E0.0000
G1 X88.755 Y128.484 E1.0707 F630
G1 X90.234 Y127.005 E1.1228
G1 X209.766 Y127.005 E4.0971
G1 X211.245 Y128.484 E4.1491
G1 X211.245 Y171.516 E5.2199
G1 X209.766 Y172.995 E5.2719
G1 X90.234 Y172.995 E8.2462
G1 X88.755 Y171.516 E8.2982
G92 E0.0000
G1 E-4.0000 F3000
G1 Z0.480 F1002
G1 X210.895 Y171.371 F6000
G1 Z0.180 F1002
G1 E0.0000 F3000
G92 E0.0000
G1 X209.621 Y172.645 E0.0448 F630
G1 X90.379 Y172.645 E3.0119
G1 X89.105 Y171.371 E3.0567
G1 X89.105 Y128.629 E4.1203
G1 X90.379 Y127.355 E4.1651
G1 X209.621 Y127.355 E7.1322
G1 X210.895 Y128.629 E7.1770
G1 X210.895 Y171.371 E8.2405
G92 E0.0000
G1 E-4.0000 F3000
; feature outer perimeter
G1 Z0.480 F1002
G1 X205.375 Y133.175 F6000
G1 Z0.180 F1002
G1 E0.0000 F3000
G92 E0.0000
G1 X205.375 Y166.825 E0.8373 F315
G1 X94.625 Y166.825 E3.5931
G1 X94.625 Y133.175 E4.4304
G1 X204.575 Y133.175 E7.1662
G1 X205.375 Y133.175 F315
; feature inner perimeter
G1 X205.025 Y133.525 F6000
G92 E0.0000
G1 X205.025 Y166.475 E0.8199 F472
G1 X94.975 Y166.475 E3.5582
G1 X94.975 Y133.525 E4.3781
G1 X204.225 Y133.525 E7.0966
G1 X205.025 Y133.525 F472
; feature outer perimeter
G1 X203.725 Y134.825 F6000
G92 E0.0000
G1 X96.275 Y134.825 E2.6737 F315
G1 X96.275 Y165.175 E3.4288
G1 X203.725 Y165.175 E6.1025
G1 X203.725 Y135.625 E6.8378
G1 X203.725 Y134.825 F315
; feature inner perimeter
G1 X204.075 Y134.475 F6000
G92 E0.0000
G1 X95.925 Y134.475 E2.6911 F472
G1 X95.925 Y165.525 E3.4637
G1 X204.075 Y165.525 E6.1547
G1 X204.075 Y135.275 E6.9074
G1 X204.075 Y134.475 F472
; feature internal single extrusion
; tool H0.180 W0.600
G1 X204.550 Y134.200 F6000
G92 E0.0000
G1 X204.550 Y165.000 E1.3138 F315
G1 X204.550 Y165.800 F315
; tool H0.180 W0.637
G1 X204.625 Y165.926 F6000
G92 E0.0000
G1 X204.360 Y165.990 E0.0124 F315
; tool H0.180 W0.611
G1 X204.290 Y165.999 E0.0155
; tool H0.180 W0.601
G1 X204.220 Y166.000 E0.0185
; tool H0.180 W0.600
G1 X96.167 Y166.000 E4.6503
G1 X95.780 Y166.000 F315
G1 X95.710 Y165.999
G1 X95.640 Y165.990
G1 X95.375 Y165.926
G1 X95.450 Y165.800 F6000
G92 E0.0000
G1 X95.450 Y134.717 E1.3487 F315
G1 X95.450 Y134.330 F315
G1 X95.451 Y134.260
G1 X95.460 Y134.190
G1 X95.524 Y133.925
G1 X95.650 Y134.000 F6000
G92 E0.0000
G1 X203.833 Y134.000 E4.6375 F315
G1 X204.220 Y134.000 F315
G1 X204.290 Y134.001
G1 X204.360 Y134.010
G1 X204.625 Y134.074
G92 E0.0000
G1 E-4.0000 F3000
; feature support
; tool H0.180 W0.350
G1 Z0.480 F1002
G1 X205.375 Y150.101 F6000
G1 X205.375 Y166.825
G1 X206.135 Y166.333
G1 Z0.180 F1002
G1 E0.0000 F3000
G92 E0.0000
G1 X208.535 Y166.333 E0.0597 F504
G1 X208.535 Y165.167 E0.0887
G1 X206.135 Y165.167 E0.1485
G1 X206.135 Y164.000 E0.1775
G1 X208.535 Y164.000 E0.2372
G1 X208.535 Y162.833 E0.2662
G1 X206.135 Y162.833 E0.3260
G1 X206.135 Y161.667 E0.3550
G1 X208.535 Y161.667 E0.4147
G1 X208.535 Y160.500 E0.4437
G1 X206.135 Y160.500 E0.5035
G1 X206.135 Y159.333 E0.5325
G1 X208.535 Y159.333 E0.5922
G1 X208.535 Y158.167 E0.6212
G1 X206.135 Y158.167 E0.6810
G1 X206.135 Y157.000 E0.7100
G1 X208.535 Y157.000 E0.7697
G1 X208.535 Y155.833 E0.7987
G1 X206.135 Y155.833 E0.8585
G1 X206.135 Y154.667 E0.8875
G1 X208.535 Y154.667 E0.9472
G1 X208.535 Y153.500 E0.9762
G1 X206.135 Y153.500 E1.0360
G1 X206.135 Y152.333 E1.0650
G1 X208.535 Y152.333 E1.1247
G1 X208.535 Y151.167 E1.1537
G1 X206.135 Y151.167 E1.2135
G1 X206.135 Y150.000 E1.2425
G1 X208.535 Y150.000 E1.3022
G1 X208.535 Y148.833 E1.3312
G1 X206.135 Y148.833 E1.3910
G1 X206.135 Y147.667 E1.4200
G1 X208.535 Y147.667 E1.4797
G1 X208.535 Y146.500 E1.5087
G1 X206.135 Y146.500 E1.5685
G1 X206.135 Y145.333 E1.5975
G1 X208.535 Y145.333 E1.6572
G1 X208.535 Y144.167 E1.6862
G1 X206.135 Y144.167 E1.7460
G1 X206.135 Y143.000 E1.7750
G1 X208.535 Y143.000 E1.8347
G1 X208.535 Y141.833 E1.8637
G1 X206.135 Y141.833 E1.9235
G1 X206.135 Y140.667 E1.9525
G1 X208.535 Y140.667 E2.0122
G1 X208.535 Y139.500 E2.0412
G1 X206.135 Y139.500 E2.1010
G1 X206.135 Y138.333 E2.1300
G1 X208.535 Y138.333 E2.1897
G1 X208.535 Y137.167 E2.2187
G1 X206.135 Y137.167 E2.2785
G1 X206.135 Y136.000 E2.3075
G1 X208.535 Y136.000 E2.3672
G1 X208.535 Y134.833 E2.3962
G1 X206.135 Y134.833 E2.4560
G1 X206.135 Y133.667 E2.4850
G1 X208.535 Y133.667 E2.5447
G1 X208.535 Y132.500 E2.5737
G1 X206.935 Y132.500 E2.6135
G1 X206.135 Y132.500 F504
G92 E0.0000
G1 E-4.0000 F3000
G1 Z0.480 F1002
G1 X205.375 Y133.175 F6000
G1 X205.375 Y134.494
G1 X199.465 Y150.000
G1 Z0.180 F1002
G1 E0.0000 F3000
G92 E0.0000
G1 X202.965 Y150.000 E0.0871 F504
G1 X202.965 Y151.167 E0.1161
G1 X200.265 Y151.167 E0.1833
G1 X199.465 Y151.167 F504
G92 E0.0000
G1 E-4.0000 F3000
G1 Z0.480 F1002
G1 X202.965 Y164.000 F6000
G1 Z0.180 F1002
G1 E0.0000 F3000
G92 E0.0000
G1 X97.035 Y164.000 E2.6358 F504
G1 X97.035 Y162.833 E2.6649
G1 X202.965 Y162.833 E5.3007
G1 X202.965 Y161.667 E5.3297
G1 X97.035 Y161.667 E7.9655
G1 X97.035 Y160.500 E7.9946
G1 X202.965 Y160.500 E10.6304
G1 X202.965 Y159.333 E10.6594
G1 X97.035 Y159.333 E13.2953
G1 X97.035 Y158.167 E13.3243
G1 X202.965 Y158.167 E15.9601
G1 X202.965 Y157.000 E15.9891
G1 X97.035 Y157.000 E18.6250
G1 X97.035 Y155.833 E18.6540
G1 X202.965 Y155.833 E21.2898
G1 X202.965 Y154.667 E21.3189
G1 X97.035 Y154.667 E23.9547
G1 X97.035 Y153.500 E23.9837
G1 X202.965 Y153.500 E26.6196
G1 X202.965 Y152.333 E26.6486
G1 X97.035 Y152.333 E29.2844
G1 X97.035 Y151.167 E29.3134
G1 X118.535 Y151.167 E29.8484
G1 X118.535 Y150.000 E29.8774
G1 X97.035 Y150.000 E30.4124
G1 X97.035 Y148.833 E30.4415
G1 X118.535 Y148.833 E30.9764
G1 X118.535 Y147.785 E31.0025
G1 X122.965 Y147.785 E31.1128
G1 X122.965 Y148.833 E31.1388
G1 X132.035 Y148.833 E31.3645
G1 X132.035 Y147.785 E31.3906
G1 X140.965 Y147.785 E31.6128
G1 X140.965 Y148.833 E31.6389
G1 X150.035 Y148.833 E31.8646
G1 X150.035 Y147.785 E31.8907
