; G-Code generated by Simplify3D(R) Version 4.1.2
; Apr 29, 2020 at 5:52:59 PM
; Settings Summary
;   processName,Process1
;   applyToModels,LedControlBox_Top
;   profileName,A04-04-25s Tevo Tornado
;   profileVersion,2020-04-15 13:31:35
;   baseProfile,Creality CR-10(2)
;   printMaterial,PLA
;   printQuality,Medium
;   printExtruders,
;   extruderName,Primary Extruder
;   extruderToolheadNumber,0
;   extruderDiameter,0.4
;   extruderAutoWidth,0
;   extruderWidth,0.35
;   extrusionMultiplier,0.95
;   extruderUseRetract,1
;   extruderRetractionDistance,4
;   extruderExtraRestartDistance,0
;   extruderRetractionZLift,0.3
;   extruderRetractionSpeed,3000
;   extruderUseCoasting,1
;   extruderCoastingDistance,0.8
;   extruderUseWipe,0
;   extruderWipeDistance,4
;   primaryExtruder,0
;   layerHeight,0.15
;   topSolidLayers,4
;   bottomSolidLayers,3
;   perimeterOutlines,3
;   printPerimetersInsideOut,0
;   startPointOption,1
;   startPointOriginX,0
;   startPointOriginY,300
;   sequentialIslands,0
;   spiralVaseMode,0
;   firstLayerHeightPercentage,120
;   firstLayerWidthPercentage,100
;   firstLayerUnderspeed,0.35
;   useRaft,0
;   raftExtruder,0
;   raftTopLayers,3
;   raftBaseLayers,2
;   raftOffset,3
;   raftSeparationDistance,0.14
;   raftTopInfill,100
;   aboveRaftSpeedMultiplier,0.3
;   useSkirt,1
;   skirtExtruder,0
;   skirtLayers,1
;   skirtOutlines,3
;   skirtOffset,2
;   usePrimePillar,0
;   primePillarExtruder,999
;   primePillarWidth,12
;   primePillarLocation,7
;   primePillarSpeedMultiplier,1
;   useOozeShield,0
;   oozeShieldExtruder,999
;   oozeShieldOffset,2
;   oozeShieldOutlines,1
;   oozeShieldSidewallShape,1
;   oozeShieldSidewallAngle,30
;   oozeShieldSpeedMultiplier,1
;   infillExtruder,0
;   internalInfillPattern,Rectilinear
;   externalInfillPattern,Rectilinear
;   infillPercentage,15
;   outlineOverlapPercentage,15
;   infillExtrusionWidthPercentage,100
;   minInfillLength,5
;   infillLayerInterval,1
;   internalInfillAngles,45,-45
;   overlapInternalInfillAngles,0
;   externalInfillAngles,45,-45
;   generateSupport,1
;   supportExtruder,0
;   supportInfillPercentage,30
;   supportExtraInflation,0
;   supportBaseLayers,0
;   denseSupportExtruder,0
;   denseSupportLayers,0
;   denseSupportInfillPercentage,70
;   supportLayerInterval,1
;   supportHorizontalPartOffset,0.4
;   supportUpperSeparationLayers,1
;   supportLowerSeparationLayers,1
;   supportType,0
;   supportGridSpacing,4.5
;   maxOverhangAngle,45
;   supportAngles,0
;   temperatureName,Primary Extruder,Heated Bed
;   temperatureNumber,0,0
;   temperatureSetpointCount,1,1
;   temperatureSetpointLayers,1,1
;   temperatureSetpointTemperatures,215,55
;   temperatureStabilizeAtStartup,1,1
;   temperatureHeatedBed,0,1
;   fanLayers,1,2
;   fanSpeeds,0,100
;   blipFanToFullPower,0
;   adjustSpeedForCooling,1
;   minSpeedLayerTime,15
;   minCoolingSpeedSlowdown,50
;   increaseFanForCooling,1
;   minFanLayerTime,25
;   maxCoolingFanSpeed,100
;   increaseFanForBridging,1
;   bridgingFanSpeed,100
;   use5D,1
;   relativeEdistances,0
;   allowEaxisZeroing,1
;   independentExtruderAxes,0
;   includeM10123,0
;   stickySupport,1
;   applyToolheadOffsets,0
;   gcodeXoffset,0
;   gcodeYoffset,0
;   gcodeZoffset,0
;   overrideMachineDefinition,1
;   machineTypeOverride,0
;   strokeXoverride,300
;   strokeYoverride,300
;   strokeZoverride,400
;   originOffsetXoverride,0
;   originOffsetYoverride,0
;   originOffsetZoverride,0
;   homeXdirOverride,-1
;   homeYdirOverride,-1
;   homeZdirOverride,-1
;   flipXoverride,1
;   flipYoverride,-1
;   flipZoverride,1
;   toolheadOffsets,0,0|0,0|0,0|0,0|0,0|0,0
;   overrideFirmwareConfiguration,1
;   firmwareTypeOverride,RepRap (Marlin/Repetier/Sprinter)
;   GPXconfigOverride,r2
;   baudRateOverride,250000
;   overridePrinterModels,1
;   printerModelsOverride
;   startingGcode,;,; -]H.P.B[- MarshMalloW  ,; $VER: StartScript 1.02 (26.12.2019) MarshMalloW,;,; Begin Startcode,;,M117 *Preheat*     	; Preheat,;extruder0_temperature,M104 S[extruder0_temperature]  ,M109 S[extruder0_temperature] ,M109 R[extruder0_temperature] ,;,M117 *Auto-leveling*     	; Auto-leveling,M107                   	; Turn layer fan off,G21                    	; Set to metric [change to G20 if you want Imperial],G90                    	; Force coordinates to be absolute relative to the origin,G28                    	; Home X/Y/Z axis,G29                    	; Auto-leveling (BL-Touch),;,M117 *Start Clean*     	; Indicate nozzle clean in progress on LCD,G92 E0                 	; Set Extruder to 0 ,G1 X0 Y0 F2000         	; Move X and Y to 0 with speed 2000 (mm/min),G1 Z0.1 F1000          	; Move Z to   0.1 with speed 1000 (mm/min),G1 X8.0 F2000          	; Move X to   8.0 with speed 2000 (mm/min),G1 Y60.0 E4.0 F1000.0  	; Move Y to  60 and Extruder with 4.0 with speed 1000 (mm/min),G1 Y100.0 E8.5 F1000.0 	; Move Y to 100 and Extruder with 8.5 with speed 1000 (mm/min),G92 E0                 	; Set extruder to 0,G1 X16.0 F3000         	; Move X to 16.0 with speed 3000 (mm/min),G1 Y60.0 F3000         	; Move Y to 60.0 with speed 3000 (mm/min),M117 *End Clean*       	; Indicate nozzle clean in progress on LCD,G1 Z5 F3000            	; Move Z to  5.0 with speed 3000 (mm/min),G1 X20.0 F3000         	; Move X to 20.0 with speed 3000 (mm/min),G1 Y20.0 F3000         	; Move Y to 20.0 with speed 3000 (mm/min),; ,M117 *Printing...*     	; Start printing msg on LCD,;,; End Startcode,;,; Begin printing with sliced GCode after here,;
;   layerChangeGcode,
;   retractionGcode,
;   toolChangeGcode,
;   endingGcode,;,; init 181010,;,;M107 			; Fan off,;G1 E-1 F300 			; Retract the filament a bit before lifting the nozzle,;M104 S0 			; Turn off extruder,;M140 S0 			; Turn off bed,;G91			; Relative positioning,;G28 X0 Y0 			; Move X/Y to min endstops so the head is out of teh way,;M84 			; Disable motors,;G90 			; Absolute positioning,;M117 Print ready...,,;,; // From Cura 181010,; // End_gcode,G92 E0			; Zero the extruded length,;G1 E-30 F300		; Retract E -30,M106 S0			; Turn off cooling fan,M104 S0			; Turn off temperature,M140 S0		     	; Turn off bed,G91			; Relative positioning,G1 E-1 F300			; Retract the filament a bit before lifting the nozzle to release some of the pressure,G1 Z+20 E-5 X-20 Y-20 F7200	; Move Z up a bit and retract filament even more,G1 X0 Y150 F10000		; Move right min,M107			; Turn off layer fan,M84			; Disable motors,G90			; Absolute positioning,M117 *The-End* 		; End msg,;,
;   exportFileFormat,gcode
;   celebration,0
;   celebrationSong,Star Wars
;   postProcessing,|{REPLACE "; layer " "M117 INDICATOR-Layer"}|{REPLACE ", Z = " "\n; Z="}
;   defaultSpeed,1800
;   outlineUnderspeed,0.5
;   solidInfillUnderspeed,0.8
;   supportUnderspeed,0.8
;   rapidXYspeed,6000
;   rapidZspeed,1002
;   minBridgingArea,50
;   bridgingExtraInflation,0.2
;   bridgingExtrusionMultiplier,1
;   bridgingSpeedMultiplier,0.6
;   useFixedBridgingAngle,0
;   fixedBridgingAngle,0
;   applyBridgingToPerimeters,0
;   filamentDiameters,1.75|1.75|1.75|1.75|1.75|1.75
;   filamentPricesPerKg,30|46|46|46|46|46
;   filamentDensities,1.25|1.25|1.25|1.25|1.25|1.25
;   useMinPrintHeight,0
;   minPrintHeight,0
;   useMaxPrintHeight,0
;   maxPrintHeight,9
;   useDiaphragm,0
;   diaphragmLayerInterval,20
;   robustSlicing,1
;   mergeAllIntoSolid,0
;   onlyRetractWhenCrossingOutline,1
;   retractBetweenLayers,0
;   useRetractionMinTravel,0
;   retractionMinTravel,3
;   retractWhileWiping,0
;   onlyWipeOutlines,1
;   avoidCrossingOutline,1
;   maxMovementDetourFactor,3
;   toolChangeRetractionDistance,12
;   toolChangeExtraRestartDistance,-0.5
;   toolChangeRetractionSpeed,600
;   externalThinWallType,1
;   internalThinWallType,1
;   thinWallAllowedOverlapPercentage,10
;   singleExtrusionMinLength,1
;   singleExtrusionMinPrintingWidthPercentage,50
;   singleExtrusionMaxPrintingWidthPercentage,200
;   singleExtrusionEndpointExtension,0.2
;   horizontalSizeCompensation,0
G90
M82
M106 S0
M140 S55
M190 S55
;
; -]H.P.B[- MarshMalloW  
; $VER: StartScript 1.02 (26.12.2019) MarshMalloW
;
; Begin Startcode
;
M117 *Preheat*     	; Preheat
;extruder0_temperature
M104 S215  
M109 S215 
M109 R215 
;
M117 *Auto-leveling*     	; Auto-leveling
M107                   	; Turn layer fan off
G21                    	; Set to metric [change to G20 if you want Imperial]
G90                    	; Force coordinates to be absolute relative to the origin
G28                    	; Home X/Y/Z axis
G29                    	; Auto-leveling (BL-Touch)
;
M117 *Start Clean*     	; Indicate nozzle clean in progress on LCD
G92 E0                 	; Set Extruder to 0 
G1 X0 Y0 F2000         	; Move X and Y to 0 with speed 2000 (mm/min)
G1 Z0.1 F1000          	; Move Z to   0.1 with speed 1000 (mm/min)
G1 X8.0 F2000          	; Move X to   8.0 with speed 2000 (mm/min)
G1 Y60.0 E4.0 F1000.0  	; Move Y to  60 and Extruder with 4.0 with speed 1000 (mm/min)
G1 Y100.0 E8.5 F1000.0 	; Move Y to 100 and Extruder with 8.5 with speed 1000 (mm/min)
G92 E0                 	; Set extruder to 0
G1 X16.0 F3000         	; Move X to 16.0 with speed 3000 (mm/min)
G1 Y60.0 F3000         	; Move Y to 60.0 with speed 3000 (mm/min)
M117 *End Clean*       	; Indicate nozzle clean in progress on LCD
G1 Z5 F3000            	; Move Z to  5.0 with speed 3000 (mm/min)
G1 X20.0 F3000         	; Move X to 20.0 with speed 3000 (mm/min)
G1 Y20.0 F3000         	; Move Y to 20.0 with speed 3000 (mm/min)
; 
M117 *Printing...*     	; Start printing msg on LCD
;
; End Startcode
;
; Begin printing with sliced GCode after here
;
; process Process1
M117 INDICATOR-Layer1
; Z=0.180
T0
G92 E0.0000
G1 E-4.0000 F3000
; feature skirt
; tool H0.180 W0.350
G1 Z0.300 F1002
G1 X170.826 Y47.297 F6000
G1 Z0.180 F1002
G1 E0.0000 F3000
G92 E0.0000
G1 X170.826 Y167.119 E2.9815 F630
G1 X169.142 Y168.803 E3.0408
G1 X125.820 Y168.803 E4.1187
G1 X124.136 Y167.119 E4.1780
G1 X124.136 Y47.297 E7.1595
G1 X125.820 Y45.613 E7.2187
G1 X169.142 Y45.613 E8.2967
G1 X170.826 Y47.297 E8.3560
G92 E0.0000
G1 E-4.0000 F3000
G1 Z0.480 F1002
G1 X164.889 Y52.013 F6000
G1 X164.774 Y62.927
G1 X163.078 Y67.308
G1 X162.089 Y161.090
G1 X131.741 Y160.770
G1 X131.876 Y147.888
G1 X130.180 Y152.269
G1 X130.073 Y162.402
G1 X124.486 Y166.974
G1 Z0.180 F1002
G1 E0.0000 F3000
G92 E0.0000
G1 X124.486 Y47.442 E2.9743 F630
G1 X125.965 Y45.963 E3.0263
G1 X168.997 Y45.963 E4.0971
G1 X170.476 Y47.442 E4.1491
G1 X170.476 Y166.974 E7.1234
G1 X168.997 Y168.453 E7.1755
G1 X125.965 Y168.453 E8.2462
G1 X124.486 Y166.974 E8.2982
G92 E0.0000
G1 E-4.0000 F3000
G1 Z0.480 F1002
G1 X170.126 Y166.829 F6000
G1 Z0.180 F1002
G1 E0.0000 F3000
G92 E0.0000
G1 X168.852 Y168.103 E0.0448 F630
G1 X126.110 Y168.103 E1.1084
G1 X124.836 Y166.829 E1.1532
G1 X124.836 Y47.587 E4.1203
G1 X126.110 Y46.313 E4.1651
G1 X168.852 Y46.313 E5.2286
G1 X170.126 Y47.587 E5.2735
G1 X170.126 Y166.829 E8.2405
G92 E0.0000
G1 E-4.0000 F3000
; feature outer perimeter
G1 Z0.480 F1002
G1 X163.721 Y162.757 F6000
G1 X163.874 Y148.310
G1 X162.274 Y143.571
G1 X163.222 Y53.646
G1 X132.874 Y53.326
G1 X132.841 Y56.398
G1 X131.241 Y51.658
G1 Z0.180 F1002
G1 E0.0000 F3000
G92 E0.0000
G1 X164.889 Y52.013 E0.8373 F315
G1 X163.721 Y162.757 E3.5931
G1 X130.073 Y162.402 E4.4304
G1 X131.233 Y52.458 E7.1662
G1 X131.241 Y51.658 F315
; feature inner perimeter
G1 X131.587 Y52.012 F6000
G92 E0.0000
G1 X164.535 Y52.360 E0.8199 F472
G1 X163.375 Y162.403 E3.5582
G1 X130.427 Y162.056 E4.3781
G1 X131.579 Y52.812 E7.0966
G1 X131.587 Y52.012 F472
; feature outer perimeter
G1 X132.874 Y53.326 F6000
G92 E0.0000
G1 X131.741 Y160.770 E2.6737 F315
G1 X162.089 Y161.090 E3.4288
G1 X163.222 Y53.646 E6.1025
G1 X133.673 Y53.334 E6.8378
G1 X132.874 Y53.326 F315
; feature inner perimeter
G1 X132.527 Y52.972 F6000
G92 E0.0000
G1 X131.387 Y161.116 E2.6911 F472
G1 X162.435 Y161.443 E3.4637
G1 X163.576 Y53.299 E6.1547
G1 X133.327 Y52.980 E6.9074
G1 X132.527 Y52.972 F472
; feature internal single extrusion
; tool H0.180 W0.600
G1 X132.257 Y52.494 F6000
G92 E0.0000
G1 X163.338 Y52.822 E1.3487 F315
G1 X163.726 Y52.826 F315
G1 X163.796 Y52.828
G1 X163.866 Y52.838
G1 X164.129 Y52.904
G1 X164.053 Y53.029 F6000
G92 E0.0000
G1 X162.913 Y161.206 E4.6375 F315
G1 X162.909 Y161.594 F315
G1 X162.907 Y161.664
G1 X162.897 Y161.734
G1 X162.830 Y161.997
; tool H0.180 W0.600
G1 X162.706 Y161.921 F6000
G92 E0.0000
G1 X131.906 Y161.597 E1.3138 F315
G1 X131.106 Y161.588 F315
; tool H0.180 W0.637
G1 X130.980 Y161.661 F6000
G92 E0.0000
G1 X130.919 Y161.396 E0.0124 F315
; tool H0.180 W0.611
G1 X130.911 Y161.326 E0.0155
; tool H0.180 W0.601
G1 X130.910 Y161.256 E0.0185
; tool H0.180 W0.600
G1 X132.050 Y53.209 E4.6503
G1 X132.054 Y52.822 F315
G1 X132.056 Y52.752
G1 X132.065 Y52.682
G1 X132.132 Y52.418
G92 E0.0000
G1 E-4.0000 F3000
; feature support
; tool H0.180 W0.350
G1 Z0.480 F1002
G1 X132.855 Y55.073 F6000
G1 X131.741 Y160.770
G1 X162.089 Y161.090
G1 X161.343 Y159.708
G1 Z0.180 F1002
G1 E0.0000 F3000
G92 E0.0000
G1 X132.512 Y159.708 E0.7174 F504
G1 X132.524 Y158.541 E0.7464
G1 X161.356 Y158.541 E1.4639
G1 X161.368 Y157.374 E1.4929
G1 X132.536 Y157.374 E2.2103
G1 X132.549 Y156.208 E2.2393
G1 X145.266 Y156.208 E2.5558
G1 X145.266 Y155.041 E2.5848
G1 X132.561 Y155.041 E2.9009
G1 X132.573 Y153.874 E2.9300
G1 X145.266 Y153.874 E3.2458
G1 X145.266 Y152.708 E3.2748
G1 X132.586 Y152.708 E3.5904
G1 X132.598 Y151.541 E3.6194
G1 X161.430 Y151.541 E4.3368
G1 X161.442 Y150.374 E4.3658
G1 X132.610 Y150.374 E5.0832
G1 X132.623 Y149.208 E5.1123
G1 X161.454 Y149.208 E5.8297
G1 X161.466 Y148.041 E5.8587
G1 X132.635 Y148.041 E6.5761
G1 X132.647 Y146.874 E6.6052
G1 X161.479 Y146.874 E7.3226
G1 X161.491 Y145.708 E7.3516
G1 X132.659 Y145.708 E8.0690
G1 X132.672 Y144.541 E8.0980
G1 X161.503 Y144.541 E8.8154
G1 X161.516 Y143.374 E8.8445
G1 X132.684 Y143.374 E9.5619
G1 X132.696 Y142.208 E9.5909
G1 X145.266 Y142.208 E9.9037
G1 X145.266 Y141.041 E9.9327
G1 X132.709 Y141.041 E10.2452
G1 X132.721 Y139.874 E10.2742
G1 X145.266 Y139.874 E10.5864
G1 X145.266 Y138.743 E10.6145
G1 X149.696 Y138.743 E10.7248
G1 X149.696 Y139.874 E10.7529
G1 X161.553 Y139.874 E11.0479
G1 X161.565 Y138.708 E11.0770
G1 X132.733 Y138.708 E11.7944
G1 X132.746 Y137.541 E11.8234
G1 X161.577 Y137.541 E12.5408
G1 X161.589 Y136.374 E12.5699
G1 X132.758 Y136.374 E13.2873
G1 X132.770 Y135.208 E13.3163
G1 X161.602 Y135.208 E14.0337
G1 X161.614 Y134.041 E14.0627
G1 X132.782 Y134.041 E14.7802
G1 X132.795 Y132.874 E14.8092
G1 X161.626 Y132.874 E15.5266
G1 X161.639 Y131.708 E15.5556
G1 X132.807 Y131.708 E16.2730
G1 X132.819 Y130.541 E16.3021
G1 X161.651 Y130.541 E17.0195
G1 X161.663 Y129.374 E17.0485
G1 X132.832 Y129.374 E17.7659
G1 X132.844 Y128.208 E17.7949
G1 X161.676 Y128.208 E18.5124
G1 X161.688 Y127.041 E18.5414
G1 X132.856 Y127.041 E19.2588
G1 X132.869 Y125.874 E19.2878
G1 X161.700 Y125.874 E20.0052
G1 X161.713 Y124.708 E20.0343
G1 X149.696 Y124.708 E20.3333
G1 X149.696 Y125.173 E20.3448
G1 X145.266 Y125.173 E20.4551
G1 X145.266 Y124.708 E20.4666
G1 X132.881 Y124.708 E20.7748
G1 X132.893 Y123.541 E20.8038
G1 X145.266 Y123.541 E21.1117
G1 X145.266 Y122.374 E21.1408
G1 X132.906 Y122.374 E21.4483
G1 X132.918 Y121.208 E21.4774
G1 X145.266 Y121.208 E21.7846
G1 X145.266 Y120.743 E21.7962
G1 X149.696 Y120.743 E21.9064
G1 X149.696 Y121.208 E21.9180
G1 X161.749 Y121.208 E22.2179
G1 X161.762 Y120.041 E22.2469
G1 X132.930 Y120.041 E22.9643
G1 X132.942 Y118.874 E22.9934
G1 X161.774 Y118.874 E23.7108
G1 X161.786 Y117.708 E23.7398
G1 X132.955 Y117.708 E24.4572
G1 X132.967 Y116.541 E24.4863
G1 X161.799 Y116.541 E25.2037
G1 X161.811 Y115.374 E25.2327
G1 X132.979 Y115.374 E25.9501
G1 X132.992 Y114.208 E25.9791
G1 X161.823 Y114.208 E26.6965
G1 X161.836 Y113.041 E26.7256
G1 X133.004 Y113.041 E27.4430
G1 X133.016 Y111.874 E27.4720
G1 X161.848 Y111.874 E28.1894
G1 X161.860 Y110.708 E28.2185
G1 X149.696 Y110.708 E28.5211
G1 X149.696 Y111.673 E28.5451
G1 X145.266 Y111.673 E28.6554
G1 X145.266 Y110.708 E28.6794
G1 X133.029 Y110.708 E28.9839
G1 X133.041 Y109.541 E29.0129
