; G-Code generated by Simplify3D(R) Version 4.1.2
; Apr 29, 2020 at 4:36:08 PM
; Settings Summary
;   processName,Process1
;   applyToModels,LedControlBox_Top
;   profileName,A04-04-25s Tevo Tornado
;   profileVersion,2020-04-15 13:31:35
;   baseProfile,Creality CR-10(2)
;   printMaterial,PLA
;   printQuality,Medium
;   printExtruders,
;   extruderName,Primary Extruder
;   extruderToolheadNumber,0
;   extruderDiameter,0.4
;   extruderAutoWidth,0
;   extruderWidth,0.35
;   extrusionMultiplier,0.95
;   extruderUseRetract,1
;   extruderRetractionDistance,4
;   extruderExtraRestartDistance,0
;   extruderRetractionZLift,0.3
;   extruderRetractionSpeed,3000
;   extruderUseCoasting,1
;   extruderCoastingDistance,0.8
;   extruderUseWipe,0
;   extruderWipeDistance,4
;   primaryExtruder,0
;   layerHeight,0.15
;   topSolidLayers,4
;   bottomSolidLayers,3
;   perimeterOutlines,3
;   printPerimetersInsideOut,0
;   startPointOption,1
;   startPointOriginX,0
;   startPointOriginY,300
;   sequentialIslands,0
;   spiralVaseMode,0
;   firstLayerHeightPercentage,120
;   firstLayerWidthPercentage,100
;   firstLayerUnderspeed,0.35
;   useRaft,0
;   raftExtruder,0
;   raftTopLayers,3
;   raftBaseLayers,2
;   raftOffset,3
;   raftSeparationDistance,0.14
;   raftTopInfill,100
;   aboveRaftSpeedMultiplier,0.3
;   useSkirt,1
;   skirtExtruder,0
;   skirtLayers,1
;   skirtOutlines,3
;   skirtOffset,2
;   usePrimePillar,0
;   primePillarExtruder,999
;   primePillarWidth,12
;   primePillarLocation,7
;   primePillarSpeedMultiplier,1
;   useOozeShield,0
;   oozeShieldExtruder,999
;   oozeShieldOffset,2
;   oozeShieldOutlines,1
;   oozeShieldSidewallShape,1
;   oozeShieldSidewallAngle,30
;   oozeShieldSpeedMultiplier,1
;   infillExtruder,0
;   internalInfillPattern,Rectilinear
;   externalInfillPattern,Rectilinear
;   infillPercentage,15
;   outlineOverlapPercentage,15
;   infillExtrusionWidthPercentage,100
;   minInfillLength,5
;   infillLayerInterval,1
;   internalInfillAngles,45,-45
;   overlapInternalInfillAngles,0
;   externalInfillAngles,45,-45
;   generateSupport,1
;   supportExtruder,0
;   supportInfillPercentage,30
;   supportExtraInflation,0
;   supportBaseLayers,0
;   denseSupportExtruder,0
;   denseSupportLayers,0
;   denseSupportInfillPercentage,70
;   supportLayerInterval,1
;   supportHorizontalPartOffset,0.4
;   supportUpperSeparationLayers,1
;   supportLowerSeparationLayers,1
;   supportType,0
;   supportGridSpacing,4.5
;   maxOverhangAngle,45
;   supportAngles,0
;   temperatureName,Primary Extruder,Heated Bed
;   temperatureNumber,0,0
;   temperatureSetpointCount,1,1
;   temperatureSetpointLayers,1,1
;   temperatureSetpointTemperatures,215,55
;   temperatureStabilizeAtStartup,1,1
;   temperatureHeatedBed,0,1
;   fanLayers,1,2
;   fanSpeeds,0,100
;   blipFanToFullPower,0
;   adjustSpeedForCooling,1
;   minSpeedLayerTime,15
;   minCoolingSpeedSlowdown,50
;   increaseFanForCooling,1
;   minFanLayerTime,25
;   maxCoolingFanSpeed,100
;   increaseFanForBridging,1
;   bridgingFanSpeed,100
;   use5D,1
;   relativeEdistances,0
;   allowEaxisZeroing,1
;   independentExtruderAxes,0
;   includeM10123,0
;   stickySupport,1
;   applyToolheadOffsets,0
;   gcodeXoffset,0
;   gcodeYoffset,0
;   gcodeZoffset,0
;   overrideMachineDefinition,1
;   machineTypeOverride,0
;   strokeXoverride,300
;   strokeYoverride,300
;   strokeZoverride,400
;   originOffsetXoverride,0
;   originOffsetYoverride,0
;   originOffsetZoverride,0
;   homeXdirOverride,-1
;   homeYdirOverride,-1
;   homeZdirOverride,-1
;   flipXoverride,1
;   flipYoverride,-1
;   flipZoverride,1
;   toolheadOffsets,0,0|0,0|0,0|0,0|0,0|0,0
;   overrideFirmwareConfiguration,1
;   firmwareTypeOverride,RepRap (Marlin/Repetier/Sprinter)
;   GPXconfigOverride,r2
;   baudRateOverride,250000
;   overridePrinterModels,1
;   printerModelsOverride
;   startingGcode,;,; -]H.P.B[- MarshMalloW  ,; $VER: StartScript 1.02 (26.12.2019) MarshMalloW,;,; Begin Startcode,;,M117 *Preheat*     	; Preheat,;extruder0_temperature,M104 S[extruder0_temperature]  ,M109 S[extruder0_temperature] ,M109 R[extruder0_temperature] ,;,M117 *Auto-leveling*     	; Auto-leveling,M107                   	; Turn layer fan off,G21                    	; Set to metric [change to G20 if you want Imperial],G90                    	; Force coordinates to be absolute relative to the origin,G28                    	; Home X/Y/Z axis,G29                    	; Auto-leveling (BL-Touch),;,M117 *Start Clean*     	; Indicate nozzle clean in progress on LCD,G92 E0                 	; Set Extruder to 0 ,G1 X0 Y0 F2000         	; Move X and Y to 0 with speed 2000 (mm/min),G1 Z0.1 F1000          	; Move Z to   0.1 with speed 1000 (mm/min),G1 X8.0 F2000          	; Move X to   8.0 with speed 2000 (mm/min),G1 Y60.0 E4.0 F1000.0  	; Move Y to  60 and Extruder with 4.0 with speed 1000 (mm/min),G1 Y100.0 E8.5 F1000.0 	; Move Y to 100 and Extruder with 8.5 with speed 1000 (mm/min),G92 E0                 	; Set extruder to 0,G1 X16.0 F3000         	; Move X to 16.0 with speed 3000 (mm/min),G1 Y60.0 F3000         	; Move Y to 60.0 with speed 3000 (mm/min),M117 *End Clean*       	; Indicate nozzle clean in progress on LCD,G1 Z5 F3000            	; Move Z to  5.0 with speed 3000 (mm/min),G1 X20.0 F3000         	; Move X to 20.0 with speed 3000 (mm/min),G1 Y20.0 F3000         	; Move Y to 20.0 with speed 3000 (mm/min),; ,M117 *Printing...*     	; Start printing msg on LCD,;,; End Startcode,;,; Begin printing with sliced GCode after here,;
;   layerChangeGcode,
;   retractionGcode,
;   toolChangeGcode,
;   endingGcode,;,; init 181010,;,;M107 			; Fan off,;G1 E-1 F300 			; Retract the filament a bit before lifting the nozzle,;M104 S0 			; Turn off extruder,;M140 S0 			; Turn off bed,;G91			; Relative positioning,;G28 X0 Y0 			; Move X/Y to min endstops so the head is out of teh way,;M84 			; Disable motors,;G90 			; Absolute positioning,;M117 Print ready...,,;,; // From Cura 181010,; // End_gcode,G92 E0			; Zero the extruded length,;G1 E-30 F300		; Retract E -30,M106 S0			; Turn off cooling fan,M104 S0			; Turn off temperature,M140 S0		     	; Turn off bed,G91			; Relative positioning,G1 E-1 F300			; Retract the filament a bit before lifting the nozzle to release some of the pressure,G1 Z+20 E-5 X-20 Y-20 F7200	; Move Z up a bit and retract filament even more,G1 X0 Y150 F10000		; Move right min,M107			; Turn off layer fan,M84			; Disable motors,G90			; Absolute positioning,M117 *The-End* 		; End msg,;,
;   exportFileFormat,gcode
;   celebration,0
;   celebrationSong,Star Wars
;   postProcessing,|{REPLACE "; layer " "M117 INDICATOR-Layer"}|{REPLACE ", Z = " "\n; Z="}
;   defaultSpeed,1800
;   outlineUnderspeed,0.5
;   solidInfillUnderspeed,0.8
;   supportUnderspeed,0.8
;   rapidXYspeed,6000
;   rapidZspeed,1002
;   minBridgingArea,50
;   bridgingExtraInflation,0.2
;   bridgingExtrusionMultiplier,1
;   bridgingSpeedMultiplier,0.6
;   useFixedBridgingAngle,0
;   fixedBridgingAngle,0
;   applyBridgingToPerimeters,0
;   filamentDiameters,1.75|1.75|1.75|1.75|1.75|1.75
;   filamentPricesPerKg,30|46|46|46|46|46
;   filamentDensities,1.25|1.25|1.25|1.25|1.25|1.25
;   useMinPrintHeight,0
;   minPrintHeight,0
;   useMaxPrintHeight,0
;   maxPrintHeight,9
;   useDiaphragm,0
;   diaphragmLayerInterval,20
;   robustSlicing,1
;   mergeAllIntoSolid,0
;   onlyRetractWhenCrossingOutline,1
;   retractBetweenLayers,0
;   useRetractionMinTravel,0
;   retractionMinTravel,3
;   retractWhileWiping,0
;   onlyWipeOutlines,1
;   avoidCrossingOutline,1
;   maxMovementDetourFactor,3
;   toolChangeRetractionDistance,12
;   toolChangeExtraRestartDistance,-0.5
;   toolChangeRetractionSpeed,600
;   externalThinWallType,1
;   internalThinWallType,1
;   thinWallAllowedOverlapPercentage,10
;   singleExtrusionMinLength,1
;   singleExtrusionMinPrintingWidthPercentage,50
;   singleExtrusionMaxPrintingWidthPercentage,200
;   singleExtrusionEndpointExtension,0.2
;   horizontalSizeCompensation,0
G90
M82
M106 S0
M140 S55
M190 S55
;
; -]H.P.B[- MarshMalloW  
; $VER: StartScript 1.02 (26.12.2019) MarshMalloW
;
; Begin Startcode
;
M117 *Preheat*     	; Preheat
;extruder0_temperature
M104 S215  
M109 S215 
M109 R215 
;
M117 *Auto-leveling*     	; Auto-leveling
M107                   	; Turn layer fan off
G21                    	; Set to metric [change to G20 if you want Imperial]
G90                    	; Force coordinates to be absolute relative to the origin
G28                    	; Home X/Y/Z axis
G29                    	; Auto-leveling (BL-Touch)
;
M117 *Start Clean*     	; Indicate nozzle clean in progress on LCD
G92 E0                 	; Set Extruder to 0 
G1 X0 Y0 F2000         	; Move X and Y to 0 with speed 2000 (mm/min)
G1 Z0.1 F1000          	; Move Z to   0.1 with speed 1000 (mm/min)
G1 X8.0 F2000          	; Move X to   8.0 with speed 2000 (mm/min)
G1 Y60.0 E4.0 F1000.0  	; Move Y to  60 and Extruder with 4.0 with speed 1000 (mm/min)
G1 Y100.0 E8.5 F1000.0 	; Move Y to 100 and Extruder with 8.5 with speed 1000 (mm/min)
G92 E0                 	; Set extruder to 0
G1 X16.0 F3000         	; Move X to 16.0 with speed 3000 (mm/min)
G1 Y60.0 F3000         	; Move Y to 60.0 with speed 3000 (mm/min)
M117 *End Clean*       	; Indicate nozzle clean in progress on LCD
G1 Z5 F3000            	; Move Z to  5.0 with speed 3000 (mm/min)
G1 X20.0 F3000         	; Move X to 20.0 with speed 3000 (mm/min)
G1 Y20.0 F3000         	; Move Y to 20.0 with speed 3000 (mm/min)
; 
M117 *Printing...*     	; Start printing msg on LCD
;
; End Startcode
;
; Begin printing with sliced GCode after here
;
; process Process1
M117 INDICATOR-Layer1
; Z=0.180
T0
G92 E0.0000
G1 E-4.0000 F3000
; feature skirt
; tool H0.180 W0.350
G1 Z0.300 F1002
G1 X173.345 Y90.089 F6000
G1 Z0.180 F1002
G1 E0.0000 F3000
G92 E0.0000
G1 X173.345 Y209.911 E2.9815 F630
G1 X171.661 Y211.595 E3.0408
G1 X128.339 Y211.595 E4.1187
G1 X126.655 Y209.911 E4.1780
G1 X126.655 Y90.089 E7.1595
G1 X128.339 Y88.405 E7.2187
G1 X171.661 Y88.405 E8.2967
G1 X173.345 Y90.089 E8.3560
G92 E0.0000
G1 E-4.0000 F3000
G1 Z0.480 F1002
G1 X167.408 Y94.805 F6000
G1 X167.293 Y105.719
G1 X165.597 Y110.100
G1 X164.608 Y203.882
G1 X134.259 Y203.562
G1 X134.395 Y190.680
G1 X132.699 Y195.061
G1 X132.592 Y205.195
G1 X127.005 Y209.766
G1 Z0.180 F1002
G1 E0.0000 F3000
G92 E0.0000
G1 X127.005 Y90.234 E2.9743 F630
G1 X128.484 Y88.755 E3.0263
G1 X171.516 Y88.755 E4.0971
G1 X172.995 Y90.234 E4.1491
G1 X172.995 Y209.766 E7.1234
G1 X171.516 Y211.245 E7.1755
G1 X128.484 Y211.245 E8.2462
G1 X127.005 Y209.766 E8.2982
G92 E0.0000
G1 E-4.0000 F3000
G1 Z0.480 F1002
G1 X172.645 Y209.621 F6000
G1 Z0.180 F1002
G1 E0.0000 F3000
G92 E0.0000
G1 X171.371 Y210.895 E0.0448 F630
G1 X128.629 Y210.895 E1.1084
G1 X127.355 Y209.621 E1.1532
G1 X127.355 Y90.379 E4.1203
G1 X128.629 Y89.105 E4.1651
G1 X171.371 Y89.105 E5.2286
G1 X172.645 Y90.379 E5.2735
G1 X172.645 Y209.621 E8.2405
G92 E0.0000
G1 E-4.0000 F3000
; feature outer perimeter
G1 Z0.480 F1002
G1 X166.240 Y205.549 F6000
G1 X166.393 Y191.102
G1 X164.792 Y186.363
G1 X165.741 Y96.438
G1 X135.392 Y96.118
G1 X135.360 Y99.190
G1 X133.760 Y94.451
G1 Z0.180 F1002
G1 E0.0000 F3000
G92 E0.0000
G1 X167.408 Y94.805 E0.8373 F315
G1 X166.240 Y205.549 E3.5931
G1 X132.592 Y205.195 E4.4304
G1 X133.751 Y95.251 E7.1662
G1 X133.760 Y94.451 F315
; feature inner perimeter
G1 X134.106 Y94.804 F6000
G92 E0.0000
G1 X167.054 Y95.152 E0.8199 F472
G1 X165.894 Y205.196 E3.5582
G1 X132.946 Y204.848 E4.3781
G1 X134.098 Y95.604 E7.0966
G1 X134.106 Y94.804 F472
; feature outer perimeter
G1 X135.392 Y96.118 F6000
G92 E0.0000
G1 X134.259 Y203.562 E2.6737 F315
G1 X164.608 Y203.882 E3.4288
G1 X165.741 Y96.438 E6.1025
G1 X136.192 Y96.126 E6.8378
G1 X135.392 Y96.118 F315
; feature inner perimeter
G1 X135.046 Y95.764 F6000
G92 E0.0000
G1 X133.906 Y203.908 E2.6911 F472
G1 X164.954 Y204.236 E3.4637
G1 X166.094 Y96.092 E6.1547
G1 X135.846 Y95.773 E6.9074
G1 X135.046 Y95.764 F472
; feature internal single extrusion
; tool H0.180 W0.600
G1 X134.776 Y95.286 F6000
G92 E0.0000
G1 X165.575 Y95.611 E1.3138 F315
G1 X166.375 Y95.620 F315
; tool H0.180 W0.637
G1 X166.501 Y95.546 F6000
G92 E0.0000
G1 X166.562 Y95.811 E0.0124 F315
; tool H0.180 W0.611
G1 X166.570 Y95.881 E0.0155
; tool H0.180 W0.601
G1 X166.571 Y95.951 E0.0185
; tool H0.180 W0.600
G1 X165.431 Y203.999 E4.6504
G1 X165.427 Y204.386 F315
G1 X165.425 Y204.456
G1 X165.416 Y204.526
G1 X165.349 Y204.789
; tool H0.180 W0.600
G1 X165.224 Y204.714 F6000
G92 E0.0000
G1 X134.143 Y204.386 E1.3487 F315
G1 X133.755 Y204.382 F315
G1 X133.685 Y204.380
G1 X133.616 Y204.370
G1 X133.352 Y204.303
G1 X133.428 Y204.179 F6000
G92 E0.0000
G1 X134.568 Y96.001 E4.6375 F315
G1 X134.573 Y95.614 F315
G1 X134.575 Y95.544
G1 X134.584 Y95.474
G1 X134.651 Y95.210
G92 E0.0000
G1 E-4.0000 F3000
; feature support
; tool H0.180 W0.350
G1 Z0.480 F1002
G1 X135.374 Y97.866 F6000
G1 X134.259 Y203.562
G1 X164.608 Y203.882
G1 X163.862 Y202.500
G1 Z0.180 F1002
G1 E0.0000 F3000
G92 E0.0000
G1 X135.031 Y202.500 E0.7174 F504
G1 X135.043 Y201.333 E0.7464
G1 X163.875 Y201.333 E1.4638
G1 X163.887 Y200.167 E1.4929
G1 X135.055 Y200.167 E2.2103
G1 X135.068 Y199.000 E2.2393
G1 X147.785 Y199.000 E2.5558
G1 X147.785 Y197.833 E2.5848
G1 X135.080 Y197.833 E2.9009
G1 X135.092 Y196.667 E2.9300
G1 X147.785 Y196.667 E3.2458
G1 X147.785 Y195.500 E3.2748
G1 X135.104 Y195.500 E3.5904
G1 X135.117 Y194.333 E3.6194
G1 X163.948 Y194.333 E4.3368
G1 X163.961 Y193.167 E4.3658
G1 X135.129 Y193.167 E5.0832
G1 X135.141 Y192.000 E5.1123
G1 X163.973 Y192.000 E5.8297
G1 X163.985 Y190.833 E5.8587
G1 X135.154 Y190.833 E6.5761
G1 X135.166 Y189.667 E6.6052
G1 X163.998 Y189.667 E7.3226
G1 X164.010 Y188.500 E7.3516
G1 X135.178 Y188.500 E8.0690
G1 X135.191 Y187.333 E8.0980
G1 X164.022 Y187.333 E8.8154
G1 X164.034 Y186.167 E8.8445
G1 X135.203 Y186.167 E9.5619
G1 X135.215 Y185.000 E9.5909
G1 X147.785 Y185.000 E9.9037
G1 X147.785 Y183.833 E9.9327
G1 X135.227 Y183.833 E10.2452
G1 X135.240 Y182.667 E10.2742
G1 X147.785 Y182.667 E10.5864
G1 X147.785 Y181.535 E10.6145
G1 X152.215 Y181.535 E10.7248
G1 X152.215 Y182.667 E10.7529
G1 X164.071 Y182.667 E11.0479
G1 X164.084 Y181.500 E11.0770
G1 X135.252 Y181.500 E11.7944
G1 X135.264 Y180.333 E11.8234
G1 X164.096 Y180.333 E12.5408
G1 X164.108 Y179.167 E12.5699
G1 X135.277 Y179.167 E13.2873
G1 X135.289 Y178.000 E13.3163
G1 X164.121 Y178.000 E14.0337
G1 X164.133 Y176.833 E14.0627
G1 X135.301 Y176.833 E14.7801
G1 X135.314 Y175.667 E14.8092
G1 X164.145 Y175.667 E15.5266
G1 X164.157 Y174.500 E15.5556
G1 X135.326 Y174.500 E16.2730
G1 X135.338 Y173.333 E16.3021
G1 X164.170 Y173.333 E17.0195
G1 X164.182 Y172.167 E17.0485
G1 X135.350 Y172.167 E17.7659
G1 X135.363 Y171.000 E17.7949
G1 X164.194 Y171.000 E18.5124
G1 X164.207 Y169.833 E18.5414
G1 X135.375 Y169.833 E19.2588
G1 X135.387 Y168.667 E19.2878
G1 X164.219 Y168.667 E20.0052
G1 X164.231 Y167.500 E20.0343
G1 X152.215 Y167.500 E20.3333
G1 X152.215 Y167.965 E20.3448
G1 X147.785 Y167.965 E20.4551
G1 X147.785 Y167.500 E20.4666
G1 X135.400 Y167.500 E20.7748
G1 X135.412 Y166.333 E20.8038
G1 X147.785 Y166.333 E21.1117
G1 X147.785 Y165.167 E21.1407
G1 X135.424 Y165.167 E21.4483
G1 X135.437 Y164.000 E21.4773
G1 X147.785 Y164.000 E21.7846
G1 X147.785 Y163.535 E21.7962
G1 X152.215 Y163.535 E21.9064
G1 X152.215 Y164.000 E21.9180
G1 X164.268 Y164.000 E22.2179
G1 X164.280 Y162.833 E22.2469
G1 X135.449 Y162.833 E22.9643
G1 X135.461 Y161.667 E22.9934
G1 X164.293 Y161.667 E23.7108
G1 X164.305 Y160.500 E23.7398
G1 X135.473 Y160.500 E24.4572
G1 X135.486 Y159.333 E24.4863
G1 X164.317 Y159.333 E25.2037
G1 X164.330 Y158.167 E25.2327
G1 X135.498 Y158.167 E25.9501
G1 X135.510 Y157.000 E25.9791
G1 X164.342 Y157.000 E26.6965
G1 X164.354 Y155.833 E26.7256
G1 X135.523 Y155.833 E27.4430
G1 X135.535 Y154.667 E27.4720
G1 X164.367 Y154.667 E28.1894
G1 X164.379 Y153.500 E28.2185
G1 X152.215 Y153.500 E28.5211
G1 X152.215 Y154.465 E28.5451
G1 X147.785 Y154.465 E28.6554
G1 X147.785 Y153.500 E28.6794
G1 X135.547 Y153.500 E28.9839
G1 X135.560 Y152.333 E29.0129
