; G-Code generated by Simplify3D(R) Version 4.1.2
; Feb 3, 2020 at 1:37:09 AM
; Settings Summary
;   processName,Process1
;   applyToModels,Organisateur en nid d'abeille 03
;   profileName,A03-04-15 Tevo Tornado (experimental)
;   profileVersion,2020-02-01 18:14:41
;   baseProfile,Creality CR-10(2)
;   printMaterial,PLA
;   printQuality,Medium
;   printExtruders,
;   extruderName,Primary Extruder
;   extruderToolheadNumber,0
;   extruderDiameter,0.4
;   extruderAutoWidth,0
;   extruderWidth,0.35
;   extrusionMultiplier,0.95
;   extruderUseRetract,1
;   extruderRetractionDistance,4
;   extruderExtraRestartDistance,0
;   extruderRetractionZLift,0.3
;   extruderRetractionSpeed,3000
;   extruderUseCoasting,0
;   extruderCoastingDistance,0.2
;   extruderUseWipe,0
;   extruderWipeDistance,4
;   primaryExtruder,0
;   layerHeight,0.15
;   topSolidLayers,4
;   bottomSolidLayers,3
;   perimeterOutlines,3
;   printPerimetersInsideOut,0
;   startPointOption,1
;   startPointOriginX,0
;   startPointOriginY,300
;   sequentialIslands,0
;   spiralVaseMode,0
;   firstLayerHeightPercentage,120
;   firstLayerWidthPercentage,100
;   firstLayerUnderspeed,0.5
;   useRaft,0
;   raftExtruder,0
;   raftTopLayers,3
;   raftBaseLayers,2
;   raftOffset,3
;   raftSeparationDistance,0.14
;   raftTopInfill,100
;   aboveRaftSpeedMultiplier,0.3
;   useSkirt,1
;   skirtExtruder,0
;   skirtLayers,1
;   skirtOutlines,3
;   skirtOffset,2
;   usePrimePillar,0
;   primePillarExtruder,999
;   primePillarWidth,12
;   primePillarLocation,7
;   primePillarSpeedMultiplier,1
;   useOozeShield,0
;   oozeShieldExtruder,999
;   oozeShieldOffset,2
;   oozeShieldOutlines,1
;   oozeShieldSidewallShape,1
;   oozeShieldSidewallAngle,30
;   oozeShieldSpeedMultiplier,1
;   infillExtruder,0
;   internalInfillPattern,Rectilinear
;   externalInfillPattern,Rectilinear
;   infillPercentage,15
;   outlineOverlapPercentage,15
;   infillExtrusionWidthPercentage,100
;   minInfillLength,5
;   infillLayerInterval,1
;   internalInfillAngles,45,-45
;   overlapInternalInfillAngles,0
;   externalInfillAngles,45,-45
;   generateSupport,0
;   supportExtruder,0
;   supportInfillPercentage,30
;   supportExtraInflation,0
;   supportBaseLayers,0
;   denseSupportExtruder,0
;   denseSupportLayers,0
;   denseSupportInfillPercentage,70
;   supportLayerInterval,1
;   supportHorizontalPartOffset,0.4
;   supportUpperSeparationLayers,1
;   supportLowerSeparationLayers,1
;   supportType,0
;   supportGridSpacing,4.5
;   maxOverhangAngle,45
;   supportAngles,0
;   temperatureName,Primary Extruder,Heated Bed
;   temperatureNumber,0,0
;   temperatureSetpointCount,1,1
;   temperatureSetpointLayers,1,1
;   temperatureSetpointTemperatures,215,55
;   temperatureStabilizeAtStartup,1,1
;   temperatureHeatedBed,0,1
;   fanLayers,1,2
;   fanSpeeds,0,100
;   blipFanToFullPower,0
;   adjustSpeedForCooling,1
;   minSpeedLayerTime,15
;   minCoolingSpeedSlowdown,50
;   increaseFanForCooling,1
;   minFanLayerTime,25
;   maxCoolingFanSpeed,100
;   increaseFanForBridging,1
;   bridgingFanSpeed,100
;   use5D,1
;   relativeEdistances,0
;   allowEaxisZeroing,1
;   independentExtruderAxes,0
;   includeM10123,0
;   stickySupport,1
;   applyToolheadOffsets,0
;   gcodeXoffset,0
;   gcodeYoffset,0
;   gcodeZoffset,0
;   overrideMachineDefinition,1
;   machineTypeOverride,0
;   strokeXoverride,300
;   strokeYoverride,300
;   strokeZoverride,400
;   originOffsetXoverride,0
;   originOffsetYoverride,0
;   originOffsetZoverride,0
;   homeXdirOverride,-1
;   homeYdirOverride,-1
;   homeZdirOverride,-1
;   flipXoverride,1
;   flipYoverride,-1
;   flipZoverride,1
;   toolheadOffsets,0,0|0,0|0,0|0,0|0,0|0,0
;   overrideFirmwareConfiguration,1
;   firmwareTypeOverride,RepRap (Marlin/Repetier/Sprinter)
;   GPXconfigOverride,r2
;   baudRateOverride,250000
;   overridePrinterModels,1
;   printerModelsOverride
;   startingGcode,;,; -]H.P.B[- MarshMalloW  ,; $VER: StartScript 1.02 (26.12.2019) MarshMalloW,;,; Begin Startcode,;,M117 *Preheat*     	; Preheat,;extruder0_temperature,M104 S[extruder0_temperature]  ,M109 S[extruder0_temperature] ,M109 R[extruder0_temperature] ,;,M117 *Auto-leveling*     	; Auto-leveling,M107                   	; Turn layer fan off,G21                    	; Set to metric [change to G20 if you want Imperial],G90                    	; Force coordinates to be absolute relative to the origin,G28                    	; Home X/Y/Z axis,G29                    	; Auto-leveling (BL-Touch),;,M117 *Start Clean*     	; Indicate nozzle clean in progress on LCD,G92 E0                 	; Set Extruder to 0 ,G1 X0 Y0 F2000         	; Move X and Y to 0 with speed 2000 (mm/min),G1 Z0.1 F1000          	; Move Z to   0.1 with speed 1000 (mm/min),G1 X8.0 F2000          	; Move X to   8.0 with speed 2000 (mm/min),G1 Y60.0 E4.0 F1000.0  	; Move Y to  60 and Extruder with 4.0 with speed 1000 (mm/min),G1 Y100.0 E8.5 F1000.0 	; Move Y to 100 and Extruder with 8.5 with speed 1000 (mm/min),G92 E0                 	; Set extruder to 0,G1 X16.0 F3000         	; Move X to 16.0 with speed 3000 (mm/min),G1 Y60.0 F3000         	; Move Y to 60.0 with speed 3000 (mm/min),M117 *End Clean*       	; Indicate nozzle clean in progress on LCD,G1 Z5 F3000            	; Move Z to  5.0 with speed 3000 (mm/min),G1 X20.0 F3000         	; Move X to 20.0 with speed 3000 (mm/min),; ,M117 *Printing...*     	; Start printing msg on LCD,;,; End Startcode,;,; Begin printing with sliced GCode after here,;
;   layerChangeGcode,
;   retractionGcode,
;   toolChangeGcode,
;   endingGcode,;,; init 181010,;,;M107 			; Fan off,;G1 E-1 F300 			; Retract the filament a bit before lifting the nozzle,;M104 S0 			; Turn off extruder,;M140 S0 			; Turn off bed,;G91			; Relative positioning,;G28 X0 Y0 			; Move X/Y to min endstops so the head is out of teh way,;M84 			; Disable motors,;G90 			; Absolute positioning,;M117 Print ready...,,;,; // From Cura 181010,; // End_gcode,G92 E0			; Zero the extruded length,;G1 E-30 F300		; Retract E -30,M106 S0			; Turn off cooling fan,M104 S0			; Turn off temperature,M140 S0		     	; Turn off bed,G91			; Relative positioning,G1 E-1 F300			; Retract the filament a bit before lifting the nozzle to release some of the pressure,G1 Z+20 E-5 X-20 Y-20 F7200	; Move Z up a bit and retract filament even more,G1 X0 Y150 F10000		; Move right min,M107			; Turn off layer fan,M84			; Disable motors,G90			; Absolute positioning,M117 *The-End* 		; End msg,;,
;   exportFileFormat,gcode
;   celebration,0
;   celebrationSong,Star Wars
;   postProcessing,
;   defaultSpeed,1800
;   outlineUnderspeed,0.5
;   solidInfillUnderspeed,0.8
;   supportUnderspeed,0.8
;   rapidXYspeed,6000
;   rapidZspeed,1002
;   minBridgingArea,50
;   bridgingExtraInflation,0.2
;   bridgingExtrusionMultiplier,1
;   bridgingSpeedMultiplier,0.6
;   useFixedBridgingAngle,0
;   fixedBridgingAngle,0
;   applyBridgingToPerimeters,0
;   filamentDiameters,1.75|1.75|1.75|1.75|1.75|1.75
;   filamentPricesPerKg,30|46|46|46|46|46
;   filamentDensities,1.25|1.25|1.25|1.25|1.25|1.25
;   useMinPrintHeight,0
;   minPrintHeight,0
;   useMaxPrintHeight,0
;   maxPrintHeight,9
;   useDiaphragm,0
;   diaphragmLayerInterval,20
;   robustSlicing,1
;   mergeAllIntoSolid,0
;   onlyRetractWhenCrossingOutline,1
;   retractBetweenLayers,1
;   useRetractionMinTravel,0
;   retractionMinTravel,3
;   retractWhileWiping,0
;   onlyWipeOutlines,1
;   avoidCrossingOutline,0
;   maxMovementDetourFactor,3
;   toolChangeRetractionDistance,12
;   toolChangeExtraRestartDistance,-0.5
;   toolChangeRetractionSpeed,600
;   externalThinWallType,1
;   internalThinWallType,1
;   thinWallAllowedOverlapPercentage,10
;   singleExtrusionMinLength,1
;   singleExtrusionMinPrintingWidthPercentage,50
;   singleExtrusionMaxPrintingWidthPercentage,200
;   singleExtrusionEndpointExtension,0.2
;   horizontalSizeCompensation,0
G90
M82
M106 S0
M140 S55
M190 S55
;
; -]H.P.B[- MarshMalloW  
; $VER: StartScript 1.02 (26.12.2019) MarshMalloW
;
; Begin Startcode
;
M117 *Preheat*     	; Preheat
;extruder0_temperature
M104 S215  
M109 S215 
M109 R215 
;
M117 *Auto-leveling*     	; Auto-leveling
M107                   	; Turn layer fan off
G21                    	; Set to metric [change to G20 if you want Imperial]
G90                    	; Force coordinates to be absolute relative to the origin
G28                    	; Home X/Y/Z axis
G29                    	; Auto-leveling (BL-Touch)
;
M117 *Start Clean*     	; Indicate nozzle clean in progress on LCD
G92 E0                 	; Set Extruder to 0 
G1 X0 Y0 F2000         	; Move X and Y to 0 with speed 2000 (mm/min)
G1 Z0.1 F1000          	; Move Z to   0.1 with speed 1000 (mm/min)
G1 X8.0 F2000          	; Move X to   8.0 with speed 2000 (mm/min)
G1 Y60.0 E4.0 F1000.0  	; Move Y to  60 and Extruder with 4.0 with speed 1000 (mm/min)
G1 Y100.0 E8.5 F1000.0 	; Move Y to 100 and Extruder with 8.5 with speed 1000 (mm/min)
G92 E0                 	; Set extruder to 0
G1 X16.0 F3000         	; Move X to 16.0 with speed 3000 (mm/min)
G1 Y60.0 F3000         	; Move Y to 60.0 with speed 3000 (mm/min)
M117 *End Clean*       	; Indicate nozzle clean in progress on LCD
G1 Z5 F3000            	; Move Z to  5.0 with speed 3000 (mm/min)
G1 X20.0 F3000         	; Move X to 20.0 with speed 3000 (mm/min)
; 
M117 *Printing...*     	; Start printing msg on LCD
;
; End Startcode
;
; Begin printing with sliced GCode after here
;
; process Process1
; layer 1, Z = 0.180
T0
G92 E0.0000
G1 E-4.0000 F3000
; feature skirt
; tool H0.180 W0.350
G1 Z0.300 F1002
G1 X152.254 Y104.130 F6000
G1 Z0.180 F1002
G1 E0.0000 F3000
G92 E0.0000
G1 X156.468 Y104.533 E0.1053 F900
G1 X156.604 Y104.552 E0.1088
G1 X160.761 Y105.353 E0.2141
G1 X160.894 Y105.386 E0.2175
G1 X164.956 Y106.578 E0.3228
G1 X165.085 Y106.623 E0.3263
G1 X169.016 Y108.197 E0.4316
G1 X169.140 Y108.254 E0.4350
G1 X172.903 Y110.194 E0.5404
G1 X173.022 Y110.262 E0.5438
G1 X176.583 Y112.551 E0.6491
G1 X176.695 Y112.630 E0.6525
G1 X180.023 Y115.247 E0.7579
G1 X180.126 Y115.337 E0.7613
G1 X183.190 Y118.259 E0.8666
G1 X183.285 Y118.358 E0.8700
G1 X186.057 Y121.557 E0.9754
G1 X186.142 Y121.665 E0.9788
G1 X188.598 Y125.113 E1.0841
G1 X188.672 Y125.229 E1.0875
G1 X190.788 Y128.895 E1.1929
G1 X190.851 Y129.017 E1.1963
G1 X192.610 Y132.868 E1.3016
G1 X192.661 Y132.995 E1.3050
G1 X194.045 Y136.996 E1.4104
G1 X194.084 Y137.127 E1.4138
G1 X195.082 Y141.241 E1.5191
G1 X195.108 Y141.376 E1.5225
G1 X195.711 Y145.566 E1.6279
G1 X195.724 Y145.703 E1.6313
G1 X195.925 Y149.932 E1.7366
G1 X195.925 Y150.068 E1.7400
G1 X195.724 Y154.297 E1.8454
G1 X195.711 Y154.434 E1.8488
G1 X195.108 Y158.624 E1.9541
G1 X195.082 Y158.759 E1.9575
G1 X194.084 Y162.873 E2.0629
G1 X194.045 Y163.004 E2.0663
G1 X192.661 Y167.005 E2.1716
G1 X192.610 Y167.132 E2.1750
G1 X190.851 Y170.983 E2.2804
G1 X190.788 Y171.105 E2.2838
G1 X188.672 Y174.771 E2.3891
G1 X188.598 Y174.887 E2.3925
G1 X186.142 Y178.335 E2.4979
G1 X186.057 Y178.443 E2.5013
G1 X183.285 Y181.642 E2.6066
G1 X183.190 Y181.741 E2.6100
G1 X180.126 Y184.663 E2.7154
G1 X180.023 Y184.753 E2.7188
G1 X176.695 Y187.370 E2.8241
G1 X176.583 Y187.449 E2.8275
G1 X173.022 Y189.738 E2.9329
G1 X172.903 Y189.806 E2.9363
G1 X169.140 Y191.746 E3.0416
G1 X169.016 Y191.803 E3.0450
G1 X165.085 Y193.377 E3.1504
G1 X164.956 Y193.422 E3.1538
G1 X160.894 Y194.614 E3.2591
G1 X160.761 Y194.647 E3.2625
G1 X156.604 Y195.448 E3.3679
G1 X156.468 Y195.467 E3.3713
G1 X152.254 Y195.870 E3.4766
G1 X152.117 Y195.876 E3.4800
G1 X147.883 Y195.876 E3.5854
G1 X147.746 Y195.870 E3.5888
G1 X143.532 Y195.467 E3.6941
G1 X143.396 Y195.448 E3.6975
G1 X139.239 Y194.647 E3.8029
G1 X139.106 Y194.614 E3.8063
G1 X135.044 Y193.422 E3.9116
G1 X134.915 Y193.377 E3.9150
G1 X130.984 Y191.803 E4.0204
G1 X130.860 Y191.746 E4.0238
G1 X127.097 Y189.806 E4.1291
G1 X126.978 Y189.738 E4.1326
G1 X123.417 Y187.449 E4.2379
G1 X123.305 Y187.370 E4.2413
G1 X119.977 Y184.753 E4.3466
G1 X119.874 Y184.663 E4.3501
G1 X116.810 Y181.741 E4.4554
G1 X116.715 Y181.642 E4.4588
G1 X113.943 Y178.443 E4.5642
G1 X113.858 Y178.335 E4.5676
G1 X111.402 Y174.887 E4.6729
G1 X111.328 Y174.771 E4.6763
G1 X109.212 Y171.105 E4.7817
G1 X109.149 Y170.983 E4.7851
G1 X107.390 Y167.132 E4.8904
G1 X107.339 Y167.005 E4.8938
G1 X105.955 Y163.004 E4.9992
G1 X105.916 Y162.873 E5.0026
G1 X104.918 Y158.759 E5.1079
G1 X104.892 Y158.624 E5.1113
G1 X104.289 Y154.434 E5.2167
G1 X104.276 Y154.297 E5.2201
G1 X104.075 Y150.068 E5.3254
G1 X104.075 Y149.932 E5.3288
G1 X104.276 Y145.703 E5.4342
G1 X104.289 Y145.566 E5.4376
G1 X104.892 Y141.376 E5.5429
G1 X104.918 Y141.241 E5.5463
G1 X105.916 Y137.127 E5.6517
G1 X105.955 Y136.996 E5.6551
G1 X107.339 Y132.995 E5.7604
G1 X107.390 Y132.868 E5.7638
G1 X109.149 Y129.017 E5.8692
G1 X109.212 Y128.895 E5.8726
G1 X111.328 Y125.229 E5.9779
G1 X111.402 Y125.113 E5.9813
G1 X113.815 Y121.726 E6.0848
G1 X113.898 Y121.620 E6.0882
G1 X116.713 Y118.360 E6.1953
G1 X116.809 Y118.259 E6.1988
G1 X119.874 Y115.337 E6.3042
G1 X119.977 Y115.247 E6.3076
G1 X123.305 Y112.630 E6.4129
G1 X123.417 Y112.551 E6.4163
G1 X126.978 Y110.262 E6.5217
G1 X127.097 Y110.194 E6.5251
G1 X130.860 Y108.254 E6.6304
G1 X130.984 Y108.197 E6.6338
G1 X134.915 Y106.623 E6.7392
G1 X135.044 Y106.578 E6.7426
G1 X139.106 Y105.386 E6.8479
G1 X139.239 Y105.353 E6.8513
G1 X143.396 Y104.552 E6.9567
G1 X143.532 Y104.533 E6.9601
G1 X147.746 Y104.130 E7.0654
G1 X147.883 Y104.124 E7.0688
G1 X152.117 Y104.124 E7.1742
G1 X152.254 Y104.130 E7.1776
G92 E0.0000
G1 E-4.0000 F3000
G1 Z0.480 F1002
G1 X131.013 Y191.431 F6000
G1 Z0.180 F1002
G1 E0.0000 F3000
G92 E0.0000
G1 X127.265 Y189.499 E0.1049 F900
G1 X127.160 Y189.439 E0.1079
G1 X123.613 Y187.159 E0.2129
G1 X123.515 Y187.089 E0.2158
G1 X120.200 Y184.483 E0.3208
G1 X120.109 Y184.404 E0.3238
G1 X117.057 Y181.494 E0.4287
G1 X116.974 Y181.407 E0.4317
G1 X114.213 Y178.220 E0.5366
G1 X114.138 Y178.125 E0.5396
G1 X111.692 Y174.690 E0.6445
G1 X111.627 Y174.589 E0.6475
G1 X109.519 Y170.937 E0.7525
G1 X109.464 Y170.830 E0.7555
G1 X107.712 Y166.994 E0.8604
G1 X107.667 Y166.883 E0.8634
G1 X106.288 Y162.898 E0.9683
G1 X106.254 Y162.782 E0.9713
G1 X105.260 Y158.684 E1.0762
G1 X105.237 Y158.566 E1.0792
G1 X104.637 Y154.392 E1.1842
G1 X104.626 Y154.272 E1.1871
G1 X104.425 Y150.060 E1.2921
G1 X104.425 Y149.940 E1.2951
G1 X104.626 Y145.728 E1.4000
G1 X104.637 Y145.608 E1.4030
G1 X105.237 Y141.434 E1.5079
G1 X105.260 Y141.316 E1.5109
G1 X106.254 Y137.218 E1.6158
G1 X106.288 Y137.102 E1.6188
G1 X107.667 Y133.117 E1.7238
G1 X107.712 Y133.006 E1.7268
G1 X109.464 Y129.170 E1.8317
G1 X109.519 Y129.063 E1.8347
G1 X111.627 Y125.411 E1.9396
G1 X111.692 Y125.310 E1.9426
G1 X114.095 Y121.936 E2.0457
G1 X114.168 Y121.843 E2.0486
G1 X116.972 Y118.595 E2.1554
G1 X117.057 Y118.507 E2.1584
G1 X120.109 Y115.596 E2.2634
G1 X120.200 Y115.517 E2.2664
G1 X123.515 Y112.911 E2.3713
G1 X123.613 Y112.841 E2.3743
G1 X127.160 Y110.561 E2.4792
G1 X127.265 Y110.501 E2.4822
G1 X131.013 Y108.568 E2.5871
G1 X131.122 Y108.519 E2.5901
G1 X135.037 Y106.951 E2.6951
G1 X135.151 Y106.912 E2.6980
G1 X139.197 Y105.724 E2.8030
G1 X139.314 Y105.696 E2.8060
G1 X143.454 Y104.897 E2.9109
G1 X143.573 Y104.880 E2.9139
G1 X147.771 Y104.479 E3.0188
G1 X147.891 Y104.474 E3.0218
G1 X152.108 Y104.474 E3.1267
G1 X152.229 Y104.479 E3.1297
G1 X156.427 Y104.880 E3.2347
G1 X156.545 Y104.897 E3.2377
G1 X160.686 Y105.696 E3.3426
G1 X160.803 Y105.724 E3.3456
G1 X164.849 Y106.912 E3.4505
G1 X164.963 Y106.951 E3.4535
G1 X168.878 Y108.519 E3.5584
G1 X168.987 Y108.568 E3.5614
G1 X172.735 Y110.501 E3.6664
G1 X172.840 Y110.561 E3.6693
G1 X176.387 Y112.841 E3.7743
G1 X176.485 Y112.911 E3.7773
G1 X179.800 Y115.517 E3.8822
G1 X179.891 Y115.596 E3.8852
G1 X182.943 Y118.506 E3.9901
G1 X183.026 Y118.593 E3.9931
G1 X185.787 Y121.780 E4.0980
G1 X185.862 Y121.875 E4.1010
G1 X188.308 Y125.310 E4.2060
G1 X188.373 Y125.411 E4.2090
G1 X190.481 Y129.063 E4.3139
G1 X190.536 Y129.170 E4.3169
G1 X192.288 Y133.006 E4.4218
G1 X192.333 Y133.117 E4.4248
G1 X193.712 Y137.102 E4.5297
G1 X193.746 Y137.218 E4.5327
