; G-Code generated by Simplify3D(R) Version 4.1.2
; Feb 3, 2020 at 8:51:09 PM
; Settings Summary
;   processName,Process1
;   applyToModels,Organisateur en nid d'abeille 04
;   profileName,A03-04-15 Tevo Tornado (experimental)
;   profileVersion,2020-02-01 18:14:41
;   baseProfile,Creality CR-10(2)
;   printMaterial,PLA
;   printQuality,Medium
;   printExtruders,
;   extruderName,Primary Extruder
;   extruderToolheadNumber,0
;   extruderDiameter,0.4
;   extruderAutoWidth,0
;   extruderWidth,0.35
;   extrusionMultiplier,0.95
;   extruderUseRetract,1
;   extruderRetractionDistance,4
;   extruderExtraRestartDistance,0
;   extruderRetractionZLift,0.3
;   extruderRetractionSpeed,3000
;   extruderUseCoasting,0
;   extruderCoastingDistance,0.2
;   extruderUseWipe,0
;   extruderWipeDistance,4
;   primaryExtruder,0
;   layerHeight,0.15
;   topSolidLayers,4
;   bottomSolidLayers,3
;   perimeterOutlines,3
;   printPerimetersInsideOut,0
;   startPointOption,1
;   startPointOriginX,0
;   startPointOriginY,300
;   sequentialIslands,0
;   spiralVaseMode,0
;   firstLayerHeightPercentage,120
;   firstLayerWidthPercentage,100
;   firstLayerUnderspeed,0.5
;   useRaft,0
;   raftExtruder,0
;   raftTopLayers,3
;   raftBaseLayers,2
;   raftOffset,3
;   raftSeparationDistance,0.14
;   raftTopInfill,100
;   aboveRaftSpeedMultiplier,0.3
;   useSkirt,1
;   skirtExtruder,0
;   skirtLayers,1
;   skirtOutlines,3
;   skirtOffset,2
;   usePrimePillar,0
;   primePillarExtruder,999
;   primePillarWidth,12
;   primePillarLocation,7
;   primePillarSpeedMultiplier,1
;   useOozeShield,0
;   oozeShieldExtruder,999
;   oozeShieldOffset,2
;   oozeShieldOutlines,1
;   oozeShieldSidewallShape,1
;   oozeShieldSidewallAngle,30
;   oozeShieldSpeedMultiplier,1
;   infillExtruder,0
;   internalInfillPattern,Rectilinear
;   externalInfillPattern,Rectilinear
;   infillPercentage,15
;   outlineOverlapPercentage,15
;   infillExtrusionWidthPercentage,100
;   minInfillLength,5
;   infillLayerInterval,1
;   internalInfillAngles,45,-45
;   overlapInternalInfillAngles,0
;   externalInfillAngles,45,-45
;   generateSupport,0
;   supportExtruder,0
;   supportInfillPercentage,30
;   supportExtraInflation,0
;   supportBaseLayers,0
;   denseSupportExtruder,0
;   denseSupportLayers,0
;   denseSupportInfillPercentage,70
;   supportLayerInterval,1
;   supportHorizontalPartOffset,0.4
;   supportUpperSeparationLayers,1
;   supportLowerSeparationLayers,1
;   supportType,0
;   supportGridSpacing,4.5
;   maxOverhangAngle,45
;   supportAngles,0
;   temperatureName,Primary Extruder,Heated Bed
;   temperatureNumber,0,0
;   temperatureSetpointCount,1,1
;   temperatureSetpointLayers,1,1
;   temperatureSetpointTemperatures,215,55
;   temperatureStabilizeAtStartup,1,1
;   temperatureHeatedBed,0,1
;   fanLayers,1,2
;   fanSpeeds,0,100
;   blipFanToFullPower,0
;   adjustSpeedForCooling,1
;   minSpeedLayerTime,15
;   minCoolingSpeedSlowdown,50
;   increaseFanForCooling,1
;   minFanLayerTime,25
;   maxCoolingFanSpeed,100
;   increaseFanForBridging,1
;   bridgingFanSpeed,100
;   use5D,1
;   relativeEdistances,0
;   allowEaxisZeroing,1
;   independentExtruderAxes,0
;   includeM10123,0
;   stickySupport,1
;   applyToolheadOffsets,0
;   gcodeXoffset,0
;   gcodeYoffset,0
;   gcodeZoffset,0
;   overrideMachineDefinition,1
;   machineTypeOverride,0
;   strokeXoverride,300
;   strokeYoverride,300
;   strokeZoverride,400
;   originOffsetXoverride,0
;   originOffsetYoverride,0
;   originOffsetZoverride,0
;   homeXdirOverride,-1
;   homeYdirOverride,-1
;   homeZdirOverride,-1
;   flipXoverride,1
;   flipYoverride,-1
;   flipZoverride,1
;   toolheadOffsets,0,0|0,0|0,0|0,0|0,0|0,0
;   overrideFirmwareConfiguration,1
;   firmwareTypeOverride,RepRap (Marlin/Repetier/Sprinter)
;   GPXconfigOverride,r2
;   baudRateOverride,250000
;   overridePrinterModels,1
;   printerModelsOverride
;   startingGcode,;,; -]H.P.B[- MarshMalloW  ,; $VER: StartScript 1.02 (26.12.2019) MarshMalloW,;,; Begin Startcode,;,M117 *Preheat*     	; Preheat,;extruder0_temperature,M104 S[extruder0_temperature]  ,M109 S[extruder0_temperature] ,M109 R[extruder0_temperature] ,;,M117 *Auto-leveling*     	; Auto-leveling,M107                   	; Turn layer fan off,G21                    	; Set to metric [change to G20 if you want Imperial],G90                    	; Force coordinates to be absolute relative to the origin,G28                    	; Home X/Y/Z axis,G29                    	; Auto-leveling (BL-Touch),;,M117 *Start Clean*     	; Indicate nozzle clean in progress on LCD,G92 E0                 	; Set Extruder to 0 ,G1 X0 Y0 F2000         	; Move X and Y to 0 with speed 2000 (mm/min),G1 Z0.1 F1000          	; Move Z to   0.1 with speed 1000 (mm/min),G1 X8.0 F2000          	; Move X to   8.0 with speed 2000 (mm/min),G1 Y60.0 E4.0 F1000.0  	; Move Y to  60 and Extruder with 4.0 with speed 1000 (mm/min),G1 Y100.0 E8.5 F1000.0 	; Move Y to 100 and Extruder with 8.5 with speed 1000 (mm/min),G92 E0                 	; Set extruder to 0,G1 X16.0 F3000         	; Move X to 16.0 with speed 3000 (mm/min),G1 Y60.0 F3000         	; Move Y to 60.0 with speed 3000 (mm/min),M117 *End Clean*       	; Indicate nozzle clean in progress on LCD,G1 Z5 F3000            	; Move Z to  5.0 with speed 3000 (mm/min),G1 X20.0 F3000         	; Move X to 20.0 with speed 3000 (mm/min),; ,M117 *Printing...*     	; Start printing msg on LCD,;,; End Startcode,;,; Begin printing with sliced GCode after here,;
;   layerChangeGcode,
;   retractionGcode,
;   toolChangeGcode,
;   endingGcode,;,; init 181010,;,;M107 			; Fan off,;G1 E-1 F300 			; Retract the filament a bit before lifting the nozzle,;M104 S0 			; Turn off extruder,;M140 S0 			; Turn off bed,;G91			; Relative positioning,;G28 X0 Y0 			; Move X/Y to min endstops so the head is out of teh way,;M84 			; Disable motors,;G90 			; Absolute positioning,;M117 Print ready...,,;,; // From Cura 181010,; // End_gcode,G92 E0			; Zero the extruded length,;G1 E-30 F300		; Retract E -30,M106 S0			; Turn off cooling fan,M104 S0			; Turn off temperature,M140 S0		     	; Turn off bed,G91			; Relative positioning,G1 E-1 F300			; Retract the filament a bit before lifting the nozzle to release some of the pressure,G1 Z+20 E-5 X-20 Y-20 F7200	; Move Z up a bit and retract filament even more,G1 X0 Y150 F10000		; Move right min,M107			; Turn off layer fan,M84			; Disable motors,G90			; Absolute positioning,M117 *The-End* 		; End msg,;,
;   exportFileFormat,gcode
;   celebration,0
;   celebrationSong,Star Wars
;   postProcessing,
;   defaultSpeed,1800
;   outlineUnderspeed,0.5
;   solidInfillUnderspeed,0.8
;   supportUnderspeed,0.8
;   rapidXYspeed,6000
;   rapidZspeed,1002
;   minBridgingArea,50
;   bridgingExtraInflation,0.2
;   bridgingExtrusionMultiplier,1
;   bridgingSpeedMultiplier,0.6
;   useFixedBridgingAngle,0
;   fixedBridgingAngle,0
;   applyBridgingToPerimeters,0
;   filamentDiameters,1.75|1.75|1.75|1.75|1.75|1.75
;   filamentPricesPerKg,30|46|46|46|46|46
;   filamentDensities,1.25|1.25|1.25|1.25|1.25|1.25
;   useMinPrintHeight,0
;   minPrintHeight,0
;   useMaxPrintHeight,0
;   maxPrintHeight,9
;   useDiaphragm,0
;   diaphragmLayerInterval,20
;   robustSlicing,1
;   mergeAllIntoSolid,0
;   onlyRetractWhenCrossingOutline,1
;   retractBetweenLayers,1
;   useRetractionMinTravel,0
;   retractionMinTravel,3
;   retractWhileWiping,0
;   onlyWipeOutlines,1
;   avoidCrossingOutline,0
;   maxMovementDetourFactor,3
;   toolChangeRetractionDistance,12
;   toolChangeExtraRestartDistance,-0.5
;   toolChangeRetractionSpeed,600
;   externalThinWallType,1
;   internalThinWallType,1
;   thinWallAllowedOverlapPercentage,10
;   singleExtrusionMinLength,1
;   singleExtrusionMinPrintingWidthPercentage,50
;   singleExtrusionMaxPrintingWidthPercentage,200
;   singleExtrusionEndpointExtension,0.2
;   horizontalSizeCompensation,0
G90
M82
M106 S0
M140 S55
M190 S55
;
; -]H.P.B[- MarshMalloW  
; $VER: StartScript 1.02 (26.12.2019) MarshMalloW
;
; Begin Startcode
;
M117 *Preheat*     	; Preheat
;extruder0_temperature
M104 S215  
M109 S215 
M109 R215 
;
M117 *Auto-leveling*     	; Auto-leveling
M107                   	; Turn layer fan off
G21                    	; Set to metric [change to G20 if you want Imperial]
G90                    	; Force coordinates to be absolute relative to the origin
G28                    	; Home X/Y/Z axis
G29                    	; Auto-leveling (BL-Touch)
;
M117 *Start Clean*     	; Indicate nozzle clean in progress on LCD
G92 E0                 	; Set Extruder to 0 
G1 X0 Y0 F2000         	; Move X and Y to 0 with speed 2000 (mm/min)
G1 Z0.1 F1000          	; Move Z to   0.1 with speed 1000 (mm/min)
G1 X8.0 F2000          	; Move X to   8.0 with speed 2000 (mm/min)
G1 Y60.0 E4.0 F1000.0  	; Move Y to  60 and Extruder with 4.0 with speed 1000 (mm/min)
G1 Y100.0 E8.5 F1000.0 	; Move Y to 100 and Extruder with 8.5 with speed 1000 (mm/min)
G92 E0                 	; Set extruder to 0
G1 X16.0 F3000         	; Move X to 16.0 with speed 3000 (mm/min)
G1 Y60.0 F3000         	; Move Y to 60.0 with speed 3000 (mm/min)
M117 *End Clean*       	; Indicate nozzle clean in progress on LCD
G1 Z5 F3000            	; Move Z to  5.0 with speed 3000 (mm/min)
G1 X20.0 F3000         	; Move X to 20.0 with speed 3000 (mm/min)
; 
M117 *Printing...*     	; Start printing msg on LCD
;
; End Startcode
;
; Begin printing with sliced GCode after here
;
; process Process1
; layer 1, Z = 0.180
T0
G92 E0.0000
G1 E-4.0000 F3000
; feature skirt
; tool H0.180 W0.350
G1 Z0.300 F1002
G1 X150.136 Y64.613 F6000
G1 Z0.180 F1002
G1 E0.0000 F3000
G92 E0.0000
G1 X154.206 Y65.013 E0.1017 F900
G1 X154.331 Y65.031 E0.1049
G1 X158.516 Y65.818 E0.2109
G1 X158.656 Y65.851 E0.2144
G1 X162.667 Y67.029 E0.3185
G1 X162.796 Y67.074 E0.3219
G1 X166.675 Y68.626 E0.4258
G1 X166.799 Y68.683 E0.4292
G1 X170.512 Y70.597 E0.5332
G1 X170.631 Y70.666 E0.5366
G1 X174.145 Y72.924 E0.6405
G1 X174.256 Y73.004 E0.6439
G1 X177.540 Y75.586 E0.7479
G1 X177.643 Y75.676 E0.7513
G1 X180.667 Y78.558 E0.8552
G1 X180.761 Y78.657 E0.8586
G1 X183.497 Y81.814 E0.9626
G1 X183.581 Y81.922 E0.9660
G1 X186.004 Y85.325 E1.0699
G1 X186.078 Y85.440 E1.0733
G1 X188.167 Y89.058 E1.1773
G1 X188.230 Y89.179 E1.1807
G1 X189.965 Y92.979 E1.2846
G1 X190.016 Y93.106 E1.2880
G1 X191.382 Y97.054 E1.3920
G1 X191.421 Y97.185 E1.3954
G1 X192.406 Y101.245 E1.4993
G1 X192.432 Y101.379 E1.5027
G1 X193.026 Y105.514 E1.6067
G1 X193.039 Y105.650 E1.6101
G1 X193.238 Y109.823 E1.7140
G1 X193.238 Y109.961 E1.7175
G1 X193.033 Y114.197 E1.8230
G1 X193.020 Y114.336 E1.8264
G1 X192.407 Y118.533 E1.9320
G1 X192.380 Y118.669 E1.9354
G1 X191.365 Y122.787 E2.0410
G1 X191.325 Y122.921 E2.0444
G1 X189.917 Y126.922 E2.1500
G1 X189.865 Y127.050 E2.1534
G1 X188.078 Y130.897 E2.2590
G1 X188.013 Y131.020 E2.2624
G1 X185.863 Y134.676 E2.3680
G1 X185.786 Y134.792 E2.3714
G1 X183.293 Y138.224 E2.4770
G1 X183.206 Y138.332 E2.4804
G1 X180.394 Y141.507 E2.5860
G1 X180.297 Y141.607 E2.5894
G1 X177.191 Y144.495 E2.6950
G1 X177.084 Y144.585 E2.6984
G1 X173.714 Y147.160 E2.8040
G1 X173.600 Y147.239 E2.8074
G1 X169.997 Y149.477 E2.9130
G1 X169.875 Y149.545 E2.9164
G1 X166.073 Y151.425 E3.0220
G1 X165.945 Y151.480 E3.0254
G1 X161.980 Y152.984 E3.1310
G1 X161.847 Y153.027 E3.1344
G1 X157.755 Y154.141 E3.2400
G1 X157.619 Y154.171 E3.2434
G1 X153.438 Y154.885 E3.3490
G1 X153.300 Y154.902 E3.3524
G1 X149.079 Y155.209 E3.4578
G1 X148.958 Y155.212 E3.4608
G1 X145.816 Y155.176 E3.5389
G1 X145.747 Y155.173 E3.5407
G1 X144.623 Y155.106 E3.5687
G1 X144.555 Y155.100 E3.5704
G1 X141.519 Y154.772 E3.6464
G1 X141.450 Y154.763 E3.6481
G1 X140.276 Y154.578 E3.6777
G1 X140.209 Y154.566 E3.6794
G1 X137.280 Y153.961 E3.7538
G1 X137.212 Y153.945 E3.7555
G1 X136.001 Y153.634 E3.7866
G1 X135.935 Y153.615 E3.7883
G1 X133.137 Y152.751 E3.8612
G1 X133.071 Y152.729 E3.8629
G1 X131.837 Y152.281 E3.8956
G1 X131.773 Y152.257 E3.8973
G1 X129.128 Y151.152 E3.9686
G1 X129.064 Y151.124 E3.9704
G1 X127.822 Y150.534 E4.0046
G1 X127.761 Y150.503 E4.0063
G1 X125.289 Y149.179 E4.0761
G1 X125.228 Y149.145 E4.0778
G1 X123.995 Y148.407 E4.1136
G1 X123.938 Y148.370 E4.1153
G1 X121.655 Y146.851 E4.1835
G1 X121.598 Y146.811 E4.1852
G1 X120.391 Y145.921 E4.2225
G1 X120.337 Y145.879 E4.2242
G1 X118.259 Y144.187 E4.2909
G1 X118.206 Y144.141 E4.2927
G1 X117.044 Y143.098 E4.3315
G1 X116.994 Y143.052 E4.3332
G1 X115.131 Y141.212 E4.3984
G1 X115.083 Y141.162 E4.4001
G1 X113.985 Y139.967 E4.4405
G1 X113.940 Y139.915 E4.4422
G1 X112.301 Y137.953 E4.5058
G1 X112.258 Y137.899 E4.5075
G1 X111.242 Y136.554 E4.5495
G1 X111.202 Y136.498 E4.5512
G1 X109.794 Y134.440 E4.6132
G1 X109.756 Y134.382 E4.6149
G1 X108.840 Y132.893 E4.6584
G1 X108.806 Y132.834 E4.6601
G1 X107.632 Y130.704 E4.7206
G1 X107.600 Y130.643 E4.7224
G1 X106.804 Y129.017 E4.7674
G1 X106.775 Y128.955 E4.7691
G1 X105.835 Y126.780 E4.8281
G1 X105.809 Y126.715 E4.8298
G1 X105.150 Y124.963 E4.8764
G1 X105.128 Y124.898 E4.8781
G1 X104.420 Y122.702 E4.9355
G1 X104.400 Y122.636 E4.9372
G1 X103.896 Y120.768 E4.9854
G1 X103.880 Y120.702 E4.9871
G1 X103.398 Y118.509 E5.0429
G1 X103.385 Y118.441 E5.0447
G1 X103.052 Y116.472 E5.0943
G1 X103.042 Y116.404 E5.0960
G1 X102.781 Y114.237 E5.1504
G1 X102.774 Y114.168 E5.1521
G1 X102.626 Y112.115 E5.2033
G1 X102.623 Y112.046 E5.2050
G1 X102.572 Y109.926 E5.2578
G1 X102.572 Y109.857 E5.2595
G1 X102.623 Y107.736 E5.3123
G1 X102.626 Y107.668 E5.3140
G1 X102.774 Y105.615 E5.3652
G1 X102.781 Y105.545 E5.3669
G1 X103.042 Y103.378 E5.4213
G1 X103.052 Y103.310 E5.4230
G1 X103.385 Y101.342 E5.4726
G1 X103.398 Y101.274 E5.4744
G1 X103.880 Y99.081 E5.5302
G1 X103.896 Y99.014 E5.5319
G1 X104.400 Y97.147 E5.5801
G1 X104.420 Y97.080 E5.5818
G1 X105.128 Y94.884 E5.6392
G1 X105.150 Y94.820 E5.6409
G1 X105.809 Y93.067 E5.6875
G1 X105.835 Y93.003 E5.6892
G1 X106.775 Y90.828 E5.7482
G1 X106.804 Y90.765 E5.7499
G1 X107.600 Y89.140 E5.7949
G1 X107.632 Y89.078 E5.7967
G1 X108.806 Y86.949 E5.8572
G1 X108.840 Y86.890 E5.8589
G1 X109.756 Y85.401 E5.9024
G1 X109.794 Y85.343 E5.9041
G1 X111.202 Y83.284 E5.9661
G1 X111.242 Y83.228 E5.9678
G1 X112.258 Y81.884 E6.0098
G1 X112.301 Y81.829 E6.0115
G1 X113.940 Y79.867 E6.0751
G1 X113.985 Y79.816 E6.0768
G1 X115.083 Y78.621 E6.1172
G1 X115.131 Y78.571 E6.1189
G1 X116.994 Y76.731 E6.1841
G1 X117.044 Y76.684 E6.1858
G1 X118.206 Y75.641 E6.2246
G1 X118.259 Y75.596 E6.2264
G1 X120.337 Y73.904 E6.2931
G1 X120.391 Y73.862 E6.2948
G1 X121.598 Y72.972 E6.3321
G1 X121.655 Y72.932 E6.3338
G1 X123.938 Y71.412 E6.4020
G1 X123.996 Y71.376 E6.4037
G1 X125.228 Y70.637 E6.4395
G1 X125.289 Y70.603 E6.4412
G1 X127.761 Y69.280 E6.5110
G1 X127.822 Y69.249 E6.5127
G1 X129.064 Y68.659 E6.5469
G1 X129.128 Y68.630 E6.5487
G1 X131.773 Y67.526 E6.6200
G1 X131.837 Y67.501 E6.6217
G1 X133.071 Y67.054 E6.6544
G1 X133.137 Y67.032 E6.6561
G1 X135.935 Y66.167 E6.7290
G1 X136.001 Y66.149 E6.7307
G1 X137.212 Y65.837 E6.7618
G1 X137.280 Y65.821 E6.7635
G1 X140.209 Y65.217 E6.8379
G1 X140.276 Y65.204 E6.8396
G1 X141.450 Y65.020 E6.8692
G1 X141.519 Y65.011 E6.8709
G1 X144.554 Y64.683 E6.9469
G1 X144.623 Y64.677 E6.9486
G1 X145.755 Y64.609 E6.9768
G1 X145.841 Y64.606 E6.9790
G1 X149.995 Y64.606 E7.0823
G1 X150.136 Y64.613 E7.0858
G92 E0.0000
G1 E-4.0000 F3000
G1 Z0.480 F1002
G1 X107.912 Y130.485 F6000
G1 Z0.180 F1002
G1 E0.0000 F3000
G92 E0.0000
G1 X107.120 Y128.867 E0.0448 F900
G1 X107.095 Y128.812 E0.0463
G1 X106.158 Y126.645 E0.1051
G1 X106.135 Y126.588 E0.1066
G1 X105.479 Y124.844 E0.1530
G1 X105.460 Y124.787 E0.1545
G1 X104.754 Y122.599 E0.2117
G1 X104.737 Y122.540 E0.2132
G1 X104.235 Y120.681 E0.2611
G1 X104.221 Y120.623 E0.2626
G1 X103.741 Y118.438 E0.3183
G1 X103.730 Y118.378 E0.3198
G1 X103.398 Y116.418 E0.3693
G1 X103.389 Y116.358 E0.3707
G1 X103.129 Y114.199 E0.4249
G1 X103.123 Y114.139 E0.4264
G1 X102.976 Y112.094 E0.4774
G1 X102.973 Y112.034 E0.4789
G1 X102.922 Y109.922 E0.5315
G1 X102.922 Y109.861 E0.5330
G1 X102.973 Y107.749 E0.5855
G1 X102.976 Y107.689 E0.5870
G1 X103.123 Y105.644 E0.6380
