; G-Code generated by Simplify3D(R) Version 4.1.2
; Feb 1, 2020 at 2:20:30 PM
; Settings Summary
;   processName,Process1
;   applyToModels,Organisateur en nid d'abeille 02
;   profileName,A03-04-15 Tevo Tornado (experimental)
;   profileVersion,2020-01-19 23:33:47
;   baseProfile,Creality CR-10(2)
;   printMaterial,PLA
;   printQuality,Medium
;   printExtruders,
;   extruderName,Primary Extruder
;   extruderToolheadNumber,0
;   extruderDiameter,0.4
;   extruderAutoWidth,0
;   extruderWidth,0.35
;   extrusionMultiplier,0.95
;   extruderUseRetract,1
;   extruderRetractionDistance,4
;   extruderExtraRestartDistance,0
;   extruderRetractionZLift,0.3
;   extruderRetractionSpeed,3000
;   extruderUseCoasting,0
;   extruderCoastingDistance,0.2
;   extruderUseWipe,0
;   extruderWipeDistance,4
;   primaryExtruder,0
;   layerHeight,0.15
;   topSolidLayers,4
;   bottomSolidLayers,3
;   perimeterOutlines,3
;   printPerimetersInsideOut,0
;   startPointOption,1
;   startPointOriginX,0
;   startPointOriginY,300
;   sequentialIslands,0
;   spiralVaseMode,0
;   firstLayerHeightPercentage,120
;   firstLayerWidthPercentage,100
;   firstLayerUnderspeed,0.5
;   useRaft,0
;   raftExtruder,0
;   raftTopLayers,3
;   raftBaseLayers,2
;   raftOffset,3
;   raftSeparationDistance,0.14
;   raftTopInfill,100
;   aboveRaftSpeedMultiplier,0.3
;   useSkirt,1
;   skirtExtruder,0
;   skirtLayers,1
;   skirtOutlines,3
;   skirtOffset,2
;   usePrimePillar,0
;   primePillarExtruder,999
;   primePillarWidth,12
;   primePillarLocation,7
;   primePillarSpeedMultiplier,1
;   useOozeShield,0
;   oozeShieldExtruder,999
;   oozeShieldOffset,2
;   oozeShieldOutlines,1
;   oozeShieldSidewallShape,1
;   oozeShieldSidewallAngle,30
;   oozeShieldSpeedMultiplier,1
;   infillExtruder,0
;   internalInfillPattern,Rectilinear
;   externalInfillPattern,Rectilinear
;   infillPercentage,15
;   outlineOverlapPercentage,15
;   infillExtrusionWidthPercentage,100
;   minInfillLength,5
;   infillLayerInterval,1
;   internalInfillAngles,45,-45
;   overlapInternalInfillAngles,0
;   externalInfillAngles,45,-45
;   generateSupport,1
;   supportExtruder,0
;   supportInfillPercentage,30
;   supportExtraInflation,0
;   supportBaseLayers,0
;   denseSupportExtruder,0
;   denseSupportLayers,0
;   denseSupportInfillPercentage,70
;   supportLayerInterval,1
;   supportHorizontalPartOffset,0.4
;   supportUpperSeparationLayers,1
;   supportLowerSeparationLayers,1
;   supportType,0
;   supportGridSpacing,4.5
;   maxOverhangAngle,45
;   supportAngles,0
;   temperatureName,Primary Extruder,Heated Bed
;   temperatureNumber,0,0
;   temperatureSetpointCount,1,1
;   temperatureSetpointLayers,1,1
;   temperatureSetpointTemperatures,215,55
;   temperatureStabilizeAtStartup,1,1
;   temperatureHeatedBed,0,1
;   fanLayers,1,2
;   fanSpeeds,0,100
;   blipFanToFullPower,0
;   adjustSpeedForCooling,1
;   minSpeedLayerTime,15
;   minCoolingSpeedSlowdown,50
;   increaseFanForCooling,1
;   minFanLayerTime,25
;   maxCoolingFanSpeed,100
;   increaseFanForBridging,1
;   bridgingFanSpeed,100
;   use5D,1
;   relativeEdistances,0
;   allowEaxisZeroing,1
;   independentExtruderAxes,0
;   includeM10123,0
;   stickySupport,1
;   applyToolheadOffsets,0
;   gcodeXoffset,0
;   gcodeYoffset,0
;   gcodeZoffset,0
;   overrideMachineDefinition,1
;   machineTypeOverride,0
;   strokeXoverride,300
;   strokeYoverride,300
;   strokeZoverride,400
;   originOffsetXoverride,0
;   originOffsetYoverride,0
;   originOffsetZoverride,0
;   homeXdirOverride,-1
;   homeYdirOverride,-1
;   homeZdirOverride,-1
;   flipXoverride,1
;   flipYoverride,-1
;   flipZoverride,1
;   toolheadOffsets,0,0|0,0|0,0|0,0|0,0|0,0
;   overrideFirmwareConfiguration,1
;   firmwareTypeOverride,RepRap (Marlin/Repetier/Sprinter)
;   GPXconfigOverride,r2
;   baudRateOverride,250000
;   overridePrinterModels,1
;   printerModelsOverride
;   startingGcode,;,; -]H.P.B[- MarshMalloW  ,; $VER: StartScript 1.02 (26.12.2019) MarshMalloW,;,; Begin Startcode,;,M117 *Preheat*     	; Preheat,;extruder0_temperature,M104 S[extruder0_temperature]  ,M109 S[extruder0_temperature] ,M109 R[extruder0_temperature] ,;,M117 *Auto-leveling*     	; Auto-leveling,M107                   	; Turn layer fan off,G21                    	; Set to metric [change to G20 if you want Imperial],G90                    	; Force coordinates to be absolute relative to the origin,G28                    	; Home X/Y/Z axis,G29                    	; Auto-leveling (BL-Touch),;,M117 *Start Clean*     	; Indicate nozzle clean in progress on LCD,G92 E0                 	; Set Extruder to 0 ,G1 X0 Y0 F2000         	; Move X and Y to 0 with speed 2000 (mm/min),G1 Z0.1 F1000          	; Move Z to   0.1 with speed 1000 (mm/min),G1 X8.0 F2000          	; Move X to   8.0 with speed 2000 (mm/min),G1 Y60.0 E4.0 F1000.0  	; Move Y to  60 and Extruder with 4.0 with speed 1000 (mm/min),G1 Y100.0 E8.5 F1000.0 	; Move Y to 100 and Extruder with 8.5 with speed 1000 (mm/min),G92 E0                 	; Set extruder to 0,G1 X16.0 F3000         	; Move X to 16.0 with speed 3000 (mm/min),G1 Y60.0 F3000         	; Move Y to 60.0 with speed 3000 (mm/min),M117 *End Clean*       	; Indicate nozzle clean in progress on LCD,G1 Z5 F3000            	; Move Z to  5.0 with speed 3000 (mm/min),G1 X20.0 F3000         	; Move X to 20.0 with speed 3000 (mm/min),; ,M117 *Printing...*     	; Start printing msg on LCD,;,; End Startcode,;,; Begin printing with sliced GCode after here,;
;   layerChangeGcode,
;   retractionGcode,
;   toolChangeGcode,
;   endingGcode,;,; init 181010,;,;M107 			; Fan off,;G1 E-1 F300 			; Retract the filament a bit before lifting the nozzle,;M104 S0 			; Turn off extruder,;M140 S0 			; Turn off bed,;G91			; Relative positioning,;G28 X0 Y0 			; Move X/Y to min endstops so the head is out of teh way,;M84 			; Disable motors,;G90 			; Absolute positioning,;M117 Print ready...,,;,; // From Cura 181010,; // End_gcode,G92 E0			; Zero the extruded length,;G1 E-30 F300		; Retract E -30,M106 S0			; Turn off cooling fan,M104 S0			; Turn off temperature,M140 S0		     	; Turn off bed,G91			; Relative positioning,G1 E-1 F300			; Retract the filament a bit before lifting the nozzle to release some of the pressure,G1 Z+20 E-5 X-20 Y-20 F7200	; Move Z up a bit and retract filament even more,G1 X0 Y150 F10000		; Move right min,M107			; Turn off layer fan,M84			; Disable motors,G90			; Absolute positioning,M117 *The-End* 		; End msg,;,
;   exportFileFormat,gcode
;   celebration,0
;   celebrationSong,Star Wars
;   postProcessing,
;   defaultSpeed,1800
;   outlineUnderspeed,0.5
;   solidInfillUnderspeed,0.8
;   supportUnderspeed,0.8
;   rapidXYspeed,6000
;   rapidZspeed,1002
;   minBridgingArea,50
;   bridgingExtraInflation,0.2
;   bridgingExtrusionMultiplier,1
;   bridgingSpeedMultiplier,0.6
;   useFixedBridgingAngle,0
;   fixedBridgingAngle,0
;   applyBridgingToPerimeters,0
;   filamentDiameters,1.75|1.75|1.75|1.75|1.75|1.75
;   filamentPricesPerKg,30|46|46|46|46|46
;   filamentDensities,1.25|1.25|1.25|1.25|1.25|1.25
;   useMinPrintHeight,0
;   minPrintHeight,0
;   useMaxPrintHeight,0
;   maxPrintHeight,9
;   useDiaphragm,0
;   diaphragmLayerInterval,20
;   robustSlicing,1
;   mergeAllIntoSolid,0
;   onlyRetractWhenCrossingOutline,1
;   retractBetweenLayers,1
;   useRetractionMinTravel,0
;   retractionMinTravel,3
;   retractWhileWiping,0
;   onlyWipeOutlines,1
;   avoidCrossingOutline,0
;   maxMovementDetourFactor,3
;   toolChangeRetractionDistance,12
;   toolChangeExtraRestartDistance,-0.5
;   toolChangeRetractionSpeed,600
;   externalThinWallType,1
;   internalThinWallType,1
;   thinWallAllowedOverlapPercentage,10
;   singleExtrusionMinLength,1
;   singleExtrusionMinPrintingWidthPercentage,50
;   singleExtrusionMaxPrintingWidthPercentage,200
;   singleExtrusionEndpointExtension,0.2
;   horizontalSizeCompensation,0
G90
M82
M106 S0
M140 S55
M190 S55
;
; -]H.P.B[- MarshMalloW  
; $VER: StartScript 1.02 (26.12.2019) MarshMalloW
;
; Begin Startcode
;
M117 *Preheat*     	; Preheat
;extruder0_temperature
M104 S215  
M109 S215 
M109 R215 
;
M117 *Auto-leveling*     	; Auto-leveling
M107                   	; Turn layer fan off
G21                    	; Set to metric [change to G20 if you want Imperial]
G90                    	; Force coordinates to be absolute relative to the origin
G28                    	; Home X/Y/Z axis
G29                    	; Auto-leveling (BL-Touch)
;
M117 *Start Clean*     	; Indicate nozzle clean in progress on LCD
G92 E0                 	; Set Extruder to 0 
G1 X0 Y0 F2000         	; Move X and Y to 0 with speed 2000 (mm/min)
G1 Z0.1 F1000          	; Move Z to   0.1 with speed 1000 (mm/min)
G1 X8.0 F2000          	; Move X to   8.0 with speed 2000 (mm/min)
G1 Y60.0 E4.0 F1000.0  	; Move Y to  60 and Extruder with 4.0 with speed 1000 (mm/min)
G1 Y100.0 E8.5 F1000.0 	; Move Y to 100 and Extruder with 8.5 with speed 1000 (mm/min)
G92 E0                 	; Set extruder to 0
G1 X16.0 F3000         	; Move X to 16.0 with speed 3000 (mm/min)
G1 Y60.0 F3000         	; Move Y to 60.0 with speed 3000 (mm/min)
M117 *End Clean*       	; Indicate nozzle clean in progress on LCD
G1 Z5 F3000            	; Move Z to  5.0 with speed 3000 (mm/min)
G1 X20.0 F3000         	; Move X to 20.0 with speed 3000 (mm/min)
; 
M117 *Printing...*     	; Start printing msg on LCD
;
; End Startcode
;
; Begin printing with sliced GCode after here
;
; process Process1
; layer 1, Z = 0.180
T0
G92 E0.0000
G1 E-4.0000 F3000
; feature skirt
; tool H0.180 W0.350
G1 Z0.300 F1002
G1 X168.845 Y105.839 F6000
G1 Z0.180 F1002
G1 E0.0000 F3000
G92 E0.0000
G1 X168.845 Y108.655 E0.0701 F900
G1 X176.161 Y108.655 E0.2521
G1 X177.845 Y110.339 E0.3114
G1 X177.845 Y113.155 E0.3814
G1 X180.661 Y113.155 E0.4515
G1 X182.345 Y114.839 E0.5108
G1 X182.345 Y117.655 E0.5808
G1 X185.161 Y117.655 E0.6509
G1 X186.845 Y119.339 E0.7102
G1 X186.845 Y122.155 E0.7802
G1 X189.661 Y122.155 E0.8503
G1 X191.345 Y123.839 E0.9096
G1 X191.345 Y131.155 E1.0916
G1 X194.161 Y131.155 E1.1617
G1 X195.845 Y132.839 E1.2209
G1 X195.845 Y167.161 E2.0749
G1 X194.161 Y168.845 E2.1342
G1 X191.345 Y168.845 E2.2043
G1 X191.345 Y176.161 E2.3863
G1 X189.661 Y177.845 E2.4456
G1 X186.845 Y177.845 E2.5156
G1 X186.845 Y180.661 E2.5857
G1 X185.161 Y182.345 E2.6450
G1 X182.345 Y182.345 E2.7150
G1 X182.345 Y185.161 E2.7851
G1 X180.661 Y186.845 E2.8444
G1 X177.845 Y186.845 E2.9144
G1 X177.845 Y189.661 E2.9845
G1 X176.161 Y191.345 E3.0438
G1 X168.845 Y191.345 E3.2258
G1 X168.845 Y194.161 E3.2959
G1 X167.161 Y195.845 E3.3551
G1 X132.839 Y195.845 E4.2092
G1 X131.155 Y194.161 E4.2684
G1 X131.155 Y191.345 E4.3385
G1 X123.839 Y191.345 E4.5205
G1 X122.155 Y189.661 E4.5798
G1 X122.155 Y186.845 E4.6499
G1 X119.339 Y186.845 E4.7199
G1 X117.655 Y185.161 E4.7792
G1 X117.655 Y182.345 E4.8493
G1 X114.839 Y182.345 E4.9193
G1 X113.155 Y180.661 E4.9786
G1 X113.155 Y177.845 E5.0486
G1 X110.339 Y177.845 E5.1187
G1 X108.655 Y176.161 E5.1780
G1 X108.655 Y168.845 E5.3600
G1 X105.839 Y168.845 E5.4301
G1 X104.155 Y167.161 E5.4893
G1 X104.155 Y132.839 E6.3434
G1 X105.839 Y131.155 E6.4026
G1 X108.655 Y131.155 E6.4727
G1 X108.655 Y123.839 E6.6547
G1 X110.339 Y122.155 E6.7140
G1 X113.155 Y122.155 E6.7841
G1 X113.155 Y119.339 E6.8541
G1 X114.839 Y117.655 E6.9134
G1 X117.655 Y117.655 E6.9835
G1 X117.655 Y114.839 E7.0535
G1 X119.339 Y113.155 E7.1128
G1 X122.155 Y113.155 E7.1829
G1 X122.155 Y110.339 E7.2529
G1 X123.839 Y108.655 E7.3122
G1 X131.155 Y108.655 E7.4942
G1 X131.155 Y105.839 E7.5643
G1 X132.839 Y104.155 E7.6236
G1 X167.161 Y104.155 E8.4776
G1 X168.845 Y105.839 E8.5368
G92 E0.0000
G1 E-4.0000 F3000
G1 Z0.480 F1002
G1 X122.505 Y186.495 F6000
G1 Z0.180 F1002
G1 E0.0000 F3000
G92 E0.0000
G1 X119.484 Y186.495 E0.0752 F900
G1 X118.005 Y185.016 E0.1272
G1 X118.005 Y181.995 E0.2024
G1 X114.984 Y181.995 E0.2776
G1 X113.505 Y180.516 E0.3296
G1 X113.505 Y177.495 E0.4048
G1 X110.484 Y177.495 E0.4799
G1 X109.005 Y176.016 E0.5320
G1 X109.005 Y168.495 E0.7191
G1 X105.984 Y168.495 E0.7943
G1 X104.505 Y167.016 E0.8463
G1 X104.505 Y132.984 E1.6931
G1 X105.984 Y131.505 E1.7452
G1 X109.005 Y131.505 E1.8204
G1 X109.005 Y123.984 E2.0075
G1 X110.484 Y122.505 E2.0596
G1 X113.505 Y122.505 E2.1347
G1 X113.505 Y119.484 E2.2099
G1 X114.984 Y118.005 E2.2619
G1 X118.005 Y118.005 E2.3371
G1 X118.005 Y114.984 E2.4123
G1 X119.484 Y113.505 E2.4643
G1 X122.505 Y113.505 E2.5395
G1 X122.505 Y110.484 E2.6147
G1 X123.984 Y109.005 E2.6667
G1 X131.505 Y109.005 E2.8539
G1 X131.505 Y105.984 E2.9290
G1 X132.984 Y104.505 E2.9811
G1 X167.016 Y104.505 E3.8279
G1 X168.495 Y105.984 E3.8799
G1 X168.495 Y109.005 E3.9551
G1 X176.016 Y109.005 E4.1422
G1 X177.495 Y110.484 E4.1943
G1 X177.495 Y113.505 E4.2694
G1 X180.516 Y113.505 E4.3446
G1 X181.995 Y114.984 E4.3967
G1 X181.995 Y118.005 E4.4718
G1 X185.016 Y118.005 E4.5470
G1 X186.495 Y119.484 E4.5990
G1 X186.495 Y122.505 E4.6742
G1 X189.516 Y122.505 E4.7494
G1 X190.995 Y123.984 E4.8014
G1 X190.995 Y131.505 E4.9886
G1 X194.016 Y131.505 E5.0637
G1 X195.495 Y132.984 E5.1158
G1 X195.495 Y167.016 E5.9626
G1 X194.016 Y168.495 E6.0146
G1 X190.995 Y168.495 E6.0898
G1 X190.995 Y176.016 E6.2770
G1 X189.516 Y177.495 E6.3290
G1 X186.495 Y177.495 E6.4042
G1 X186.495 Y180.516 E6.4793
G1 X185.016 Y181.995 E6.5314
G1 X181.995 Y181.995 E6.6066
G1 X181.995 Y185.016 E6.6817
G1 X180.516 Y186.495 E6.7338
G1 X177.495 Y186.495 E6.8089
G1 X177.495 Y189.516 E6.8841
G1 X176.016 Y190.995 E6.9362
G1 X168.495 Y190.995 E7.1233
G1 X168.495 Y194.016 E7.1985
G1 X167.016 Y195.495 E7.2505
G1 X132.984 Y195.495 E8.0973
G1 X131.505 Y194.016 E8.1494
G1 X131.505 Y190.995 E8.2245
G1 X123.984 Y190.995 E8.4117
G1 X122.505 Y189.516 E8.4637
G1 X122.505 Y186.495 E8.5389
G92 E0.0000
G1 E-4.0000 F3000
G1 Z0.480 F1002
G1 X190.645 Y131.855 F6000
G1 Z0.180 F1002
G1 E0.0000 F3000
G92 E0.0000
G1 X193.871 Y131.855 E0.0803 F900
G1 X195.145 Y133.129 E0.1251
G1 X195.145 Y166.871 E0.9647
G1 X193.871 Y168.145 E1.0095
G1 X190.645 Y168.145 E1.0898
G1 X190.645 Y175.871 E1.2820
G1 X189.371 Y177.145 E1.3269
G1 X186.145 Y177.145 E1.4071
G1 X186.145 Y180.371 E1.4874
G1 X184.871 Y181.645 E1.5322
G1 X181.645 Y181.645 E1.6125
G1 X181.645 Y184.871 E1.6928
G1 X180.371 Y186.145 E1.7376
G1 X177.145 Y186.145 E1.8179
G1 X177.145 Y189.371 E1.8982
G1 X175.871 Y190.645 E1.9430
G1 X168.145 Y190.645 E2.1352
G1 X168.145 Y193.871 E2.2155
G1 X166.871 Y195.145 E2.2603
G1 X133.129 Y195.145 E3.0999
G1 X131.855 Y193.871 E3.1448
G1 X131.855 Y190.645 E3.2250
G1 X124.129 Y190.645 E3.4173
G1 X122.855 Y189.371 E3.4621
G1 X122.855 Y186.145 E3.5424
G1 X119.629 Y186.145 E3.6226
G1 X118.355 Y184.871 E3.6675
G1 X118.355 Y181.645 E3.7478
G1 X115.129 Y181.645 E3.8280
G1 X113.855 Y180.371 E3.8729
G1 X113.855 Y177.145 E3.9531
G1 X110.629 Y177.145 E4.0334
G1 X109.355 Y175.871 E4.0782
G1 X109.355 Y168.145 E4.2705
G1 X106.129 Y168.145 E4.3507
G1 X104.855 Y166.871 E4.3956
G1 X104.855 Y133.129 E5.2352
G1 X106.129 Y131.855 E5.2800
G1 X109.355 Y131.855 E5.3603
G1 X109.355 Y124.129 E5.5525
G1 X110.629 Y122.855 E5.5973
G1 X113.855 Y122.855 E5.6776
G1 X113.855 Y119.629 E5.7579
G1 X115.129 Y118.355 E5.8027
G1 X118.355 Y118.355 E5.8830
G1 X118.355 Y115.129 E5.9633
G1 X119.629 Y113.855 E6.0081
G1 X122.855 Y113.855 E6.0884
G1 X122.855 Y110.629 E6.1686
G1 X124.129 Y109.355 E6.2135
G1 X131.855 Y109.355 E6.4057
G1 X131.855 Y106.129 E6.4860
G1 X133.129 Y104.855 E6.5308
G1 X166.871 Y104.855 E7.3704
G1 X168.145 Y106.129 E7.4152
G1 X168.145 Y109.355 E7.4955
G1 X175.871 Y109.355 E7.6877
G1 X177.145 Y110.629 E7.7326
G1 X177.145 Y113.855 E7.8129
G1 X180.371 Y113.855 E7.8931
G1 X181.645 Y115.129 E7.9380
G1 X181.645 Y118.355 E8.0182
G1 X184.871 Y118.355 E8.0985
G1 X186.145 Y119.629 E8.1433
G1 X186.145 Y122.855 E8.2236
G1 X189.371 Y122.855 E8.3039
G1 X190.645 Y124.129 E8.3487
G1 X190.645 Y131.855 E8.5409
G92 E0.0000
G1 E-4.0000 F3000
; feature outer perimeter
G1 Z0.480 F1002
G1 X116.666 Y131.498 F6000
G1 Z0.180 F1002
G1 E0.0000 F3000
G92 E0.0000
G1 X118.709 Y128.220 E0.0961 F450
G1 X121.072 Y125.167 E0.1922
G1 X123.733 Y122.367 E0.2883
