; G-Code generated by Simplify3D(R) Version 4.1.2
; Jul 26, 2020 at 12:10:52 AM
; Settings Summary
;   processName,Process1
;   applyToModels,SupportClesMural_02_Crochet
;   profileName,A04-04-15s Tevo Tornado
;   profileVersion,2020-04-29 16:00:54
;   baseProfile,Creality CR-10(2)
;   printMaterial,PLA
;   printQuality,Medium
;   printExtruders,
;   extruderName,Primary Extruder
;   extruderToolheadNumber,0
;   extruderDiameter,0.4
;   extruderAutoWidth,0
;   extruderWidth,0.35
;   extrusionMultiplier,0.95
;   extruderUseRetract,1
;   extruderRetractionDistance,4
;   extruderExtraRestartDistance,0
;   extruderRetractionZLift,0.3
;   extruderRetractionSpeed,3000
;   extruderUseCoasting,1
;   extruderCoastingDistance,0.8
;   extruderUseWipe,0
;   extruderWipeDistance,4
;   primaryExtruder,0
;   layerHeight,0.15
;   topSolidLayers,4
;   bottomSolidLayers,3
;   perimeterOutlines,3
;   printPerimetersInsideOut,0
;   startPointOption,1
;   startPointOriginX,0
;   startPointOriginY,300
;   sequentialIslands,0
;   spiralVaseMode,0
;   firstLayerHeightPercentage,120
;   firstLayerWidthPercentage,100
;   firstLayerUnderspeed,0.35
;   useRaft,0
;   raftExtruder,0
;   raftTopLayers,3
;   raftBaseLayers,2
;   raftOffset,3
;   raftSeparationDistance,0.14
;   raftTopInfill,100
;   aboveRaftSpeedMultiplier,0.3
;   useSkirt,1
;   skirtExtruder,0
;   skirtLayers,1
;   skirtOutlines,3
;   skirtOffset,2
;   usePrimePillar,0
;   primePillarExtruder,999
;   primePillarWidth,12
;   primePillarLocation,7
;   primePillarSpeedMultiplier,1
;   useOozeShield,0
;   oozeShieldExtruder,999
;   oozeShieldOffset,2
;   oozeShieldOutlines,1
;   oozeShieldSidewallShape,1
;   oozeShieldSidewallAngle,30
;   oozeShieldSpeedMultiplier,1
;   infillExtruder,0
;   internalInfillPattern,Rectilinear
;   externalInfillPattern,Rectilinear
;   infillPercentage,15
;   outlineOverlapPercentage,15
;   infillExtrusionWidthPercentage,100
;   minInfillLength,5
;   infillLayerInterval,1
;   internalInfillAngles,45,-45
;   overlapInternalInfillAngles,0
;   externalInfillAngles,45,-45
;   generateSupport,1
;   supportExtruder,0
;   supportInfillPercentage,30
;   supportExtraInflation,0
;   supportBaseLayers,0
;   denseSupportExtruder,0
;   denseSupportLayers,0
;   denseSupportInfillPercentage,70
;   supportLayerInterval,1
;   supportHorizontalPartOffset,0.4
;   supportUpperSeparationLayers,1
;   supportLowerSeparationLayers,1
;   supportType,0
;   supportGridSpacing,4.5
;   maxOverhangAngle,45
;   supportAngles,0
;   temperatureName,Primary Extruder,Heated Bed
;   temperatureNumber,0,0
;   temperatureSetpointCount,1,1
;   temperatureSetpointLayers,1,1
;   temperatureSetpointTemperatures,215,55
;   temperatureStabilizeAtStartup,1,1
;   temperatureHeatedBed,0,1
;   fanLayers,1,2
;   fanSpeeds,0,100
;   blipFanToFullPower,0
;   adjustSpeedForCooling,1
;   minSpeedLayerTime,15
;   minCoolingSpeedSlowdown,50
;   increaseFanForCooling,1
;   minFanLayerTime,25
;   maxCoolingFanSpeed,100
;   increaseFanForBridging,1
;   bridgingFanSpeed,100
;   use5D,1
;   relativeEdistances,0
;   allowEaxisZeroing,1
;   independentExtruderAxes,0
;   includeM10123,0
;   stickySupport,1
;   applyToolheadOffsets,0
;   gcodeXoffset,0
;   gcodeYoffset,0
;   gcodeZoffset,0
;   overrideMachineDefinition,1
;   machineTypeOverride,0
;   strokeXoverride,300
;   strokeYoverride,300
;   strokeZoverride,400
;   originOffsetXoverride,0
;   originOffsetYoverride,0
;   originOffsetZoverride,0
;   homeXdirOverride,-1
;   homeYdirOverride,-1
;   homeZdirOverride,-1
;   flipXoverride,1
;   flipYoverride,-1
;   flipZoverride,1
;   toolheadOffsets,0,0|0,0|0,0|0,0|0,0|0,0
;   overrideFirmwareConfiguration,1
;   firmwareTypeOverride,RepRap (Marlin/Repetier/Sprinter)
;   GPXconfigOverride,r2
;   baudRateOverride,250000
;   overridePrinterModels,1
;   printerModelsOverride
;   startingGcode,;,; -]H.P.B[- MarshMalloW  ,; $VER: StartScript 1.02 (26.12.2019) MarshMalloW,;,; Begin Startcode,;,M117 *Preheat*     	; Preheat,;extruder0_temperature,M104 S[extruder0_temperature]  ,M109 S[extruder0_temperature] ,M109 R[extruder0_temperature] ,;,M117 *Auto-leveling*     	; Auto-leveling,M107                   	; Turn layer fan off,G21                    	; Set to metric [change to G20 if you want Imperial],G90                    	; Force coordinates to be absolute relative to the origin,G28                    	; Home X/Y/Z axis,G29                    	; Auto-leveling (BL-Touch),;,M117 *Start Clean*     	; Indicate nozzle clean in progress on LCD,G92 E0                 	; Set Extruder to 0 ,G1 X0 Y0 F2000         	; Move X and Y to 0 with speed 2000 (mm/min),G1 Z0.1 F1000          	; Move Z to   0.1 with speed 1000 (mm/min),G1 X8.0 F2000          	; Move X to   8.0 with speed 2000 (mm/min),G1 Y60.0 E4.0 F1000.0  	; Move Y to  60 and Extruder with 4.0 with speed 1000 (mm/min),G1 Y100.0 E8.5 F1000.0 	; Move Y to 100 and Extruder with 8.5 with speed 1000 (mm/min),G92 E0                 	; Set extruder to 0,G1 X16.0 F3000         	; Move X to 16.0 with speed 3000 (mm/min),G1 Y60.0 F3000         	; Move Y to 60.0 with speed 3000 (mm/min),M117 *End Clean*       	; Indicate nozzle clean in progress on LCD,G1 Z5 F3000            	; Move Z to  5.0 with speed 3000 (mm/min),G1 X20.0 F3000         	; Move X to 20.0 with speed 3000 (mm/min),G1 Y20.0 F3000         	; Move Y to 20.0 with speed 3000 (mm/min),; ,M117 *Printing...*     	; Start printing msg on LCD,;,; End Startcode,;,; Begin printing with sliced GCode after here,;
;   layerChangeGcode,
;   retractionGcode,
;   toolChangeGcode,
;   endingGcode,;,; init 181010,;,;M107 			; Fan off,;G1 E-1 F300 			; Retract the filament a bit before lifting the nozzle,;M104 S0 			; Turn off extruder,;M140 S0 			; Turn off bed,;G91			; Relative positioning,;G28 X0 Y0 			; Move X/Y to min endstops so the head is out of teh way,;M84 			; Disable motors,;G90 			; Absolute positioning,;M117 Print ready...,,;,; // From Cura 181010,; // End_gcode,G92 E0			; Zero the extruded length,;G1 E-30 F300		; Retract E -30,M106 S0			; Turn off cooling fan,M104 S0			; Turn off temperature,M140 S0		     	; Turn off bed,G91			; Relative positioning,G1 E-1 F300			; Retract the filament a bit before lifting the nozzle to release some of the pressure,G1 Z+20 E-5 X-20 Y-20 F7200	; Move Z up a bit and retract filament even more,G1 X0 Y150 F10000		; Move right min,M107			; Turn off layer fan,M84			; Disable motors,G90			; Absolute positioning,M117 *The-End* 		; End msg,;,
;   exportFileFormat,gcode
;   celebration,0
;   celebrationSong,Star Wars
;   postProcessing,|{REPLACE "; layer " "M117 INDICATOR-Layer"}|{REPLACE ", Z = " "\n; Z="}
;   defaultSpeed,1800
;   outlineUnderspeed,0.5
;   solidInfillUnderspeed,0.8
;   supportUnderspeed,0.8
;   rapidXYspeed,6000
;   rapidZspeed,1002
;   minBridgingArea,50
;   bridgingExtraInflation,0.2
;   bridgingExtrusionMultiplier,1
;   bridgingSpeedMultiplier,0.6
;   useFixedBridgingAngle,0
;   fixedBridgingAngle,0
;   applyBridgingToPerimeters,0
;   filamentDiameters,1.75|1.75|1.75|1.75|1.75|1.75
;   filamentPricesPerKg,30|46|46|46|46|46
;   filamentDensities,1.25|1.25|1.25|1.25|1.25|1.25
;   useMinPrintHeight,0
;   minPrintHeight,0
;   useMaxPrintHeight,0
;   maxPrintHeight,9
;   useDiaphragm,0
;   diaphragmLayerInterval,20
;   robustSlicing,1
;   mergeAllIntoSolid,0
;   onlyRetractWhenCrossingOutline,1
;   retractBetweenLayers,0
;   useRetractionMinTravel,0
;   retractionMinTravel,3
;   retractWhileWiping,0
;   onlyWipeOutlines,1
;   avoidCrossingOutline,1
;   maxMovementDetourFactor,3
;   toolChangeRetractionDistance,12
;   toolChangeExtraRestartDistance,-0.5
;   toolChangeRetractionSpeed,600
;   externalThinWallType,1
;   internalThinWallType,1
;   thinWallAllowedOverlapPercentage,10
;   singleExtrusionMinLength,1
;   singleExtrusionMinPrintingWidthPercentage,50
;   singleExtrusionMaxPrintingWidthPercentage,200
;   singleExtrusionEndpointExtension,0.2
;   horizontalSizeCompensation,0
G90
M82
M106 S0
M140 S55
M190 S55
;
; -]H.P.B[- MarshMalloW  
; $VER: StartScript 1.02 (26.12.2019) MarshMalloW
;
; Begin Startcode
;
M117 *Preheat*     	; Preheat
;extruder0_temperature
M104 S215  
M109 S215 
M109 R215 
;
M117 *Auto-leveling*     	; Auto-leveling
M107                   	; Turn layer fan off
G21                    	; Set to metric [change to G20 if you want Imperial]
G90                    	; Force coordinates to be absolute relative to the origin
G28                    	; Home X/Y/Z axis
G29                    	; Auto-leveling (BL-Touch)
;
M117 *Start Clean*     	; Indicate nozzle clean in progress on LCD
G92 E0                 	; Set Extruder to 0 
G1 X0 Y0 F2000         	; Move X and Y to 0 with speed 2000 (mm/min)
G1 Z0.1 F1000          	; Move Z to   0.1 with speed 1000 (mm/min)
G1 X8.0 F2000          	; Move X to   8.0 with speed 2000 (mm/min)
G1 Y60.0 E4.0 F1000.0  	; Move Y to  60 and Extruder with 4.0 with speed 1000 (mm/min)
G1 Y100.0 E8.5 F1000.0 	; Move Y to 100 and Extruder with 8.5 with speed 1000 (mm/min)
G92 E0                 	; Set extruder to 0
G1 X16.0 F3000         	; Move X to 16.0 with speed 3000 (mm/min)
G1 Y60.0 F3000         	; Move Y to 60.0 with speed 3000 (mm/min)
M117 *End Clean*       	; Indicate nozzle clean in progress on LCD
G1 Z5 F3000            	; Move Z to  5.0 with speed 3000 (mm/min)
G1 X20.0 F3000         	; Move X to 20.0 with speed 3000 (mm/min)
G1 Y20.0 F3000         	; Move Y to 20.0 with speed 3000 (mm/min)
; 
M117 *Printing...*     	; Start printing msg on LCD
;
; End Startcode
;
; Begin printing with sliced GCode after here
;
; process Process1
M117 INDICATOR-Layer1
; Z=0.180
T0
G92 E0.0000
G1 E-4.0000 F3000
; feature skirt
; tool H0.180 W0.350
G1 Z0.300 F1002
G1 X137.090 Y87.056 F6000
G1 Z0.180 F1002
G1 E0.0000 F3000
G92 E0.0000
G1 X135.590 Y85.556 E0.0528 F630
G1 X135.590 Y81.234 E0.1603
G1 X137.090 Y79.734 E0.2131
G1 X137.090 Y76.734 E0.2878
G1 X141.774 Y72.050 E0.4526
G1 X155.096 Y72.050 E0.7841
G1 X156.596 Y73.550 E0.8369
G1 X158.096 Y75.050 E0.8896
G1 X159.780 Y76.734 E0.9489
G1 X159.780 Y90.056 E1.2804
G1 X158.096 Y91.740 E1.3396
G1 X156.596 Y93.240 E1.3924
G1 X155.096 Y94.740 E1.4452
G1 X141.774 Y94.740 E1.7767
G1 X137.090 Y90.056 E1.9415
G1 X137.090 Y87.056 E2.0162
G92 E0.0000
G1 E-4.0000 F3000
G1 Z0.480 F1002
G1 X138.919 Y91.390 F6000
G1 Z0.180 F1002
G1 E0.0000 F3000
G92 E0.0000
G1 X137.440 Y89.911 E0.0520 F630
G1 X137.440 Y86.890 E0.1272
G1 X137.419 Y86.890 E0.1277
G1 X135.940 Y85.411 E0.1798
G1 X135.940 Y81.379 E0.2801
G1 X137.419 Y79.900 E0.3322
G1 X137.440 Y79.900 E0.3327
G1 X137.440 Y76.879 E0.4078
G1 X138.919 Y75.400 E0.4599
G1 X138.940 Y75.400 E0.4604
G1 X138.940 Y75.379 E0.4609
G1 X140.419 Y73.900 E0.5130
G1 X140.440 Y73.900 E0.5135
G1 X140.440 Y73.879 E0.5140
G1 X141.919 Y72.400 E0.5661
G1 X154.951 Y72.400 E0.8903
G1 X156.430 Y73.879 E0.9424
G1 X156.430 Y73.900 E0.9429
G1 X156.451 Y73.900 E0.9434
G1 X157.930 Y75.379 E0.9955
G1 X157.930 Y75.400 E0.9960
G1 X157.951 Y75.400 E0.9965
G1 X159.430 Y76.879 E1.0486
G1 X159.430 Y89.911 E1.3728
G1 X157.951 Y91.390 E1.4249
G1 X157.930 Y91.390 E1.4254
G1 X157.930 Y91.411 E1.4259
G1 X156.451 Y92.890 E1.4780
G1 X156.430 Y92.890 E1.4785
G1 X156.430 Y92.911 E1.4790
G1 X154.951 Y94.390 E1.5311
G1 X141.919 Y94.390 E1.8553
G1 X140.440 Y92.911 E1.9074
G1 X140.440 Y92.890 E1.9079
G1 X140.419 Y92.890 E1.9084
G1 X138.940 Y91.411 E1.9605
G1 X138.940 Y91.390 E1.9610
G1 X138.919 Y91.390 E1.9615
G92 E0.0000
G1 E-4.0000 F3000
G1 Z0.480 F1002
G1 X159.080 Y89.766 F6000
G1 Z0.180 F1002
G1 E0.0000 F3000
G92 E0.0000
G1 X157.806 Y91.040 E0.0448 F630
G1 X157.580 Y91.040 E0.0505
G1 X157.580 Y91.266 E0.0561
G1 X156.306 Y92.540 E0.1009
G1 X156.080 Y92.540 E0.1065
G1 X156.080 Y92.766 E0.1122
G1 X154.806 Y94.040 E0.1570
G1 X142.064 Y94.040 E0.4740
G1 X140.790 Y92.766 E0.5189
G1 X140.790 Y92.540 E0.5245
G1 X140.564 Y92.540 E0.5301
G1 X139.290 Y91.266 E0.5750
G1 X139.290 Y91.040 E0.5806
G1 X139.064 Y91.040 E0.5862
G1 X137.790 Y89.766 E0.6310
G1 X137.790 Y86.540 E0.7113
G1 X137.564 Y86.540 E0.7169
G1 X136.290 Y85.266 E0.7618
G1 X136.290 Y81.524 E0.8549
G1 X137.564 Y80.250 E0.8997
G1 X137.790 Y80.250 E0.9053
G1 X137.790 Y77.024 E0.9856
G1 X139.064 Y75.750 E1.0304
G1 X139.290 Y75.750 E1.0360
G1 X139.290 Y75.524 E1.0417
G1 X140.564 Y74.250 E1.0865
G1 X140.790 Y74.250 E1.0921
G1 X140.790 Y74.024 E1.0977
G1 X142.064 Y72.750 E1.1426
G1 X154.806 Y72.750 E1.4596
G1 X156.080 Y74.024 E1.5045
G1 X156.080 Y74.250 E1.5101
G1 X156.306 Y74.250 E1.5157
G1 X157.580 Y75.524 E1.5605
G1 X157.580 Y75.750 E1.5662
G1 X157.806 Y75.750 E1.5718
G1 X159.080 Y77.024 E1.6166
G1 X159.080 Y89.766 E1.9337
G92 E0.0000
G1 E-4.0000 F3000
; feature outer perimeter
G1 Z0.480 F1002
G1 X152.706 Y85.637 F6000
G1 X152.751 Y85.517
G1 X144.824 Y80.196
G1 Z0.180 F1002
G1 E0.0000 F3000
G92 E0.0000
G1 X145.694 Y79.425 E0.0289 F315
G1 X146.711 Y78.892 E0.0575
G1 X147.853 Y78.606 E0.0868
G1 X149.016 Y78.606 E0.1157
G1 X150.145 Y78.885 E0.1447
G1 X151.175 Y79.425 E0.1736
G1 X152.045 Y80.196 E0.2025
G1 X152.706 Y81.153 E0.2315
G1 X153.118 Y82.240 E0.2604
G1 X153.258 Y83.395 E0.2893
G1 X153.118 Y84.549 E0.3183
G1 X152.706 Y85.637 E0.3472
G1 X152.045 Y86.594 E0.3761
G1 X151.175 Y87.365 E0.4051
G1 X150.145 Y87.905 E0.4340
G1 X149.016 Y88.183 E0.4630
G1 X147.853 Y88.183 E0.4919
G1 X146.724 Y87.905 E0.5208
G1 X145.695 Y87.365 E0.5498
G1 X144.824 Y86.594 E0.5787
G1 X144.163 Y85.637 E0.6076
G1 X143.751 Y84.549 E0.6366
G1 X143.611 Y83.395 E0.6655
G1 X143.751 Y82.240 E0.6944
G1 X144.163 Y81.153 E0.7234
G1 X144.370 Y80.855 E0.7324
G1 X144.824 Y80.196 F315
; feature inner perimeter
G1 X145.088 Y80.430 F6000
G92 E0.0000
G1 X145.895 Y79.715 E0.0268 F472
G1 X146.836 Y79.221 E0.0533
G1 X147.897 Y78.956 E0.0805
G1 X148.974 Y78.956 E0.1073
G1 X150.020 Y79.214 E0.1341
G1 X150.975 Y79.715 E0.1609
G1 X151.781 Y80.430 E0.1877
G1 X152.394 Y81.317 E0.2146
G1 X152.776 Y82.325 E0.2414
G1 X152.906 Y83.395 E0.2682
G1 X152.776 Y84.465 E0.2950
G1 X152.394 Y85.473 E0.3218
G1 X151.781 Y86.360 E0.3487
G1 X150.975 Y87.075 E0.3755
G1 X150.020 Y87.575 E0.4023
G1 X148.974 Y87.833 E0.4291
G1 X147.896 Y87.833 E0.4559
G1 X146.849 Y87.575 E0.4828
G1 X145.895 Y87.075 E0.5096
G1 X145.088 Y86.360 E0.5364
G1 X144.476 Y85.473 E0.5632
G1 X144.093 Y84.465 E0.5900
G1 X143.964 Y83.395 E0.6169
G1 X144.093 Y82.325 E0.6437
G1 X144.476 Y81.317 E0.6705
G1 X144.634 Y81.088 E0.6774
G1 X145.088 Y80.430 F472
G1 X145.352 Y80.664 F6000
G92 E0.0000
G1 X146.095 Y80.005 E0.0247 F472
G1 X146.962 Y79.551 E0.0491
G1 X147.940 Y79.306 E0.0741
G1 X148.931 Y79.306 E0.0988
G1 X149.895 Y79.544 E0.1235
G1 X150.774 Y80.005 E0.1482
G1 X151.517 Y80.664 E0.1729
G1 X152.081 Y81.481 E0.1976
G1 X152.434 Y82.409 E0.2223
G1 X152.553 Y83.395 E0.2470
G1 X152.434 Y84.381 E0.2718
G1 X152.082 Y85.309 E0.2965
G1 X151.517 Y86.126 E0.3212
G1 X150.774 Y86.784 E0.3459
G1 X149.895 Y87.246 E0.3706
G1 X148.931 Y87.483 E0.3953
G1 X147.938 Y87.483 E0.4200
G1 X146.974 Y87.246 E0.4447
G1 X146.095 Y86.784 E0.4694
G1 X145.352 Y86.126 E0.4941
G1 X144.788 Y85.309 E0.5188
G1 X144.436 Y84.381 E0.5435
G1 X144.316 Y83.395 E0.5682
G1 X144.436 Y82.409 E0.5929
G1 X144.788 Y81.481 E0.6176
G1 X144.897 Y81.322 E0.6224
G1 X145.352 Y80.664 F472
; feature solid layer
G1 X149.841 Y79.852 F6000
G92 E0.0000
G1 X151.942 Y81.953 E0.0739 F504
G1 X152.143 Y82.481 E0.0880
G1 X152.166 Y82.671 E0.0928
G1 X149.165 Y79.670 E0.1984
G1 X148.895 Y79.604 E0.2053
G1 X148.603 Y79.604 E0.2125
G1 X152.234 Y83.235 E0.3403
G1 X152.254 Y83.395 E0.3443
G1 X152.215 Y83.711 E0.3522
G1 X148.108 Y79.604 E0.4967
G1 X147.976 Y79.604 E0.5000
G1 X147.686 Y79.676 E0.5075
G1 X152.162 Y84.152 E0.6650
G1 X152.143 Y84.309 E0.6689
G1 X152.055 Y84.540 E0.6751
G1 X147.290 Y79.775 E0.8427
G1 X147.068 Y79.831 E0.8484
G1 X146.925 Y79.906 E0.8524
G1 X151.919 Y84.899 E1.0282
G1 X151.816 Y85.170 E1.0354
G1 X151.766 Y85.242 E1.0375
G1 X146.601 Y80.076 E1.2193
G1 X146.276 Y80.246 E1.2284
G1 X151.564 Y85.535 E1.4145
G1 X151.362 Y85.827 E1.4234
G1 X146.012 Y80.477 E1.6117
G1 X145.749 Y80.709 E1.6204
