; G-Code generated by Simplify3D(R) Version 4.1.2
; Apr 26, 2020 at 7:17:25 PM
; Settings Summary
;   processName,Process1
;   applyToModels,Metric_screw_measuring_device-sanitized
;   profileName,A03-04-15 Tevo Tornado (experimental)
;   profileVersion,2020-04-15 13:25:45
;   baseProfile,Creality CR-10(2)
;   printMaterial,PLA
;   printQuality,Medium
;   printExtruders,
;   extruderName,Primary Extruder
;   extruderToolheadNumber,0
;   extruderDiameter,0.4
;   extruderAutoWidth,0
;   extruderWidth,0.35
;   extrusionMultiplier,0.95
;   extruderUseRetract,1
;   extruderRetractionDistance,4
;   extruderExtraRestartDistance,0
;   extruderRetractionZLift,0.3
;   extruderRetractionSpeed,4200
;   extruderUseCoasting,0
;   extruderCoastingDistance,0.2
;   extruderUseWipe,0
;   extruderWipeDistance,4
;   primaryExtruder,0
;   layerHeight,0.15
;   topSolidLayers,4
;   bottomSolidLayers,3
;   perimeterOutlines,3
;   printPerimetersInsideOut,0
;   startPointOption,1
;   startPointOriginX,0
;   startPointOriginY,300
;   sequentialIslands,0
;   spiralVaseMode,0
;   firstLayerHeightPercentage,120
;   firstLayerWidthPercentage,100
;   firstLayerUnderspeed,0.5
;   useRaft,0
;   raftExtruder,0
;   raftTopLayers,3
;   raftBaseLayers,2
;   raftOffset,3
;   raftSeparationDistance,0.14
;   raftTopInfill,100
;   aboveRaftSpeedMultiplier,0.3
;   useSkirt,1
;   skirtExtruder,0
;   skirtLayers,1
;   skirtOutlines,3
;   skirtOffset,2
;   usePrimePillar,0
;   primePillarExtruder,999
;   primePillarWidth,12
;   primePillarLocation,7
;   primePillarSpeedMultiplier,1
;   useOozeShield,0
;   oozeShieldExtruder,999
;   oozeShieldOffset,2
;   oozeShieldOutlines,1
;   oozeShieldSidewallShape,1
;   oozeShieldSidewallAngle,30
;   oozeShieldSpeedMultiplier,1
;   infillExtruder,0
;   internalInfillPattern,Rectilinear
;   externalInfillPattern,Rectilinear
;   infillPercentage,15
;   outlineOverlapPercentage,15
;   infillExtrusionWidthPercentage,100
;   minInfillLength,5
;   infillLayerInterval,1
;   internalInfillAngles,45,-45
;   overlapInternalInfillAngles,0
;   externalInfillAngles,45,-45
;   generateSupport,0
;   supportExtruder,0
;   supportInfillPercentage,30
;   supportExtraInflation,0
;   supportBaseLayers,0
;   denseSupportExtruder,0
;   denseSupportLayers,0
;   denseSupportInfillPercentage,70
;   supportLayerInterval,1
;   supportHorizontalPartOffset,0.4
;   supportUpperSeparationLayers,1
;   supportLowerSeparationLayers,1
;   supportType,0
;   supportGridSpacing,4.5
;   maxOverhangAngle,45
;   supportAngles,0
;   temperatureName,Primary Extruder,Heated Bed
;   temperatureNumber,0,0
;   temperatureSetpointCount,1,1
;   temperatureSetpointLayers,1,1
;   temperatureSetpointTemperatures,215,55
;   temperatureStabilizeAtStartup,1,1
;   temperatureHeatedBed,0,1
;   fanLayers,1,2
;   fanSpeeds,0,100
;   blipFanToFullPower,0
;   adjustSpeedForCooling,1
;   minSpeedLayerTime,15
;   minCoolingSpeedSlowdown,50
;   increaseFanForCooling,1
;   minFanLayerTime,25
;   maxCoolingFanSpeed,100
;   increaseFanForBridging,1
;   bridgingFanSpeed,100
;   use5D,1
;   relativeEdistances,0
;   allowEaxisZeroing,1
;   independentExtruderAxes,0
;   includeM10123,0
;   stickySupport,1
;   applyToolheadOffsets,0
;   gcodeXoffset,0
;   gcodeYoffset,0
;   gcodeZoffset,0
;   overrideMachineDefinition,1
;   machineTypeOverride,0
;   strokeXoverride,300
;   strokeYoverride,300
;   strokeZoverride,400
;   originOffsetXoverride,0
;   originOffsetYoverride,0
;   originOffsetZoverride,0
;   homeXdirOverride,-1
;   homeYdirOverride,-1
;   homeZdirOverride,-1
;   flipXoverride,1
;   flipYoverride,-1
;   flipZoverride,1
;   toolheadOffsets,0,0|0,0|0,0|0,0|0,0|0,0
;   overrideFirmwareConfiguration,1
;   firmwareTypeOverride,RepRap (Marlin/Repetier/Sprinter)
;   GPXconfigOverride,r2
;   baudRateOverride,250000
;   overridePrinterModels,1
;   printerModelsOverride
;   startingGcode,;,; -]H.P.B[- MarshMalloW  ,; $VER: StartScript 1.02 (26.12.2019) MarshMalloW,;,; Begin Startcode,;,M117 *Preheat*     	; Preheat,;extruder0_temperature,M104 S[extruder0_temperature]  ,M109 S[extruder0_temperature] ,M109 R[extruder0_temperature] ,;,M117 *Auto-leveling*     	; Auto-leveling,M107                   	; Turn layer fan off,G21                    	; Set to metric [change to G20 if you want Imperial],G90                    	; Force coordinates to be absolute relative to the origin,G28                    	; Home X/Y/Z axis,G29                    	; Auto-leveling (BL-Touch),;,M117 *Start Clean*     	; Indicate nozzle clean in progress on LCD,G92 E0                 	; Set Extruder to 0 ,G1 X0 Y0 F2000         	; Move X and Y to 0 with speed 2000 (mm/min),G1 Z0.1 F1000          	; Move Z to   0.1 with speed 1000 (mm/min),G1 X8.0 F2000          	; Move X to   8.0 with speed 2000 (mm/min),G1 Y60.0 E4.0 F1000.0  	; Move Y to  60 and Extruder with 4.0 with speed 1000 (mm/min),G1 Y100.0 E8.5 F1000.0 	; Move Y to 100 and Extruder with 8.5 with speed 1000 (mm/min),G92 E0                 	; Set extruder to 0,G1 X16.0 F3000         	; Move X to 16.0 with speed 3000 (mm/min),G1 Y60.0 F3000         	; Move Y to 60.0 with speed 3000 (mm/min),M117 *End Clean*       	; Indicate nozzle clean in progress on LCD,G1 Z5 F3000            	; Move Z to  5.0 with speed 3000 (mm/min),G1 X20.0 F3000         	; Move X to 20.0 with speed 3000 (mm/min),G1 Y20.0 F3000         	; Move Y to 20.0 with speed 3000 (mm/min),; ,M117 *Printing...*     	; Start printing msg on LCD,;,; End Startcode,;,; Begin printing with sliced GCode after here,;
;   layerChangeGcode,
;   retractionGcode,
;   toolChangeGcode,
;   endingGcode,;,; init 181010,;,;M107 			; Fan off,;G1 E-1 F300 			; Retract the filament a bit before lifting the nozzle,;M104 S0 			; Turn off extruder,;M140 S0 			; Turn off bed,;G91			; Relative positioning,;G28 X0 Y0 			; Move X/Y to min endstops so the head is out of teh way,;M84 			; Disable motors,;G90 			; Absolute positioning,;M117 Print ready...,,;,; // From Cura 181010,; // End_gcode,G92 E0			; Zero the extruded length,;G1 E-30 F300		; Retract E -30,M106 S0			; Turn off cooling fan,M104 S0			; Turn off temperature,M140 S0		     	; Turn off bed,G91			; Relative positioning,G1 E-1 F300			; Retract the filament a bit before lifting the nozzle to release some of the pressure,G1 Z+20 E-5 X-20 Y-20 F7200	; Move Z up a bit and retract filament even more,G1 X0 Y150 F10000		; Move right min,M107			; Turn off layer fan,M84			; Disable motors,G90			; Absolute positioning,M117 *The-End* 		; End msg,;,
;   exportFileFormat,gcode
;   celebration,0
;   celebrationSong,Star Wars
;   postProcessing,
;   defaultSpeed,1800
;   outlineUnderspeed,0.5
;   solidInfillUnderspeed,0.8
;   supportUnderspeed,0.8
;   rapidXYspeed,6000
;   rapidZspeed,1002
;   minBridgingArea,50
;   bridgingExtraInflation,0.2
;   bridgingExtrusionMultiplier,1
;   bridgingSpeedMultiplier,0.6
;   useFixedBridgingAngle,0
;   fixedBridgingAngle,0
;   applyBridgingToPerimeters,0
;   filamentDiameters,1.75|1.75|1.75|1.75|1.75|1.75
;   filamentPricesPerKg,30|46|46|46|46|46
;   filamentDensities,1.25|1.25|1.25|1.25|1.25|1.25
;   useMinPrintHeight,0
;   minPrintHeight,0
;   useMaxPrintHeight,0
;   maxPrintHeight,9
;   useDiaphragm,0
;   diaphragmLayerInterval,20
;   robustSlicing,1
;   mergeAllIntoSolid,0
;   onlyRetractWhenCrossingOutline,1
;   retractBetweenLayers,0
;   useRetractionMinTravel,0
;   retractionMinTravel,3
;   retractWhileWiping,0
;   onlyWipeOutlines,1
;   avoidCrossingOutline,0
;   maxMovementDetourFactor,3
;   toolChangeRetractionDistance,12
;   toolChangeExtraRestartDistance,-0.5
;   toolChangeRetractionSpeed,600
;   externalThinWallType,1
;   internalThinWallType,1
;   thinWallAllowedOverlapPercentage,10
;   singleExtrusionMinLength,1
;   singleExtrusionMinPrintingWidthPercentage,50
;   singleExtrusionMaxPrintingWidthPercentage,200
;   singleExtrusionEndpointExtension,0.2
;   horizontalSizeCompensation,0
G90
M82
M106 S0
M140 S55
M190 S55
;
; -]H.P.B[- MarshMalloW  
; $VER: StartScript 1.02 (26.12.2019) MarshMalloW
;
; Begin Startcode
;
M117 *Preheat*     	; Preheat
;extruder0_temperature
M104 S215  
M109 S215 
M109 R215 
;
M117 *Auto-leveling*     	; Auto-leveling
M107                   	; Turn layer fan off
G21                    	; Set to metric [change to G20 if you want Imperial]
G90                    	; Force coordinates to be absolute relative to the origin
G28                    	; Home X/Y/Z axis
G29                    	; Auto-leveling (BL-Touch)
;
M117 *Start Clean*     	; Indicate nozzle clean in progress on LCD
G92 E0                 	; Set Extruder to 0 
G1 X0 Y0 F2000         	; Move X and Y to 0 with speed 2000 (mm/min)
G1 Z0.1 F1000          	; Move Z to   0.1 with speed 1000 (mm/min)
G1 X8.0 F2000          	; Move X to   8.0 with speed 2000 (mm/min)
G1 Y60.0 E4.0 F1000.0  	; Move Y to  60 and Extruder with 4.0 with speed 1000 (mm/min)
G1 Y100.0 E8.5 F1000.0 	; Move Y to 100 and Extruder with 8.5 with speed 1000 (mm/min)
G92 E0                 	; Set extruder to 0
G1 X16.0 F3000         	; Move X to 16.0 with speed 3000 (mm/min)
G1 Y60.0 F3000         	; Move Y to 60.0 with speed 3000 (mm/min)
M117 *End Clean*       	; Indicate nozzle clean in progress on LCD
G1 Z5 F3000            	; Move Z to  5.0 with speed 3000 (mm/min)
G1 X20.0 F3000         	; Move X to 20.0 with speed 3000 (mm/min)
G1 Y20.0 F3000         	; Move Y to 20.0 with speed 3000 (mm/min)
; 
M117 *Printing...*     	; Start printing msg on LCD
;
; End Startcode
;
; Begin printing with sliced GCode after here
;
; process Process1
; layer 1, Z = 0.180
T0
G92 E0.0000
G1 E-4.0000 F4200
; feature skirt
; tool H0.180 W0.350
G1 Z0.300 F1002
G1 X121.957 Y80.199 F6000
G1 Z0.180 F1002
G1 E0.0000 F4200
G92 E0.0000
G1 X122.406 Y81.363 E0.0310 F900
G1 X122.491 Y81.694 E0.0395
G1 X122.549 Y82.133 E0.0506
G1 X122.561 Y82.321 E0.0553
G1 X122.561 Y87.538 E0.1851
G1 X122.576 Y87.713 E0.1894
G1 X122.589 Y87.759 E0.1906
G1 X122.609 Y87.801 E0.1918
G1 X122.645 Y87.852 E0.1934
G1 X122.659 Y87.866 E0.1938
G1 X122.710 Y87.902 E0.1954
G1 X122.753 Y87.922 E0.1966
G1 X122.798 Y87.935 E0.1977
G1 X122.846 Y87.939 E0.1989
G1 X122.893 Y87.935 E0.2001
G1 X122.947 Y87.920 E0.2015
G1 X122.953 Y87.917 E0.2017
G1 X123.046 Y87.852 E0.2045
G1 X123.083 Y87.801 E0.2060
G1 X123.103 Y87.758 E0.2072
G1 X123.115 Y87.713 E0.2084
G1 X123.131 Y87.538 E0.2128
G1 X123.131 Y82.321 E0.3426
G1 X123.143 Y82.133 E0.3473
G1 X123.201 Y81.694 E0.3583
G1 X123.285 Y81.362 E0.3668
G1 X123.735 Y80.199 E0.3978
G1 X125.205 Y79.190 E0.4422
G1 X132.987 Y79.190 E0.6358
G1 X134.457 Y80.199 E0.6802
G1 X134.846 Y81.206 E0.7071
G1 X135.235 Y80.199 E0.7339
G1 X136.705 Y79.190 E0.7783
G1 X144.487 Y79.190 E0.9719
G1 X145.846 Y80.122 E1.0129
G1 X147.205 Y79.190 E1.0539
G1 X154.987 Y79.190 E1.2476
G1 X156.096 Y79.951 E1.2810
G1 X157.205 Y79.190 E1.3145
G1 X164.987 Y79.190 E1.5081
G1 X165.846 Y79.779 E1.5341
G1 X166.705 Y79.190 E1.5600
G1 X173.227 Y79.190 E1.7223
G1 X173.388 Y79.199 E1.7263
G1 X173.984 Y79.267 E1.7412
G1 X174.299 Y79.339 E1.7492
G1 X174.942 Y79.564 E1.7662
G1 X175.233 Y79.704 E1.7742
G1 X175.810 Y80.066 E1.7912
G1 X176.062 Y80.267 E1.7992
G1 X176.544 Y80.749 E1.8162
G1 X176.745 Y81.001 E1.8242
G1 X177.107 Y81.578 E1.8411
G1 X177.247 Y81.869 E1.8492
G1 X177.472 Y82.512 E1.8661
G1 X177.544 Y82.827 E1.8742
G1 X177.612 Y83.423 E1.8891
G1 X177.621 Y83.584 E1.8931
G1 X177.621 Y131.746 E3.0915
G1 X177.612 Y131.907 E3.0955
G1 X177.544 Y132.503 E3.1105
G1 X177.472 Y132.818 E3.1185
G1 X177.247 Y133.461 E3.1354
G1 X177.107 Y133.752 E3.1435
G1 X176.745 Y134.329 E3.1604
G1 X176.544 Y134.581 E3.1685
G1 X176.062 Y135.063 E3.1854
G1 X175.810 Y135.264 E3.1934
G1 X175.233 Y135.627 E3.2104
G1 X174.942 Y135.767 E3.2184
G1 X174.299 Y135.992 E3.2354
G1 X173.984 Y136.064 E3.2434
G1 X173.388 Y136.131 E3.2583
G1 X173.226 Y136.140 E3.2624
G1 X119.065 Y136.140 E4.6100
G1 X118.904 Y136.131 E4.6141
G1 X118.308 Y136.064 E4.6290
G1 X117.993 Y135.992 E4.6370
G1 X117.410 Y135.788 E4.6524
G1 X117.150 Y135.666 E4.6595
G1 X116.526 Y135.296 E4.6776
G1 X116.242 Y135.076 E4.6865
G1 X115.748 Y134.581 E4.7039
G1 X115.547 Y134.329 E4.7120
G1 X115.184 Y133.752 E4.7289
G1 X115.044 Y133.461 E4.7369
G1 X114.819 Y132.818 E4.7539
G1 X114.747 Y132.503 E4.7619
G1 X114.680 Y131.907 E4.7769
G1 X114.671 Y131.746 E4.7809
G1 X114.671 Y118.193 E5.1181
G1 X114.739 Y117.755 E5.1291
G1 X114.959 Y117.063 E5.1472
G1 X115.281 Y116.512 E5.1631
G1 X115.841 Y115.912 E5.1835
G1 X116.437 Y115.525 E5.2012
G1 X117.192 Y115.268 E5.2210
G1 X117.660 Y115.190 E5.2328
G1 X118.672 Y115.191 E5.2580
G1 X118.672 Y110.140 E5.3837
G1 X117.660 Y110.140 E5.4089
G1 X117.192 Y110.062 E5.4207
G1 X116.437 Y109.805 E5.4405
G1 X115.841 Y109.419 E5.4582
G1 X115.281 Y108.818 E5.4786
G1 X114.959 Y108.267 E5.4945
G1 X114.739 Y107.575 E5.5126
G1 X114.671 Y107.138 E5.5236
G1 X114.668 Y102.242 E5.6454
G1 X114.642 Y101.892 E5.6541
G1 X114.616 Y101.731 E5.6582
G1 X114.594 Y101.648 E5.6603
G1 X114.382 Y101.138 E5.6741
G1 X114.271 Y100.581 E5.6882
G1 X114.271 Y86.317 E6.0432
G1 X114.382 Y85.760 E6.0573
G1 X114.567 Y85.316 E6.0692
G1 X114.650 Y84.922 E6.0793
G1 X114.663 Y84.778 E6.0829
G1 X114.672 Y83.568 E6.1130
G1 X114.681 Y83.418 E6.1167
G1 X114.747 Y82.827 E6.1315
G1 X114.819 Y82.512 E6.1396
G1 X115.044 Y81.869 E6.1565
G1 X115.184 Y81.578 E6.1645
G1 X115.547 Y81.001 E6.1815
G1 X115.748 Y80.749 E6.1895
G1 X116.185 Y80.312 E6.2049
G1 X116.407 Y80.130 E6.2120
G1 X117.011 Y79.729 E6.2301
G1 X117.333 Y79.569 E6.2390
G1 X117.993 Y79.339 E6.2564
G1 X118.307 Y79.267 E6.2644
G1 X118.904 Y79.199 E6.2794
G1 X119.065 Y79.190 E6.2834
G1 X120.487 Y79.190 E6.3188
G1 X121.957 Y80.199 E6.3631
G92 E0.0000
G1 E-4.0000 F4200
G1 Z0.480 F1002
G1 X175.828 Y134.802 F6000
G1 Z0.180 F1002
G1 E0.0000 F4200
G92 E0.0000
G1 X175.607 Y134.978 E0.0071 F900
G1 X175.063 Y135.320 E0.0230
G1 X174.808 Y135.443 E0.0301
G1 X174.202 Y135.655 E0.0461
G1 X173.925 Y135.718 E0.0531
G1 X173.358 Y135.782 E0.0673
G1 X173.217 Y135.790 E0.0708
G1 X119.075 Y135.790 E1.4180
G1 X118.934 Y135.782 E1.4216
G1 X118.366 Y135.718 E1.4358
G1 X118.090 Y135.655 E1.4428
G1 X117.542 Y135.463 E1.4573
G1 X117.313 Y135.357 E1.4635
G1 X116.723 Y135.006 E1.4806
G1 X116.474 Y134.813 E1.4885
G1 X116.009 Y134.348 E1.5048
G1 X115.833 Y134.126 E1.5119
G1 X115.491 Y133.583 E1.5278
G1 X115.368 Y133.327 E1.5349
G1 X115.156 Y132.721 E1.5509
G1 X115.093 Y132.445 E1.5579
G1 X115.029 Y131.877 E1.5721
G1 X115.021 Y131.736 E1.5757
G1 X115.021 Y118.220 E1.9120
G1 X115.081 Y117.836 E1.9217
G1 X115.281 Y117.206 E1.9381
G1 X115.564 Y116.722 E1.9520
G1 X116.067 Y116.182 E1.9704
G1 X116.591 Y115.843 E1.9859
G1 X117.278 Y115.608 E2.0040
G1 X117.688 Y115.540 E2.0144
G1 X119.022 Y115.541 E2.0475
G1 X119.022 Y109.789 E2.1907
G1 X117.688 Y109.790 E2.2238
G1 X117.278 Y109.722 E2.2342
G1 X116.591 Y109.488 E2.2523
G1 X116.067 Y109.148 E2.2678
G1 X115.564 Y108.608 E2.2862
G1 X115.281 Y108.124 E2.3001
G1 X115.081 Y107.495 E2.3165
G1 X115.021 Y107.111 E2.3262
G1 X115.018 Y102.229 E2.4477
G1 X114.990 Y101.851 E2.4571
G1 X114.959 Y101.658 E2.4620
G1 X114.926 Y101.536 E2.4651
G1 X114.718 Y101.035 E2.4786
G1 X114.621 Y100.546 E2.4910
G1 X114.621 Y86.352 E2.8442
G1 X114.719 Y85.862 E2.8566
G1 X114.902 Y85.421 E2.8685
G1 X114.997 Y84.974 E2.8799
G1 X115.013 Y84.794 E2.8844
G1 X115.022 Y83.580 E2.9146
G1 X115.030 Y83.448 E2.9179
G1 X115.093 Y82.886 E2.9320
G1 X115.156 Y82.609 E2.9390
G1 X115.368 Y82.003 E2.9550
G1 X115.491 Y81.748 E2.9621
G1 X115.833 Y81.204 E2.9780
G1 X116.009 Y80.983 E2.9851
G1 X116.420 Y80.572 E2.9995
G1 X116.615 Y80.412 E3.0058
G1 X117.187 Y80.033 E3.0229
G1 X117.469 Y79.893 E3.0307
G1 X118.090 Y79.675 E3.0471
G1 X118.366 Y79.612 E3.0541
G1 X118.934 Y79.548 E3.0683
G1 X119.075 Y79.540 E3.0719
G1 X120.379 Y79.540 E3.1043
G1 X121.670 Y80.426 E3.1433
G1 X122.072 Y81.469 E3.1711
G1 X122.146 Y81.760 E3.1786
G1 X122.200 Y82.167 E3.1888
G1 X122.211 Y82.332 E3.1929
G1 X122.211 Y87.553 E3.3228
G1 X122.230 Y87.774 E3.3283
G1 X122.259 Y87.880 E3.3311
G1 X122.306 Y87.979 E3.3338
