; G-Code generated by Simplify3D(R) Version 4.1.2
; Apr 27, 2020 at 12:59:38 AM
; Settings Summary
;   processName,Process1
;   applyToModels,Metric_screw_measuring_device-sanitized
;   profileName,A04-04-15 Tevo Tornado
;   profileVersion,2020-04-15 13:31:35
;   baseProfile,Creality CR-10(2)
;   printMaterial,PLA
;   printQuality,Medium
;   printExtruders,
;   extruderName,Primary Extruder
;   extruderToolheadNumber,0
;   extruderDiameter,0.4
;   extruderAutoWidth,0
;   extruderWidth,0.35
;   extrusionMultiplier,0.95
;   extruderUseRetract,1
;   extruderRetractionDistance,4
;   extruderExtraRestartDistance,0
;   extruderRetractionZLift,0.3
;   extruderRetractionSpeed,3000
;   extruderUseCoasting,1
;   extruderCoastingDistance,0.8
;   extruderUseWipe,0
;   extruderWipeDistance,4
;   primaryExtruder,0
;   layerHeight,0.15
;   topSolidLayers,4
;   bottomSolidLayers,3
;   perimeterOutlines,3
;   printPerimetersInsideOut,0
;   startPointOption,1
;   startPointOriginX,0
;   startPointOriginY,300
;   sequentialIslands,0
;   spiralVaseMode,0
;   firstLayerHeightPercentage,120
;   firstLayerWidthPercentage,100
;   firstLayerUnderspeed,0.5
;   useRaft,0
;   raftExtruder,0
;   raftTopLayers,3
;   raftBaseLayers,2
;   raftOffset,3
;   raftSeparationDistance,0.14
;   raftTopInfill,100
;   aboveRaftSpeedMultiplier,0.3
;   useSkirt,1
;   skirtExtruder,0
;   skirtLayers,1
;   skirtOutlines,3
;   skirtOffset,2
;   usePrimePillar,0
;   primePillarExtruder,999
;   primePillarWidth,12
;   primePillarLocation,7
;   primePillarSpeedMultiplier,1
;   useOozeShield,0
;   oozeShieldExtruder,999
;   oozeShieldOffset,2
;   oozeShieldOutlines,1
;   oozeShieldSidewallShape,1
;   oozeShieldSidewallAngle,30
;   oozeShieldSpeedMultiplier,1
;   infillExtruder,0
;   internalInfillPattern,Rectilinear
;   externalInfillPattern,Rectilinear
;   infillPercentage,15
;   outlineOverlapPercentage,15
;   infillExtrusionWidthPercentage,100
;   minInfillLength,5
;   infillLayerInterval,1
;   internalInfillAngles,45,-45
;   overlapInternalInfillAngles,0
;   externalInfillAngles,45,-45
;   generateSupport,0
;   supportExtruder,0
;   supportInfillPercentage,30
;   supportExtraInflation,0
;   supportBaseLayers,0
;   denseSupportExtruder,0
;   denseSupportLayers,0
;   denseSupportInfillPercentage,70
;   supportLayerInterval,1
;   supportHorizontalPartOffset,0.4
;   supportUpperSeparationLayers,1
;   supportLowerSeparationLayers,1
;   supportType,0
;   supportGridSpacing,4.5
;   maxOverhangAngle,45
;   supportAngles,0
;   temperatureName,Primary Extruder,Heated Bed
;   temperatureNumber,0,0
;   temperatureSetpointCount,1,1
;   temperatureSetpointLayers,1,1
;   temperatureSetpointTemperatures,215,55
;   temperatureStabilizeAtStartup,1,1
;   temperatureHeatedBed,0,1
;   fanLayers,1,2
;   fanSpeeds,0,100
;   blipFanToFullPower,0
;   adjustSpeedForCooling,1
;   minSpeedLayerTime,15
;   minCoolingSpeedSlowdown,50
;   increaseFanForCooling,1
;   minFanLayerTime,25
;   maxCoolingFanSpeed,100
;   increaseFanForBridging,1
;   bridgingFanSpeed,100
;   use5D,1
;   relativeEdistances,0
;   allowEaxisZeroing,1
;   independentExtruderAxes,0
;   includeM10123,0
;   stickySupport,1
;   applyToolheadOffsets,0
;   gcodeXoffset,0
;   gcodeYoffset,0
;   gcodeZoffset,0
;   overrideMachineDefinition,1
;   machineTypeOverride,0
;   strokeXoverride,300
;   strokeYoverride,300
;   strokeZoverride,400
;   originOffsetXoverride,0
;   originOffsetYoverride,0
;   originOffsetZoverride,0
;   homeXdirOverride,-1
;   homeYdirOverride,-1
;   homeZdirOverride,-1
;   flipXoverride,1
;   flipYoverride,-1
;   flipZoverride,1
;   toolheadOffsets,0,0|0,0|0,0|0,0|0,0|0,0
;   overrideFirmwareConfiguration,1
;   firmwareTypeOverride,RepRap (Marlin/Repetier/Sprinter)
;   GPXconfigOverride,r2
;   baudRateOverride,250000
;   overridePrinterModels,1
;   printerModelsOverride
;   startingGcode,;,; -]H.P.B[- MarshMalloW  ,; $VER: StartScript 1.02 (26.12.2019) MarshMalloW,;,; Begin Startcode,;,M117 *Preheat*     	; Preheat,;extruder0_temperature,M104 S[extruder0_temperature]  ,M109 S[extruder0_temperature] ,M109 R[extruder0_temperature] ,;,M117 *Auto-leveling*     	; Auto-leveling,M107                   	; Turn layer fan off,G21                    	; Set to metric [change to G20 if you want Imperial],G90                    	; Force coordinates to be absolute relative to the origin,G28                    	; Home X/Y/Z axis,G29                    	; Auto-leveling (BL-Touch),;,M117 *Start Clean*     	; Indicate nozzle clean in progress on LCD,G92 E0                 	; Set Extruder to 0 ,G1 X0 Y0 F2000         	; Move X and Y to 0 with speed 2000 (mm/min),G1 Z0.1 F1000          	; Move Z to   0.1 with speed 1000 (mm/min),G1 X8.0 F2000          	; Move X to   8.0 with speed 2000 (mm/min),G1 Y60.0 E4.0 F1000.0  	; Move Y to  60 and Extruder with 4.0 with speed 1000 (mm/min),G1 Y100.0 E8.5 F1000.0 	; Move Y to 100 and Extruder with 8.5 with speed 1000 (mm/min),G92 E0                 	; Set extruder to 0,G1 X16.0 F3000         	; Move X to 16.0 with speed 3000 (mm/min),G1 Y60.0 F3000         	; Move Y to 60.0 with speed 3000 (mm/min),M117 *End Clean*       	; Indicate nozzle clean in progress on LCD,G1 Z5 F3000            	; Move Z to  5.0 with speed 3000 (mm/min),G1 X20.0 F3000         	; Move X to 20.0 with speed 3000 (mm/min),G1 Y20.0 F3000         	; Move Y to 20.0 with speed 3000 (mm/min),; ,M117 *Printing...*     	; Start printing msg on LCD,;,; End Startcode,;,; Begin printing with sliced GCode after here,;
;   layerChangeGcode,
;   retractionGcode,
;   toolChangeGcode,
;   endingGcode,;,; init 181010,;,;M107 			; Fan off,;G1 E-1 F300 			; Retract the filament a bit before lifting the nozzle,;M104 S0 			; Turn off extruder,;M140 S0 			; Turn off bed,;G91			; Relative positioning,;G28 X0 Y0 			; Move X/Y to min endstops so the head is out of teh way,;M84 			; Disable motors,;G90 			; Absolute positioning,;M117 Print ready...,,;,; // From Cura 181010,; // End_gcode,G92 E0			; Zero the extruded length,;G1 E-30 F300		; Retract E -30,M106 S0			; Turn off cooling fan,M104 S0			; Turn off temperature,M140 S0		     	; Turn off bed,G91			; Relative positioning,G1 E-1 F300			; Retract the filament a bit before lifting the nozzle to release some of the pressure,G1 Z+20 E-5 X-20 Y-20 F7200	; Move Z up a bit and retract filament even more,G1 X0 Y150 F10000		; Move right min,M107			; Turn off layer fan,M84			; Disable motors,G90			; Absolute positioning,M117 *The-End* 		; End msg,;,
;   exportFileFormat,gcode
;   celebration,0
;   celebrationSong,Star Wars
;   postProcessing,|{REPLACE "; layer " "M117 INDICATOR-Layer"}|{REPLACE ", Z = " "\n; Z="}
;   defaultSpeed,1800
;   outlineUnderspeed,0.5
;   solidInfillUnderspeed,0.8
;   supportUnderspeed,0.8
;   rapidXYspeed,6000
;   rapidZspeed,1002
;   minBridgingArea,50
;   bridgingExtraInflation,0.2
;   bridgingExtrusionMultiplier,1
;   bridgingSpeedMultiplier,0.6
;   useFixedBridgingAngle,0
;   fixedBridgingAngle,0
;   applyBridgingToPerimeters,0
;   filamentDiameters,1.75|1.75|1.75|1.75|1.75|1.75
;   filamentPricesPerKg,30|46|46|46|46|46
;   filamentDensities,1.25|1.25|1.25|1.25|1.25|1.25
;   useMinPrintHeight,0
;   minPrintHeight,0
;   useMaxPrintHeight,0
;   maxPrintHeight,9
;   useDiaphragm,0
;   diaphragmLayerInterval,20
;   robustSlicing,1
;   mergeAllIntoSolid,0
;   onlyRetractWhenCrossingOutline,1
;   retractBetweenLayers,0
;   useRetractionMinTravel,0
;   retractionMinTravel,3
;   retractWhileWiping,0
;   onlyWipeOutlines,1
;   avoidCrossingOutline,1
;   maxMovementDetourFactor,3
;   toolChangeRetractionDistance,12
;   toolChangeExtraRestartDistance,-0.5
;   toolChangeRetractionSpeed,600
;   externalThinWallType,1
;   internalThinWallType,1
;   thinWallAllowedOverlapPercentage,10
;   singleExtrusionMinLength,1
;   singleExtrusionMinPrintingWidthPercentage,50
;   singleExtrusionMaxPrintingWidthPercentage,200
;   singleExtrusionEndpointExtension,0.2
;   horizontalSizeCompensation,0
G90
M82
M106 S0
M140 S55
M190 S55
;
; -]H.P.B[- MarshMalloW  
; $VER: StartScript 1.02 (26.12.2019) MarshMalloW
;
; Begin Startcode
;
M117 *Preheat*     	; Preheat
;extruder0_temperature
M104 S215  
M109 S215 
M109 R215 
;
M117 *Auto-leveling*     	; Auto-leveling
M107                   	; Turn layer fan off
G21                    	; Set to metric [change to G20 if you want Imperial]
G90                    	; Force coordinates to be absolute relative to the origin
G28                    	; Home X/Y/Z axis
G29                    	; Auto-leveling (BL-Touch)
;
M117 *Start Clean*     	; Indicate nozzle clean in progress on LCD
G92 E0                 	; Set Extruder to 0 
G1 X0 Y0 F2000         	; Move X and Y to 0 with speed 2000 (mm/min)
G1 Z0.1 F1000          	; Move Z to   0.1 with speed 1000 (mm/min)
G1 X8.0 F2000          	; Move X to   8.0 with speed 2000 (mm/min)
G1 Y60.0 E4.0 F1000.0  	; Move Y to  60 and Extruder with 4.0 with speed 1000 (mm/min)
G1 Y100.0 E8.5 F1000.0 	; Move Y to 100 and Extruder with 8.5 with speed 1000 (mm/min)
G92 E0                 	; Set extruder to 0
G1 X16.0 F3000         	; Move X to 16.0 with speed 3000 (mm/min)
G1 Y60.0 F3000         	; Move Y to 60.0 with speed 3000 (mm/min)
M117 *End Clean*       	; Indicate nozzle clean in progress on LCD
G1 Z5 F3000            	; Move Z to  5.0 with speed 3000 (mm/min)
G1 X20.0 F3000         	; Move X to 20.0 with speed 3000 (mm/min)
G1 Y20.0 F3000         	; Move Y to 20.0 with speed 3000 (mm/min)
; 
M117 *Printing...*     	; Start printing msg on LCD
;
; End Startcode
;
; Begin printing with sliced GCode after here
;
; process Process1
M117 INDICATOR-Layer1
; Z=0.180
T0
G92 E0.0000
G1 E-4.0000 F3000
; feature skirt
; tool H0.180 W0.350
G1 Z0.300 F1002
G1 X139.654 Y95.560 F6000
G1 Z0.180 F1002
G1 E0.0000 F3000
G92 E0.0000
G1 X140.103 Y96.724 E0.0310 F900
G1 X140.187 Y97.055 E0.0395
G1 X140.245 Y97.495 E0.0506
G1 X140.258 Y97.683 E0.0553
G1 X140.258 Y102.899 E0.1851
G1 X140.273 Y103.074 E0.1894
G1 X140.286 Y103.120 E0.1906
G1 X140.306 Y103.163 E0.1918
G1 X140.342 Y103.214 E0.1934
G1 X140.355 Y103.227 E0.1938
G1 X140.406 Y103.263 E0.1954
G1 X140.449 Y103.284 E0.1966
G1 X140.495 Y103.296 E0.1977
G1 X140.543 Y103.300 E0.1989
G1 X140.590 Y103.296 E0.2001
G1 X140.644 Y103.281 E0.2015
G1 X140.650 Y103.279 E0.2017
G1 X140.743 Y103.214 E0.2045
G1 X140.779 Y103.163 E0.2060
G1 X140.800 Y103.120 E0.2072
G1 X140.812 Y103.074 E0.2084
G1 X140.828 Y102.899 E0.2128
G1 X140.828 Y97.683 E0.3426
G1 X140.840 Y97.495 E0.3473
G1 X140.898 Y97.055 E0.3583
G1 X140.982 Y96.724 E0.3668
G1 X141.431 Y95.560 E0.3978
G1 X142.901 Y94.552 E0.4422
G1 X150.684 Y94.552 E0.6358
G1 X152.154 Y95.560 E0.6802
G1 X152.543 Y96.567 E0.7071
G1 X152.931 Y95.560 E0.7339
G1 X154.401 Y94.552 E0.7783
G1 X162.184 Y94.552 E0.9719
G1 X163.543 Y95.484 E1.0129
G1 X164.901 Y94.552 E1.0539
G1 X172.684 Y94.552 E1.2476
G1 X173.793 Y95.312 E1.2810
G1 X174.901 Y94.552 E1.3145
G1 X182.684 Y94.552 E1.5081
G1 X183.543 Y95.141 E1.5341
G1 X184.401 Y94.552 E1.5600
G1 X190.923 Y94.552 E1.7223
G1 X191.084 Y94.561 E1.7263
G1 X191.681 Y94.628 E1.7412
G1 X191.996 Y94.700 E1.7492
G1 X192.639 Y94.925 E1.7662
G1 X192.930 Y95.065 E1.7742
G1 X193.506 Y95.427 E1.7912
G1 X193.759 Y95.629 E1.7992
G1 X194.240 Y96.110 E1.8162
G1 X194.442 Y96.363 E1.8242
G1 X194.804 Y96.940 E1.8411
G1 X194.944 Y97.231 E1.8492
G1 X195.169 Y97.874 E1.8661
G1 X195.241 Y98.188 E1.8742
G1 X195.308 Y98.785 E1.8891
G1 X195.317 Y98.946 E1.8931
G1 X195.317 Y147.107 E3.0915
G1 X195.308 Y147.268 E3.0955
G1 X195.241 Y147.865 E3.1104
G1 X195.169 Y148.180 E3.1185
G1 X194.944 Y148.823 E3.1354
G1 X194.804 Y149.114 E3.1435
G1 X194.442 Y149.690 E3.1604
G1 X194.240 Y149.943 E3.1684
G1 X193.759 Y150.424 E3.1854
G1 X193.506 Y150.626 E3.1934
G1 X192.930 Y150.988 E3.2104
G1 X192.639 Y151.128 E3.2184
G1 X191.996 Y151.353 E3.2354
G1 X191.681 Y151.425 E3.2434
G1 X191.084 Y151.492 E3.2583
G1 X190.923 Y151.501 E3.2624
G1 X136.762 Y151.501 E4.6100
G1 X136.601 Y151.492 E4.6140
G1 X136.004 Y151.425 E4.6290
G1 X135.690 Y151.353 E4.6370
G1 X135.106 Y151.149 E4.6524
G1 X134.846 Y151.028 E4.6595
G1 X134.223 Y150.657 E4.6776
G1 X133.939 Y150.437 E4.6865
G1 X133.445 Y149.943 E4.7039
G1 X133.244 Y149.690 E4.7119
G1 X132.881 Y149.113 E4.7289
G1 X132.741 Y148.823 E4.7369
G1 X132.516 Y148.180 E4.7539
G1 X132.444 Y147.865 E4.7619
G1 X132.377 Y147.268 E4.7769
G1 X132.368 Y147.107 E4.7809
G1 X132.368 Y133.555 E5.1181
G1 X132.436 Y133.117 E5.1291
G1 X132.656 Y132.424 E5.1472
G1 X132.978 Y131.873 E5.1631
G1 X133.537 Y131.273 E5.1835
G1 X134.134 Y130.887 E5.2012
G1 X134.889 Y130.629 E5.2210
G1 X135.356 Y130.552 E5.2328
G1 X136.369 Y130.552 E5.2580
G1 X136.369 Y125.501 E5.3837
G1 X135.356 Y125.501 E5.4089
G1 X134.889 Y125.424 E5.4207
G1 X134.134 Y125.166 E5.4405
G1 X133.537 Y124.780 E5.4582
G1 X132.978 Y124.180 E5.4786
G1 X132.656 Y123.629 E5.4945
G1 X132.436 Y122.937 E5.5126
G1 X132.368 Y122.500 E5.5236
G1 X132.365 Y117.604 E5.6454
G1 X132.339 Y117.254 E5.6541
G1 X132.313 Y117.093 E5.6582
G1 X132.291 Y117.010 E5.6603
G1 X132.079 Y116.499 E5.6741
G1 X131.968 Y115.942 E5.6882
G1 X131.968 Y101.679 E6.0432
G1 X132.079 Y101.121 E6.0573
G1 X132.263 Y100.678 E6.0692
G1 X132.347 Y100.284 E6.0793
G1 X132.359 Y100.139 E6.0829
G1 X132.369 Y98.930 E6.1130
G1 X132.378 Y98.779 E6.1167
G1 X132.444 Y98.188 E6.1315
G1 X132.516 Y97.873 E6.1396
G1 X132.741 Y97.231 E6.1565
G1 X132.881 Y96.940 E6.1645
G1 X133.244 Y96.363 E6.1815
G1 X133.445 Y96.110 E6.1895
G1 X133.926 Y95.629 E6.2065
G1 X134.179 Y95.427 E6.2145
G1 X134.756 Y95.065 E6.2315
G1 X135.047 Y94.925 E6.2395
G1 X135.690 Y94.700 E6.2564
G1 X136.004 Y94.628 E6.2645
G1 X136.601 Y94.561 E6.2794
G1 X136.762 Y94.552 E6.2834
G1 X138.184 Y94.552 E6.3188
G1 X139.654 Y95.560 E6.3632
G92 E0.0000
G1 E-4.0000 F3000
G1 Z0.480 F1002
G1 X191.606 Y148.218 F6000
G1 X191.730 Y148.140
G1 X193.525 Y150.163
G1 Z0.180 F1002
G1 E0.0000 F3000
G92 E0.0000
G1 X193.304 Y150.340 E0.0071 F900
G1 X192.760 Y150.681 E0.0230
G1 X192.505 Y150.804 E0.0301
G1 X191.899 Y151.016 E0.0461
G1 X191.622 Y151.079 E0.0531
G1 X191.055 Y151.143 E0.0673
G1 X190.913 Y151.151 E0.0708
G1 X136.772 Y151.151 E1.4180
G1 X136.630 Y151.143 E1.4216
G1 X136.063 Y151.079 E1.4358
G1 X135.787 Y151.016 E1.4428
G1 X135.238 Y150.825 E1.4573
G1 X135.010 Y150.718 E1.4635
G1 X134.420 Y150.368 E1.4806
G1 X134.171 Y150.174 E1.4885
G1 X133.706 Y149.709 E1.5048
G1 X133.529 Y149.487 E1.5119
G1 X133.188 Y148.944 E1.5279
G1 X133.065 Y148.688 E1.5349
G1 X132.853 Y148.083 E1.5509
G1 X132.790 Y147.806 E1.5579
G1 X132.726 Y147.239 E1.5721
G1 X132.718 Y147.097 E1.5757
G1 X132.718 Y133.582 E1.9120
G1 X132.778 Y133.197 E1.9217
G1 X132.978 Y132.568 E1.9381
G1 X133.261 Y132.083 E1.9520
G1 X133.764 Y131.543 E1.9704
G1 X134.288 Y131.204 E1.9859
G1 X134.974 Y130.970 E2.0040
G1 X135.385 Y130.902 E2.0144
G1 X136.719 Y130.902 E2.0475
G1 X136.719 Y125.151 E2.1907
G1 X135.385 Y125.151 E2.2238
G1 X134.974 Y125.083 E2.2342
G1 X134.288 Y124.849 E2.2523
G1 X133.764 Y124.510 E2.2678
G1 X133.261 Y123.970 E2.2862
G1 X132.978 Y123.486 E2.3001
G1 X132.778 Y122.857 E2.3165
G1 X132.718 Y122.473 E2.3262
G1 X132.715 Y117.591 E2.4477
G1 X132.687 Y117.213 E2.4571
G1 X132.656 Y117.020 E2.4620
G1 X132.623 Y116.897 E2.4651
G1 X132.415 Y116.397 E2.4786
G1 X132.318 Y115.908 E2.4910
G1 X132.318 Y101.713 E2.8442
G1 X132.415 Y101.224 E2.8566
G1 X132.599 Y100.782 E2.8685
G1 X132.694 Y100.335 E2.8799
G1 X132.709 Y100.155 E2.8844
G1 X132.719 Y98.941 E2.9146
G1 X132.726 Y98.810 E2.9179
G1 X132.790 Y98.247 E2.9320
G1 X132.853 Y97.970 E2.9390
G1 X133.065 Y97.365 E2.9550
G1 X133.188 Y97.109 E2.9621
G1 X133.529 Y96.566 E2.9780
G1 X133.706 Y96.344 E2.9851
G1 X134.160 Y95.890 E3.0011
G1 X134.382 Y95.713 E3.0081
G1 X134.925 Y95.372 E3.0241
G1 X135.181 Y95.249 E3.0311
G1 X135.787 Y95.037 E3.0471
G1 X136.063 Y94.974 E3.0542
G1 X136.630 Y94.910 E3.0684
G1 X136.772 Y94.902 E3.0719
G1 X138.075 Y94.902 E3.1043
G1 X139.366 Y95.787 E3.1433
G1 X139.769 Y96.831 E3.1711
G1 X139.843 Y97.121 E3.1786
G1 X139.897 Y97.529 E3.1888
