; G-Code generated by Simplify3D(R) Version 4.0.1
; Dec 24, 2018 at 10:04:47 AM
; Settings Summary
;   processName,Tevo Tornado
;   applyToModels,Cable_rail_clamp_TEVO_TORNADO,Cable_rail_clamp_TEVO_TORNADO(2),Cable_rail_clamp_TEVO_TORNADO(3),Cable_rail_clamp_TEVO_TORNADO(4),Cable_rail_clamp_TEVO_TORNADO(5)
;   profileName,008 Tevo Tornado (experimental) 06-04
;   profileVersion,2018-12-16 11:00:31
;   baseProfile,Creality CR-10(2)
;   printMaterial,PLA
;   printQuality,Medium
;   printExtruders,
;   extruderName,Primary Extruder
;   extruderToolheadNumber,0
;   extruderDiameter,0.4
;   extruderAutoWidth,0
;   extruderWidth,0.4
;   extrusionMultiplier,1
;   extruderUseRetract,1
;   extruderRetractionDistance,6.5
;   extruderExtraRestartDistance,0
;   extruderRetractionZLift,0
;   extruderRetractionSpeed,1800
;   extruderUseCoasting,0
;   extruderCoastingDistance,0.2
;   extruderUseWipe,0
;   extruderWipeDistance,4
;   primaryExtruder,0
;   layerHeight,0.2
;   topSolidLayers,5
;   bottomSolidLayers,4
;   perimeterOutlines,3
;   printPerimetersInsideOut,1
;   startPointOption,2
;   startPointOriginX,0
;   startPointOriginY,500
;   sequentialIslands,0
;   spiralVaseMode,0
;   firstLayerHeightPercentage,150
;   firstLayerWidthPercentage,100
;   firstLayerUnderspeed,0.25
;   useRaft,0
;   raftExtruder,0
;   raftTopLayers,3
;   raftBaseLayers,2
;   raftOffset,3
;   raftSeparationDistance,0.14
;   raftTopInfill,100
;   aboveRaftSpeedMultiplier,0.3
;   useSkirt,0
;   skirtExtruder,0
;   skirtLayers,1
;   skirtOutlines,4
;   skirtOffset,0
;   usePrimePillar,0
;   primePillarExtruder,999
;   primePillarWidth,12
;   primePillarLocation,7
;   primePillarSpeedMultiplier,1
;   useOozeShield,0
;   oozeShieldExtruder,999
;   oozeShieldOffset,2
;   oozeShieldOutlines,1
;   oozeShieldSidewallShape,1
;   oozeShieldSidewallAngle,30
;   oozeShieldSpeedMultiplier,1
;   infillExtruder,0
;   internalInfillPattern,Rectilinear
;   externalInfillPattern,Rectilinear
;   infillPercentage,30
;   outlineOverlapPercentage,30
;   infillExtrusionWidthPercentage,125
;   minInfillLength,5
;   infillLayerInterval,1
;   internalInfillAngles,45,-45
;   overlapInternalInfillAngles,0
;   externalInfillAngles,45,-45
;   generateSupport,0
;   supportExtruder,0
;   supportInfillPercentage,30
;   supportExtraInflation,0
;   supportBaseLayers,0
;   denseSupportExtruder,0
;   denseSupportLayers,0
;   denseSupportInfillPercentage,70
;   supportLayerInterval,1
;   supportHorizontalPartOffset,0.4
;   supportUpperSeparationLayers,1
;   supportLowerSeparationLayers,1
;   supportType,0
;   supportGridSpacing,4.5
;   maxOverhangAngle,45
;   supportAngles,0
;   temperatureName,Primary Extruder,Heated Bed
;   temperatureNumber,0,0
;   temperatureSetpointCount,3,2
;   temperatureSetpointLayers,1,2,3,1,2
;   temperatureSetpointTemperatures,210,205,200,65,60
;   temperatureStabilizeAtStartup,1,1
;   temperatureHeatedBed,0,1
;   temperatureRelayBetweenLayers,0,0
;   temperatureRelayBetweenLoops,0,0
;   fanLayers,1,2
;   fanSpeeds,0,100
;   blipFanToFullPower,1
;   adjustSpeedForCooling,1
;   minSpeedLayerTime,15
;   minCoolingSpeedSlowdown,50
;   increaseFanForCooling,0
;   minFanLayerTime,45
;   maxCoolingFanSpeed,100
;   increaseFanForBridging,1
;   bridgingFanSpeed,100
;   use5D,1
;   relativeEdistances,0
;   allowEaxisZeroing,1
;   independentExtruderAxes,0
;   includeM10123,0
;   stickySupport,1
;   applyToolheadOffsets,0
;   gcodeXoffset,0
;   gcodeYoffset,0
;   gcodeZoffset,0
;   overrideMachineDefinition,1
;   machineTypeOverride,0
;   strokeXoverride,300
;   strokeYoverride,300
;   strokeZoverride,400
;   originOffsetXoverride,0
;   originOffsetYoverride,0
;   originOffsetZoverride,0
;   homeXdirOverride,-1
;   homeYdirOverride,-1
;   homeZdirOverride,-1
;   flipXoverride,1
;   flipYoverride,-1
;   flipZoverride,1
;   toolheadOffsets,0,0|0,0|0,0|0,0|0,0|0,0
;   overrideFirmwareConfiguration,0
;   firmwareTypeOverride,RepRap (Marlin/Repetier/Sprinter)
;   GPXconfigOverride,r2
;   baudRateOverride,250000
;   overridePrinterModels,1
;   printerModelsOverride
;   startingGcode,;Init 181010,;G28 ; home all axes,;G1 Z5 F3000 ; lift,;G92 E0 ; reset extrusion distance,,;From Cura 181010,; start_gcode,M117 Start Clean	; Indicate nozzle clean in progress on LCD,;,M104 S[extruder0_temperature] ,M109 S[extruder0_temperature] ,M109 R[extruder0_temperature] ,;,M107		; Turn layer fan off,G21		; Set to metric [change to G20 if you want Imperial],G90	 	; Force coordinates to be absolute relative to the origin,G28		; Home X/Y/Z axis,;,G1 X3 Y1 Z15 F9000	; Move safe Z height to shear strings,G0 X1 Y1 Z0.2 F9000	; Move in 1mm from edge and up [z] 0.2mm,G92 E0		; Set extruder to [0] zero,G1 X100 E12 F500	; Extrude 30mm filiment along X axis 100mm long to prime and clean the nozzle,G92 E0		; Reset extruder to [0] zero end of cleaning run,G1 E-1 F500		; Retract filiment by 1 mm to reduce string effect,G1 X180 F4000		; quick wipe away from the filament line / purge,M117 End Clean		; Indicate nozzle clean in progress on LCD,;,M117 Printing...		; start msg,; Begin printing with sliced GCode after here,;
;   layerChangeGcode,
;   retractionGcode,
;   toolChangeGcode,
;   endingGcode,;,; init 181010,;,;M107 ; Fan off,;G1 E-1 F300 ; Retract the filament a bit before lifting the nozzle,;M104 S0 ; turn off extruder,;M140 S0 ; turn off bed,;G91 ; Relative positioning,;G28 X0 Y0 ; Move X/Y to min endstops so the head is out of teh way,;M84 ; disable motors,;G90 ; Absolute positioning,;M117 Print ready...,,;,;From Cura 181010,;,; end_gcode,G92 E0		; zero the extruded length,G1 E-5 F9000		; retract,M104 S0		; turn off temperature,M140 S0		; turn off bed,G91		; relative positioning,G1 E-1 F300		; retract the filament a bit before lifting the nozzle to release some of the pressure,G1 Z+20 E-5 X-20 Y-20 F7200	; move Z up a bit and retract filament even more,G1 X320 Y150 F10000	; move right mid,M107		; turn off layer fan,M84		; disable motors,G90		; absolute positioning,M117 IMPRESSION TERMINEE	; end msg,;,;EOF
;   exportFileFormat,gcode
;   celebration,0
;   celebrationSong,Star Wars
;   postProcessing,
;   defaultSpeed,4200
;   outlineUnderspeed,0.5
;   solidInfillUnderspeed,0.8
;   supportUnderspeed,0.8
;   rapidXYspeed,6000
;   rapidZspeed,1002
;   minBridgingArea,50
;   bridgingExtraInflation,0
;   bridgingExtrusionMultiplier,0.85
;   bridgingSpeedMultiplier,1.05
;   useFixedBridgingAngle,0
;   fixedBridgingAngle,0
;   applyBridgingToPerimeters,0
;   filamentDiameters,1.75|1.75|1.75|1.75|1.75|1.75
;   filamentPricesPerKg,30|46|46|46|46|46
;   filamentDensities,1.25|1.25|1.25|1.25|1.25|1.25
;   useMinPrintHeight,0
;   minPrintHeight,0
;   useMaxPrintHeight,0
;   maxPrintHeight,9
;   useDiaphragm,0
;   diaphragmLayerInterval,20
;   robustSlicing,1
;   mergeAllIntoSolid,0
;   onlyRetractWhenCrossingOutline,1
;   retractBetweenLayers,1
;   useRetractionMinTravel,1
;   retractionMinTravel,3
;   retractWhileWiping,1
;   onlyWipeOutlines,1
;   avoidCrossingOutline,1
;   maxMovementDetourFactor,3
;   toolChangeRetractionDistance,12
;   toolChangeExtraRestartDistance,-0.5
;   toolChangeRetractionSpeed,600
;   externalThinWallType,0
;   internalThinWallType,2
;   thinWallAllowedOverlapPercentage,15
;   singleExtrusionMinLength,1
;   singleExtrusionMinPrintingWidthPercentage,50
;   singleExtrusionMaxPrintingWidthPercentage,200
;   singleExtrusionEndpointExtension,0.2
;   horizontalSizeCompensation,0
G90
M82
M106 S255
G4 P500
M106 S0
M140 S65
M190 S65
;Init 181010
;G28 ; home all axes
;G1 Z5 F3000 ; lift
;G92 E0 ; reset extrusion distance
;From Cura 181010
; start_gcode
M117 Start Clean	; Indicate nozzle clean in progress on LCD
;
M104 S210 
M109 S210 
M109 R210 
;
M107		; Turn layer fan off
G21		; Set to metric [change to G20 if you want Imperial]
G90	 	; Force coordinates to be absolute relative to the origin
G28		; Home X/Y/Z axis
;
G1 X3 Y1 Z15 F9000	; Move safe Z height to shear strings
G0 X1 Y1 Z0.2 F9000	; Move in 1mm from edge and up [z] 0.2mm
G92 E0		; Set extruder to [0] zero
G1 X100 E12 F500	; Extrude 30mm filiment along X axis 100mm long to prime and clean the nozzle
G92 E0		; Reset extruder to [0] zero end of cleaning run
G1 E-1 F500		; Retract filiment by 1 mm to reduce string effect
G1 X180 F4000		; quick wipe away from the filament line / purge
M117 End Clean		; Indicate nozzle clean in progress on LCD
;
M117 Printing...		; start msg
; Begin printing with sliced GCode after here
;
G92 E0
G1 E-6.5000 F1800
G1 Z0.300 F1002
; process Tevo Tornado
; layer 1, Z = 0.300
T0
; tool H0.300 W0.400
; inner perimeter
G1 X124.438 Y135.504 F6000
G1 E0.0000 F540
G92 E0
G1 X125.519 Y135.503 E0.0539 F788
G1 X125.605 Y135.714 E0.0653
G1 X125.283 Y136.031 E0.0879
G1 X124.921 Y136.440 E0.1151
G1 X124.723 Y136.393 E0.1253
G1 X124.699 Y136.301 E0.1300
G1 X124.551 Y135.983 E0.1475
G1 X124.343 Y135.688 E0.1655
G1 X124.438 Y135.504 E0.1758
G92 E0
G1 E-6.5000 F1800
G1 X134.393 Y135.712 F6000
G1 E0.0000 F1800
G92 E0
G1 X134.480 Y135.501 E0.0114 F788
G1 X135.563 Y135.503 E0.0655
G1 X135.653 Y135.704 E0.0764
G1 X135.577 Y135.789 E0.0821
G1 X135.393 Y136.086 E0.0996
G1 X135.200 Y136.577 E0.1259
G1 X134.717 Y136.032 E0.1622
G1 X134.393 Y135.712 E0.1849
G1 X134.125 Y136.009 F6000
G92 E0
G1 X133.802 Y135.734 E0.0212 F788
G1 X133.462 Y135.481 E0.0423
G1 X133.104 Y135.253 E0.0635
G1 X132.732 Y135.050 E0.0846
G1 X132.340 Y134.870 E0.1061
G1 X132.262 Y134.820 E0.1108
G1 X132.172 Y134.726 E0.1172
G1 X132.125 Y134.644 E0.1220
G1 X132.100 Y134.463 E0.1311
G1 X132.100 Y133.707 E0.1688
G1 X132.400 Y133.671 E0.1838
G1 X132.489 Y134.039 E0.2027
G1 X132.626 Y134.326 E0.2185
G1 X132.764 Y134.521 E0.2305
G1 X132.996 Y134.753 E0.2468
G1 X133.351 Y134.969 E0.2676
G1 X133.664 Y135.068 E0.2840
G1 X133.890 Y135.100 E0.2954
G1 X136.867 Y135.106 E0.4439
G1 X136.914 Y135.389 E0.4582
G1 X136.536 Y135.521 E0.4782
G1 X136.296 Y135.654 E0.4919
G1 X136.082 Y135.824 E0.5055
G1 X135.899 Y136.029 E0.5192
G1 X135.752 Y136.266 E0.5331
G1 X135.650 Y136.526 E0.5470
G1 X135.593 Y136.804 E0.5612
G1 X135.592 Y137.151 E0.5785
G1 X135.673 Y137.571 E0.5999
G1 X135.402 Y137.671 E0.6143
G1 X135.200 Y137.315 E0.6347
G1 X134.966 Y136.961 E0.6559
G1 X134.708 Y136.625 E0.6770
G1 X134.427 Y136.307 E0.6982
G1 X134.125 Y136.009 E0.7193
G1 X133.503 Y134.589 F6000
G1 X133.247 Y134.433 F6000
G1 X133.074 Y134.260 F6000
G1 X132.976 Y134.121 F6000
G1 X132.872 Y133.903 F6000
G1 X132.813 Y133.662 F6000
G1 X132.810 Y133.003 F6000
G1 X132.407 Y132.081 F6000
G92 E0
G1 X132.101 Y132.050 E0.0153 F788
G1 X132.102 Y130.687 E0.0833
G1 X132.120 Y130.587 E0.0884
G1 X132.131 Y130.555 E0.0901
G1 X132.181 Y130.466 E0.0951
G1 X132.202 Y130.440 E0.0968
G1 X132.279 Y130.373 E0.1019
G1 X132.317 Y130.350 E0.1041
G1 X132.357 Y130.333 E0.1063
G1 X132.438 Y130.313 E0.1104
G1 X133.848 Y130.304 E0.1808
G1 X133.988 Y130.323 E0.1878
G1 X134.092 Y130.366 E0.1935
G1 X134.156 Y130.411 E0.1974
G1 X134.641 Y130.896 E0.2316
G1 X134.554 Y131.105 E0.2429
G1 X133.359 Y131.109 E0.3025
G1 X133.131 Y131.165 E0.3143
G1 X132.927 Y131.262 E0.3255
G1 X132.739 Y131.404 E0.3373
G1 X132.562 Y131.622 E0.3513
G1 X132.456 Y131.844 E0.3636
G1 X132.407 Y132.081 E0.3757
G92 E0
G1 E-6.5000 F1800
G1 X127.894 Y132.043 F6000
G1 E0.0000 F1800
G92 E0
G1 X127.594 Y132.080 E0.0151 F788
G1 X127.520 Y131.773 E0.0308
G1 X127.363 Y131.515 E0.0459
G1 X127.196 Y131.348 E0.0576
G1 X126.990 Y131.213 E0.0699
G1 X126.662 Y131.109 E0.0871
G1 X125.443 Y131.105 E0.1479
G1 X125.357 Y130.896 E0.1592
G1 X125.801 Y130.452 E0.1905
G1 X125.867 Y130.393 E0.1950
G1 X125.939 Y130.348 E0.1992
G1 X126.033 Y130.312 E0.2042
G1 X127.471 Y130.304 E0.2760
G1 X127.591 Y130.317 E0.2820
G1 X127.624 Y130.326 E0.2837
G1 X127.697 Y130.361 E0.2877
G1 X127.788 Y130.435 E0.2936
G1 X127.868 Y130.549 E0.3005
G1 X127.891 Y130.641 E0.3053
G1 X127.894 Y132.043 E0.3752
G1 X127.593 Y133.654 F6000
G92 E0
G1 X127.898 Y133.685 E0.0153 F788
G1 X127.900 Y134.474 E0.0547
G1 X127.888 Y134.586 E0.0603
G1 X127.866 Y134.654 E0.0639
G1 X127.804 Y134.756 E0.0698
G1 X127.708 Y134.843 E0.0763
G1 X127.669 Y134.866 E0.0785
G1 X127.268 Y135.050 E0.1005
G1 X126.896 Y135.253 E0.1217
G1 X126.538 Y135.481 E0.1429
G1 X126.198 Y135.734 E0.1640
G1 X125.875 Y136.009 E0.1852
G1 X125.573 Y136.307 E0.2063
G1 X125.292 Y136.625 E0.2275
G1 X125.034 Y136.961 E0.2486
G1 X124.800 Y137.315 E0.2698
G1 X124.602 Y137.665 E0.2899
G1 X124.333 Y137.570 E0.3041
G1 X124.415 Y137.069 E0.3294
G1 X124.394 Y136.713 E0.3472
G1 X124.321 Y136.438 E0.3614
G1 X124.204 Y136.184 E0.3753
G1 X124.044 Y135.957 E0.3892
G1 X123.850 Y135.764 E0.4029
G1 X123.627 Y135.605 E0.4165
G1 X123.379 Y135.486 E0.4302
G1 X123.101 Y135.407 E0.4447
G1 X123.100 Y135.106 E0.4597
G1 X126.041 Y135.102 E0.6064
G1 X126.413 Y135.051 E0.6251
G1 X126.648 Y134.967 E0.6376
G1 X126.934 Y134.807 E0.6539
G1 X127.230 Y134.529 E0.6742
G1 X127.374 Y134.326 E0.6866
G1 X127.515 Y134.029 E0.7030
G1 X127.593 Y133.654 E0.7221
; outer perimeter
G1 X127.198 Y133.591 F6000
G92 E0
G1 X127.199 Y132.146 E0.0721 F525
G1 X127.146 Y131.927 E0.0833
G1 X127.046 Y131.764 E0.0928
G1 X126.942 Y131.660 E0.1002
G1 X126.817 Y131.578 E0.1077
G1 X126.599 Y131.509 E0.1190
G1 X125.010 Y131.504 E0.1983
G1 X124.943 Y131.497 E0.2017
G1 X124.860 Y131.468 E0.2061
G1 X124.814 Y131.438 E0.2088
G1 X124.756 Y131.376 E0.2130
G1 X124.718 Y131.301 E0.2173
G1 X124.704 Y131.246 E0.2201
G1 X124.701 Y131.093 E0.2277
G1 X124.711 Y131.037 E0.2305
G1 X124.742 Y130.962 E0.2346
G1 X124.797 Y130.890 E0.2391
G1 X125.526 Y130.161 E0.2905
G1 X125.626 Y130.071 E0.2973
G1 X125.761 Y129.988 E0.3052
G1 X125.911 Y129.931 E0.3132
G1 X126.004 Y129.913 E0.3179
G1 X127.490 Y129.904 E0.3921
G1 X127.666 Y129.922 E0.4009
G1 X127.764 Y129.950 E0.4060
G1 X127.912 Y130.020 E0.4141
G1 X128.083 Y130.159 E0.4252
G1 X128.213 Y130.343 E0.4364
G1 X128.252 Y130.433 E0.4413
G1 X128.291 Y130.592 E0.4494
G1 X128.300 Y134.494 E0.6441
G1 X128.282 Y134.669 E0.6529
G1 X128.232 Y134.823 E0.6610
G1 X128.115 Y135.013 E0.6721
G1 X127.947 Y135.166 E0.6834
G1 X127.855 Y135.221 E0.6888
G1 X127.447 Y135.408 E0.7111
G1 X127.099 Y135.597 E0.7309
G1 X126.765 Y135.811 E0.7507
G1 X126.447 Y136.047 E0.7705
G1 X126.146 Y136.304 E0.7902
G1 X125.864 Y136.582 E0.8100
G1 X125.601 Y136.879 E0.8298
G1 X125.360 Y137.194 E0.8495
G1 X125.141 Y137.524 E0.8693
G1 X124.946 Y137.869 E0.8891
G1 X124.775 Y138.226 E0.9089
G1 X124.629 Y138.595 E0.9286
G1 X124.509 Y138.973 E0.9484
G1 X124.416 Y139.358 E0.9682
G1 X124.350 Y139.749 E0.9879
G1 X124.311 Y140.143 E1.0077
G1 X124.300 Y140.539 E1.0275
G1 X124.316 Y140.935 E1.0473
G1 X124.360 Y141.329 E1.0670
G1 X124.431 Y141.719 E1.0868
G1 X124.529 Y142.103 E1.1066
G1 X124.653 Y142.479 E1.1263
G1 X124.803 Y142.846 E1.1461
G1 X124.978 Y143.202 E1.1659
G1 X125.178 Y143.544 E1.1857
G1 X125.401 Y143.872 E1.2054
G1 X125.646 Y144.183 E1.2252
G1 X125.912 Y144.477 E1.2450
G1 X126.198 Y144.751 E1.2647
G1 X126.502 Y145.005 E1.2845
G1 X126.824 Y145.237 E1.3043
G1 X127.160 Y145.446 E1.3241
G1 X127.510 Y145.632 E1.3438
G1 X127.873 Y145.792 E1.3636
G1 X128.245 Y145.927 E1.3834
G1 X128.626 Y146.036 E1.4031
G1 X129.014 Y146.118 E1.4229
G1 X129.406 Y146.173 E1.4427
G1 X129.802 Y146.201 E1.4625
G1 X130.198 Y146.201 E1.4822
G1 X130.594 Y146.173 E1.5020
G1 X130.986 Y146.118 E1.5218
G1 X131.374 Y146.036 E1.5415
G1 X131.755 Y145.927 E1.5613
G1 X132.127 Y145.792 E1.5811
G1 X132.490 Y145.632 E1.6009
G1 X132.840 Y145.446 E1.6206
G1 X133.176 Y145.237 E1.6404
G1 X133.498 Y145.005 E1.6602
G1 X133.802 Y144.751 E1.6799
G1 X134.088 Y144.477 E1.6997
G1 X134.354 Y144.183 E1.7195
G1 X134.599 Y143.872 E1.7393
G1 X134.822 Y143.544 E1.7590
G1 X135.022 Y143.202 E1.7788
G1 X135.197 Y142.846 E1.7986
G1 X135.347 Y142.479 E1.8184
G1 X135.471 Y142.103 E1.8381
G1 X135.569 Y141.719 E1.8579
G1 X135.640 Y141.329 E1.8777
G1 X135.684 Y140.935 E1.8974
G1 X135.700 Y140.539 E1.9172
G1 X135.689 Y140.143 E1.9370
G1 X135.650 Y139.749 E1.9568
G1 X135.584 Y139.358 E1.9765
G1 X135.491 Y138.973 E1.9963
G1 X135.371 Y138.595 E2.0161
G1 X135.225 Y138.226 E2.0358
