; G-Code generated by Simplify3D(R) Version 4.0.1
; Dec 12, 2018 at 9:53:30 PM
; Settings Summary
;   processName,Tevo Tornado
;   applyToModels,Cable_rail_clamp_TEVO_TORNADO,Cable_rail_clamp_TEVO_TORNADO(2)
;   profileName,007 Tevo Tornado (experimental) 06-03 (modified)
;   profileVersion,2018-12-06 16:04:13
;   baseProfile,Creality CR-10(2)
;   printMaterial,PLA
;   printQuality,Medium
;   printExtruders,
;   extruderName,Primary Extruder
;   extruderToolheadNumber,0
;   extruderDiameter,0.4
;   extruderAutoWidth,0
;   extruderWidth,0.4
;   extrusionMultiplier,1
;   extruderUseRetract,1
;   extruderRetractionDistance,6.5
;   extruderExtraRestartDistance,0
;   extruderRetractionZLift,0
;   extruderRetractionSpeed,1800
;   extruderUseCoasting,0
;   extruderCoastingDistance,0.2
;   extruderUseWipe,0
;   extruderWipeDistance,4
;   primaryExtruder,0
;   layerHeight,0.2
;   topSolidLayers,5
;   bottomSolidLayers,4
;   perimeterOutlines,3
;   printPerimetersInsideOut,1
;   startPointOption,2
;   startPointOriginX,0
;   startPointOriginY,500
;   sequentialIslands,0
;   spiralVaseMode,0
;   firstLayerHeightPercentage,90
;   firstLayerWidthPercentage,110
;   firstLayerUnderspeed,0.25
;   useRaft,0
;   raftExtruder,0
;   raftTopLayers,3
;   raftBaseLayers,2
;   raftOffset,3
;   raftSeparationDistance,0.14
;   raftTopInfill,100
;   aboveRaftSpeedMultiplier,0.3
;   useSkirt,1
;   skirtExtruder,0
;   skirtLayers,1
;   skirtOutlines,3
;   skirtOffset,0
;   usePrimePillar,0
;   primePillarExtruder,999
;   primePillarWidth,12
;   primePillarLocation,7
;   primePillarSpeedMultiplier,1
;   useOozeShield,0
;   oozeShieldExtruder,999
;   oozeShieldOffset,2
;   oozeShieldOutlines,1
;   oozeShieldSidewallShape,1
;   oozeShieldSidewallAngle,30
;   oozeShieldSpeedMultiplier,1
;   infillExtruder,0
;   internalInfillPattern,Rectilinear
;   externalInfillPattern,Rectilinear
;   infillPercentage,50
;   outlineOverlapPercentage,30
;   infillExtrusionWidthPercentage,125
;   minInfillLength,5
;   infillLayerInterval,1
;   internalInfillAngles,45,-45
;   overlapInternalInfillAngles,0
;   externalInfillAngles,45,-45
;   generateSupport,0
;   supportExtruder,0
;   supportInfillPercentage,30
;   supportExtraInflation,0
;   supportBaseLayers,0
;   denseSupportExtruder,0
;   denseSupportLayers,0
;   denseSupportInfillPercentage,70
;   supportLayerInterval,1
;   supportHorizontalPartOffset,0.4
;   supportUpperSeparationLayers,1
;   supportLowerSeparationLayers,1
;   supportType,0
;   supportGridSpacing,4.5
;   maxOverhangAngle,45
;   supportAngles,0
;   temperatureName,Primary Extruder,Heated Bed
;   temperatureNumber,0,0
;   temperatureSetpointCount,3,2
;   temperatureSetpointLayers,1,2,3,1,2
;   temperatureSetpointTemperatures,210,200,190,65,60
;   temperatureStabilizeAtStartup,1,1
;   temperatureHeatedBed,0,1
;   temperatureRelayBetweenLayers,0,0
;   temperatureRelayBetweenLoops,0,0
;   fanLayers,1,2,3
;   fanSpeeds,0,75,100
;   blipFanToFullPower,1
;   adjustSpeedForCooling,1
;   minSpeedLayerTime,15
;   minCoolingSpeedSlowdown,50
;   increaseFanForCooling,0
;   minFanLayerTime,45
;   maxCoolingFanSpeed,100
;   increaseFanForBridging,1
;   bridgingFanSpeed,100
;   use5D,1
;   relativeEdistances,0
;   allowEaxisZeroing,1
;   independentExtruderAxes,0
;   includeM10123,0
;   stickySupport,1
;   applyToolheadOffsets,0
;   gcodeXoffset,0
;   gcodeYoffset,0
;   gcodeZoffset,0
;   overrideMachineDefinition,1
;   machineTypeOverride,0
;   strokeXoverride,300
;   strokeYoverride,300
;   strokeZoverride,400
;   originOffsetXoverride,0
;   originOffsetYoverride,0
;   originOffsetZoverride,0
;   homeXdirOverride,-1
;   homeYdirOverride,-1
;   homeZdirOverride,-1
;   flipXoverride,1
;   flipYoverride,-1
;   flipZoverride,1
;   toolheadOffsets,0,0|0,0|0,0|0,0|0,0|0,0
;   overrideFirmwareConfiguration,0
;   firmwareTypeOverride,RepRap (Marlin/Repetier/Sprinter)
;   GPXconfigOverride,r2
;   baudRateOverride,250000
;   overridePrinterModels,1
;   printerModelsOverride
;   startingGcode,;Init 181010,;G28 ; home all axes,;G1 Z5 F3000 ; lift,;G92 E0 ; reset extrusion distance,,;From Cura 181010,; start_gcode,M117 Start Clean	; Indicate nozzle clean in progress on LCD,;,M104 S[extruder0_temperature] ,M109 S[extruder0_temperature] ,M109 R[extruder0_temperature] ,;,M107		; Turn layer fan off,G21		; Set to metric [change to G20 if you want Imperial],G90	 	; Force coordinates to be absolute relative to the origin,G28		; Home X/Y/Z axis,;,G1 X3 Y1 Z15 F9000	; Move safe Z height to shear strings,G0 X1 Y1 Z0.2 F9000	; Move in 1mm from edge and up [z] 0.2mm,G92 E0		; Set extruder to [0] zero,G1 X100 E12 F500	; Extrude 30mm filiment along X axis 100mm long to prime and clean the nozzle,G92 E0		; Reset extruder to [0] zero end of cleaning run,G1 E-1 F500		; Retract filiment by 1 mm to reduce string effect,G1 X180 F4000		; quick wipe away from the filament line / purge,M117 End Clean		; Indicate nozzle clean in progress on LCD,;,M117 Printing...		; start msg,; Begin printing with sliced GCode after here,;
;   layerChangeGcode,
;   retractionGcode,
;   toolChangeGcode,
;   endingGcode,;,; init 181010,;,;M107 ; Fan off,;G1 E-1 F300 ; Retract the filament a bit before lifting the nozzle,;M104 S0 ; turn off extruder,;M140 S0 ; turn off bed,;G91 ; Relative positioning,;G28 X0 Y0 ; Move X/Y to min endstops so the head is out of teh way,;M84 ; disable motors,;G90 ; Absolute positioning,;M117 Print ready...,,;,;From Cura 181010,;,; end_gcode,G92 E0		; zero the extruded length,G1 E-5 F9000		; retract,M104 S0		; turn off temperature,M140 S0		; turn off bed,G91		; relative positioning,G1 E-1 F300		; retract the filament a bit before lifting the nozzle to release some of the pressure,G1 Z+20 E-5 X-20 Y-20 F7200	; move Z up a bit and retract filament even more,G1 X320 Y150 F10000	; move right mid,M107		; turn off layer fan,M84		; disable motors,G90		; absolute positioning,M117 IMPRESSION TERMINEE	; end msg,;,;EOF
;   exportFileFormat,gcode
;   celebration,0
;   celebrationSong,Star Wars
;   postProcessing,
;   defaultSpeed,4200
;   outlineUnderspeed,0.5
;   solidInfillUnderspeed,0.8
;   supportUnderspeed,0.8
;   rapidXYspeed,6000
;   rapidZspeed,1002
;   minBridgingArea,50
;   bridgingExtraInflation,0
;   bridgingExtrusionMultiplier,0.85
;   bridgingSpeedMultiplier,1.05
;   useFixedBridgingAngle,0
;   fixedBridgingAngle,0
;   applyBridgingToPerimeters,0
;   filamentDiameters,1.75|1.75|1.75|1.75|1.75|1.75
;   filamentPricesPerKg,30|46|46|46|46|46
;   filamentDensities,1.25|1.25|1.25|1.25|1.25|1.25
;   useMinPrintHeight,0
;   minPrintHeight,0
;   useMaxPrintHeight,0
;   maxPrintHeight,9
;   useDiaphragm,0
;   diaphragmLayerInterval,20
;   robustSlicing,1
;   mergeAllIntoSolid,0
;   onlyRetractWhenCrossingOutline,1
;   retractBetweenLayers,1
;   useRetractionMinTravel,1
;   retractionMinTravel,3
;   retractWhileWiping,1
;   onlyWipeOutlines,1
;   avoidCrossingOutline,1
;   maxMovementDetourFactor,3
;   toolChangeRetractionDistance,12
;   toolChangeExtraRestartDistance,-0.5
;   toolChangeRetractionSpeed,600
;   externalThinWallType,0
;   internalThinWallType,2
;   thinWallAllowedOverlapPercentage,15
;   singleExtrusionMinLength,1
;   singleExtrusionMinPrintingWidthPercentage,50
;   singleExtrusionMaxPrintingWidthPercentage,200
;   singleExtrusionEndpointExtension,0.2
;   horizontalSizeCompensation,0
G90
M82
M106 S255
G4 P500
M106 S0
M140 S65
M190 S65
;Init 181010
;G28 ; home all axes
;G1 Z5 F3000 ; lift
;G92 E0 ; reset extrusion distance
;From Cura 181010
; start_gcode
M117 Start Clean	; Indicate nozzle clean in progress on LCD
;
M104 S210 
M109 S210 
M109 R210 
;
M107		; Turn layer fan off
G21		; Set to metric [change to G20 if you want Imperial]
G90	 	; Force coordinates to be absolute relative to the origin
G28		; Home X/Y/Z axis
;
G1 X3 Y1 Z15 F9000	; Move safe Z height to shear strings
G0 X1 Y1 Z0.2 F9000	; Move in 1mm from edge and up [z] 0.2mm
G92 E0		; Set extruder to [0] zero
G1 X100 E12 F500	; Extrude 30mm filiment along X axis 100mm long to prime and clean the nozzle
G92 E0		; Reset extruder to [0] zero end of cleaning run
G1 E-1 F500		; Retract filiment by 1 mm to reduce string effect
G1 X180 F4000		; quick wipe away from the filament line / purge
M117 End Clean		; Indicate nozzle clean in progress on LCD
;
M117 Printing...		; start msg
; Begin printing with sliced GCode after here
;
G92 E0
G1 E-6.5000 F1800
G1 Z0.180 F1002
; process Tevo Tornado
; layer 1, Z = 0.180
T0
; tool H0.200 W0.440
; skirt
G1 X140.136 Y147.158 F6000
G1 E0.0000 F540
G92 E0
G1 X140.196 Y147.107 E0.0029 F1050
G1 X140.558 Y146.843 E0.0193
G1 X140.677 Y146.779 E0.0242
G1 X140.962 Y146.672 E0.0353
G1 X141.040 Y146.650 E0.0383
G1 X141.259 Y146.606 E0.0465
G1 X141.360 Y146.596 E0.0502
G1 X143.223 Y146.610 E0.1184
G1 X143.404 Y146.645 E0.1251
G1 X143.878 Y146.832 E0.1437
G1 X144.011 Y146.910 E0.1494
G1 X144.335 Y147.173 E0.1647
G1 X144.428 Y147.273 E0.1697
G1 X144.669 Y147.614 E0.1850
G1 X144.738 Y147.752 E0.1906
G1 X144.887 Y148.222 E0.2086
G1 X144.911 Y148.373 E0.2142
G1 X144.920 Y152.412 E0.3620
G1 X144.917 Y152.465 E0.3639
G1 X144.888 Y152.750 E0.3744
G1 X144.866 Y152.851 E0.3782
G1 X144.769 Y153.156 E0.3899
G1 X144.718 Y153.266 E0.3943
G1 X144.505 Y153.611 E0.4092
G1 X144.416 Y153.717 E0.4142
G1 X144.112 Y153.996 E0.4293
G1 X144.001 Y154.073 E0.4342
G1 X143.134 Y154.514 E0.4698
G1 X142.602 Y154.881 E0.4935
G1 X142.391 Y155.062 E0.5036
G1 X141.937 Y155.541 E0.5278
G1 X141.768 Y155.761 E0.5380
G1 X141.432 Y156.309 E0.5615
G1 X141.182 Y156.882 E0.5843
G1 X141.010 Y157.501 E0.6078
G1 X140.960 Y157.792 E0.6186
G1 X140.931 Y158.086 E0.6295
G1 X140.935 Y158.728 E0.6530
G1 X141.028 Y159.364 E0.6765
G1 X141.097 Y159.633 E0.6866
G1 X141.326 Y160.252 E0.7108
G1 X141.449 Y160.502 E0.7210
G1 X141.801 Y161.060 E0.7451
G1 X141.983 Y161.292 E0.7559
G1 X142.182 Y161.511 E0.7667
G1 X142.673 Y161.951 E0.7909
G1 X142.899 Y162.114 E0.8010
G1 X143.456 Y162.434 E0.8245
G1 X144.052 Y162.674 E0.8480
G1 X144.336 Y162.755 E0.8588
G1 X144.625 Y162.816 E0.8696
G1 X145.264 Y162.883 E0.8932
G1 X145.906 Y162.861 E0.9167
G1 X146.181 Y162.822 E0.9268
G1 X146.805 Y162.667 E0.9503
G1 X147.385 Y162.434 E0.9732
G1 X147.926 Y162.123 E0.9961
G1 X148.434 Y161.729 E1.0196
G1 X148.634 Y161.536 E1.0297
G1 X149.049 Y161.045 E1.0532
G1 X149.382 Y160.517 E1.0761
G1 X149.639 Y159.947 E1.0990
G1 X149.814 Y159.347 E1.1219
G1 X149.905 Y158.728 E1.1447
G1 X149.909 Y158.103 E1.1676
G1 X149.826 Y157.484 E1.1905
G1 X149.658 Y156.882 E1.2133
G1 X149.401 Y156.293 E1.2368
G1 X149.264 Y156.051 E1.2470
G1 X148.891 Y155.528 E1.2705
G1 X148.449 Y155.062 E1.2940
G1 X148.238 Y154.881 E1.3042
G1 X147.701 Y154.511 E1.3280
G1 X146.761 Y154.019 E1.3668
G1 X146.630 Y153.920 E1.3728
G1 X146.330 Y153.605 E1.3888
G1 X146.241 Y153.476 E1.3945
G1 X146.024 Y153.026 E1.4128
G1 X145.978 Y152.877 E1.4185
G1 X145.925 Y152.492 E1.4327
G1 X145.920 Y152.422 E1.4353
G1 X145.922 Y148.460 E1.5802
G1 X145.937 Y148.341 E1.5846
G1 X146.052 Y147.870 E1.6023
G1 X146.120 Y147.713 E1.6086
G1 X146.391 Y147.300 E1.6267
G1 X146.481 Y147.197 E1.6317
G1 X146.731 Y146.978 E1.6439
G1 X146.830 Y146.911 E1.6482
G1 X147.178 Y146.731 E1.6626
G1 X147.290 Y146.689 E1.6670
G1 X147.604 Y146.612 E1.6788
G1 X147.720 Y146.598 E1.6830
G1 X149.334 Y146.588 E1.7421
G1 X149.402 Y146.592 E1.7446
G1 X149.760 Y146.639 E1.7578
G1 X149.887 Y146.673 E1.7626
G1 X150.242 Y146.820 E1.7766
G1 X150.342 Y146.876 E1.7808
G1 X150.581 Y147.047 E1.7916
G1 X150.643 Y147.100 E1.7946
G1 X151.567 Y148.022 E1.8423
G1 X151.670 Y148.171 E1.8489
G1 X151.879 Y148.632 E1.8675
G1 X151.922 Y148.880 E1.8767
G1 X151.881 Y149.423 E1.8966
G1 X151.834 Y149.602 E1.9034
G1 X151.717 Y149.847 E1.9133
G1 X151.631 Y149.974 E1.9189
G1 X151.369 Y150.254 E1.9330
G1 X151.201 Y150.373 E1.9405
G1 X150.828 Y150.535 E1.9554
G1 X150.631 Y150.577 E1.9627
G1 X149.424 Y150.588 E2.0069
G1 X149.429 Y151.367 E2.0354
G1 X152.588 Y151.392 E2.1510
G1 X152.769 Y151.427 E2.1578
G1 X153.187 Y151.591 E2.1742
G1 X153.383 Y151.730 E2.1830
G1 X153.674 Y152.063 E2.1992
G1 X153.763 Y152.210 E2.2054
G1 X153.864 Y152.465 E2.2155
G1 X153.899 Y152.635 E2.2218
G1 X153.922 Y153.433 E2.2510
G1 X153.903 Y153.583 E2.2565
G1 X153.773 Y154.048 E2.2742
G1 X153.630 Y154.283 E2.2843
G1 X153.245 Y154.643 E2.3036
G1 X153.034 Y154.761 E2.3124
G1 X152.626 Y154.875 E2.3279
G1 X152.629 Y154.904 E2.3290
G1 X152.830 Y155.373 E2.3476
G1 X152.846 Y155.414 E2.3493
G1 X153.164 Y156.380 E2.3865
G1 X153.181 Y156.447 E2.3890
G1 X153.365 Y157.451 E2.4264
G1 X153.371 Y157.503 E2.4283
G1 X153.413 Y158.041 E2.4480
G1 X153.414 Y158.092 E2.4499
G1 X153.388 Y159.097 E2.4866
G1 X153.384 Y159.148 E2.4885
G1 X153.316 Y159.676 E2.5080
G1 X153.307 Y159.726 E2.5099
G1 X153.075 Y160.712 E2.5469
G1 X153.060 Y160.761 E2.5488
G1 X152.886 Y161.264 E2.5683
G1 X152.866 Y161.312 E2.5702
G1 X152.437 Y162.229 E2.6072
G1 X152.413 Y162.274 E2.6091
G1 X152.144 Y162.723 E2.6282
G1 X152.125 Y162.752 E2.6295
G1 X151.825 Y163.182 E2.6486
G1 X151.794 Y163.222 E2.6505
G1 X151.127 Y163.995 E2.6879
G1 X151.078 Y164.044 E2.6904
G1 X150.311 Y164.718 E2.7278
G1 X150.271 Y164.750 E2.7296
G1 X149.837 Y165.059 E2.7491
G1 X149.794 Y165.086 E2.7510
G1 X148.905 Y165.589 E2.7884
G1 X148.843 Y165.619 E2.7909
G1 X147.894 Y165.996 E2.8282
G1 X147.846 Y166.012 E2.8301
G1 X147.342 Y166.154 E2.8493
G1 X147.308 Y166.162 E2.8505
G1 X146.796 Y166.269 E2.8697
G1 X146.745 Y166.277 E2.8716
G1 X145.738 Y166.381 E2.9086
G1 X145.686 Y166.384 E2.9105
G1 X145.154 Y166.384 E2.9300
G1 X145.103 Y166.381 E2.9319
G1 X144.095 Y166.277 E2.9689
G1 X144.045 Y166.269 E2.9708
G1 X143.524 Y166.161 E2.9903
G1 X143.474 Y166.147 E2.9921
G1 X142.509 Y165.839 E3.0292
G1 X142.461 Y165.821 E3.0311
G1 X141.973 Y165.608 E3.0505
G1 X141.927 Y165.585 E3.0524
G1 X141.039 Y165.082 E3.0898
G1 X140.982 Y165.044 E3.0923
G1 X140.170 Y164.424 E3.1296
G1 X140.131 Y164.391 E3.1315
G1 X139.750 Y164.032 E3.1507
G1 X139.726 Y164.007 E3.1519
G1 X139.370 Y163.623 E3.1711
G1 X139.337 Y163.583 E3.1730
G1 X138.730 Y162.773 E3.2100
G1 X138.701 Y162.731 E3.2119
G1 X138.427 Y162.274 E3.2314
G1 X138.403 Y162.229 E3.2333
G1 X137.974 Y161.312 E3.2703
G1 X137.955 Y161.264 E3.2722
G1 X137.780 Y160.761 E3.2917
G1 X137.765 Y160.712 E3.2936
G1 X137.531 Y159.718 E3.3309
G1 X137.520 Y159.650 E3.3334
G1 X137.424 Y158.634 E3.3708
G1 X137.422 Y158.582 E3.3727
G1 X137.427 Y158.050 E3.3921
G1 X137.430 Y157.999 E3.3940
G1 X137.543 Y156.993 E3.4311
G1 X137.552 Y156.942 E3.4329
G1 X137.665 Y156.422 E3.4524
G1 X137.679 Y156.372 E3.4543
G1 X137.994 Y155.414 E3.4912
G1 X138.010 Y155.373 E3.4928
G1 X138.222 Y154.880 E3.5125
G1 X138.198 Y154.865 E3.5135
G1 X137.826 Y154.769 E3.5275
G1 X137.620 Y154.660 E3.5360
G1 X137.257 Y154.344 E3.5537
G1 X137.113 Y154.131 E3.5631
G1 X136.948 Y153.668 E3.5810
G1 X136.919 Y153.486 E3.5878
G1 X136.942 Y152.594 E3.6204
G1 X137.016 Y152.343 E3.6300
G1 X137.278 Y151.913 E3.6484
G1 X137.418 Y151.763 E3.6559
G1 X137.676 Y151.581 E3.6675
G1 X137.814 Y151.512 E3.6731
G1 X138.123 Y151.414 E3.6850
G1 X138.274 Y151.391 E3.6906
G1 X141.351 Y151.386 E3.8032
G1 X141.400 Y151.379 E3.8050
G1 X141.408 Y151.376 E3.8053
G1 X141.418 Y151.334 E3.8069
G1 X141.418 Y150.585 E3.8342
G1 X140.155 Y150.568 E3.8805
G1 X139.929 Y150.511 E3.8890
G1 X139.538 Y150.309 E3.9051
G1 X139.357 Y150.151 E3.9139
G1 X139.078 Y149.755 E3.9316
G1 X139.000 Y149.584 E3.9385
G1 X138.936 Y149.325 E3.9483
G1 X138.923 Y149.184 E3.9534
G1 X138.943 Y148.703 E3.9711
G1 X139.011 Y148.471 E3.9799
G1 X139.233 Y148.085 E3.9962
G1 X139.313 Y147.981 E4.0010
G1 X140.136 Y147.158 E4.0436
G92 E0
G1 E-6.5000 F1800
G1 X140.964 Y148.049 F6000
G1 X141.055 Y147.968 F6000
G1 X141.188 Y147.886 F6000
G1 X141.335 Y147.830 F6000
G1 X141.426 Y147.812 F6000
G1 X142.374 Y147.807 F6000
G1 X158.016 Y152.343 F6000
G1 E0.0000 F1800
G92 E0
G1 X158.278 Y151.913 E0.0184 F1050
G1 X158.418 Y151.763 E0.0259
G1 X158.676 Y151.581 E0.0375
G1 X158.814 Y151.512 E0.0431
G1 X159.123 Y151.414 E0.0550
G1 X159.274 Y151.391 E0.0606
G1 X162.351 Y151.386 E0.1732
