; G-Code generated by Simplify3D(R) Version 4.1.2
; May 1, 2022 at 1:13:55 AM
; Settings Summary
;   processName,Process1
;   applyToModels,Z-Offset01
;   profileName,A10-04-15 Tevo Tornado (modified)
;   profileVersion,2020-12-06 16:18:07
;   baseProfile,Creality CR-10(2)
;   printMaterial,PLA
;   printQuality,Medium
;   printExtruders,
;   extruderName,Primary Extruder
;   extruderToolheadNumber,0
;   extruderDiameter,0.4
;   extruderAutoWidth,0
;   extruderWidth,0.35
;   extrusionMultiplier,0.95
;   extruderUseRetract,1
;   extruderRetractionDistance,4
;   extruderExtraRestartDistance,0
;   extruderRetractionZLift,0.1
;   extruderRetractionSpeed,6000
;   extruderUseCoasting,1
;   extruderCoastingDistance,0.4
;   extruderUseWipe,1
;   extruderWipeDistance,5
;   primaryExtruder,0
;   layerHeight,0.15
;   topSolidLayers,5
;   bottomSolidLayers,4
;   perimeterOutlines,3
;   printPerimetersInsideOut,0
;   startPointOption,1
;   startPointOriginX,0
;   startPointOriginY,300
;   sequentialIslands,0
;   spiralVaseMode,0
;   firstLayerHeightPercentage,120
;   firstLayerWidthPercentage,100
;   firstLayerUnderspeed,0.4
;   useRaft,0
;   raftExtruder,0
;   raftTopLayers,3
;   raftBaseLayers,2
;   raftOffset,3
;   raftSeparationDistance,0.14
;   raftTopInfill,100
;   aboveRaftSpeedMultiplier,0.3
;   useSkirt,0
;   skirtExtruder,0
;   skirtLayers,1
;   skirtOutlines,2
;   skirtOffset,3
;   usePrimePillar,0
;   primePillarExtruder,999
;   primePillarWidth,12
;   primePillarLocation,7
;   primePillarSpeedMultiplier,1
;   useOozeShield,0
;   oozeShieldExtruder,999
;   oozeShieldOffset,2
;   oozeShieldOutlines,1
;   oozeShieldSidewallShape,1
;   oozeShieldSidewallAngle,30
;   oozeShieldSpeedMultiplier,1
;   infillExtruder,0
;   internalInfillPattern,Rectilinear
;   externalInfillPattern,Rectilinear
;   infillPercentage,15
;   outlineOverlapPercentage,15
;   infillExtrusionWidthPercentage,100
;   minInfillLength,5
;   infillLayerInterval,1
;   internalInfillAngles,45,-45
;   overlapInternalInfillAngles,0
;   externalInfillAngles,45,-45
;   generateSupport,0
;   supportExtruder,0
;   supportInfillPercentage,30
;   supportExtraInflation,0
;   supportBaseLayers,0
;   denseSupportExtruder,0
;   denseSupportLayers,0
;   denseSupportInfillPercentage,70
;   supportLayerInterval,1
;   supportHorizontalPartOffset,0.4
;   supportUpperSeparationLayers,1
;   supportLowerSeparationLayers,1
;   supportType,0
;   supportGridSpacing,4.5
;   maxOverhangAngle,45
;   supportAngles,0
;   temperatureName,Primary Extruder,Heated Bed
;   temperatureNumber,0,0
;   temperatureSetpointCount,2,2
;   temperatureSetpointLayers,1,2,1,2
;   temperatureSetpointTemperatures,215,210,55,50
;   temperatureStabilizeAtStartup,1,1
;   temperatureHeatedBed,0,1
;   fanLayers,1,2
;   fanSpeeds,0,100
;   blipFanToFullPower,0
;   adjustSpeedForCooling,1
;   minSpeedLayerTime,15
;   minCoolingSpeedSlowdown,20
;   increaseFanForCooling,1
;   minFanLayerTime,25
;   maxCoolingFanSpeed,100
;   increaseFanForBridging,1
;   bridgingFanSpeed,100
;   use5D,1
;   relativeEdistances,0
;   allowEaxisZeroing,1
;   independentExtruderAxes,0
;   includeM10123,0
;   stickySupport,1
;   applyToolheadOffsets,0
;   gcodeXoffset,0
;   gcodeYoffset,0
;   gcodeZoffset,0
;   overrideMachineDefinition,1
;   machineTypeOverride,0
;   strokeXoverride,300
;   strokeYoverride,300
;   strokeZoverride,400
;   originOffsetXoverride,0
;   originOffsetYoverride,0
;   originOffsetZoverride,0
;   homeXdirOverride,-1
;   homeYdirOverride,-1
;   homeZdirOverride,-1
;   flipXoverride,1
;   flipYoverride,-1
;   flipZoverride,1
;   toolheadOffsets,0,0|0,0|0,0|0,0|0,0|0,0
;   overrideFirmwareConfiguration,1
;   firmwareTypeOverride,RepRap (Marlin/Repetier/Sprinter)
;   GPXconfigOverride,r2
;   baudRateOverride,250000
;   overridePrinterModels,1
;   printerModelsOverride
;   startingGcode,;,; -]H.P.B[- MarshMalloW  ,; $VER: StartScript 1.02 (26.12.2019) MarshMalloW,;,; Begin Startcode,;,M117 *Preheat*     	; Preheat,;extruder0_temperature,M104 S[extruder0_temperature]  ,M109 S[extruder0_temperature] ,M109 R[extruder0_temperature] ,;,M117 *Auto-leveling*     	; Auto-leveling,M107                   	; Turn layer fan off,G21                    	; Set to metric [change to G20 if you want Imperial],G90                    	; Force coordinates to be absolute relative to the origin,G28                    	; Home X/Y/Z axis,G29                    	; Auto-leveling (BL-Touch),;,M117 *Start Clean*     	; Indicate nozzle clean in progress on LCD,G92 E0                 	; Set Extruder to 0 ,G1 X0 Y0 F2000         	; Move X and Y to 0 with speed 2000 (mm/min),G1 Z0.1 F1000          	; Move Z to   0.1 with speed 1000 (mm/min),G1 X8.0 F2000          	; Move X to   8.0 with speed 2000 (mm/min),G1 Y60.0 E4.0 F1000.0  	; Move Y to  60 and Extruder with 4.0 with speed 1000 (mm/min),G1 Y100.0 E8.5 F1000.0 	; Move Y to 100 and Extruder with 8.5 with speed 1000 (mm/min),G92 E0                 	; Set extruder to 0,G1 X16.0 F3000         	; Move X to 16.0 with speed 3000 (mm/min),G1 Y60.0 F3000         	; Move Y to 60.0 with speed 3000 (mm/min),M117 *End Clean*       	; Indicate nozzle clean in progress on LCD,G1 Z5 F3000            	; Move Z to  5.0 with speed 3000 (mm/min),G1 X20.0 F3000         	; Move X to 20.0 with speed 3000 (mm/min),G1 Y20.0 F3000         	; Move Y to 20.0 with speed 3000 (mm/min),; ,M117 *Printing...*     	; Start printing msg on LCD,;,; End Startcode,;,; Begin printing with sliced GCode after here,;
;   layerChangeGcode,
;   retractionGcode,
;   toolChangeGcode,
;   endingGcode,;,; init 181010,;,;M107 			; Fan off,;G1 E-1 F300 			; Retract the filament a bit before lifting the nozzle,;M104 S0 			; Turn off extruder,;M140 S0 			; Turn off bed,;G91			; Relative positioning,;G28 X0 Y0 			; Move X/Y to min endstops so the head is out of teh way,;M84 			; Disable motors,;G90 			; Absolute positioning,;M117 Print ready...,,;,; // From Cura 181010,; // End_gcode,G92 E0			; Zero the extruded length,;G1 E-30 F300		; Retract E -30,M106 S0			; Turn off cooling fan,M104 S0			; Turn off temperature,M140 S0		     	; Turn off bed,G91			; Relative positioning,G1 E-1 F300			; Retract the filament a bit before lifting the nozzle to release some of the pressure,G1 Z+20 E-5 X-20 Y-20 F7200	; Move Z up a bit and retract filament even more,G1 X0 Y150 F10000		; Move right min,M107			; Turn off layer fan,M84			; Disable motors,G90			; Absolute positioning,M117 *The-End* 		; End msg,;,
;   exportFileFormat,gcode
;   celebration,0
;   celebrationSong,Star Wars
;   postProcessing,|{REPLACE "; layer " "M117 INDICATOR-Layer"}|{REPLACE ", Z = " "\n; Z="}
;   defaultSpeed,2400
;   outlineUnderspeed,0.6
;   solidInfillUnderspeed,0.8
;   supportUnderspeed,0.8
;   rapidXYspeed,3600
;   rapidZspeed,900
;   minBridgingArea,50
;   bridgingExtraInflation,0.2
;   bridgingExtrusionMultiplier,1
;   bridgingSpeedMultiplier,0.6
;   useFixedBridgingAngle,0
;   fixedBridgingAngle,0
;   applyBridgingToPerimeters,0
;   filamentDiameters,1.75|1.75|1.75|1.75|1.75|1.75
;   filamentPricesPerKg,30|46|46|46|46|46
;   filamentDensities,1.25|1.25|1.25|1.25|1.25|1.25
;   useMinPrintHeight,0
;   minPrintHeight,0
;   useMaxPrintHeight,0
;   maxPrintHeight,50
;   useDiaphragm,0
;   diaphragmLayerInterval,20
;   robustSlicing,1
;   mergeAllIntoSolid,0
;   onlyRetractWhenCrossingOutline,1
;   retractBetweenLayers,1
;   useRetractionMinTravel,0
;   retractionMinTravel,3
;   retractWhileWiping,1
;   onlyWipeOutlines,1
;   avoidCrossingOutline,1
;   maxMovementDetourFactor,3
;   toolChangeRetractionDistance,12
;   toolChangeExtraRestartDistance,-0.5
;   toolChangeRetractionSpeed,600
;   externalThinWallType,1
;   internalThinWallType,1
;   thinWallAllowedOverlapPercentage,20
;   singleExtrusionMinLength,1
;   singleExtrusionMinPrintingWidthPercentage,50
;   singleExtrusionMaxPrintingWidthPercentage,200
;   singleExtrusionEndpointExtension,0.2
;   horizontalSizeCompensation,0
G90
M82
M106 S0
M140 S55
M190 S55
;
; -]H.P.B[- MarshMalloW  
; $VER: StartScript 1.02 (26.12.2019) MarshMalloW
;
; Begin Startcode
;
M117 *Preheat*     	; Preheat
;extruder0_temperature
M104 S215  
M109 S215 
M109 R215 
;
M117 *Auto-leveling*     	; Auto-leveling
M107                   	; Turn layer fan off
G21                    	; Set to metric [change to G20 if you want Imperial]
G90                    	; Force coordinates to be absolute relative to the origin
G28                    	; Home X/Y/Z axis
G29                    	; Auto-leveling (BL-Touch)
;
M117 *Start Clean*     	; Indicate nozzle clean in progress on LCD
G92 E0                 	; Set Extruder to 0 
G1 X0 Y0 F2000         	; Move X and Y to 0 with speed 2000 (mm/min)
G1 Z0.1 F1000          	; Move Z to   0.1 with speed 1000 (mm/min)
G1 X8.0 F2000          	; Move X to   8.0 with speed 2000 (mm/min)
G1 Y60.0 E4.0 F1000.0  	; Move Y to  60 and Extruder with 4.0 with speed 1000 (mm/min)
G1 Y100.0 E8.5 F1000.0 	; Move Y to 100 and Extruder with 8.5 with speed 1000 (mm/min)
G92 E0                 	; Set extruder to 0
G1 X16.0 F3000         	; Move X to 16.0 with speed 3000 (mm/min)
G1 Y60.0 F3000         	; Move Y to 60.0 with speed 3000 (mm/min)
M117 *End Clean*       	; Indicate nozzle clean in progress on LCD
G1 Z5 F3000            	; Move Z to  5.0 with speed 3000 (mm/min)
G1 X20.0 F3000         	; Move X to 20.0 with speed 3000 (mm/min)
G1 Y20.0 F3000         	; Move Y to 20.0 with speed 3000 (mm/min)
; 
M117 *Printing...*     	; Start printing msg on LCD
;
; End Startcode
;
; Begin printing with sliced GCode after here
;
; process Process1
M117 INDICATOR-Layer1
; Z=0.180
T0
G92 E0.0000
G1 E-4.0000 F6000
; feature outer perimeter
; tool H0.180 W0.350
G1 Z0.180 F900
G1 X279.825 Y20.175 F3600
G1 E0.0000 F6000
G92 E0.0000
G1 X289.825 Y20.175 E0.2488 F576
G1 X289.825 Y279.825 E6.7096
G1 X279.825 Y279.825 E6.9585
G1 X279.825 Y289.825 E7.2073
G1 X20.175 Y289.825 E13.6681
G1 X20.175 Y279.825 E13.9169
G1 X10.175 Y279.825 E14.1657
G1 X10.175 Y20.175 E20.6265
G1 X20.175 Y20.175 E20.8754
G1 X20.175 Y10.175 E21.1242
G1 X279.825 Y10.175 E27.5850
G1 X279.825 Y19.775 E27.8239
G1 X279.825 Y20.175 F576
G1 X284.825 Y20.175 F576
; feature inner perimeter
G1 X289.475 Y20.525 F3600
G92 E0.0000
G1 X289.475 Y279.475 E6.4434 F768
G1 X279.475 Y279.475 E6.6922
G1 X279.475 Y289.475 E6.9410
G1 X20.525 Y289.475 E13.3844
G1 X20.525 Y279.475 E13.6333
G1 X10.525 Y279.475 E13.8821
G1 X10.525 Y20.525 E20.3255
G1 X20.525 Y20.525 E20.5743
G1 X20.525 Y10.525 E20.8231
G1 X279.475 Y10.525 E27.2665
G1 X279.475 Y20.525 E27.5153
G1 X289.075 Y20.525 E27.7542
G1 X289.475 Y20.525 F768
G1 X289.125 Y20.875 F3600
G92 E0.0000
G1 X289.125 Y279.125 E6.4260 F768
G1 X279.125 Y279.125 E6.6748
G1 X279.125 Y289.125 E6.9236
G1 X20.875 Y289.125 E13.3496
G1 X20.875 Y279.125 E13.5984
G1 X10.875 Y279.125 E13.8472
G1 X10.875 Y20.875 E20.2732
G1 X20.875 Y20.875 E20.5220
G1 X20.875 Y10.875 E20.7709
G1 X279.125 Y10.875 E27.1968
G1 X279.125 Y20.875 E27.4457
G1 X288.725 Y20.875 E27.6845
G1 X289.125 Y20.875 F768
; feature outer perimeter
G1 X285.175 Y24.825 F3600
G92 E0.0000
G1 X275.175 Y24.825 E0.2488 F576
G1 X275.175 Y14.825 E0.4977
G1 X24.825 Y14.825 E6.7270
G1 X24.825 Y24.825 E6.9759
G1 X14.825 Y24.825 E7.2247
G1 X14.825 Y275.175 E13.4541
G1 X24.825 Y275.175 E13.7029
G1 X24.825 Y285.175 E13.9518
G1 X275.175 Y285.175 E20.1811
G1 X275.175 Y275.175 E20.4300
G1 X285.175 Y275.175 E20.6788
G1 X285.175 Y25.225 E26.8982
G1 X285.175 Y24.825 F576
G1 X280.175 Y24.825 F576
; feature inner perimeter
G1 X275.525 Y24.475 F3600
G92 E0.0000
G1 X275.525 Y14.475 E0.2488 F768
G1 X24.475 Y14.475 E6.4956
G1 X24.475 Y24.475 E6.7445
G1 X14.475 Y24.475 E6.9933
G1 X14.475 Y275.525 E13.2401
G1 X24.475 Y275.525 E13.4889
G1 X24.475 Y285.525 E13.7378
G1 X275.525 Y285.525 E19.9846
G1 X275.525 Y275.525 E20.2334
G1 X285.525 Y275.525 E20.4822
G1 X285.525 Y24.475 E26.7290
G1 X275.925 Y24.475 E26.9679
G1 X275.525 Y24.475 F768
G1 X275.875 Y24.125 F3600
G92 E0.0000
G1 X275.875 Y14.125 E0.2488 F768
G1 X24.125 Y14.125 E6.5131
G1 X24.125 Y24.125 E6.7619
G1 X14.125 Y24.125 E7.0107
G1 X14.125 Y275.875 E13.2749
G1 X24.125 Y275.875 E13.5238
G1 X24.125 Y285.875 E13.7726
G1 X275.875 Y285.875 E20.0368
G1 X275.875 Y275.875 E20.2857
G1 X285.875 Y275.875 E20.5345
G1 X285.875 Y24.125 E26.7987
G1 X276.275 Y24.125 E27.0376
G1 X275.875 Y24.125 F768
; feature solid layer
G1 X276.265 Y23.828 F3600
G92 E0.0000
G1 X276.173 Y23.735 E0.0032 F768
G1 X276.173 Y23.240 E0.0156
G1 X276.760 Y23.828 E0.0362
G1 X277.255 Y23.828 E0.0485
G1 X276.173 Y22.745 E0.0866
G1 X276.173 Y22.250 E0.0989
G1 X277.750 Y23.828 E0.1544
G1 X278.245 Y23.828 E0.1667
G1 X276.173 Y21.755 E0.2397
G1 X276.173 Y21.260 E0.2520
G1 X278.740 Y23.828 E0.3423
G1 X279.234 Y23.828 E0.3546
G1 X276.173 Y20.766 E0.4624
G1 X276.173 Y20.271 E0.4747
G1 X279.729 Y23.828 E0.5999
G1 X280.224 Y23.828 E0.6122
G1 X276.173 Y19.776 E0.7548
G1 X276.173 Y19.281 E0.7671
G1 X280.719 Y23.828 E0.9271
G1 X281.214 Y23.828 E0.9394
G1 X276.455 Y19.068 E1.1069
G1 X276.173 Y18.786 F768
G1 X278.827 Y16.491 F3600
G92 E0.0000
G1 X276.173 Y13.836 E0.0934 F768
G1 X276.173 Y14.331 E0.1057
G1 X278.827 Y16.986 E0.1992
G1 X278.827 Y17.481 E0.2115
G1 X276.173 Y14.826 E0.3049
G1 X276.173 Y15.321 E0.3172
G1 X278.827 Y17.976 E0.4107
G1 X278.827 Y18.471 E0.4230
G1 X276.173 Y15.816 E0.5164
G1 X276.173 Y16.311 E0.5287
G1 X278.827 Y18.966 E0.6222
G1 X278.827 Y19.461 E0.6345
G1 X276.173 Y16.806 E0.7279
G1 X276.173 Y17.301 E0.7402
G1 X278.827 Y19.956 E0.8336
G1 X278.827 Y20.451 E0.8460
G1 X276.173 Y17.796 E0.9394
G1 X276.173 Y18.291 E0.9517
G1 X278.827 Y20.946 E1.0451
G1 X278.827 Y21.172 E1.0508
G1 X279.054 Y21.172 E1.0564
G1 X281.709 Y23.828 E1.1498
G1 X282.204 Y23.828 E1.1622
G1 X279.549 Y21.172 E1.2556
G1 X280.044 Y21.172 E1.2679
G1 X282.699 Y23.828 E1.3613
G1 X283.194 Y23.828 E1.3737
G1 X280.539 Y21.172 E1.4671
G1 X281.034 Y21.172 E1.4794
G1 X283.689 Y23.828 E1.5728
G1 X284.184 Y23.828 E1.5851
G1 X281.529 Y21.172 E1.6786
G1 X282.024 Y21.172 E1.6909
G1 X284.679 Y23.828 E1.7843
G1 X285.174 Y23.828 E1.7966
G1 X282.519 Y21.172 E1.8901
G1 X283.014 Y21.172 E1.9024
G1 X285.669 Y23.828 E1.9958
G1 X286.164 Y23.828 E2.0081
G1 X283.509 Y21.172 E2.1015
G1 X284.004 Y21.172 E2.1139
G1 X288.827 Y25.996 E2.2836
G1 X288.827 Y25.501 E2.2959
G1 X284.499 Y21.172 E2.4482
G1 X284.994 Y21.172 E2.4605
G1 X288.827 Y25.006 E2.5954
G1 X288.827 Y24.511 E2.6078
G1 X285.489 Y21.172 E2.7252
G1 X285.984 Y21.172 E2.7376
G1 X288.827 Y24.016 E2.8376
G1 X288.827 Y23.521 E2.8499
G1 X286.479 Y21.172 E2.9326
G1 X286.974 Y21.172 E2.9449
G1 X288.827 Y23.026 E3.0101
G1 X288.827 Y22.531 E3.0224
G1 X287.469 Y21.172 E3.0702
G1 X287.964 Y21.172 E3.0826
G1 X288.827 Y22.036 E3.1129
G1 X288.827 Y21.541 E3.1253
G1 X288.742 Y21.455 E3.1283
G1 X288.459 Y21.172 F768
G1 X286.173 Y23.836 F3600
G92 E0.0000
G1 X288.827 Y26.491 E0.0934 F768
G1 X288.827 Y26.986 E0.1057
G1 X286.173 Y24.331 E0.1992
G1 X286.173 Y24.826 E0.2115
G1 X288.827 Y27.481 E0.3049
G1 X288.827 Y27.976 E0.3172
G1 X286.173 Y25.321 E0.4107
G1 X286.173 Y25.816 E0.4230
G1 X288.827 Y28.471 E0.5164
G1 X288.827 Y28.966 E0.5287
G1 X286.173 Y26.311 E0.6222
G1 X286.173 Y26.806 E0.6345
G1 X288.827 Y29.461 E0.7279
G1 X288.827 Y29.956 E0.7402
G1 X286.173 Y27.301 E0.8336
G1 X286.173 Y27.796 E0.8460
G1 X288.827 Y30.451 E0.9394
G1 X288.827 Y30.946 E0.9517
G1 X286.173 Y28.291 E1.0451
G1 X286.173 Y28.786 E1.0574
G1 X288.827 Y31.441 E1.1509
G1 X288.827 Y31.936 E1.1632
G1 X286.173 Y29.281 E1.2566
G1 X286.173 Y29.776 E1.2689
G1 X288.827 Y32.431 E1.3624
G1 X288.827 Y32.926 E1.3747
G1 X286.173 Y30.271 E1.4681
G1 X286.173 Y30.766 E1.4804
G1 X288.827 Y33.421 E1.5739
G1 X288.827 Y33.915 E1.5862
G1 X286.173 Y31.260 E1.6796
G1 X286.173 Y31.755 E1.6919
G1 X288.827 Y34.410 E1.7853
G1 X288.827 Y34.905 E1.7977
G1 X286.173 Y32.250 E1.8911
G1 X286.173 Y32.745 E1.9034
G1 X288.827 Y35.400 E1.9968
G1 X288.827 Y35.895 E2.0091
G1 X286.173 Y33.240 E2.1026
G1 X286.173 Y33.735 E2.1149
G1 X288.827 Y36.390 E2.2083
G1 X288.827 Y36.885 E2.2206
