; G-Code generated by Simplify3D(R) Version 4.1.2
; Sep 22, 2022 at 3:31:32 PM
; Settings Summary
;   processName,Process1
;   applyToModels,Fixation-Top2
;   profileName,A11-04-35s Tevo Tornado
;   profileVersion,2022-06-13 07:21:54
;   baseProfile,Creality CR-10(2)
;   printMaterial,PLA
;   printQuality,Medium
;   printExtruders,
;   extruderName,Primary Extruder
;   extruderToolheadNumber,0
;   extruderDiameter,0.4
;   extruderAutoWidth,0
;   extruderWidth,0.35
;   extrusionMultiplier,0.95
;   extruderUseRetract,1
;   extruderRetractionDistance,4
;   extruderExtraRestartDistance,0
;   extruderRetractionZLift,0.1
;   extruderRetractionSpeed,6600
;   extruderUseCoasting,1
;   extruderCoastingDistance,0.6
;   extruderUseWipe,1
;   extruderWipeDistance,5
;   primaryExtruder,0
;   layerHeight,0.15
;   topSolidLayers,5
;   bottomSolidLayers,4
;   perimeterOutlines,3
;   printPerimetersInsideOut,0
;   startPointOption,1
;   startPointOriginX,0
;   startPointOriginY,300
;   sequentialIslands,0
;   spiralVaseMode,0
;   firstLayerHeightPercentage,120
;   firstLayerWidthPercentage,100
;   firstLayerUnderspeed,0.4
;   useRaft,0
;   raftExtruder,0
;   raftTopLayers,3
;   raftBaseLayers,2
;   raftOffset,3
;   raftSeparationDistance,0.14
;   raftTopInfill,100
;   aboveRaftSpeedMultiplier,0.3
;   useSkirt,1
;   skirtExtruder,0
;   skirtLayers,1
;   skirtOutlines,2
;   skirtOffset,3
;   usePrimePillar,0
;   primePillarExtruder,999
;   primePillarWidth,12
;   primePillarLocation,7
;   primePillarSpeedMultiplier,1
;   useOozeShield,0
;   oozeShieldExtruder,999
;   oozeShieldOffset,2
;   oozeShieldOutlines,1
;   oozeShieldSidewallShape,1
;   oozeShieldSidewallAngle,30
;   oozeShieldSpeedMultiplier,1
;   infillExtruder,0
;   internalInfillPattern,Rectilinear
;   externalInfillPattern,Rectilinear
;   infillPercentage,35
;   outlineOverlapPercentage,15
;   infillExtrusionWidthPercentage,100
;   minInfillLength,5
;   infillLayerInterval,1
;   internalInfillAngles,45,-45
;   overlapInternalInfillAngles,0
;   externalInfillAngles,45,-45
;   generateSupport,1
;   supportExtruder,0
;   supportInfillPercentage,30
;   supportExtraInflation,0
;   supportBaseLayers,0
;   denseSupportExtruder,0
;   denseSupportLayers,0
;   denseSupportInfillPercentage,70
;   supportLayerInterval,1
;   supportHorizontalPartOffset,0.4
;   supportUpperSeparationLayers,1
;   supportLowerSeparationLayers,1
;   supportType,0
;   supportGridSpacing,4.5
;   maxOverhangAngle,45
;   supportAngles,0
;   temperatureName,Primary Extruder,Heated Bed
;   temperatureNumber,0,0
;   temperatureSetpointCount,2,2
;   temperatureSetpointLayers,1,2,1,2
;   temperatureSetpointTemperatures,215,205,55,50
;   temperatureStabilizeAtStartup,1,1
;   temperatureHeatedBed,0,1
;   fanLayers,1,2
;   fanSpeeds,0,100
;   blipFanToFullPower,0
;   adjustSpeedForCooling,1
;   minSpeedLayerTime,15
;   minCoolingSpeedSlowdown,20
;   increaseFanForCooling,1
;   minFanLayerTime,25
;   maxCoolingFanSpeed,100
;   increaseFanForBridging,1
;   bridgingFanSpeed,100
;   use5D,1
;   relativeEdistances,0
;   allowEaxisZeroing,1
;   independentExtruderAxes,0
;   includeM10123,0
;   stickySupport,1
;   applyToolheadOffsets,0
;   gcodeXoffset,0
;   gcodeYoffset,0
;   gcodeZoffset,0
;   overrideMachineDefinition,1
;   machineTypeOverride,0
;   strokeXoverride,300
;   strokeYoverride,300
;   strokeZoverride,400
;   originOffsetXoverride,0
;   originOffsetYoverride,0
;   originOffsetZoverride,0
;   homeXdirOverride,-1
;   homeYdirOverride,-1
;   homeZdirOverride,-1
;   flipXoverride,1
;   flipYoverride,-1
;   flipZoverride,1
;   toolheadOffsets,0,0|0,0|0,0|0,0|0,0|0,0
;   overrideFirmwareConfiguration,1
;   firmwareTypeOverride,RepRap (Marlin/Repetier/Sprinter)
;   GPXconfigOverride,r2
;   baudRateOverride,250000
;   overridePrinterModels,1
;   printerModelsOverride
;   startingGcode,;,; -]H.P.B[- MarshMalloW  ,; $VER: StartScript 1.02 (26.12.2019) MarshMalloW,;,; Begin Startcode,;,M117 *Preheat*     	; Preheat,;extruder0_temperature,M104 S[extruder0_temperature]  ,M109 S[extruder0_temperature] ,M109 R[extruder0_temperature] ,;,M117 *Auto-leveling*     	; Auto-leveling,M107                   	; Turn layer fan off,G21                    	; Set to metric [change to G20 if you want Imperial],G90                    	; Force coordinates to be absolute relative to the origin,G28                    	; Home X/Y/Z axis,G29                    	; Auto-leveling (BL-Touch),;,M117 *Start Clean*     	; Indicate nozzle clean in progress on LCD,G92 E0                 	; Set Extruder to 0 ,G1 X0 Y0 F2000         	; Move X and Y to 0 with speed 2000 (mm/min),G1 Z0.1 F1000          	; Move Z to   0.1 with speed 1000 (mm/min),G1 X8.0 F2000          	; Move X to   8.0 with speed 2000 (mm/min),G1 Y60.0 E4.0 F1000.0  	; Move Y to  60 and Extruder with 4.0 with speed 1000 (mm/min),G1 Y100.0 E8.5 F1000.0 	; Move Y to 100 and Extruder with 8.5 with speed 1000 (mm/min),G92 E0                 	; Set extruder to 0,G1 X16.0 F3000         	; Move X to 16.0 with speed 3000 (mm/min),G1 Y60.0 F3000         	; Move Y to 60.0 with speed 3000 (mm/min),M117 *End Clean*       	; Indicate nozzle clean in progress on LCD,G1 Z5 F3000            	; Move Z to  5.0 with speed 3000 (mm/min),G1 X20.0 F3000         	; Move X to 20.0 with speed 3000 (mm/min),G1 Y20.0 F3000         	; Move Y to 20.0 with speed 3000 (mm/min),; ,M117 *Printing...*     	; Start printing msg on LCD,;,; End Startcode,;,; Begin printing with sliced GCode after here,;
;   layerChangeGcode,
;   retractionGcode,
;   toolChangeGcode,
;   endingGcode,;,; init 181010,;,;M107 			; Fan off,;G1 E-1 F300 			; Retract the filament a bit before lifting the nozzle,;M104 S0 			; Turn off extruder,;M140 S0 			; Turn off bed,;G91			; Relative positioning,;G28 X0 Y0 			; Move X/Y to min endstops so the head is out of teh way,;M84 			; Disable motors,;G90 			; Absolute positioning,;M117 Print ready...,,;,; // From Cura 181010,; // End_gcode,G92 E0			; Zero the extruded length,;G1 E-30 F300		; Retract E -30,M106 S0			; Turn off cooling fan,M104 S0			; Turn off temperature,M140 S0		     	; Turn off bed,G91			; Relative positioning,G1 E-1 F300			; Retract the filament a bit before lifting the nozzle to release some of the pressure,G1 Z+20 E-5 X-20 Y-20 F7200	; Move Z up a bit and retract filament even more,G1 X0 Y150 F10000		; Move right min,M107			; Turn off layer fan,M84			; Disable motors,G90			; Absolute positioning,M117 *The-End* 		; End msg,;,
;   exportFileFormat,gcode
;   celebration,0
;   celebrationSong,Star Wars
;   postProcessing,|{REPLACE "; layer " "M117 INDICATOR-Layer"}|{REPLACE ", Z = " "\n; Z="}
;   defaultSpeed,2400
;   outlineUnderspeed,0.6
;   solidInfillUnderspeed,0.8
;   supportUnderspeed,0.8
;   rapidXYspeed,3600
;   rapidZspeed,900
;   minBridgingArea,50
;   bridgingExtraInflation,0.2
;   bridgingExtrusionMultiplier,1
;   bridgingSpeedMultiplier,0.6
;   useFixedBridgingAngle,0
;   fixedBridgingAngle,0
;   applyBridgingToPerimeters,0
;   filamentDiameters,1.75|1.75|1.75|1.75|1.75|1.75
;   filamentPricesPerKg,30|46|46|46|46|46
;   filamentDensities,1.25|1.25|1.25|1.25|1.25|1.25
;   useMinPrintHeight,0
;   minPrintHeight,0
;   useMaxPrintHeight,0
;   maxPrintHeight,50
;   useDiaphragm,0
;   diaphragmLayerInterval,20
;   robustSlicing,1
;   mergeAllIntoSolid,0
;   onlyRetractWhenCrossingOutline,1
;   retractBetweenLayers,1
;   useRetractionMinTravel,0
;   retractionMinTravel,3
;   retractWhileWiping,1
;   onlyWipeOutlines,0
;   avoidCrossingOutline,1
;   maxMovementDetourFactor,3
;   toolChangeRetractionDistance,12
;   toolChangeExtraRestartDistance,-0.5
;   toolChangeRetractionSpeed,600
;   externalThinWallType,1
;   internalThinWallType,1
;   thinWallAllowedOverlapPercentage,20
;   singleExtrusionMinLength,1
;   singleExtrusionMinPrintingWidthPercentage,50
;   singleExtrusionMaxPrintingWidthPercentage,200
;   singleExtrusionEndpointExtension,0.2
;   horizontalSizeCompensation,0
G90
M82
M106 S102
M140 S55
M190 S55
;
; -]H.P.B[- MarshMalloW  
; $VER: StartScript 1.02 (26.12.2019) MarshMalloW
;
; Begin Startcode
;
M117 *Preheat*     	; Preheat
;extruder0_temperature
M104 S215  
M109 S215 
M109 R215 
;
M117 *Auto-leveling*     	; Auto-leveling
M107                   	; Turn layer fan off
G21                    	; Set to metric [change to G20 if you want Imperial]
G90                    	; Force coordinates to be absolute relative to the origin
G28                    	; Home X/Y/Z axis
G29                    	; Auto-leveling (BL-Touch)
;
M117 *Start Clean*     	; Indicate nozzle clean in progress on LCD
G92 E0                 	; Set Extruder to 0 
G1 X0 Y0 F2000         	; Move X and Y to 0 with speed 2000 (mm/min)
G1 Z0.1 F1000          	; Move Z to   0.1 with speed 1000 (mm/min)
G1 X8.0 F2000          	; Move X to   8.0 with speed 2000 (mm/min)
G1 Y60.0 E4.0 F1000.0  	; Move Y to  60 and Extruder with 4.0 with speed 1000 (mm/min)
G1 Y100.0 E8.5 F1000.0 	; Move Y to 100 and Extruder with 8.5 with speed 1000 (mm/min)
G92 E0                 	; Set extruder to 0
G1 X16.0 F3000         	; Move X to 16.0 with speed 3000 (mm/min)
G1 Y60.0 F3000         	; Move Y to 60.0 with speed 3000 (mm/min)
M117 *End Clean*       	; Indicate nozzle clean in progress on LCD
G1 Z5 F3000            	; Move Z to  5.0 with speed 3000 (mm/min)
G1 X20.0 F3000         	; Move X to 20.0 with speed 3000 (mm/min)
G1 Y20.0 F3000         	; Move Y to 20.0 with speed 3000 (mm/min)
; 
M117 *Printing...*     	; Start printing msg on LCD
;
; End Startcode
;
; Begin printing with sliced GCode after here
;
; process Process1
M117 INDICATOR-Layer1
; Z=0.180
T0
G92 E0.0000
G1 E-4.0000 F6600
; feature skirt
; tool H0.180 W0.350
G1 Z0.180 F900
G1 X130.429 Y76.166 F3600
G1 E0.0000 F6600
G92 E0.0000
G1 X131.078 Y76.291 E0.0165 F650
G1 X132.060 Y76.680 E0.0427
G1 X132.864 Y77.312 E0.0682
G1 X133.597 Y78.346 E0.0997
G1 X133.930 Y79.389 E0.1270
G1 X133.940 Y88.356 E0.3501
G1 X131.874 Y90.423 E0.4228
G1 X127.124 Y90.423 E0.5410
G1 X126.594 Y89.893 E0.5596
G1 X85.398 Y89.893 E1.5847
G1 X84.868 Y90.423 E1.6034
G1 X80.130 Y90.423 E1.7213
G1 X78.065 Y88.356 E1.7940
G1 X78.073 Y79.492 E2.0145
G1 X78.319 Y78.588 E2.0379
G1 X78.990 Y77.442 E2.0709
G1 X80.005 Y76.628 E2.1033
G1 X81.181 Y76.249 E2.1340
G1 X81.724 Y76.164 E2.1477
G1 X83.274 Y76.164 E2.1863
G1 X83.817 Y76.249 E2.1999
G1 X84.993 Y76.628 E2.2307
G1 X86.008 Y77.442 E2.2630
G1 X86.679 Y78.588 E2.2961
G1 X86.925 Y79.492 E2.3194
G1 X86.926 Y80.403 E2.3421
G1 X125.067 Y80.403 E3.2911
G1 X125.068 Y79.509 E3.3134
G1 X125.272 Y78.680 E3.3346
G1 X125.700 Y77.865 E3.3575
G1 X126.162 Y77.304 E3.3756
G1 X126.808 Y76.784 E3.3962
G1 X127.399 Y76.471 E3.4129
G1 X128.155 Y76.238 E3.4326
G1 X128.682 Y76.160 E3.4458
G1 X130.429 Y76.166 E3.4893
G92 E0.0000
G1 E-4.0000 F6600
G1 Z0.280 F900
G1 X83.247 Y76.514 F3600
G1 Z0.180 F900
G1 E0.0000 F6600
G92 E0.0000
G1 X83.736 Y76.591 E0.0123 F650
G1 X84.825 Y76.941 E0.0408
G1 X85.739 Y77.674 E0.0699
G1 X86.353 Y78.724 E0.1002
G1 X86.575 Y79.539 E0.1212
G1 X86.576 Y80.753 E0.1514
G1 X125.416 Y80.753 E1.1179
G1 X125.418 Y79.552 E1.1478
G1 X125.602 Y78.805 E1.1669
G1 X125.993 Y78.059 E1.1879
G1 X126.409 Y77.554 E1.2042
G1 X127.001 Y77.078 E1.2231
G1 X127.533 Y76.796 E1.2380
G1 X128.232 Y76.581 E1.2562
G1 X128.708 Y76.510 E1.2682
G1 X130.395 Y76.516 E1.3102
G1 X130.980 Y76.629 E1.3250
G1 X131.883 Y76.987 E1.3492
G1 X132.608 Y77.556 E1.3721
G1 X133.281 Y78.504 E1.4010
G1 X133.580 Y79.443 E1.4256
G1 X133.589 Y88.211 E1.6437
G1 X131.729 Y90.073 E1.7092
G1 X127.269 Y90.073 E1.8202
G1 X126.740 Y89.543 E1.8389
G1 X85.253 Y89.543 E2.8712
G1 X84.723 Y90.073 E2.8898
G1 X80.275 Y90.073 E3.0005
G1 X78.415 Y88.211 E3.0660
G1 X78.423 Y79.539 E3.2818
G1 X78.645 Y78.724 E3.3028
G1 X79.260 Y77.674 E3.3331
G1 X80.173 Y76.941 E3.3622
G1 X81.262 Y76.591 E3.3907
G1 X81.752 Y76.514 E3.4030
G1 X83.247 Y76.514 E3.4402
G92 E0.0000
G1 E-4.0000 F6600
; feature outer perimeter
G1 Z0.280 F900
G1 X83.232 Y86.723 F3600
G1 Z0.180 F900
G1 E0.0000 F6600
G92 E0.0000
G1 X81.766 Y86.723 E0.0365 F390
G1 X81.773 Y79.927 E0.2056
G1 X82.021 Y79.864 E0.2120
G1 X82.977 Y79.864 E0.2358
G1 X83.225 Y79.927 E0.2421
G1 X83.231 Y86.123 E0.3963
G1 X83.232 Y86.723 F390
G1 X81.766 Y86.723 F390
G1 X81.770 Y83.189
; feature inner perimeter
G1 X82.123 Y80.214 F3600
G92 E0.0000
G1 X82.876 Y80.214 E0.0187 F520
G1 X82.882 Y86.373 E0.1720
G1 X82.117 Y86.373 E0.1910
G1 X82.122 Y80.814 E0.3293
G1 X82.123 Y80.214 F520
G1 X82.876 Y80.214 F520
G1 X82.880 Y84.461
; feature internal single extrusion
; tool H0.180 W0.409
G1 X82.499 Y86.188 F3600
G92 E0.0000
G1 X82.499 Y80.999 E0.1509 F390
G1 X82.499 Y80.399 F390
G92 E0.0000
G1 X82.499 Y80.636 E-4.0000 F390
G1 X82.499 Y85.399 F390
; feature outer perimeter
; tool H0.180 W0.350
G1 Z0.280 F900
G1 X83.231 Y85.313 F3600
G1 X83.225 Y80.002
G1 X128.767 Y79.921
G1 Z0.180 F900
G1 E0.0000 F6600
G92 E0.0000
G1 X128.963 Y79.861 E0.0051 F390
G1 X130.064 Y79.865 E0.0325
G1 X130.124 Y79.880 E0.0340
G1 X130.231 Y79.939 E0.0371
G1 X130.238 Y86.723 E0.2059
G1 X128.760 Y86.723 E0.2427
G1 X128.767 Y80.521 E0.3970
G1 X128.767 Y79.921 F390
G1 X128.963 Y79.861 F390
G1 X130.064 Y79.865
G1 X130.124 Y79.880
G1 X130.231 Y79.939
G1 X130.235 Y83.449
; feature inner perimeter
G1 X129.888 Y86.373 F3600
G92 E0.0000
G1 X129.111 Y86.373 E0.0193 F520
G1 X129.117 Y80.211 E0.1727
G1 X129.881 Y80.214 E0.1917
G1 X129.887 Y85.773 E0.3300
G1 X129.888 Y86.373 F520
G1 X129.111 Y86.373 F520
G1 X129.115 Y82.150
; feature internal single extrusion
; tool H0.180 W0.421
G1 X129.499 Y80.399 F3600
G92 E0.0000
G1 X129.499 Y85.522 E0.1652 F390
G1 X129.499 Y85.918 F390
G1 X129.499 Y86.122
G92 E0.0000
G1 X129.499 Y85.918 E-3.4411 F390
G1 X129.499 Y85.885 E-4.0000
G1 X129.499 Y81.122 F390
; feature support
; tool H0.180 W0.350
G1 Z0.280 F900
G1 X128.765 Y82.321 F3600
G1 X128.760 Y86.723
G1 X127.034 Y85.148
G1 Z0.180 F900
G1 E0.0000 F6600
G92 E0.0000
G1 X84.834 Y85.148 E1.0500 F520
G1 X84.234 Y85.148 F520
G92 E0.0000
G1 X84.549 Y85.148 E-4.0000 F520
G1 X89.234 Y85.148 F520
M117 INDICATOR-Layer2
; Z=0.330
M106 S255
M140 S50
M104 S205 T0
; feature outer perimeter
; tool H0.150 W0.350
G1 Z0.330 F900
G1 X81.766 Y86.672 F3600
G1 X81.766 Y86.723
G1 X81.514 Y86.723
G1 E0.0000 F6600
G92 E0.0000
G1 X81.514 Y80.017 E0.1391 F435
G1 X81.535 Y79.923 E0.1411
G1 X81.571 Y79.849 E0.1428
G1 X81.664 Y79.774 E0.1452
G1 X81.805 Y79.709 E0.1485
G1 X82.009 Y79.686 E0.1527
G1 X82.989 Y79.686 E0.1730
G1 X83.194 Y79.709 E0.1773
G1 X83.339 Y79.776 E0.1806
G1 X83.407 Y79.825 E0.1824
G1 X83.465 Y79.928 E0.1848
G1 X83.484 Y80.017 E0.1867
G1 X83.484 Y86.723 E0.3258
G1 X82.114 Y86.723 E0.3542
G1 X81.514 Y86.723 F435
G1 X81.514 Y81.723 F435
; feature inner perimeter
G1 X81.864 Y80.055 F3600
G92 E0.0000
G1 X82.029 Y80.036 E0.0034 F580
G1 X82.969 Y80.036 E0.0229
G1 X83.134 Y80.055 E0.0264
G1 X83.134 Y86.373 E0.1574
G1 X81.864 Y86.373 E0.1838
G1 X81.864 Y80.655 E0.3023
G1 X81.864 Y80.055 F580
G1 X82.029 Y80.036 F580
G1 X82.969 Y80.036
G1 X83.134 Y80.055
G1 X83.134 Y83.782
G1 X82.784 Y86.023 F3600
G92 E0.0000
G1 X82.214 Y86.023 E0.0118 F580
G1 X82.214 Y80.386 E0.1287
G1 X82.784 Y80.386 E0.1406
G1 X82.784 Y85.423 E0.2450
G1 X82.784 Y86.023 F580
G92 E0.0000
G1 X82.433 Y86.023 E-4.0000 F580
G1 X82.214 Y86.023 F580
G1 X82.214 Y81.594
; feature outer perimeter
G1 Z0.430 F900
G1 X83.484 Y81.729 F3600
G1 X83.484 Y86.723
G1 X128.515 Y86.723
G1 X128.515 Y86.513
G1 X130.491 Y86.723
G1 Z0.330 F900
G1 E0.0000 F6600
G92 E0.0000
G1 X128.515 Y86.723 E0.0410 F435
G1 X128.507 Y80.008 E0.1802
G1 X128.514 Y79.954 E0.1813
G1 X128.544 Y79.877 E0.1831
G1 X128.613 Y79.798 E0.1852
G1 X128.690 Y79.748 E0.1871
G1 X128.828 Y79.701 E0.1902
G1 X129.008 Y79.683 E0.1939
G1 X129.989 Y79.683 E0.2142
G1 X130.190 Y79.706 E0.2184
G1 X130.314 Y79.751 E0.2212
G1 X130.404 Y79.816 E0.2235
G1 X130.465 Y79.900 E0.2256
G1 X130.489 Y79.991 E0.2276
G1 X130.491 Y86.123 E0.3547
G1 X130.491 Y86.723 F435
G1 X128.515 Y86.723 F435
G1 X128.512 Y83.699
; feature inner perimeter
