; G-Code generated by Simplify3D(R) Version 4.1.2
; Sep 21, 2022 at 4:27:04 PM
; Settings Summary
;   processName,Process1
;   applyToModels,Fixation-Up
;   profileName,A11-04-35s Tevo Tornado
;   profileVersion,2022-06-13 07:21:54
;   baseProfile,Creality CR-10(2)
;   printMaterial,PLA
;   printQuality,Medium
;   printExtruders,
;   extruderName,Primary Extruder
;   extruderToolheadNumber,0
;   extruderDiameter,0.4
;   extruderAutoWidth,0
;   extruderWidth,0.35
;   extrusionMultiplier,0.95
;   extruderUseRetract,1
;   extruderRetractionDistance,4
;   extruderExtraRestartDistance,0
;   extruderRetractionZLift,0.1
;   extruderRetractionSpeed,6600
;   extruderUseCoasting,1
;   extruderCoastingDistance,0.6
;   extruderUseWipe,1
;   extruderWipeDistance,5
;   primaryExtruder,0
;   layerHeight,0.15
;   topSolidLayers,5
;   bottomSolidLayers,4
;   perimeterOutlines,3
;   printPerimetersInsideOut,0
;   startPointOption,1
;   startPointOriginX,0
;   startPointOriginY,300
;   sequentialIslands,0
;   spiralVaseMode,0
;   firstLayerHeightPercentage,120
;   firstLayerWidthPercentage,100
;   firstLayerUnderspeed,0.4
;   useRaft,0
;   raftExtruder,0
;   raftTopLayers,3
;   raftBaseLayers,2
;   raftOffset,3
;   raftSeparationDistance,0.14
;   raftTopInfill,100
;   aboveRaftSpeedMultiplier,0.3
;   useSkirt,1
;   skirtExtruder,0
;   skirtLayers,1
;   skirtOutlines,2
;   skirtOffset,3
;   usePrimePillar,0
;   primePillarExtruder,999
;   primePillarWidth,12
;   primePillarLocation,7
;   primePillarSpeedMultiplier,1
;   useOozeShield,0
;   oozeShieldExtruder,999
;   oozeShieldOffset,2
;   oozeShieldOutlines,1
;   oozeShieldSidewallShape,1
;   oozeShieldSidewallAngle,30
;   oozeShieldSpeedMultiplier,1
;   infillExtruder,0
;   internalInfillPattern,Rectilinear
;   externalInfillPattern,Rectilinear
;   infillPercentage,35
;   outlineOverlapPercentage,15
;   infillExtrusionWidthPercentage,100
;   minInfillLength,5
;   infillLayerInterval,1
;   internalInfillAngles,45,-45
;   overlapInternalInfillAngles,0
;   externalInfillAngles,45,-45
;   generateSupport,1
;   supportExtruder,0
;   supportInfillPercentage,30
;   supportExtraInflation,0
;   supportBaseLayers,0
;   denseSupportExtruder,0
;   denseSupportLayers,0
;   denseSupportInfillPercentage,70
;   supportLayerInterval,1
;   supportHorizontalPartOffset,0.4
;   supportUpperSeparationLayers,1
;   supportLowerSeparationLayers,1
;   supportType,0
;   supportGridSpacing,4.5
;   maxOverhangAngle,45
;   supportAngles,0
;   temperatureName,Primary Extruder,Heated Bed
;   temperatureNumber,0,0
;   temperatureSetpointCount,2,2
;   temperatureSetpointLayers,1,2,1,2
;   temperatureSetpointTemperatures,215,205,55,50
;   temperatureStabilizeAtStartup,1,1
;   temperatureHeatedBed,0,1
;   fanLayers,1,2
;   fanSpeeds,0,100
;   blipFanToFullPower,0
;   adjustSpeedForCooling,1
;   minSpeedLayerTime,15
;   minCoolingSpeedSlowdown,20
;   increaseFanForCooling,1
;   minFanLayerTime,25
;   maxCoolingFanSpeed,100
;   increaseFanForBridging,1
;   bridgingFanSpeed,100
;   use5D,1
;   relativeEdistances,0
;   allowEaxisZeroing,1
;   independentExtruderAxes,0
;   includeM10123,0
;   stickySupport,1
;   applyToolheadOffsets,0
;   gcodeXoffset,0
;   gcodeYoffset,0
;   gcodeZoffset,0
;   overrideMachineDefinition,1
;   machineTypeOverride,0
;   strokeXoverride,300
;   strokeYoverride,300
;   strokeZoverride,400
;   originOffsetXoverride,0
;   originOffsetYoverride,0
;   originOffsetZoverride,0
;   homeXdirOverride,-1
;   homeYdirOverride,-1
;   homeZdirOverride,-1
;   flipXoverride,1
;   flipYoverride,-1
;   flipZoverride,1
;   toolheadOffsets,0,0|0,0|0,0|0,0|0,0|0,0
;   overrideFirmwareConfiguration,1
;   firmwareTypeOverride,RepRap (Marlin/Repetier/Sprinter)
;   GPXconfigOverride,r2
;   baudRateOverride,250000
;   overridePrinterModels,1
;   printerModelsOverride
;   startingGcode,;,; -]H.P.B[- MarshMalloW  ,; $VER: StartScript 1.02 (26.12.2019) MarshMalloW,;,; Begin Startcode,;,M117 *Preheat*     	; Preheat,;extruder0_temperature,M104 S[extruder0_temperature]  ,M109 S[extruder0_temperature] ,M109 R[extruder0_temperature] ,;,M117 *Auto-leveling*     	; Auto-leveling,M107                   	; Turn layer fan off,G21                    	; Set to metric [change to G20 if you want Imperial],G90                    	; Force coordinates to be absolute relative to the origin,G28                    	; Home X/Y/Z axis,G29                    	; Auto-leveling (BL-Touch),;,M117 *Start Clean*     	; Indicate nozzle clean in progress on LCD,G92 E0                 	; Set Extruder to 0 ,G1 X0 Y0 F2000         	; Move X and Y to 0 with speed 2000 (mm/min),G1 Z0.1 F1000          	; Move Z to   0.1 with speed 1000 (mm/min),G1 X8.0 F2000          	; Move X to   8.0 with speed 2000 (mm/min),G1 Y60.0 E4.0 F1000.0  	; Move Y to  60 and Extruder with 4.0 with speed 1000 (mm/min),G1 Y100.0 E8.5 F1000.0 	; Move Y to 100 and Extruder with 8.5 with speed 1000 (mm/min),G92 E0                 	; Set extruder to 0,G1 X16.0 F3000         	; Move X to 16.0 with speed 3000 (mm/min),G1 Y60.0 F3000         	; Move Y to 60.0 with speed 3000 (mm/min),M117 *End Clean*       	; Indicate nozzle clean in progress on LCD,G1 Z5 F3000            	; Move Z to  5.0 with speed 3000 (mm/min),G1 X20.0 F3000         	; Move X to 20.0 with speed 3000 (mm/min),G1 Y20.0 F3000         	; Move Y to 20.0 with speed 3000 (mm/min),; ,M117 *Printing...*     	; Start printing msg on LCD,;,; End Startcode,;,; Begin printing with sliced GCode after here,;
;   layerChangeGcode,
;   retractionGcode,
;   toolChangeGcode,
;   endingGcode,;,; init 181010,;,;M107 			; Fan off,;G1 E-1 F300 			; Retract the filament a bit before lifting the nozzle,;M104 S0 			; Turn off extruder,;M140 S0 			; Turn off bed,;G91			; Relative positioning,;G28 X0 Y0 			; Move X/Y to min endstops so the head is out of teh way,;M84 			; Disable motors,;G90 			; Absolute positioning,;M117 Print ready...,,;,; // From Cura 181010,; // End_gcode,G92 E0			; Zero the extruded length,;G1 E-30 F300		; Retract E -30,M106 S0			; Turn off cooling fan,M104 S0			; Turn off temperature,M140 S0		     	; Turn off bed,G91			; Relative positioning,G1 E-1 F300			; Retract the filament a bit before lifting the nozzle to release some of the pressure,G1 Z+20 E-5 X-20 Y-20 F7200	; Move Z up a bit and retract filament even more,G1 X0 Y150 F10000		; Move right min,M107			; Turn off layer fan,M84			; Disable motors,G90			; Absolute positioning,M117 *The-End* 		; End msg,;,
;   exportFileFormat,gcode
;   celebration,0
;   celebrationSong,Star Wars
;   postProcessing,|{REPLACE "; layer " "M117 INDICATOR-Layer"}|{REPLACE ", Z = " "\n; Z="}
;   defaultSpeed,2400
;   outlineUnderspeed,0.6
;   solidInfillUnderspeed,0.8
;   supportUnderspeed,0.8
;   rapidXYspeed,3600
;   rapidZspeed,900
;   minBridgingArea,50
;   bridgingExtraInflation,0.2
;   bridgingExtrusionMultiplier,1
;   bridgingSpeedMultiplier,0.6
;   useFixedBridgingAngle,0
;   fixedBridgingAngle,0
;   applyBridgingToPerimeters,0
;   filamentDiameters,1.75|1.75|1.75|1.75|1.75|1.75
;   filamentPricesPerKg,30|46|46|46|46|46
;   filamentDensities,1.25|1.25|1.25|1.25|1.25|1.25
;   useMinPrintHeight,0
;   minPrintHeight,0
;   useMaxPrintHeight,0
;   maxPrintHeight,50
;   useDiaphragm,0
;   diaphragmLayerInterval,20
;   robustSlicing,1
;   mergeAllIntoSolid,0
;   onlyRetractWhenCrossingOutline,1
;   retractBetweenLayers,1
;   useRetractionMinTravel,0
;   retractionMinTravel,3
;   retractWhileWiping,1
;   onlyWipeOutlines,0
;   avoidCrossingOutline,1
;   maxMovementDetourFactor,3
;   toolChangeRetractionDistance,12
;   toolChangeExtraRestartDistance,-0.5
;   toolChangeRetractionSpeed,600
;   externalThinWallType,1
;   internalThinWallType,1
;   thinWallAllowedOverlapPercentage,20
;   singleExtrusionMinLength,1
;   singleExtrusionMinPrintingWidthPercentage,50
;   singleExtrusionMaxPrintingWidthPercentage,200
;   singleExtrusionEndpointExtension,0.2
;   horizontalSizeCompensation,0
G90
M82
M106 S0
M140 S55
M190 S55
;
; -]H.P.B[- MarshMalloW  
; $VER: StartScript 1.02 (26.12.2019) MarshMalloW
;
; Begin Startcode
;
M117 *Preheat*     	; Preheat
;extruder0_temperature
M104 S215  
M109 S215 
M109 R215 
;
M117 *Auto-leveling*     	; Auto-leveling
M107                   	; Turn layer fan off
G21                    	; Set to metric [change to G20 if you want Imperial]
G90                    	; Force coordinates to be absolute relative to the origin
G28                    	; Home X/Y/Z axis
G29                    	; Auto-leveling (BL-Touch)
;
M117 *Start Clean*     	; Indicate nozzle clean in progress on LCD
G92 E0                 	; Set Extruder to 0 
G1 X0 Y0 F2000         	; Move X and Y to 0 with speed 2000 (mm/min)
G1 Z0.1 F1000          	; Move Z to   0.1 with speed 1000 (mm/min)
G1 X8.0 F2000          	; Move X to   8.0 with speed 2000 (mm/min)
G1 Y60.0 E4.0 F1000.0  	; Move Y to  60 and Extruder with 4.0 with speed 1000 (mm/min)
G1 Y100.0 E8.5 F1000.0 	; Move Y to 100 and Extruder with 8.5 with speed 1000 (mm/min)
G92 E0                 	; Set extruder to 0
G1 X16.0 F3000         	; Move X to 16.0 with speed 3000 (mm/min)
G1 Y60.0 F3000         	; Move Y to 60.0 with speed 3000 (mm/min)
M117 *End Clean*       	; Indicate nozzle clean in progress on LCD
G1 Z5 F3000            	; Move Z to  5.0 with speed 3000 (mm/min)
G1 X20.0 F3000         	; Move X to 20.0 with speed 3000 (mm/min)
G1 Y20.0 F3000         	; Move Y to 20.0 with speed 3000 (mm/min)
; 
M117 *Printing...*     	; Start printing msg on LCD
;
; End Startcode
;
; Begin printing with sliced GCode after here
;
; process Process1
M117 INDICATOR-Layer1
; Z=0.180
T0
G92 E0.0000
G1 E-4.0000 F6600
; feature skirt
; tool H0.180 W0.350
G1 Z0.180 F900
G1 X123.694 Y90.741 F3600
G1 E0.0000 F6600
G92 E0.0000
G1 X124.251 Y92.108 E0.0367 F960
G1 X124.367 Y92.546 E0.0480
G1 X124.436 Y93.065 E0.0611
G1 X124.451 Y93.295 E0.0668
G1 X124.451 Y101.670 E0.2752
G1 X122.386 Y103.735 E0.3478
G1 X117.205 Y103.735 E0.4768
G1 X116.985 Y103.955 E0.4845
G1 X74.865 Y103.955 E1.5325
G1 X74.645 Y103.735 E1.5403
G1 X69.464 Y103.735 E1.6692
G1 X67.399 Y101.668 E1.7419
G1 X67.408 Y93.016 E1.9572
G1 X67.503 Y92.445 E1.9716
G1 X68.045 Y90.858 E2.0133
G1 X69.885 Y89.542 E2.0696
G1 X76.900 Y89.542 E2.2442
G1 X78.672 Y90.720 E2.2971
G1 X79.232 Y92.050 E2.3330
G1 X79.350 Y92.471 E2.3439
G1 X79.430 Y93.000 E2.3572
G1 X79.450 Y93.264 E2.3638
G1 X79.450 Y93.965 E2.3813
G1 X112.406 Y93.965 E3.2013
G1 X112.407 Y93.031 E3.2245
G1 X112.498 Y92.471 E3.2387
G1 X113.032 Y90.872 E3.2806
G1 X114.878 Y89.542 E3.3372
G1 X121.910 Y89.542 E3.5122
G1 X123.694 Y90.741 E3.5657
G92 E0.0000
G1 E-4.0000 F6600
G1 Z0.280 F900
G1 X69.997 Y89.892 F3600
G1 Z0.180 F900
G1 E0.0000 F6600
G92 E0.0000
G1 X76.794 Y89.892 E0.1691 F960
G1 X78.391 Y90.953 E0.2168
G1 X78.901 Y92.166 E0.2496
G1 X79.007 Y92.545 E0.2594
G1 X79.082 Y93.039 E0.2718
G1 X79.100 Y93.277 E0.2778
G1 X79.100 Y94.315 E0.3036
G1 X112.756 Y94.315 E1.1410
G1 X112.757 Y93.060 E1.1723
G1 X112.839 Y92.555 E1.1850
G1 X113.329 Y91.090 E1.2234
G1 X114.991 Y89.892 E1.2744
G1 X121.803 Y89.892 E1.4439
G1 X123.410 Y90.972 E1.4921
G1 X123.919 Y92.219 E1.5256
G1 X124.023 Y92.614 E1.5358
G1 X124.087 Y93.100 E1.5479
G1 X124.101 Y93.307 E1.5531
G1 X124.101 Y101.525 E1.7576
G1 X122.241 Y103.385 E1.8231
G1 X117.060 Y103.385 E1.9520
G1 X116.840 Y103.605 E1.9597
G1 X75.010 Y103.605 E3.0005
G1 X74.790 Y103.385 E3.0083
G1 X69.609 Y103.385 E3.1372
G1 X67.749 Y101.523 E3.2027
G1 X67.758 Y93.046 E3.4136
G1 X67.844 Y92.531 E3.4266
G1 X68.340 Y91.078 E3.4648
G1 X69.997 Y89.892 E3.5155
G92 E0.0000
G1 E-4.0000 F6600
; feature outer perimeter
G1 Z0.280 F900
G1 X71.129 Y93.242 F3600
G1 X75.476 Y93.242
G1 X75.750 Y93.410
G1 Z0.180 F900
G1 E0.0000 F6600
G92 E0.0000
G1 X75.751 Y100.035 E0.1648 F576
G1 X71.101 Y100.035 E0.2805
G1 X71.108 Y93.242 E0.4496
G1 X75.295 Y93.242 E0.5538
G1 X75.725 Y93.242 F576
G1 X75.750 Y93.410
G1 X75.751 Y98.410 F576
; feature inner perimeter
G1 X75.401 Y99.685 F3600
G92 E0.0000
G1 X71.451 Y99.685 E0.0983 F768
G1 X71.458 Y93.592 E0.2499
G1 X75.400 Y93.592 E0.3480
G1 X75.401 Y99.085 E0.4847
G1 X75.401 Y99.685 F768
G1 X71.451 Y99.685 F768
G1 X71.452 Y98.635
G1 X71.801 Y99.335 F3600
G92 E0.0000
G1 X71.807 Y93.942 E0.1342 F768
G1 X75.050 Y93.942 E0.2149
G1 X75.051 Y99.335 E0.3491
G1 X72.401 Y99.335 E0.4150
G1 X71.801 Y99.335 F768
G1 X71.807 Y94.335 F768
; feature solid layer
G1 X74.401 Y94.240 F3600
G92 E0.0000
G1 X74.753 Y94.592 E0.0124 F768
G1 X74.753 Y95.087 E0.0247
G1 X73.906 Y94.240 E0.0545
G1 X73.411 Y94.240 E0.0668
G1 X74.753 Y95.582 E0.1140
G1 X74.753 Y96.077 E0.1264
G1 X72.916 Y94.240 E0.1910
G1 X72.421 Y94.240 E0.2033
G1 X74.753 Y96.572 E0.2854
G1 X74.753 Y97.067 E0.2977
G1 X72.104 Y94.418 E0.3909
G1 X72.104 Y94.912 E0.4032
G1 X74.753 Y97.562 E0.4964
G1 X74.753 Y98.057 E0.5088
G1 X72.103 Y95.407 E0.6020
G1 X72.103 Y95.901 E0.6143
G1 X74.753 Y98.552 E0.7076
G1 X74.753 Y99.038 E0.7197
G1 X74.744 Y99.038 E0.7199
G1 X72.102 Y96.396 E0.8129
G1 X72.102 Y96.890 E0.8252
G1 X74.249 Y99.038 E0.9007
G1 X73.754 Y99.038 E0.9131
G1 X72.101 Y97.384 E0.9712
G1 X72.101 Y97.879 E0.9835
G1 X73.259 Y99.038 E1.0243
G1 X72.764 Y99.038 E1.0366
G1 X72.100 Y98.373 E1.0600
G1 X72.100 Y98.508 E1.0634
G1 X72.099 Y98.868 F768
G1 X72.269 Y99.038
G92 E0.0000
G1 X72.099 Y98.868 E-2.0654 F768
G1 X72.100 Y98.643 E-4.0000
G1 X72.100 Y98.373 F768
G1 X72.764 Y99.038
G1 X73.259 Y99.038
G1 X72.101 Y97.879
G1 X72.101 Y97.384
G1 X72.594 Y97.878
; feature outer perimeter
G1 Z0.280 F900
G1 X75.751 Y97.574 F3600
G1 X75.750 Y93.410
G1 X116.107 Y93.339
G1 X116.106 Y93.687
G1 X120.727 Y93.242
G1 Z0.180 F900
G1 E0.0000 F6600
G92 E0.0000
G1 X120.751 Y93.422 E0.0045 F576
G1 X120.751 Y100.035 E0.1691
G1 X116.101 Y100.035 E0.2848
G1 X116.107 Y93.242 E0.4538
G1 X120.127 Y93.242 E0.5538
G1 X120.727 Y93.242 F576
G1 X120.751 Y93.422 F576
G1 X120.751 Y98.241
; feature inner perimeter
G1 X120.401 Y99.685 F3600
G92 E0.0000
G1 X116.451 Y99.685 E0.0983 F768
G1 X116.456 Y93.592 E0.2499
G1 X120.401 Y93.592 E0.3480
G1 X120.401 Y99.085 E0.4847
G1 X120.401 Y99.685 F768
G1 X116.451 Y99.685 F768
G1 X116.452 Y98.635
G1 X116.801 Y99.335 F3600
G92 E0.0000
G1 X116.806 Y93.942 E0.1342 F768
G1 X120.051 Y93.942 E0.2149
G1 X120.051 Y99.335 E0.3491
G1 X117.401 Y99.335 E0.4150
G1 X116.801 Y99.335 F768
G1 X116.806 Y94.335 F768
; feature solid layer
G1 X119.444 Y94.240 F3600
G92 E0.0000
G1 X119.753 Y94.549 E0.0109 F768
G1 X119.753 Y95.044 E0.0232
G1 X118.949 Y94.240 E0.0515
G1 X118.454 Y94.240 E0.0638
G1 X119.753 Y95.539 E0.1096
G1 X119.753 Y96.034 E0.1219
G1 X117.959 Y94.240 E0.1850
G1 X117.464 Y94.240 E0.1973
G1 X119.753 Y96.529 E0.2779
G1 X119.753 Y97.024 E0.2902
G1 X117.103 Y94.374 E0.3835
G1 X117.103 Y94.869 E0.3958
G1 X119.753 Y97.519 E0.4890
G1 X119.753 Y98.014 E0.5013
G1 X117.102 Y95.363 E0.5946
G1 X117.102 Y95.858 E0.6069
G1 X119.753 Y98.509 E0.7002
G1 X119.753 Y99.004 E0.7125
G1 X117.101 Y96.352 E0.8059
G1 X117.101 Y96.847 E0.8182
G1 X119.292 Y99.038 E0.8953
G1 X118.797 Y99.038 E0.9076
G1 X117.101 Y97.341 E0.9673
G1 X117.100 Y97.836 E0.9796
G1 X118.302 Y99.038 E1.0219
G1 X117.807 Y99.038 E1.0342
G1 X117.100 Y98.330 E1.0591
G1 X117.100 Y98.526 E1.0639
G1 X117.099 Y98.825 F768
G1 X117.312 Y99.038
G92 E0.0000
G1 X117.099 Y98.825 E-2.5867 F768
G1 X117.099 Y98.660 E-4.0000
G1 X117.100 Y98.330 F768
G1 X117.807 Y99.038
G1 X118.302 Y99.038
G1 X117.100 Y97.836
G1 X117.101 Y97.341
G1 X117.465 Y97.705
; feature support
G1 Z0.280 F900
G1 X116.101 Y99.260 F3600
G1 X116.101 Y100.035
G1 X115.341 Y100.127
G1 Z0.180 F900
G1 E0.0000 F6600
G92 E0.0000
G1 X76.511 Y100.127 E0.9662 F768
G1 X76.511 Y98.960 E0.9952
G1 X115.342 Y98.960 E1.9615
G1 X115.343 Y97.794 E1.9905
G1 X77.111 Y97.794 E2.9418
G1 X76.511 Y97.794 F768
G92 E0.0000
G1 X76.976 Y97.794 E-4.0000 F768
G1 X81.511 Y97.794 F768
M117 INDICATOR-Layer2
; Z=0.330
M106 S255
M140 S50
M104 S205 T0
; feature outer perimeter
; tool H0.150 W0.350
G1 Z0.330 F900
G1 X75.751 Y100.035 F3600
G1 X75.750 Y95.360
G1 X71.101 Y93.396
G1 E0.0000 F6600
G92 E0.0000
