; G-Code generated by Simplify3D(R) Version 4.1.2
; Sep 25, 2022 at 9:22:11 AM
; Settings Summary
;   processName,A11-04-35 Tevo Tornado
;   applyToModels,Fixation-Between,Fixation-Between(2),Fixation-Between(3),Fixation-Between(4)
;   profileName,A11-04-35 Tevo Tornado
;   profileVersion,2022-06-13 07:15:06
;   baseProfile,Creality CR-10(2)
;   printMaterial,PLA
;   printQuality,Medium
;   printExtruders,
;   extruderName,Primary Extruder
;   extruderToolheadNumber,0
;   extruderDiameter,0.4
;   extruderAutoWidth,0
;   extruderWidth,0.35
;   extrusionMultiplier,0.95
;   extruderUseRetract,1
;   extruderRetractionDistance,4
;   extruderExtraRestartDistance,0
;   extruderRetractionZLift,0.1
;   extruderRetractionSpeed,6600
;   extruderUseCoasting,1
;   extruderCoastingDistance,0.6
;   extruderUseWipe,1
;   extruderWipeDistance,5
;   primaryExtruder,0
;   layerHeight,0.15
;   topSolidLayers,5
;   bottomSolidLayers,4
;   perimeterOutlines,3
;   printPerimetersInsideOut,0
;   startPointOption,1
;   startPointOriginX,0
;   startPointOriginY,300
;   sequentialIslands,0
;   spiralVaseMode,0
;   firstLayerHeightPercentage,120
;   firstLayerWidthPercentage,100
;   firstLayerUnderspeed,0.4
;   useRaft,0
;   raftExtruder,0
;   raftTopLayers,3
;   raftBaseLayers,2
;   raftOffset,3
;   raftSeparationDistance,0.14
;   raftTopInfill,100
;   aboveRaftSpeedMultiplier,0.3
;   useSkirt,1
;   skirtExtruder,0
;   skirtLayers,1
;   skirtOutlines,2
;   skirtOffset,3
;   usePrimePillar,0
;   primePillarExtruder,999
;   primePillarWidth,12
;   primePillarLocation,7
;   primePillarSpeedMultiplier,1
;   useOozeShield,0
;   oozeShieldExtruder,999
;   oozeShieldOffset,2
;   oozeShieldOutlines,1
;   oozeShieldSidewallShape,1
;   oozeShieldSidewallAngle,30
;   oozeShieldSpeedMultiplier,1
;   infillExtruder,0
;   internalInfillPattern,Rectilinear
;   externalInfillPattern,Rectilinear
;   infillPercentage,35
;   outlineOverlapPercentage,15
;   infillExtrusionWidthPercentage,100
;   minInfillLength,5
;   infillLayerInterval,1
;   internalInfillAngles,45,-45
;   overlapInternalInfillAngles,0
;   externalInfillAngles,45,-45
;   generateSupport,0
;   supportExtruder,0
;   supportInfillPercentage,30
;   supportExtraInflation,0
;   supportBaseLayers,0
;   denseSupportExtruder,0
;   denseSupportLayers,0
;   denseSupportInfillPercentage,70
;   supportLayerInterval,1
;   supportHorizontalPartOffset,0.4
;   supportUpperSeparationLayers,1
;   supportLowerSeparationLayers,1
;   supportType,0
;   supportGridSpacing,4.5
;   maxOverhangAngle,45
;   supportAngles,0
;   temperatureName,Primary Extruder,Heated Bed
;   temperatureNumber,0,0
;   temperatureSetpointCount,2,2
;   temperatureSetpointLayers,1,2,1,2
;   temperatureSetpointTemperatures,215,205,55,50
;   temperatureStabilizeAtStartup,1,1
;   temperatureHeatedBed,0,1
;   fanLayers,1,2
;   fanSpeeds,0,100
;   blipFanToFullPower,0
;   adjustSpeedForCooling,1
;   minSpeedLayerTime,15
;   minCoolingSpeedSlowdown,20
;   increaseFanForCooling,1
;   minFanLayerTime,25
;   maxCoolingFanSpeed,100
;   increaseFanForBridging,1
;   bridgingFanSpeed,100
;   use5D,1
;   relativeEdistances,0
;   allowEaxisZeroing,1
;   independentExtruderAxes,0
;   includeM10123,0
;   stickySupport,1
;   applyToolheadOffsets,0
;   gcodeXoffset,0
;   gcodeYoffset,0
;   gcodeZoffset,0
;   overrideMachineDefinition,1
;   machineTypeOverride,0
;   strokeXoverride,300
;   strokeYoverride,300
;   strokeZoverride,400
;   originOffsetXoverride,0
;   originOffsetYoverride,0
;   originOffsetZoverride,0
;   homeXdirOverride,-1
;   homeYdirOverride,-1
;   homeZdirOverride,-1
;   flipXoverride,1
;   flipYoverride,-1
;   flipZoverride,1
;   toolheadOffsets,0,0|0,0|0,0|0,0|0,0|0,0
;   overrideFirmwareConfiguration,1
;   firmwareTypeOverride,RepRap (Marlin/Repetier/Sprinter)
;   GPXconfigOverride,r2
;   baudRateOverride,250000
;   overridePrinterModels,1
;   printerModelsOverride
;   startingGcode,;,; -]H.P.B[- MarshMalloW  ,; $VER: StartScript 1.02 (26.12.2019) MarshMalloW,;,; Begin Startcode,;,M117 *Preheat*     	; Preheat,;extruder0_temperature,M104 S[extruder0_temperature]  ,M109 S[extruder0_temperature] ,M109 R[extruder0_temperature] ,;,M117 *Auto-leveling*     	; Auto-leveling,M107                   	; Turn layer fan off,G21                    	; Set to metric [change to G20 if you want Imperial],G90                    	; Force coordinates to be absolute relative to the origin,G28                    	; Home X/Y/Z axis,G29                    	; Auto-leveling (BL-Touch),;,M117 *Start Clean*     	; Indicate nozzle clean in progress on LCD,G92 E0                 	; Set Extruder to 0 ,G1 X0 Y0 F2000         	; Move X and Y to 0 with speed 2000 (mm/min),G1 Z0.1 F1000          	; Move Z to   0.1 with speed 1000 (mm/min),G1 X8.0 F2000          	; Move X to   8.0 with speed 2000 (mm/min),G1 Y60.0 E4.0 F1000.0  	; Move Y to  60 and Extruder with 4.0 with speed 1000 (mm/min),G1 Y100.0 E8.5 F1000.0 	; Move Y to 100 and Extruder with 8.5 with speed 1000 (mm/min),G92 E0                 	; Set extruder to 0,G1 X16.0 F3000         	; Move X to 16.0 with speed 3000 (mm/min),G1 Y60.0 F3000         	; Move Y to 60.0 with speed 3000 (mm/min),M117 *End Clean*       	; Indicate nozzle clean in progress on LCD,G1 Z5 F3000            	; Move Z to  5.0 with speed 3000 (mm/min),G1 X20.0 F3000         	; Move X to 20.0 with speed 3000 (mm/min),G1 Y20.0 F3000         	; Move Y to 20.0 with speed 3000 (mm/min),; ,M117 *Printing...*     	; Start printing msg on LCD,;,; End Startcode,;,; Begin printing with sliced GCode after here,;
;   layerChangeGcode,
;   retractionGcode,
;   toolChangeGcode,
;   endingGcode,;,; init 181010,;,;M107 			; Fan off,;G1 E-1 F300 			; Retract the filament a bit before lifting the nozzle,;M104 S0 			; Turn off extruder,;M140 S0 			; Turn off bed,;G91			; Relative positioning,;G28 X0 Y0 			; Move X/Y to min endstops so the head is out of teh way,;M84 			; Disable motors,;G90 			; Absolute positioning,;M117 Print ready...,,;,; // From Cura 181010,; // End_gcode,G92 E0			; Zero the extruded length,;G1 E-30 F300		; Retract E -30,M106 S0			; Turn off cooling fan,M104 S0			; Turn off temperature,M140 S0		     	; Turn off bed,G91			; Relative positioning,G1 E-1 F300			; Retract the filament a bit before lifting the nozzle to release some of the pressure,G1 Z+20 E-5 X-20 Y-20 F7200	; Move Z up a bit and retract filament even more,G1 X0 Y150 F10000		; Move right min,M107			; Turn off layer fan,M84			; Disable motors,G90			; Absolute positioning,M117 *The-End* 		; End msg,;,
;   exportFileFormat,gcode
;   celebration,0
;   celebrationSong,Star Wars
;   postProcessing,|{REPLACE "; layer " "M117 INDICATOR-Layer"}|{REPLACE ", Z = " "\n; Z="}
;   defaultSpeed,2400
;   outlineUnderspeed,0.6
;   solidInfillUnderspeed,0.8
;   supportUnderspeed,0.8
;   rapidXYspeed,3600
;   rapidZspeed,900
;   minBridgingArea,50
;   bridgingExtraInflation,0.2
;   bridgingExtrusionMultiplier,1
;   bridgingSpeedMultiplier,0.6
;   useFixedBridgingAngle,0
;   fixedBridgingAngle,0
;   applyBridgingToPerimeters,0
;   filamentDiameters,1.75|1.75|1.75|1.75|1.75|1.75
;   filamentPricesPerKg,30|46|46|46|46|46
;   filamentDensities,1.25|1.25|1.25|1.25|1.25|1.25
;   useMinPrintHeight,0
;   minPrintHeight,0
;   useMaxPrintHeight,0
;   maxPrintHeight,50
;   useDiaphragm,0
;   diaphragmLayerInterval,20
;   robustSlicing,1
;   mergeAllIntoSolid,0
;   onlyRetractWhenCrossingOutline,1
;   retractBetweenLayers,1
;   useRetractionMinTravel,0
;   retractionMinTravel,3
;   retractWhileWiping,1
;   onlyWipeOutlines,0
;   avoidCrossingOutline,1
;   maxMovementDetourFactor,3
;   toolChangeRetractionDistance,12
;   toolChangeExtraRestartDistance,-0.5
;   toolChangeRetractionSpeed,600
;   externalThinWallType,1
;   internalThinWallType,1
;   thinWallAllowedOverlapPercentage,20
;   singleExtrusionMinLength,1
;   singleExtrusionMinPrintingWidthPercentage,50
;   singleExtrusionMaxPrintingWidthPercentage,200
;   singleExtrusionEndpointExtension,0.2
;   horizontalSizeCompensation,0
G90
M82
M106 S0
M140 S55
M190 S55
;
; -]H.P.B[- MarshMalloW  
; $VER: StartScript 1.02 (26.12.2019) MarshMalloW
;
; Begin Startcode
;
M117 *Preheat*     	; Preheat
;extruder0_temperature
M104 S215  
M109 S215 
M109 R215 
;
M117 *Auto-leveling*     	; Auto-leveling
M107                   	; Turn layer fan off
G21                    	; Set to metric [change to G20 if you want Imperial]
G90                    	; Force coordinates to be absolute relative to the origin
G28                    	; Home X/Y/Z axis
G29                    	; Auto-leveling (BL-Touch)
;
M117 *Start Clean*     	; Indicate nozzle clean in progress on LCD
G92 E0                 	; Set Extruder to 0 
G1 X0 Y0 F2000         	; Move X and Y to 0 with speed 2000 (mm/min)
G1 Z0.1 F1000          	; Move Z to   0.1 with speed 1000 (mm/min)
G1 X8.0 F2000          	; Move X to   8.0 with speed 2000 (mm/min)
G1 Y60.0 E4.0 F1000.0  	; Move Y to  60 and Extruder with 4.0 with speed 1000 (mm/min)
G1 Y100.0 E8.5 F1000.0 	; Move Y to 100 and Extruder with 8.5 with speed 1000 (mm/min)
G92 E0                 	; Set extruder to 0
G1 X16.0 F3000         	; Move X to 16.0 with speed 3000 (mm/min)
G1 Y60.0 F3000         	; Move Y to 60.0 with speed 3000 (mm/min)
M117 *End Clean*       	; Indicate nozzle clean in progress on LCD
G1 Z5 F3000            	; Move Z to  5.0 with speed 3000 (mm/min)
G1 X20.0 F3000         	; Move X to 20.0 with speed 3000 (mm/min)
G1 Y20.0 F3000         	; Move Y to 20.0 with speed 3000 (mm/min)
; 
M117 *Printing...*     	; Start printing msg on LCD
;
; End Startcode
;
; Begin printing with sliced GCode after here
;
; process A11-04-35 Tevo Tornado
M117 INDICATOR-Layer1
; Z=0.180
T0
G92 E0.0000
G1 E-4.0000 F6600
; feature skirt
; tool H0.180 W0.350
G1 Z0.180 F900
G1 X133.863 Y58.341 F3600
G1 E0.0000 F6600
G92 E0.0000
G1 X134.757 Y58.566 E0.0229 F960
G1 X135.640 Y59.138 E0.0491
G1 X136.238 Y59.898 E0.0732
G1 X136.502 Y60.390 E0.0871
G1 X136.710 Y61.028 E0.1038
G1 X136.789 Y61.525 E0.1163
G1 X136.789 Y63.454 E0.1643
G1 X136.693 Y64.001 E0.1781
G1 X136.334 Y64.987 E0.2042
G1 X135.793 Y65.722 E0.2269
G1 X135.166 Y66.199 E0.2465
G1 X134.744 Y66.429 E0.2585
G1 X134.102 Y66.663 E0.2755
G1 X133.555 Y66.759 E0.2893
G1 X132.653 Y66.759 E0.3118
G1 X132.653 Y82.183 E0.6955
G1 X133.787 Y82.214 E0.7238
G1 X134.520 Y82.414 E0.7427
G1 X135.544 Y82.978 E0.7718
G1 X136.293 Y83.853 E0.8004
G1 X136.694 Y84.954 E0.8296
G1 X136.791 Y85.509 E0.8436
G1 X136.781 Y87.652 E0.8969
G1 X136.554 Y88.472 E0.9181
G1 X135.882 Y89.599 E0.9508
G1 X134.876 Y90.353 E0.9820
G1 X133.875 Y90.610 E1.0077
G1 X133.478 Y90.660 E1.0177
G1 X125.163 Y90.660 E1.2246
G1 X123.303 Y88.800 E1.2901
G1 X123.303 Y60.152 E2.0029
G1 X125.163 Y58.292 E2.0683
G1 X133.474 Y58.292 E2.2752
G1 X133.863 Y58.341 E2.2849
G92 E0.0000
G1 E-4.0000 F6600
G1 Z0.280 F900
G1 X140.153 Y61.642 F3600
G1 X140.153 Y68.548
G1 X142.803 Y72.849
G1 X142.803 Y85.951
G1 X146.653 Y85.951
G1 X146.653 Y85.548
G1 X146.783 Y85.552
G1 X146.845 Y85.578
G1 X146.865 Y85.593
G1 X149.044 Y82.978
G1 Z0.180 F900
G1 E0.0000 F6600
G92 E0.0000
G1 X149.793 Y83.853 E0.0287 F960
G1 X150.194 Y84.954 E0.0578
G1 X150.291 Y85.509 E0.0718
G1 X150.281 Y87.652 E0.1252
G1 X150.054 Y88.472 E0.1463
G1 X149.382 Y89.599 E0.1790
G1 X148.376 Y90.353 E0.2103
G1 X147.375 Y90.610 E0.2360
G1 X146.978 Y90.660 E0.2459
G1 X138.663 Y90.660 E0.4528
G1 X136.803 Y88.800 E0.5183
G1 X136.803 Y60.152 E1.2311
G1 X138.663 Y58.292 E1.2966
G1 X146.974 Y58.292 E1.5034
G1 X147.363 Y58.341 E1.5132
G1 X148.257 Y58.566 E1.5361
G1 X149.140 Y59.138 E1.5623
G1 X149.738 Y59.898 E1.5863
G1 X150.002 Y60.390 E1.6002
G1 X150.210 Y61.028 E1.6169
G1 X150.289 Y61.525 E1.6294
G1 X150.289 Y63.454 E1.6774
G1 X150.193 Y64.001 E1.6913
G1 X149.834 Y64.987 E1.7174
G1 X149.293 Y65.722 E1.7401
G1 X148.666 Y66.199 E1.7597
G1 X148.244 Y66.429 E1.7716
G1 X147.602 Y66.663 E1.7886
G1 X147.055 Y66.759 E1.8025
G1 X146.153 Y66.759 E1.8249
G1 X146.153 Y82.183 E2.2087
G1 X147.287 Y82.214 E2.2369
G1 X148.020 Y82.414 E2.2558
G1 X149.044 Y82.978 E2.2849
G92 E0.0000
G1 E-4.0000 F6600
G1 Z0.280 F900
G1 X153.653 Y87.310 F3600
G1 X153.653 Y73.289
G1 X156.303 Y67.719
G1 X156.303 Y63.001
G1 X158.547 Y63.001
G1 X159.193 Y61.642
G1 X160.256 Y61.642
G1 X160.928 Y57.996
G1 Z0.180 F900
G1 E0.0000 F6600
G92 E0.0000
G1 X161.899 Y58.241 E0.0249 F960
G1 X162.879 Y58.876 E0.0540
G1 X163.532 Y59.705 E0.0802
G1 X163.609 Y59.850 E0.0843
G1 X165.518 Y57.942 E0.1515
G1 X173.996 Y57.942 E0.3624
G1 X174.428 Y57.996 E0.3733
G1 X175.399 Y58.241 E0.3982
G1 X176.379 Y58.876 E0.4272
G1 X177.032 Y59.705 E0.4535
G1 X177.325 Y60.252 E0.4690
G1 X177.552 Y60.946 E0.4871
G1 X177.639 Y61.497 E0.5010
G1 X177.639 Y63.485 E0.5505
G1 X177.532 Y64.092 E0.5658
G1 X177.146 Y65.154 E0.5939
G1 X176.545 Y65.970 E0.6191
G1 X175.857 Y66.494 E0.6407
G1 X175.389 Y66.749 E0.6539
G1 X174.693 Y67.002 E0.6723
G1 X174.086 Y67.109 E0.6877
G1 X173.503 Y67.109 E0.7022
G1 X173.503 Y81.842 E1.0688
G1 X174.338 Y81.865 E1.0896
G1 X175.152 Y82.087 E1.1106
G1 X176.268 Y82.702 E1.1423
G1 X177.100 Y83.674 E1.1741
G1 X177.533 Y84.864 E1.2056
G1 X177.641 Y85.479 E1.2212
G1 X177.631 Y87.700 E1.2764
G1 X177.378 Y88.611 E1.3000
G1 X176.647 Y89.838 E1.3355
G1 X175.530 Y90.674 E1.3702
G1 X174.441 Y90.954 E1.3982
G1 X174.000 Y91.010 E1.4093
G1 X165.518 Y91.010 E1.6203
G1 X163.594 Y89.087 E1.6880
G1 X163.147 Y89.838 E1.7098
G1 X162.030 Y90.674 E1.7445
G1 X160.941 Y90.954 E1.7725
G1 X160.500 Y91.010 E1.7835
G1 X152.018 Y91.010 E1.9946
G1 X150.094 Y89.087 E2.0623
G1 X149.647 Y89.838 E2.0840
G1 X148.530 Y90.674 E2.1187
G1 X147.441 Y90.954 E2.1467
G1 X147.000 Y91.010 E2.1578
G1 X138.518 Y91.010 E2.3688
G1 X136.594 Y89.087 E2.4365
G1 X136.147 Y89.838 E2.4583
G1 X135.030 Y90.674 E2.4930
G1 X133.941 Y90.954 E2.5210
G1 X133.500 Y91.010 E2.5320
G1 X125.018 Y91.010 E2.7431
G1 X122.953 Y88.945 E2.8157
G1 X122.953 Y60.007 E3.5358
G1 X125.018 Y57.942 E3.6085
G1 X133.496 Y57.942 E3.8194
G1 X133.928 Y57.996 E3.8303
G1 X134.899 Y58.241 E3.8552
G1 X135.879 Y58.876 E3.8842
G1 X136.532 Y59.705 E3.9105
G1 X136.609 Y59.850 E3.9146
G1 X138.518 Y57.942 E3.9817
G1 X146.996 Y57.942 E4.1927
G1 X147.428 Y57.996 E4.2035
G1 X148.399 Y58.241 E4.2285
G1 X149.379 Y58.876 E4.2575
G1 X150.032 Y59.705 E4.2838
G1 X150.109 Y59.850 E4.2879
G1 X152.018 Y57.942 E4.3550
G1 X160.496 Y57.942 E4.5660
G1 X160.928 Y57.996 E4.5768
G92 E0.0000
G1 E-4.0000 F6600
G1 Z0.280 F900
G1 X160.875 Y90.610 F3600
G1 Z0.180 F900
G1 E0.0000 F6600
G92 E0.0000
G1 X160.478 Y90.660 E0.0100 F960
G1 X152.163 Y90.660 E0.2169
G1 X150.303 Y88.800 E0.2823
G1 X150.303 Y60.152 E0.9952
G1 X152.163 Y58.292 E1.0606
G1 X160.474 Y58.292 E1.2674
G1 X160.863 Y58.341 E1.2772
G1 X161.757 Y58.566 E1.3001
G1 X162.640 Y59.138 E1.3263
G1 X163.238 Y59.898 E1.3503
G1 X163.502 Y60.390 E1.3643
G1 X163.710 Y61.028 E1.3810
G1 X163.789 Y61.525 E1.3935
G1 X163.789 Y63.454 E1.4415
G1 X163.693 Y64.001 E1.4553
G1 X163.334 Y64.987 E1.4814
G1 X162.793 Y65.722 E1.5041
G1 X162.166 Y66.199 E1.5237
G1 X161.744 Y66.429 E1.5357
G1 X161.102 Y66.663 E1.5527
G1 X160.555 Y66.759 E1.5665
G1 X159.653 Y66.759 E1.5889
G1 X159.653 Y82.183 E1.9727
G1 X160.787 Y82.214 E2.0010
G1 X161.520 Y82.414 E2.0199
G1 X162.544 Y82.978 E2.0489
G1 X163.293 Y83.853 E2.0776
G1 X163.694 Y84.954 E2.1068
G1 X163.791 Y85.509 E2.1208
G1 X163.781 Y87.652 E2.1741
G1 X163.554 Y88.472 E2.1953
G1 X162.882 Y89.599 E2.2279
G1 X161.876 Y90.353 E2.2592
G1 X160.875 Y90.610 E2.2849
G92 E0.0000
G1 E-4.0000 F6600
G1 Z0.280 F900
G1 X167.153 Y87.310 F3600
G1 X167.433 Y87.310
G1 X170.134 Y85.951
G1 X173.653 Y85.951
G1 X173.653 Y85.548
G1 X173.783 Y85.552
G1 X173.845 Y85.578
G1 X173.865 Y85.593
G1 X176.044 Y82.978
G1 Z0.180 F900
G1 E0.0000 F6600
G92 E0.0000
G1 X176.793 Y83.853 E0.0287 F960
G1 X177.194 Y84.954 E0.0578
G1 X177.291 Y85.509 E0.0718
G1 X177.281 Y87.652 E0.1252
G1 X177.054 Y88.472 E0.1463
G1 X176.382 Y89.599 E0.1790
G1 X175.376 Y90.352 E0.2103
G1 X174.375 Y90.610 E0.2360
G1 X173.978 Y90.660 E0.2459
