; G-Code generated by Simplify3D(R) Version 4.1.2
; Sep 21, 2022 at 4:24:30 PM
; Settings Summary
;   processName,Process1
;   applyToModels,Fixation-Between(2)
;   profileName,A11-04-35 Tevo Tornado
;   profileVersion,2022-06-13 07:15:06
;   baseProfile,Creality CR-10(2)
;   printMaterial,PLA
;   printQuality,Medium
;   printExtruders,
;   extruderName,Primary Extruder
;   extruderToolheadNumber,0
;   extruderDiameter,0.4
;   extruderAutoWidth,0
;   extruderWidth,0.35
;   extrusionMultiplier,0.95
;   extruderUseRetract,1
;   extruderRetractionDistance,4
;   extruderExtraRestartDistance,0
;   extruderRetractionZLift,0.1
;   extruderRetractionSpeed,6600
;   extruderUseCoasting,1
;   extruderCoastingDistance,0.6
;   extruderUseWipe,1
;   extruderWipeDistance,5
;   primaryExtruder,0
;   layerHeight,0.15
;   topSolidLayers,5
;   bottomSolidLayers,4
;   perimeterOutlines,3
;   printPerimetersInsideOut,0
;   startPointOption,1
;   startPointOriginX,0
;   startPointOriginY,300
;   sequentialIslands,0
;   spiralVaseMode,0
;   firstLayerHeightPercentage,120
;   firstLayerWidthPercentage,100
;   firstLayerUnderspeed,0.4
;   useRaft,0
;   raftExtruder,0
;   raftTopLayers,3
;   raftBaseLayers,2
;   raftOffset,3
;   raftSeparationDistance,0.14
;   raftTopInfill,100
;   aboveRaftSpeedMultiplier,0.3
;   useSkirt,1
;   skirtExtruder,0
;   skirtLayers,1
;   skirtOutlines,2
;   skirtOffset,3
;   usePrimePillar,0
;   primePillarExtruder,999
;   primePillarWidth,12
;   primePillarLocation,7
;   primePillarSpeedMultiplier,1
;   useOozeShield,0
;   oozeShieldExtruder,999
;   oozeShieldOffset,2
;   oozeShieldOutlines,1
;   oozeShieldSidewallShape,1
;   oozeShieldSidewallAngle,30
;   oozeShieldSpeedMultiplier,1
;   infillExtruder,0
;   internalInfillPattern,Rectilinear
;   externalInfillPattern,Rectilinear
;   infillPercentage,35
;   outlineOverlapPercentage,15
;   infillExtrusionWidthPercentage,100
;   minInfillLength,5
;   infillLayerInterval,1
;   internalInfillAngles,45,-45
;   overlapInternalInfillAngles,0
;   externalInfillAngles,45,-45
;   generateSupport,0
;   supportExtruder,0
;   supportInfillPercentage,30
;   supportExtraInflation,0
;   supportBaseLayers,0
;   denseSupportExtruder,0
;   denseSupportLayers,0
;   denseSupportInfillPercentage,70
;   supportLayerInterval,1
;   supportHorizontalPartOffset,0.4
;   supportUpperSeparationLayers,1
;   supportLowerSeparationLayers,1
;   supportType,0
;   supportGridSpacing,4.5
;   maxOverhangAngle,45
;   supportAngles,0
;   temperatureName,Primary Extruder,Heated Bed
;   temperatureNumber,0,0
;   temperatureSetpointCount,2,2
;   temperatureSetpointLayers,1,2,1,2
;   temperatureSetpointTemperatures,215,205,55,50
;   temperatureStabilizeAtStartup,1,1
;   temperatureHeatedBed,0,1
;   fanLayers,1,2
;   fanSpeeds,0,100
;   blipFanToFullPower,0
;   adjustSpeedForCooling,1
;   minSpeedLayerTime,15
;   minCoolingSpeedSlowdown,20
;   increaseFanForCooling,1
;   minFanLayerTime,25
;   maxCoolingFanSpeed,100
;   increaseFanForBridging,1
;   bridgingFanSpeed,100
;   use5D,1
;   relativeEdistances,0
;   allowEaxisZeroing,1
;   independentExtruderAxes,0
;   includeM10123,0
;   stickySupport,1
;   applyToolheadOffsets,0
;   gcodeXoffset,0
;   gcodeYoffset,0
;   gcodeZoffset,0
;   overrideMachineDefinition,1
;   machineTypeOverride,0
;   strokeXoverride,300
;   strokeYoverride,300
;   strokeZoverride,400
;   originOffsetXoverride,0
;   originOffsetYoverride,0
;   originOffsetZoverride,0
;   homeXdirOverride,-1
;   homeYdirOverride,-1
;   homeZdirOverride,-1
;   flipXoverride,1
;   flipYoverride,-1
;   flipZoverride,1
;   toolheadOffsets,0,0|0,0|0,0|0,0|0,0|0,0
;   overrideFirmwareConfiguration,1
;   firmwareTypeOverride,RepRap (Marlin/Repetier/Sprinter)
;   GPXconfigOverride,r2
;   baudRateOverride,250000
;   overridePrinterModels,1
;   printerModelsOverride
;   startingGcode,;,; -]H.P.B[- MarshMalloW  ,; $VER: StartScript 1.02 (26.12.2019) MarshMalloW,;,; Begin Startcode,;,M117 *Preheat*     	; Preheat,;extruder0_temperature,M104 S[extruder0_temperature]  ,M109 S[extruder0_temperature] ,M109 R[extruder0_temperature] ,;,M117 *Auto-leveling*     	; Auto-leveling,M107                   	; Turn layer fan off,G21                    	; Set to metric [change to G20 if you want Imperial],G90                    	; Force coordinates to be absolute relative to the origin,G28                    	; Home X/Y/Z axis,G29                    	; Auto-leveling (BL-Touch),;,M117 *Start Clean*     	; Indicate nozzle clean in progress on LCD,G92 E0                 	; Set Extruder to 0 ,G1 X0 Y0 F2000         	; Move X and Y to 0 with speed 2000 (mm/min),G1 Z0.1 F1000          	; Move Z to   0.1 with speed 1000 (mm/min),G1 X8.0 F2000          	; Move X to   8.0 with speed 2000 (mm/min),G1 Y60.0 E4.0 F1000.0  	; Move Y to  60 and Extruder with 4.0 with speed 1000 (mm/min),G1 Y100.0 E8.5 F1000.0 	; Move Y to 100 and Extruder with 8.5 with speed 1000 (mm/min),G92 E0                 	; Set extruder to 0,G1 X16.0 F3000         	; Move X to 16.0 with speed 3000 (mm/min),G1 Y60.0 F3000         	; Move Y to 60.0 with speed 3000 (mm/min),M117 *End Clean*       	; Indicate nozzle clean in progress on LCD,G1 Z5 F3000            	; Move Z to  5.0 with speed 3000 (mm/min),G1 X20.0 F3000         	; Move X to 20.0 with speed 3000 (mm/min),G1 Y20.0 F3000         	; Move Y to 20.0 with speed 3000 (mm/min),; ,M117 *Printing...*     	; Start printing msg on LCD,;,; End Startcode,;,; Begin printing with sliced GCode after here,;
;   layerChangeGcode,
;   retractionGcode,
;   toolChangeGcode,
;   endingGcode,;,; init 181010,;,;M107 			; Fan off,;G1 E-1 F300 			; Retract the filament a bit before lifting the nozzle,;M104 S0 			; Turn off extruder,;M140 S0 			; Turn off bed,;G91			; Relative positioning,;G28 X0 Y0 			; Move X/Y to min endstops so the head is out of teh way,;M84 			; Disable motors,;G90 			; Absolute positioning,;M117 Print ready...,,;,; // From Cura 181010,; // End_gcode,G92 E0			; Zero the extruded length,;G1 E-30 F300		; Retract E -30,M106 S0			; Turn off cooling fan,M104 S0			; Turn off temperature,M140 S0		     	; Turn off bed,G91			; Relative positioning,G1 E-1 F300			; Retract the filament a bit before lifting the nozzle to release some of the pressure,G1 Z+20 E-5 X-20 Y-20 F7200	; Move Z up a bit and retract filament even more,G1 X0 Y150 F10000		; Move right min,M107			; Turn off layer fan,M84			; Disable motors,G90			; Absolute positioning,M117 *The-End* 		; End msg,;,
;   exportFileFormat,gcode
;   celebration,0
;   celebrationSong,Star Wars
;   postProcessing,|{REPLACE "; layer " "M117 INDICATOR-Layer"}|{REPLACE ", Z = " "\n; Z="}
;   defaultSpeed,2400
;   outlineUnderspeed,0.6
;   solidInfillUnderspeed,0.8
;   supportUnderspeed,0.8
;   rapidXYspeed,3600
;   rapidZspeed,900
;   minBridgingArea,50
;   bridgingExtraInflation,0.2
;   bridgingExtrusionMultiplier,1
;   bridgingSpeedMultiplier,0.6
;   useFixedBridgingAngle,0
;   fixedBridgingAngle,0
;   applyBridgingToPerimeters,0
;   filamentDiameters,1.75|1.75|1.75|1.75|1.75|1.75
;   filamentPricesPerKg,30|46|46|46|46|46
;   filamentDensities,1.25|1.25|1.25|1.25|1.25|1.25
;   useMinPrintHeight,0
;   minPrintHeight,0
;   useMaxPrintHeight,0
;   maxPrintHeight,50
;   useDiaphragm,0
;   diaphragmLayerInterval,20
;   robustSlicing,1
;   mergeAllIntoSolid,0
;   onlyRetractWhenCrossingOutline,1
;   retractBetweenLayers,1
;   useRetractionMinTravel,0
;   retractionMinTravel,3
;   retractWhileWiping,1
;   onlyWipeOutlines,0
;   avoidCrossingOutline,1
;   maxMovementDetourFactor,3
;   toolChangeRetractionDistance,12
;   toolChangeExtraRestartDistance,-0.5
;   toolChangeRetractionSpeed,600
;   externalThinWallType,1
;   internalThinWallType,1
;   thinWallAllowedOverlapPercentage,20
;   singleExtrusionMinLength,1
;   singleExtrusionMinPrintingWidthPercentage,50
;   singleExtrusionMaxPrintingWidthPercentage,200
;   singleExtrusionEndpointExtension,0.2
;   horizontalSizeCompensation,0
G90
M82
M106 S16
M140 S55
M190 S55
;
; -]H.P.B[- MarshMalloW  
; $VER: StartScript 1.02 (26.12.2019) MarshMalloW
;
; Begin Startcode
;
M117 *Preheat*     	; Preheat
;extruder0_temperature
M104 S215  
M109 S215 
M109 R215 
;
M117 *Auto-leveling*     	; Auto-leveling
M107                   	; Turn layer fan off
G21                    	; Set to metric [change to G20 if you want Imperial]
G90                    	; Force coordinates to be absolute relative to the origin
G28                    	; Home X/Y/Z axis
G29                    	; Auto-leveling (BL-Touch)
;
M117 *Start Clean*     	; Indicate nozzle clean in progress on LCD
G92 E0                 	; Set Extruder to 0 
G1 X0 Y0 F2000         	; Move X and Y to 0 with speed 2000 (mm/min)
G1 Z0.1 F1000          	; Move Z to   0.1 with speed 1000 (mm/min)
G1 X8.0 F2000          	; Move X to   8.0 with speed 2000 (mm/min)
G1 Y60.0 E4.0 F1000.0  	; Move Y to  60 and Extruder with 4.0 with speed 1000 (mm/min)
G1 Y100.0 E8.5 F1000.0 	; Move Y to 100 and Extruder with 8.5 with speed 1000 (mm/min)
G92 E0                 	; Set extruder to 0
G1 X16.0 F3000         	; Move X to 16.0 with speed 3000 (mm/min)
G1 Y60.0 F3000         	; Move Y to 60.0 with speed 3000 (mm/min)
M117 *End Clean*       	; Indicate nozzle clean in progress on LCD
G1 Z5 F3000            	; Move Z to  5.0 with speed 3000 (mm/min)
G1 X20.0 F3000         	; Move X to 20.0 with speed 3000 (mm/min)
G1 Y20.0 F3000         	; Move Y to 20.0 with speed 3000 (mm/min)
; 
M117 *Printing...*     	; Start printing msg on LCD
;
; End Startcode
;
; Begin printing with sliced GCode after here
;
; process Process1
M117 INDICATOR-Layer1
; Z=0.180
T0
G92 E0.0000
G1 E-4.0000 F6600
; feature skirt
; tool H0.180 W0.350
G1 Z0.180 F900
G1 X84.718 Y29.866 F3600
G1 E0.0000 F6600
G92 E0.0000
G1 X85.688 Y30.111 E0.0249 F960
G1 X86.668 Y30.746 E0.0540
G1 X87.322 Y31.575 E0.0802
G1 X87.615 Y32.123 E0.0957
G1 X87.841 Y32.816 E0.1138
G1 X87.929 Y33.367 E0.1277
G1 X87.929 Y35.355 E0.1772
G1 X87.822 Y35.963 E0.1925
G1 X87.436 Y37.024 E0.2206
G1 X86.835 Y37.840 E0.2458
G1 X86.147 Y38.364 E0.2674
G1 X85.679 Y38.619 E0.2806
G1 X84.983 Y38.873 E0.2991
G1 X84.376 Y38.980 E0.3144
G1 X83.793 Y38.980 E0.3289
G1 X83.793 Y53.713 E0.6955
G1 X84.628 Y53.736 E0.7163
G1 X85.442 Y53.957 E0.7373
G1 X86.558 Y54.572 E0.7690
G1 X87.390 Y55.544 E0.8008
G1 X87.823 Y56.734 E0.8324
G1 X87.930 Y57.349 E0.8479
G1 X87.921 Y59.570 E0.9032
G1 X87.668 Y60.481 E0.9267
G1 X86.937 Y61.708 E0.9622
G1 X85.820 Y62.544 E0.9969
G1 X84.731 Y62.825 E1.0249
G1 X84.290 Y62.880 E1.0360
G1 X75.807 Y62.880 E1.2471
G1 X73.743 Y60.816 E1.3197
G1 X73.743 Y31.877 E2.0398
G1 X75.807 Y29.812 E2.1124
G1 X84.285 Y29.812 E2.3234
G1 X84.718 Y29.866 E2.3342
G92 E0.0000
G1 E-4.0000 F6600
G1 Z0.280 F900
G1 X86.333 Y54.848 F3600
G1 Z0.180 F900
G1 E0.0000 F6600
G92 E0.0000
G1 X87.083 Y55.723 E0.0287 F960
G1 X87.484 Y56.825 E0.0578
G1 X87.580 Y57.379 E0.0718
G1 X87.571 Y59.522 E0.1252
G1 X87.343 Y60.342 E0.1463
G1 X86.672 Y61.469 E0.1790
G1 X85.665 Y62.223 E0.2103
G1 X84.665 Y62.480 E0.2360
G1 X84.268 Y62.530 E0.2459
G1 X75.952 Y62.530 E0.4528
G1 X74.093 Y60.671 E0.5183
G1 X74.093 Y32.022 E1.2311
G1 X75.952 Y30.162 E1.2966
G1 X84.264 Y30.162 E1.5034
G1 X84.653 Y30.211 E1.5132
G1 X85.547 Y30.436 E1.5361
G1 X86.429 Y31.008 E1.5623
G1 X87.028 Y31.768 E1.5863
G1 X87.291 Y32.261 E1.6002
G1 X87.500 Y32.899 E1.6169
G1 X87.579 Y33.395 E1.6294
G1 X87.579 Y35.324 E1.6774
G1 X87.483 Y35.872 E1.6913
G1 X87.124 Y36.857 E1.7174
G1 X86.583 Y37.592 E1.7401
G1 X85.956 Y38.069 E1.7597
G1 X85.534 Y38.299 E1.7716
G1 X84.892 Y38.533 E1.7886
G1 X84.345 Y38.630 E1.8025
G1 X83.443 Y38.630 E1.8249
G1 X83.443 Y54.053 E2.2087
G1 X84.577 Y54.084 E2.2369
G1 X85.309 Y54.284 E2.2558
G1 X86.333 Y54.848 E2.2849
G92 E0.0000
G1 E-4.0000 F6600
; feature outer perimeter
G1 Z0.280 F900
G1 X84.188 Y35.188 F3600
G1 Z0.180 F900
G1 E0.0000 F6600
G92 E0.0000
G1 X83.943 Y35.157 E0.0062 F576
G1 X83.943 Y34.871 E0.0133
G1 X80.093 Y34.871 E0.1091
G1 X80.093 Y57.821 E0.6801
G1 X83.943 Y57.821 E0.7759
G1 X83.943 Y57.536 E0.7830
G1 X84.188 Y57.505 E0.7892
G1 X84.229 Y57.668 E0.7934
G1 X84.223 Y59.050 E0.8278
G1 X84.206 Y59.094 E0.8289
G1 X84.163 Y59.150 E0.8307
G1 X84.045 Y59.180 E0.8337
G1 X77.443 Y59.180 E0.9980
G1 X77.443 Y33.512 E1.6367
G1 X84.046 Y33.512 E1.8010
G1 X84.188 Y33.548 E1.8047
G1 X84.229 Y33.674 E1.8080
G1 X84.229 Y34.593 E1.8308
G1 X84.229 Y35.025 F576
G1 X84.188 Y35.188
G1 X83.943 Y35.157 F576
G1 X83.943 Y34.871
G1 X80.093 Y34.871
G1 X80.093 Y35.488
; feature inner perimeter
G1 X79.743 Y34.521 F3600
G92 E0.0000
G1 X79.743 Y58.171 E0.5885 F768
G1 X83.877 Y58.171 E0.6914
G1 X83.874 Y58.830 E0.7077
G1 X77.793 Y58.830 E0.8591
G1 X77.793 Y33.862 E1.4803
G1 X83.879 Y33.862 E1.6318
G1 X83.879 Y34.521 E1.6482
G1 X80.343 Y34.521 E1.7362
G1 X79.743 Y34.521 F768
G1 X79.743 Y39.521 F768
G1 X79.393 Y34.212 F3600
G92 E0.0000
G1 X79.393 Y58.480 E0.6039 F768
G1 X78.143 Y58.480 E0.6350
G1 X78.143 Y34.212 E1.2388
G1 X78.793 Y34.212 E1.2550
G1 X79.393 Y34.212 F768
G1 X79.393 Y39.212 F768
; feature internal single extrusion
; tool H0.180 W0.309
G1 X79.578 Y34.192 F3600
G92 E0.0000
G1 X83.098 Y34.192 E0.0773 F576
G1 X83.698 Y34.192 F576
G1 X83.697 Y34.871 F3600
G1 X80.093 Y34.871
G1 X80.093 Y57.821
G1 X83.695 Y57.821
G1 X83.695 Y58.501
G92 E0.0000
G1 X83.490 Y58.501 E0.0050 F576
G1 X80.178 Y58.501 E0.0860
G1 X79.781 Y58.501 F576
G1 X79.578 Y58.501
; feature solid layer
; tool H0.180 W0.350
G1 X78.440 Y58.123 F3600
G92 E0.0000
G1 X78.500 Y58.183 E0.0021 F768
G1 X78.995 Y58.183 E0.0144
G1 X78.440 Y57.628 E0.0339
G1 X78.440 Y57.133 E0.0463
G1 X79.095 Y57.788 E0.0693
G1 X79.095 Y57.293 E0.0816
G1 X78.440 Y56.638 E0.1047
G1 X78.440 Y56.143 E0.1170
G1 X79.095 Y56.798 E0.1400
G1 X79.095 Y56.303 E0.1524
G1 X78.440 Y55.648 E0.1754
G1 X78.440 Y55.153 E0.1877
G1 X79.095 Y55.808 E0.2108
G1 X79.095 Y55.313 E0.2231
G1 X78.440 Y54.658 E0.2461
G1 X78.440 Y54.163 E0.2584
G1 X79.095 Y54.818 E0.2815
G1 X79.095 Y54.323 E0.2938
G1 X78.440 Y53.668 E0.3169
G1 X78.440 Y53.173 E0.3292
G1 X79.095 Y53.828 E0.3522
G1 X79.095 Y53.333 E0.3645
G1 X78.440 Y52.678 E0.3876
G1 X78.440 Y52.184 E0.3999
G1 X79.095 Y52.839 E0.4230
G1 X79.095 Y52.344 E0.4353
G1 X78.440 Y51.689 E0.4583
G1 X78.440 Y51.194 E0.4706
G1 X79.095 Y51.849 E0.4937
G1 X79.095 Y51.354 E0.5060
G1 X78.440 Y50.699 E0.5291
G1 X78.440 Y50.204 E0.5414
G1 X79.095 Y50.859 E0.5644
G1 X79.095 Y50.364 E0.5767
G1 X78.440 Y49.709 E0.5998
G1 X78.440 Y49.214 E0.6121
G1 X79.095 Y49.869 E0.6352
G1 X79.095 Y49.374 E0.6475
G1 X78.440 Y48.719 E0.6705
G1 X78.440 Y48.224 E0.6828
G1 X79.095 Y48.879 E0.7059
G1 X79.095 Y48.384 E0.7182
G1 X78.440 Y47.729 E0.7412
G1 X78.440 Y47.234 E0.7536
G1 X79.095 Y47.889 E0.7766
G1 X79.095 Y47.394 E0.7889
G1 X78.440 Y46.739 E0.8120
G1 X78.440 Y46.244 E0.8243
G1 X79.095 Y46.899 E0.8473
G1 X79.095 Y46.404 E0.8597
G1 X78.440 Y45.749 E0.8827
G1 X78.440 Y45.254 E0.8950
G1 X79.095 Y45.909 E0.9181
G1 X79.095 Y45.414 E0.9304
G1 X78.440 Y44.759 E0.9534
G1 X78.440 Y44.264 E0.9658
G1 X79.095 Y44.919 E0.9888
G1 X79.095 Y44.424 E1.0011
G1 X78.440 Y43.769 E1.0242
G1 X78.440 Y43.274 E1.0365
G1 X79.095 Y43.929 E1.0595
G1 X79.095 Y43.434 E1.0719
G1 X78.440 Y42.779 E1.0949
G1 X78.440 Y42.284 E1.1072
G1 X79.095 Y42.939 E1.1303
G1 X79.095 Y42.444 E1.1426
G1 X78.440 Y41.789 E1.1656
G1 X78.440 Y41.294 E1.1780
G1 X79.095 Y41.949 E1.2010
G1 X79.095 Y41.454 E1.2133
G1 X78.440 Y40.799 E1.2364
G1 X78.440 Y40.304 E1.2487
G1 X79.095 Y40.959 E1.2717
G1 X79.095 Y40.464 E1.2840
G1 X78.440 Y39.809 E1.3071
G1 X78.440 Y39.314 E1.3194
G1 X79.095 Y39.969 E1.3425
G1 X79.095 Y39.474 E1.3548
G1 X78.440 Y38.819 E1.3778
G1 X78.440 Y38.324 E1.3901
G1 X79.095 Y38.979 E1.4132
G1 X79.095 Y38.484 E1.4255
G1 X78.440 Y37.829 E1.4486
G1 X78.440 Y37.334 E1.4609
G1 X79.095 Y37.989 E1.4839
G1 X79.095 Y37.494 E1.4962
G1 X78.440 Y36.839 E1.5193
G1 X78.440 Y36.344 E1.5316
G1 X79.095 Y36.999 E1.5547
G1 X79.095 Y36.504 E1.5670
G1 X78.440 Y35.849 E1.5900
G1 X78.440 Y35.354 E1.6023
G1 X79.095 Y36.009 E1.6254
