; G-Code generated by Simplify3D(R) Version 4.1.2
; Sep 20, 2022 at 12:26:26 PM
; Settings Summary
;   processName,Process1
;   applyToModels,p4
;   profileName,A11-04-10 Tevo Tornado
;   profileVersion,2022-06-10 08:12:42
;   baseProfile,Creality CR-10(2)
;   printMaterial,PLA
;   printQuality,Medium
;   printExtruders,
;   extruderName,Primary Extruder
;   extruderToolheadNumber,0
;   extruderDiameter,0.4
;   extruderAutoWidth,0
;   extruderWidth,0.35
;   extrusionMultiplier,0.95
;   extruderUseRetract,1
;   extruderRetractionDistance,4
;   extruderExtraRestartDistance,0
;   extruderRetractionZLift,0.1
;   extruderRetractionSpeed,6000
;   extruderUseCoasting,1
;   extruderCoastingDistance,0.6
;   extruderUseWipe,1
;   extruderWipeDistance,5
;   primaryExtruder,0
;   layerHeight,0.15
;   topSolidLayers,5
;   bottomSolidLayers,4
;   perimeterOutlines,3
;   printPerimetersInsideOut,0
;   startPointOption,1
;   startPointOriginX,0
;   startPointOriginY,300
;   sequentialIslands,0
;   spiralVaseMode,0
;   firstLayerHeightPercentage,120
;   firstLayerWidthPercentage,100
;   firstLayerUnderspeed,0.4
;   useRaft,0
;   raftExtruder,0
;   raftTopLayers,3
;   raftBaseLayers,2
;   raftOffset,3
;   raftSeparationDistance,0.14
;   raftTopInfill,100
;   aboveRaftSpeedMultiplier,0.3
;   useSkirt,1
;   skirtExtruder,0
;   skirtLayers,1
;   skirtOutlines,2
;   skirtOffset,3
;   usePrimePillar,0
;   primePillarExtruder,999
;   primePillarWidth,12
;   primePillarLocation,7
;   primePillarSpeedMultiplier,1
;   useOozeShield,0
;   oozeShieldExtruder,999
;   oozeShieldOffset,2
;   oozeShieldOutlines,1
;   oozeShieldSidewallShape,1
;   oozeShieldSidewallAngle,30
;   oozeShieldSpeedMultiplier,1
;   infillExtruder,0
;   internalInfillPattern,Rectilinear
;   externalInfillPattern,Rectilinear
;   infillPercentage,10
;   outlineOverlapPercentage,15
;   infillExtrusionWidthPercentage,100
;   minInfillLength,5
;   infillLayerInterval,1
;   internalInfillAngles,45,-45
;   overlapInternalInfillAngles,0
;   externalInfillAngles,45,-45
;   generateSupport,0
;   supportExtruder,0
;   supportInfillPercentage,30
;   supportExtraInflation,0
;   supportBaseLayers,0
;   denseSupportExtruder,0
;   denseSupportLayers,0
;   denseSupportInfillPercentage,70
;   supportLayerInterval,1
;   supportHorizontalPartOffset,0.4
;   supportUpperSeparationLayers,1
;   supportLowerSeparationLayers,1
;   supportType,0
;   supportGridSpacing,4.5
;   maxOverhangAngle,45
;   supportAngles,0
;   temperatureName,Primary Extruder,Heated Bed
;   temperatureNumber,0,0
;   temperatureSetpointCount,2,2
;   temperatureSetpointLayers,1,2,1,2
;   temperatureSetpointTemperatures,215,210,55,50
;   temperatureStabilizeAtStartup,1,1
;   temperatureHeatedBed,0,1
;   fanLayers,1,2
;   fanSpeeds,0,100
;   blipFanToFullPower,0
;   adjustSpeedForCooling,1
;   minSpeedLayerTime,15
;   minCoolingSpeedSlowdown,20
;   increaseFanForCooling,1
;   minFanLayerTime,25
;   maxCoolingFanSpeed,100
;   increaseFanForBridging,1
;   bridgingFanSpeed,100
;   use5D,1
;   relativeEdistances,0
;   allowEaxisZeroing,1
;   independentExtruderAxes,0
;   includeM10123,0
;   stickySupport,1
;   applyToolheadOffsets,0
;   gcodeXoffset,0
;   gcodeYoffset,0
;   gcodeZoffset,0
;   overrideMachineDefinition,1
;   machineTypeOverride,0
;   strokeXoverride,300
;   strokeYoverride,300
;   strokeZoverride,400
;   originOffsetXoverride,0
;   originOffsetYoverride,0
;   originOffsetZoverride,0
;   homeXdirOverride,-1
;   homeYdirOverride,-1
;   homeZdirOverride,-1
;   flipXoverride,1
;   flipYoverride,-1
;   flipZoverride,1
;   toolheadOffsets,0,0|0,0|0,0|0,0|0,0|0,0
;   overrideFirmwareConfiguration,1
;   firmwareTypeOverride,RepRap (Marlin/Repetier/Sprinter)
;   GPXconfigOverride,r2
;   baudRateOverride,250000
;   overridePrinterModels,1
;   printerModelsOverride
;   startingGcode,;,; -]H.P.B[- MarshMalloW  ,; $VER: StartScript 1.02 (26.12.2019) MarshMalloW,;,; Begin Startcode,;,M117 *Preheat*     	; Preheat,;extruder0_temperature,M104 S[extruder0_temperature]  ,M109 S[extruder0_temperature] ,M109 R[extruder0_temperature] ,;,M117 *Auto-leveling*     	; Auto-leveling,M107                   	; Turn layer fan off,G21                    	; Set to metric [change to G20 if you want Imperial],G90                    	; Force coordinates to be absolute relative to the origin,G28                    	; Home X/Y/Z axis,G29                    	; Auto-leveling (BL-Touch),;,M117 *Start Clean*     	; Indicate nozzle clean in progress on LCD,G92 E0                 	; Set Extruder to 0 ,G1 X0 Y0 F2000         	; Move X and Y to 0 with speed 2000 (mm/min),G1 Z0.1 F1000          	; Move Z to   0.1 with speed 1000 (mm/min),G1 X8.0 F2000          	; Move X to   8.0 with speed 2000 (mm/min),G1 Y60.0 E4.0 F1000.0  	; Move Y to  60 and Extruder with 4.0 with speed 1000 (mm/min),G1 Y100.0 E8.5 F1000.0 	; Move Y to 100 and Extruder with 8.5 with speed 1000 (mm/min),G92 E0                 	; Set extruder to 0,G1 X16.0 F3000         	; Move X to 16.0 with speed 3000 (mm/min),G1 Y60.0 F3000         	; Move Y to 60.0 with speed 3000 (mm/min),M117 *End Clean*       	; Indicate nozzle clean in progress on LCD,G1 Z5 F3000            	; Move Z to  5.0 with speed 3000 (mm/min),G1 X20.0 F3000         	; Move X to 20.0 with speed 3000 (mm/min),G1 Y20.0 F3000         	; Move Y to 20.0 with speed 3000 (mm/min),; ,M117 *Printing...*     	; Start printing msg on LCD,;,; End Startcode,;,; Begin printing with sliced GCode after here,;
;   layerChangeGcode,
;   retractionGcode,
;   toolChangeGcode,
;   endingGcode,;,; init 181010,;,;M107 			; Fan off,;G1 E-1 F300 			; Retract the filament a bit before lifting the nozzle,;M104 S0 			; Turn off extruder,;M140 S0 			; Turn off bed,;G91			; Relative positioning,;G28 X0 Y0 			; Move X/Y to min endstops so the head is out of teh way,;M84 			; Disable motors,;G90 			; Absolute positioning,;M117 Print ready...,,;,; // From Cura 181010,; // End_gcode,G92 E0			; Zero the extruded length,;G1 E-30 F300		; Retract E -30,M106 S0			; Turn off cooling fan,M104 S0			; Turn off temperature,M140 S0		     	; Turn off bed,G91			; Relative positioning,G1 E-1 F300			; Retract the filament a bit before lifting the nozzle to release some of the pressure,G1 Z+20 E-5 X-20 Y-20 F7200	; Move Z up a bit and retract filament even more,G1 X0 Y150 F10000		; Move right min,M107			; Turn off layer fan,M84			; Disable motors,G90			; Absolute positioning,M117 *The-End* 		; End msg,;,
;   exportFileFormat,gcode
;   celebration,0
;   celebrationSong,Star Wars
;   postProcessing,|{REPLACE "; layer " "M117 INDICATOR-Layer"}|{REPLACE ", Z = " "\n; Z="}
;   defaultSpeed,2400
;   outlineUnderspeed,0.6
;   solidInfillUnderspeed,0.8
;   supportUnderspeed,0.8
;   rapidXYspeed,3600
;   rapidZspeed,900
;   minBridgingArea,50
;   bridgingExtraInflation,0.2
;   bridgingExtrusionMultiplier,1
;   bridgingSpeedMultiplier,0.6
;   useFixedBridgingAngle,0
;   fixedBridgingAngle,0
;   applyBridgingToPerimeters,0
;   filamentDiameters,1.75|1.75|1.75|1.75|1.75|1.75
;   filamentPricesPerKg,30|46|46|46|46|46
;   filamentDensities,1.25|1.25|1.25|1.25|1.25|1.25
;   useMinPrintHeight,0
;   minPrintHeight,0
;   useMaxPrintHeight,0
;   maxPrintHeight,50
;   useDiaphragm,0
;   diaphragmLayerInterval,20
;   robustSlicing,1
;   mergeAllIntoSolid,0
;   onlyRetractWhenCrossingOutline,1
;   retractBetweenLayers,1
;   useRetractionMinTravel,0
;   retractionMinTravel,3
;   retractWhileWiping,1
;   onlyWipeOutlines,1
;   avoidCrossingOutline,1
;   maxMovementDetourFactor,3
;   toolChangeRetractionDistance,12
;   toolChangeExtraRestartDistance,-0.5
;   toolChangeRetractionSpeed,600
;   externalThinWallType,1
;   internalThinWallType,1
;   thinWallAllowedOverlapPercentage,20
;   singleExtrusionMinLength,1
;   singleExtrusionMinPrintingWidthPercentage,50
;   singleExtrusionMaxPrintingWidthPercentage,200
;   singleExtrusionEndpointExtension,0.2
;   horizontalSizeCompensation,0
G90
M82
M106 S0
M140 S55
M190 S55
;
; -]H.P.B[- MarshMalloW  
; $VER: StartScript 1.02 (26.12.2019) MarshMalloW
;
; Begin Startcode
;
M117 *Preheat*     	; Preheat
;extruder0_temperature
M104 S215  
M109 S215 
M109 R215 
;
M117 *Auto-leveling*     	; Auto-leveling
M107                   	; Turn layer fan off
G21                    	; Set to metric [change to G20 if you want Imperial]
G90                    	; Force coordinates to be absolute relative to the origin
G28                    	; Home X/Y/Z axis
G29                    	; Auto-leveling (BL-Touch)
;
M117 *Start Clean*     	; Indicate nozzle clean in progress on LCD
G92 E0                 	; Set Extruder to 0 
G1 X0 Y0 F2000         	; Move X and Y to 0 with speed 2000 (mm/min)
G1 Z0.1 F1000          	; Move Z to   0.1 with speed 1000 (mm/min)
G1 X8.0 F2000          	; Move X to   8.0 with speed 2000 (mm/min)
G1 Y60.0 E4.0 F1000.0  	; Move Y to  60 and Extruder with 4.0 with speed 1000 (mm/min)
G1 Y100.0 E8.5 F1000.0 	; Move Y to 100 and Extruder with 8.5 with speed 1000 (mm/min)
G92 E0                 	; Set extruder to 0
G1 X16.0 F3000         	; Move X to 16.0 with speed 3000 (mm/min)
G1 Y60.0 F3000         	; Move Y to 60.0 with speed 3000 (mm/min)
M117 *End Clean*       	; Indicate nozzle clean in progress on LCD
G1 Z5 F3000            	; Move Z to  5.0 with speed 3000 (mm/min)
G1 X20.0 F3000         	; Move X to 20.0 with speed 3000 (mm/min)
G1 Y20.0 F3000         	; Move Y to 20.0 with speed 3000 (mm/min)
; 
M117 *Printing...*     	; Start printing msg on LCD
;
; End Startcode
;
; Begin printing with sliced GCode after here
;
; process Process1
M117 INDICATOR-Layer1
; Z=0.180
T0
G92 E0.0000
G1 E-4.0000 F6000
; feature skirt
; tool H0.180 W0.350
G1 Z0.180 F900
G1 X253.527 Y73.538 F3600
G1 E0.0000 F6000
G92 E0.0000
G1 X253.527 Y226.462 E3.8052 F960
G1 X251.462 Y228.527 E3.8778
G1 X48.538 Y228.527 E8.9271
G1 X46.473 Y226.462 E8.9998
G1 X46.473 Y73.538 E12.8049
G1 X48.538 Y71.473 E12.8776
G1 X251.462 Y71.473 E17.9269
G1 X253.527 Y73.538 E17.9996
G92 E0.0000
G1 E-4.0000 F6000
G1 Z0.280 F900
G1 X249.827 Y75.173 F3600
G1 X249.827 Y76.273
G1 X241.442 Y82.471
G1 X241.442 Y81.375
G1 X195.029 Y81.375
G1 X194.991 Y83.434
G1 X195.026 Y89.088
G1 X194.896 Y92.902
G1 X194.655 Y96.715
G1 X194.037 Y104.345
G1 X193.871 Y107.749
G1 X193.820 Y111.155
G1 X193.853 Y114.562
G1 X194.014 Y117.526
G1 X177.527 Y129.711
G1 X177.478 Y128.610
G1 X177.155 Y127.547
G1 X177.082 Y126.993
G1 X177.062 Y125.845
G1 X177.164 Y123.519
G1 X177.150 Y122.403
G1 X177.238 Y121.304
G1 X177.656 Y119.095
G1 X177.767 Y118.356
G1 X178.293 Y116.024
G1 X178.576 Y113.906
G1 X178.858 Y109.671
G1 X178.935 Y105.435
G1 X178.894 Y101.198
G1 X178.753 Y98.753
G1 X178.518 Y96.312
G1 X177.875 Y91.449
G1 X177.078 Y86.600
G1 X176.161 Y81.684
G1 X176.035 Y81.375
G1 X58.558 Y81.375
G1 X58.558 Y217.643
G1 X50.173 Y223.841
G1 X50.173 Y224.827
G1 X46.823 Y226.317
G1 Z0.180 F900
G1 E0.0000 F6000
G92 E0.0000
G1 X46.823 Y73.683 E3.7979 F960
G1 X48.683 Y71.823 E3.8634
G1 X251.317 Y71.823 E8.9055
G1 X253.177 Y73.683 E8.9709
G1 X253.177 Y226.317 E12.7689
G1 X251.317 Y228.177 E12.8343
G1 X48.683 Y228.177 E17.8764
G1 X46.823 Y226.317 E17.9419
G92 E0.0000
G1 E-4.0000 F6000
; feature outer perimeter
G1 Z0.280 F900
G1 X249.827 Y224.827 F3600
G1 Z0.180 F900
G1 E0.0000 F6000
G92 E0.0000
G1 X50.173 Y224.827 E4.9679 F576
G1 X50.173 Y75.173 E8.6917
G1 X249.827 Y75.173 E13.6597
G1 X249.827 Y224.227 E17.3685
G1 X249.827 Y224.827 F576
G1 X244.827 Y224.827 F576
; feature inner perimeter
G1 X249.477 Y224.477 F3600
G92 E0.0000
G1 X50.523 Y224.477 E4.9505 F768
G1 X50.523 Y75.523 E8.6569
G1 X249.477 Y75.523 E13.6074
G1 X249.477 Y223.877 E17.2988
G1 X249.477 Y224.477 F768
G1 X249.127 Y224.127 F3600
G92 E0.0000
G1 X50.873 Y224.127 E4.9331 F768
G1 X50.873 Y75.873 E8.6221
G1 X249.127 Y75.873 E13.5552
G1 X249.127 Y223.527 E17.2292
G1 X249.127 Y224.127 F768
G92 E0.0000
G1 E-4.0000 F6000
; feature outer perimeter
G1 Z0.280 F900
G1 X224.630 Y211.919 F3600
G1 Z0.180 F900
G1 E0.0000 F6000
G92 E0.0000
G1 X224.283 Y211.757 E0.0095 F576
G1 X223.741 Y211.577 E0.0237
G1 X223.167 Y211.465 E0.0383
G1 X222.894 Y211.447 E0.0451
G1 X222.879 Y211.201 E0.0512
G1 X223.824 Y211.021 E0.0752
G1 X224.781 Y210.892 E0.0992
G1 X224.768 Y211.339 E0.1103
G1 X224.768 Y211.355 F576
G1 X224.741 Y211.599
G1 X224.630 Y211.919
G1 X224.283 Y211.757 F576
G1 X223.741 Y211.577
G1 X223.167 Y211.465
G1 X222.894 Y211.447
G1 X222.879 Y211.201
G1 X223.824 Y211.021
G1 X224.781 Y210.892
G1 X224.768 Y211.355
G1 X224.741 Y211.599
G1 X224.640 Y211.888
G1 X224.607 Y211.908 F3600
G1 X224.283 Y211.757
G1 X223.741 Y211.577
G1 X223.167 Y211.465
G1 X222.575 Y211.425
G1 X221.422 Y211.524
G1 X220.312 Y211.725
G1 X218.833 Y211.848
G1 X217.241 Y212.052
G1 X215.639 Y212.164
G1 X214.025 Y212.240
G1 X212.246 Y212.353
G1 X212.256 Y212.833
G1 X212.347 Y213.156
G1 X212.507 Y213.456
G1 X212.719 Y213.731
G1 X213.230 Y214.198
G1 X213.823 Y214.601
G1 X215.115 Y215.266
G1 X216.484 Y215.833
G1 X217.112 Y216.039
G1 X217.576 Y216.157
G92 E0.0000
G1 X217.760 Y216.816 E0.0170 F576
G1 X217.549 Y216.918 E0.0228
G1 X217.492 Y216.839 E0.0253
G1 X216.740 Y216.338 E0.0478
G1 X215.866 Y215.864 E0.0725
G1 X215.980 Y215.624 E0.0791
G1 X216.484 Y215.833 E0.0927
G1 X216.997 Y216.001 E0.1061
G1 X217.112 Y216.039 F576
G1 X217.576 Y216.157
; feature inner perimeter
G1 X217.112 Y216.039 F3600
G1 X216.484 Y215.833
G1 X215.115 Y215.266
G1 X213.823 Y214.601
G1 X213.230 Y214.198
G1 X212.719 Y213.731
G1 X212.507 Y213.456
G1 X212.436 Y213.322
G1 X211.910 Y213.032
G92 E0.0000
G1 X211.119 Y212.241 E0.0278 F768
G1 X210.874 Y212.062 E0.0354
G1 X210.611 Y211.915 E0.0429
G1 X210.313 Y211.790 E0.0509
G1 X210.370 Y211.557 E0.0569
G1 X210.668 Y211.583 E0.0643
G1 X212.052 Y211.760 E0.0991
G1 X212.044 Y212.015 E0.1054
G1 X211.889 Y212.025 E0.1093
G1 X211.897 Y212.432 E0.1194
G1 X211.910 Y213.032 F768
G92 E0.0000
G1 E-4.0000 F6000
; feature outer perimeter
G1 Z0.280 F900
G1 X211.180 Y212.797 F3600
G1 X210.890 Y212.507
G1 X210.685 Y212.357
G1 X210.458 Y212.230
G1 X209.986 Y212.032
G1 X209.001 Y211.746
G1 X205.767 Y211.056
G1 X202.020 Y209.850
G1 X201.831 Y209.777
G1 X201.663 Y209.735
G1 X165.903 Y198.230
G1 X166.269 Y197.413
G1 X166.814 Y195.536
G1 X167.034 Y193.622
G1 X167.003 Y191.708
G1 X166.806 Y189.805
G1 X166.200 Y186.028
G1 X165.927 Y184.963
G1 X165.914 Y184.458
G1 X166.032 Y183.948
G1 X166.196 Y183.462
G1 X166.934 Y181.558
G1 X166.207 Y181.930
G1 X165.917 Y182.130
G1 X165.395 Y182.543
G1 X162.448 Y185.085
G1 X160.379 Y186.696
G1 X159.279 Y187.444
G1 X158.119 Y188.133
G1 X155.486 Y189.310
G1 X152.806 Y190.457
G1 X151.558 Y191.134
G1 X151.597 Y191.103
G1 X151.855 Y190.855
G1 X151.972 Y190.707
G1 X152.064 Y190.538
G1 X152.162 Y190.148
G1 X150.617 Y190.185
G1 X149.308 Y190.335
G1 X150.412 Y191.960
G1 X149.504 Y192.932
G1 X149.494 Y192.950
G1 Z0.180 F900
G1 E0.0000 F6000
G92 E0.0000
G1 X149.123 Y193.613 E0.0189 F576
G1 X148.899 Y193.530 E0.0248
G1 X148.941 Y193.318 E0.0302
G1 X148.985 Y193.208 E0.0332
G1 X149.071 Y193.075 E0.0371
G1 X149.140 Y192.969 F576
G1 X149.293 Y192.804
G1 X149.494 Y192.950
G92 E0.0000
G1 E-4.0000 F6000
; feature inner perimeter
G1 Z0.280 F900
G1 X149.504 Y192.932 F3600
G1 X150.412 Y191.960
G1 X150.788 Y191.688
G1 X151.597 Y191.103
G1 X151.558 Y191.134
G1 X152.806 Y190.457
G1 X155.174 Y189.443
G1 X160.522 Y186.141
G1 Z0.180 F900
G1 E0.0000 F6000
G92 E0.0000
G1 X160.651 Y185.564 E0.0147 F768
G1 X160.499 Y185.296 E0.0224
G1 X161.305 Y185.290 E0.0424
G1 X161.371 Y185.479 E0.0474
G1 X160.995 Y185.772 E0.0593
G1 X160.522 Y186.141 F768
G1 X161.301 Y185.978 F3600
G1 X162.448 Y185.085
G1 X165.395 Y182.543
G1 X165.917 Y182.130
G1 X166.207 Y181.930
G1 X166.934 Y181.558
G1 X166.196 Y183.462
G1 X166.032 Y183.948
G1 X165.914 Y184.458
G1 X165.927 Y184.963
G1 X165.939 Y185.009
G1 X166.624 Y184.866
G92 E0.0000
G1 X166.616 Y184.529 E0.0084 F768
G1 X166.706 Y184.140 E0.0183
G1 X166.854 Y183.700 E0.0299
G1 X166.939 Y183.482 E0.0357
G1 X167.181 Y183.546 E0.0419
G1 X167.021 Y184.606 E0.0686
G1 X167.107 Y185.716 E0.0963
