; G-Code generated by Simplify3D(R) Version 4.1.2
; Apr 29, 2020 at 6:35:34 PM
; Settings Summary
;   processName,Process1
;   applyToModels,LedControlBox_Top
;   profileName,A04-04-25s Tevo Tornado
;   profileVersion,2020-04-15 13:31:35
;   baseProfile,Creality CR-10(2)
;   printMaterial,PLA
;   printQuality,Medium
;   printExtruders,
;   extruderName,Primary Extruder
;   extruderToolheadNumber,0
;   extruderDiameter,0.4
;   extruderAutoWidth,0
;   extruderWidth,0.35
;   extrusionMultiplier,0.95
;   extruderUseRetract,1
;   extruderRetractionDistance,4
;   extruderExtraRestartDistance,0
;   extruderRetractionZLift,0.3
;   extruderRetractionSpeed,3000
;   extruderUseCoasting,1
;   extruderCoastingDistance,0.8
;   extruderUseWipe,0
;   extruderWipeDistance,4
;   primaryExtruder,0
;   layerHeight,0.15
;   topSolidLayers,4
;   bottomSolidLayers,3
;   perimeterOutlines,3
;   printPerimetersInsideOut,0
;   startPointOption,1
;   startPointOriginX,0
;   startPointOriginY,300
;   sequentialIslands,0
;   spiralVaseMode,0
;   firstLayerHeightPercentage,120
;   firstLayerWidthPercentage,100
;   firstLayerUnderspeed,0.35
;   useRaft,0
;   raftExtruder,0
;   raftTopLayers,3
;   raftBaseLayers,2
;   raftOffset,3
;   raftSeparationDistance,0.14
;   raftTopInfill,100
;   aboveRaftSpeedMultiplier,0.3
;   useSkirt,1
;   skirtExtruder,0
;   skirtLayers,1
;   skirtOutlines,3
;   skirtOffset,2
;   usePrimePillar,0
;   primePillarExtruder,999
;   primePillarWidth,12
;   primePillarLocation,7
;   primePillarSpeedMultiplier,1
;   useOozeShield,0
;   oozeShieldExtruder,999
;   oozeShieldOffset,2
;   oozeShieldOutlines,1
;   oozeShieldSidewallShape,1
;   oozeShieldSidewallAngle,30
;   oozeShieldSpeedMultiplier,1
;   infillExtruder,0
;   internalInfillPattern,Rectilinear
;   externalInfillPattern,Rectilinear
;   infillPercentage,15
;   outlineOverlapPercentage,15
;   infillExtrusionWidthPercentage,100
;   minInfillLength,5
;   infillLayerInterval,1
;   internalInfillAngles,45,-45
;   overlapInternalInfillAngles,0
;   externalInfillAngles,45,-45
;   generateSupport,1
;   supportExtruder,0
;   supportInfillPercentage,30
;   supportExtraInflation,0
;   supportBaseLayers,0
;   denseSupportExtruder,0
;   denseSupportLayers,0
;   denseSupportInfillPercentage,70
;   supportLayerInterval,1
;   supportHorizontalPartOffset,0.4
;   supportUpperSeparationLayers,1
;   supportLowerSeparationLayers,1
;   supportType,0
;   supportGridSpacing,4.5
;   maxOverhangAngle,45
;   supportAngles,0
;   temperatureName,Primary Extruder,Heated Bed
;   temperatureNumber,0,0
;   temperatureSetpointCount,1,1
;   temperatureSetpointLayers,1,1
;   temperatureSetpointTemperatures,215,55
;   temperatureStabilizeAtStartup,1,1
;   temperatureHeatedBed,0,1
;   fanLayers,1,2
;   fanSpeeds,0,100
;   blipFanToFullPower,0
;   adjustSpeedForCooling,1
;   minSpeedLayerTime,15
;   minCoolingSpeedSlowdown,50
;   increaseFanForCooling,1
;   minFanLayerTime,25
;   maxCoolingFanSpeed,100
;   increaseFanForBridging,1
;   bridgingFanSpeed,100
;   use5D,1
;   relativeEdistances,0
;   allowEaxisZeroing,1
;   independentExtruderAxes,0
;   includeM10123,0
;   stickySupport,1
;   applyToolheadOffsets,0
;   gcodeXoffset,0
;   gcodeYoffset,0
;   gcodeZoffset,0
;   overrideMachineDefinition,1
;   machineTypeOverride,0
;   strokeXoverride,300
;   strokeYoverride,300
;   strokeZoverride,400
;   originOffsetXoverride,0
;   originOffsetYoverride,0
;   originOffsetZoverride,0
;   homeXdirOverride,-1
;   homeYdirOverride,-1
;   homeZdirOverride,-1
;   flipXoverride,1
;   flipYoverride,-1
;   flipZoverride,1
;   toolheadOffsets,0,0|0,0|0,0|0,0|0,0|0,0
;   overrideFirmwareConfiguration,1
;   firmwareTypeOverride,RepRap (Marlin/Repetier/Sprinter)
;   GPXconfigOverride,r2
;   baudRateOverride,250000
;   overridePrinterModels,1
;   printerModelsOverride
;   startingGcode,;,; -]H.P.B[- MarshMalloW  ,; $VER: StartScript 1.02 (26.12.2019) MarshMalloW,;,; Begin Startcode,;,M117 *Preheat*     	; Preheat,;extruder0_temperature,M104 S[extruder0_temperature]  ,M109 S[extruder0_temperature] ,M109 R[extruder0_temperature] ,;,M117 *Auto-leveling*     	; Auto-leveling,M107                   	; Turn layer fan off,G21                    	; Set to metric [change to G20 if you want Imperial],G90                    	; Force coordinates to be absolute relative to the origin,G28                    	; Home X/Y/Z axis,G29                    	; Auto-leveling (BL-Touch),;,M117 *Start Clean*     	; Indicate nozzle clean in progress on LCD,G92 E0                 	; Set Extruder to 0 ,G1 X0 Y0 F2000         	; Move X and Y to 0 with speed 2000 (mm/min),G1 Z0.1 F1000          	; Move Z to   0.1 with speed 1000 (mm/min),G1 X8.0 F2000          	; Move X to   8.0 with speed 2000 (mm/min),G1 Y60.0 E4.0 F1000.0  	; Move Y to  60 and Extruder with 4.0 with speed 1000 (mm/min),G1 Y100.0 E8.5 F1000.0 	; Move Y to 100 and Extruder with 8.5 with speed 1000 (mm/min),G92 E0                 	; Set extruder to 0,G1 X16.0 F3000         	; Move X to 16.0 with speed 3000 (mm/min),G1 Y60.0 F3000         	; Move Y to 60.0 with speed 3000 (mm/min),M117 *End Clean*       	; Indicate nozzle clean in progress on LCD,G1 Z5 F3000            	; Move Z to  5.0 with speed 3000 (mm/min),G1 X20.0 F3000         	; Move X to 20.0 with speed 3000 (mm/min),G1 Y20.0 F3000         	; Move Y to 20.0 with speed 3000 (mm/min),; ,M117 *Printing...*     	; Start printing msg on LCD,;,; End Startcode,;,; Begin printing with sliced GCode after here,;
;   layerChangeGcode,
;   retractionGcode,
;   toolChangeGcode,
;   endingGcode,;,; init 181010,;,;M107 			; Fan off,;G1 E-1 F300 			; Retract the filament a bit before lifting the nozzle,;M104 S0 			; Turn off extruder,;M140 S0 			; Turn off bed,;G91			; Relative positioning,;G28 X0 Y0 			; Move X/Y to min endstops so the head is out of teh way,;M84 			; Disable motors,;G90 			; Absolute positioning,;M117 Print ready...,,;,; // From Cura 181010,; // End_gcode,G92 E0			; Zero the extruded length,;G1 E-30 F300		; Retract E -30,M106 S0			; Turn off cooling fan,M104 S0			; Turn off temperature,M140 S0		     	; Turn off bed,G91			; Relative positioning,G1 E-1 F300			; Retract the filament a bit before lifting the nozzle to release some of the pressure,G1 Z+20 E-5 X-20 Y-20 F7200	; Move Z up a bit and retract filament even more,G1 X0 Y150 F10000		; Move right min,M107			; Turn off layer fan,M84			; Disable motors,G90			; Absolute positioning,M117 *The-End* 		; End msg,;,
;   exportFileFormat,gcode
;   celebration,0
;   celebrationSong,Star Wars
;   postProcessing,|{REPLACE "; layer " "M117 INDICATOR-Layer"}|{REPLACE ", Z = " "\n; Z="}
;   defaultSpeed,1800
;   outlineUnderspeed,0.5
;   solidInfillUnderspeed,0.8
;   supportUnderspeed,0.8
;   rapidXYspeed,6000
;   rapidZspeed,1002
;   minBridgingArea,50
;   bridgingExtraInflation,0.2
;   bridgingExtrusionMultiplier,1
;   bridgingSpeedMultiplier,0.6
;   useFixedBridgingAngle,0
;   fixedBridgingAngle,0
;   applyBridgingToPerimeters,0
;   filamentDiameters,1.75|1.75|1.75|1.75|1.75|1.75
;   filamentPricesPerKg,30|46|46|46|46|46
;   filamentDensities,1.25|1.25|1.25|1.25|1.25|1.25
;   useMinPrintHeight,0
;   minPrintHeight,0
;   useMaxPrintHeight,0
;   maxPrintHeight,9
;   useDiaphragm,0
;   diaphragmLayerInterval,20
;   robustSlicing,1
;   mergeAllIntoSolid,0
;   onlyRetractWhenCrossingOutline,1
;   retractBetweenLayers,0
;   useRetractionMinTravel,0
;   retractionMinTravel,3
;   retractWhileWiping,0
;   onlyWipeOutlines,1
;   avoidCrossingOutline,1
;   maxMovementDetourFactor,3
;   toolChangeRetractionDistance,12
;   toolChangeExtraRestartDistance,-0.5
;   toolChangeRetractionSpeed,600
;   externalThinWallType,1
;   internalThinWallType,1
;   thinWallAllowedOverlapPercentage,10
;   singleExtrusionMinLength,1
;   singleExtrusionMinPrintingWidthPercentage,50
;   singleExtrusionMaxPrintingWidthPercentage,200
;   singleExtrusionEndpointExtension,0.2
;   horizontalSizeCompensation,0
G90
M82
M106 S0
M140 S55
M190 S55
;
; -]H.P.B[- MarshMalloW  
; $VER: StartScript 1.02 (26.12.2019) MarshMalloW
;
; Begin Startcode
;
M117 *Preheat*     	; Preheat
;extruder0_temperature
M104 S215  
M109 S215 
M109 R215 
;
M117 *Auto-leveling*     	; Auto-leveling
M107                   	; Turn layer fan off
G21                    	; Set to metric [change to G20 if you want Imperial]
G90                    	; Force coordinates to be absolute relative to the origin
G28                    	; Home X/Y/Z axis
G29                    	; Auto-leveling (BL-Touch)
;
M117 *Start Clean*     	; Indicate nozzle clean in progress on LCD
G92 E0                 	; Set Extruder to 0 
G1 X0 Y0 F2000         	; Move X and Y to 0 with speed 2000 (mm/min)
G1 Z0.1 F1000          	; Move Z to   0.1 with speed 1000 (mm/min)
G1 X8.0 F2000          	; Move X to   8.0 with speed 2000 (mm/min)
G1 Y60.0 E4.0 F1000.0  	; Move Y to  60 and Extruder with 4.0 with speed 1000 (mm/min)
G1 Y100.0 E8.5 F1000.0 	; Move Y to 100 and Extruder with 8.5 with speed 1000 (mm/min)
G92 E0                 	; Set extruder to 0
G1 X16.0 F3000         	; Move X to 16.0 with speed 3000 (mm/min)
G1 Y60.0 F3000         	; Move Y to 60.0 with speed 3000 (mm/min)
M117 *End Clean*       	; Indicate nozzle clean in progress on LCD
G1 Z5 F3000            	; Move Z to  5.0 with speed 3000 (mm/min)
G1 X20.0 F3000         	; Move X to 20.0 with speed 3000 (mm/min)
G1 Y20.0 F3000         	; Move Y to 20.0 with speed 3000 (mm/min)
; 
M117 *Printing...*     	; Start printing msg on LCD
;
; End Startcode
;
; Begin printing with sliced GCode after here
;
; process Process1
M117 INDICATOR-Layer1
; Z=0.180
T0
G92 E0.0000
G1 E-4.0000 F3000
; feature skirt
; tool H0.180 W0.350
G1 Z0.300 F1002
G1 X209.834 Y57.366 F6000
G1 Z0.180 F1002
G1 E0.0000 F3000
G92 E0.0000
G1 X209.834 Y100.688 E1.0780 F630
G1 X208.150 Y102.372 E1.1372
G1 X88.328 Y102.372 E4.1187
G1 X86.644 Y100.688 E4.1780
G1 X86.644 Y57.366 E5.2559
G1 X88.328 Y55.682 E5.3152
G1 X208.150 Y55.682 E8.2967
G1 X209.834 Y57.366 E8.3560
G92 E0.0000
G1 E-4.0000 F3000
G1 Z0.480 F1002
G1 X203.614 Y62.202 F6000
G1 X196.076 Y62.202
G1 X191.382 Y63.852
G1 X94.514 Y63.852
G1 X94.514 Y94.202
G1 X105.034 Y94.202
G1 X100.340 Y95.852
G1 X92.864 Y95.852
G1 X86.994 Y100.543
G1 Z0.180 F1002
G1 E0.0000 F3000
G92 E0.0000
G1 X86.994 Y57.511 E1.0707 F630
G1 X88.473 Y56.032 E1.1228
G1 X208.005 Y56.032 E4.0971
G1 X209.484 Y57.511 E4.1491
G1 X209.484 Y100.543 E5.2199
G1 X208.005 Y102.022 E5.2719
G1 X88.473 Y102.022 E8.2462
G1 X86.994 Y100.543 E8.2982
G92 E0.0000
G1 E-4.0000 F3000
G1 Z0.480 F1002
G1 X209.134 Y100.398 F6000
G1 Z0.180 F1002
G1 E0.0000 F3000
G92 E0.0000
G1 X207.860 Y101.672 E0.0448 F630
G1 X88.618 Y101.672 E3.0119
G1 X87.344 Y100.398 E3.0567
G1 X87.344 Y57.656 E4.1203
G1 X88.618 Y56.382 E4.1651
G1 X207.860 Y56.382 E7.1322
G1 X209.134 Y57.656 E7.1770
G1 X209.134 Y100.398 E8.2405
G92 E0.0000
G1 E-4.0000 F3000
; feature outer perimeter
G1 Z0.480 F1002
G1 X203.614 Y95.852 F6000
G1 X195.296 Y95.852
G1 X190.274 Y94.202
G1 X94.514 Y94.202
G1 X94.514 Y63.852
G1 X97.887 Y63.852
G1 X92.864 Y62.202
G1 Z0.180 F1002
G1 E0.0000 F3000
G92 E0.0000
G1 X203.614 Y62.202 E2.7558 F315
G1 X203.614 Y95.852 E3.5931
G1 X92.864 Y95.852 E6.3488
G1 X92.864 Y63.002 E7.1662
G1 X92.864 Y62.202 F315
; feature inner perimeter
G1 X93.214 Y62.552 F6000
G92 E0.0000
G1 X203.264 Y62.552 E2.7383 F472
G1 X203.264 Y95.502 E3.5582
G1 X93.214 Y95.502 E6.2966
G1 X93.214 Y63.352 E7.0966
G1 X93.214 Y62.552 F472
; feature outer perimeter
G1 X94.514 Y63.852 F6000
G92 E0.0000
G1 X94.514 Y94.202 E0.7552 F315
G1 X201.964 Y94.202 E3.4288
G1 X201.964 Y63.852 E4.1840
G1 X95.314 Y63.852 E6.8378
G1 X94.514 Y63.852 F315
; feature inner perimeter
G1 X94.164 Y63.502 F6000
G92 E0.0000
G1 X94.164 Y94.552 E0.7726 F472
G1 X202.314 Y94.552 E3.4637
G1 X202.314 Y63.502 E4.2363
G1 X94.964 Y63.502 E6.9074
G1 X94.164 Y63.502 F472
; feature internal single extrusion
; tool H0.180 W0.600
G1 X93.689 Y63.226 F6000
G92 E0.0000
G1 X93.689 Y94.027 E1.3138 F315
G1 X93.689 Y94.827 F315
; tool H0.180 W0.600
G1 X93.615 Y94.953 F6000
G92 E0.0000
; tool H0.180 W0.637
G1 X93.879 Y95.017 E0.0123 F315
; tool H0.180 W0.611
G1 X93.949 Y95.025 E0.0154
; tool H0.180 W0.601
G1 X94.019 Y95.027 E0.0184
; tool H0.180 W0.600
G1 X201.790 Y95.027 E4.6153
G1 X202.590 Y95.027 F315
G1 X202.715 Y95.101 F6000
G92 E0.0000
; tool H0.180 W0.637
G1 X202.779 Y94.837 E0.0123 F315
; tool H0.180 W0.611
G1 X202.788 Y94.767 E0.0154
; tool H0.180 W0.601
G1 X202.789 Y94.697 E0.0184
; tool H0.180 W0.600
G1 X202.789 Y64.026 E1.3267
G1 X202.789 Y63.226 F315
; tool H0.180 W0.637
G1 X202.864 Y63.101 F6000
G92 E0.0000
; tool H0.180 W0.600
G1 X202.599 Y63.037 E0.0225 F315
; tool H0.180 W0.601
G1 X202.530 Y63.028 E0.0284
; tool H0.180 W0.611
G1 X202.460 Y63.027 E0.0343
; tool H0.180 W0.637
G1 X94.406 Y63.027 E9.5385
G1 X94.019 Y63.027 F315
G1 X93.949 Y63.028
G1 X93.879 Y63.037
G1 X93.615 Y63.101
G92 E0.0000
G1 E-4.0000 F3000
; feature support
; tool H0.180 W0.350
G1 Z0.480 F1002
G1 X96.314 Y63.852 F6000
G1 X201.964 Y63.852
G1 X201.964 Y94.202
G1 X201.204 Y93.027
G1 Z0.180 F1002
G1 E0.0000 F3000
G92 E0.0000
G1 X95.274 Y93.027 E2.6358 F504
G1 X95.274 Y91.860 E2.6649
G1 X201.204 Y91.860 E5.3007
G1 X201.204 Y90.694 E5.3297
G1 X95.274 Y90.694 E7.9655
G1 X95.274 Y89.527 E7.9946
G1 X201.204 Y89.527 E10.6304
G1 X201.204 Y88.360 E10.6594
G1 X95.274 Y88.360 E13.2953
G1 X95.274 Y87.194 E13.3243
G1 X201.204 Y87.194 E15.9601
G1 X201.204 Y86.027 E15.9891
G1 X95.274 Y86.027 E18.6250
G1 X95.274 Y84.860 E18.6540
G1 X201.204 Y84.860 E21.2898
G1 X201.204 Y83.694 E21.3189
G1 X95.274 Y83.694 E23.9547
G1 X95.274 Y82.527 E23.9837
G1 X201.204 Y82.527 E26.6195
G1 X201.204 Y81.360 E26.6486
G1 X95.274 Y81.360 E29.2844
G1 X95.274 Y80.194 E29.3134
G1 X116.774 Y80.194 E29.8484
G1 X116.774 Y79.027 E29.8774
G1 X95.274 Y79.027 E30.4124
G1 X95.274 Y77.860 E30.4415
G1 X116.774 Y77.860 E30.9764
G1 X116.774 Y76.812 E31.0025
G1 X121.204 Y76.812 E31.1127
G1 X121.204 Y77.860 E31.1388
G1 X130.274 Y77.860 E31.3645
G1 X130.274 Y76.812 E31.3906
G1 X139.204 Y76.812 E31.6128
G1 X139.204 Y77.860 E31.6389
G1 X148.274 Y77.860 E31.8646
G1 X148.274 Y76.812 E31.8907
G1 X152.704 Y76.812 E32.0009
G1 X152.704 Y77.860 E32.0270
G1 X161.774 Y77.860 E32.2527
G1 X161.774 Y76.812 E32.2788
G1 X166.204 Y76.812 E32.3890
G1 X166.204 Y77.860 E32.4151
G1 X179.774 Y77.860 E32.7527
G1 X179.774 Y76.812 E32.7788
G1 X184.204 Y76.812 E32.8890
G1 X184.204 Y77.860 E32.9151
G1 X193.274 Y77.860 E33.1408
G1 X193.274 Y76.812 E33.1669
G1 X197.704 Y76.812 E33.2771
G1 X197.704 Y77.860 E33.3032
G1 X201.204 Y77.860 E33.3903
G1 X201.204 Y76.694 E33.4193
G1 X95.274 Y76.694 E36.0552
G1 X95.274 Y75.527 E36.0842
G1 X201.204 Y75.527 E38.7200
G1 X201.204 Y74.360 E38.7491
G1 X95.274 Y74.360 E41.3849
G1 X95.274 Y73.194 E41.4139
G1 X201.204 Y73.194 E44.0497
G1 X201.204 Y72.027 E44.0788
G1 X95.274 Y72.027 E46.7146
G1 X95.274 Y70.860 E46.7436
G1 X201.204 Y70.860 E49.3795
G1 X201.204 Y69.694 E49.4085
G1 X95.274 Y69.694 E52.0443
G1 X95.274 Y68.527 E52.0733
G1 X201.204 Y68.527 E54.7092
G1 X201.204 Y67.360 E54.7382
G1 X95.274 Y67.360 E57.3740
G1 X95.274 Y66.194 E57.4031
G1 X201.204 Y66.194 E60.0389
G1 X201.204 Y65.027 E60.0679
G1 X96.074 Y65.027 E62.6838
G1 X95.274 Y65.027 F504
G92 E0.0000
G1 E-4.0000 F3000
G1 Z0.480 F1002
G1 X92.864 Y62.503 F6000
G1 X92.864 Y62.202
G1 X89.704 Y59.194
G1 Z0.180 F1002
G1 E0.0000 F3000
G92 E0.0000
G1 X206.774 Y59.194 E2.9130 F504
G1 X206.774 Y60.360 E2.9421
G1 X89.704 Y60.360 E5.8551
G1 X89.704 Y61.527 E5.8841
G1 X92.104 Y61.527 E5.9438
G1 X92.104 Y62.694 E5.9729
G1 X89.704 Y62.694 E6.0326
G1 X89.704 Y63.860 E6.0616
G1 X92.104 Y63.860 E6.1213
G1 X92.104 Y65.027 E6.1504
G1 X89.704 Y65.027 E6.2101
G1 X89.704 Y66.194 E6.2391
G1 X92.104 Y66.194 E6.2988
G1 X92.104 Y67.360 E6.3278
G1 X89.704 Y67.360 E6.3876
G1 X89.704 Y68.527 E6.4166
G1 X92.104 Y68.527 E6.4763
G1 X92.104 Y69.694 E6.5053
G1 X89.704 Y69.694 E6.5651
G1 X89.704 Y70.860 E6.5941
G1 X92.104 Y70.860 E6.6538
G1 X92.104 Y72.027 E6.6828
