; G-Code generated by Simplify3D(R) Version 4.0.1
; Sep 5, 2019 at 3:46:46 PM
; Settings Summary
;   processName,Process1
;   applyToModels,Oral-B_Toothbrush_Stand_-_simple
;   profileName,101.01 Tevo Tornado (experimental)
;   profileVersion,2019-08-25 17:34:33
;   baseProfile,Creality CR-10(2)
;   printMaterial,PLA
;   printQuality,Medium
;   printExtruders,
;   extruderName,Primary Extruder
;   extruderToolheadNumber,0
;   extruderDiameter,0.4
;   extruderAutoWidth,0
;   extruderWidth,0.35
;   extrusionMultiplier,0.95
;   extruderUseRetract,1
;   extruderRetractionDistance,6
;   extruderExtraRestartDistance,0
;   extruderRetractionZLift,0.3
;   extruderRetractionSpeed,3000
;   extruderUseCoasting,0
;   extruderCoastingDistance,0.2
;   extruderUseWipe,0
;   extruderWipeDistance,4
;   primaryExtruder,0
;   layerHeight,0.15
;   topSolidLayers,4
;   bottomSolidLayers,3
;   perimeterOutlines,3
;   printPerimetersInsideOut,0
;   startPointOption,3
;   startPointOriginX,0
;   startPointOriginY,300
;   sequentialIslands,0
;   spiralVaseMode,0
;   firstLayerHeightPercentage,120
;   firstLayerWidthPercentage,100
;   firstLayerUnderspeed,0.5
;   useRaft,0
;   raftExtruder,0
;   raftTopLayers,3
;   raftBaseLayers,2
;   raftOffset,3
;   raftSeparationDistance,0.14
;   raftTopInfill,100
;   aboveRaftSpeedMultiplier,0.3
;   useSkirt,1
;   skirtExtruder,0
;   skirtLayers,1
;   skirtOutlines,3
;   skirtOffset,2
;   usePrimePillar,0
;   primePillarExtruder,999
;   primePillarWidth,12
;   primePillarLocation,7
;   primePillarSpeedMultiplier,1
;   useOozeShield,0
;   oozeShieldExtruder,999
;   oozeShieldOffset,2
;   oozeShieldOutlines,1
;   oozeShieldSidewallShape,1
;   oozeShieldSidewallAngle,30
;   oozeShieldSpeedMultiplier,1
;   infillExtruder,0
;   internalInfillPattern,Rectilinear
;   externalInfillPattern,Rectilinear
;   infillPercentage,40
;   outlineOverlapPercentage,15
;   infillExtrusionWidthPercentage,100
;   minInfillLength,5
;   infillLayerInterval,1
;   internalInfillAngles,45,-45
;   overlapInternalInfillAngles,0
;   externalInfillAngles,45,-45
;   generateSupport,0
;   supportExtruder,0
;   supportInfillPercentage,30
;   supportExtraInflation,0
;   supportBaseLayers,0
;   denseSupportExtruder,0
;   denseSupportLayers,0
;   denseSupportInfillPercentage,70
;   supportLayerInterval,1
;   supportHorizontalPartOffset,0.4
;   supportUpperSeparationLayers,1
;   supportLowerSeparationLayers,1
;   supportType,0
;   supportGridSpacing,4.5
;   maxOverhangAngle,45
;   supportAngles,0
;   temperatureName,Primary Extruder,Heated Bed
;   temperatureNumber,0,0
;   temperatureSetpointCount,2,1
;   temperatureSetpointLayers,1,2,1
;   temperatureSetpointTemperatures,210,205,50
;   temperatureStabilizeAtStartup,1,1
;   temperatureHeatedBed,0,1
;   temperatureRelayBetweenLayers,0,0
;   temperatureRelayBetweenLoops,0,0
;   fanLayers,1,2
;   fanSpeeds,0,100
;   blipFanToFullPower,0
;   adjustSpeedForCooling,1
;   minSpeedLayerTime,15
;   minCoolingSpeedSlowdown,50
;   increaseFanForCooling,1
;   minFanLayerTime,25
;   maxCoolingFanSpeed,100
;   increaseFanForBridging,1
;   bridgingFanSpeed,100
;   use5D,1
;   relativeEdistances,0
;   allowEaxisZeroing,1
;   independentExtruderAxes,0
;   includeM10123,0
;   stickySupport,1
;   applyToolheadOffsets,0
;   gcodeXoffset,0
;   gcodeYoffset,0
;   gcodeZoffset,0
;   overrideMachineDefinition,1
;   machineTypeOverride,0
;   strokeXoverride,300
;   strokeYoverride,300
;   strokeZoverride,400
;   originOffsetXoverride,0
;   originOffsetYoverride,0
;   originOffsetZoverride,0
;   homeXdirOverride,-1
;   homeYdirOverride,-1
;   homeZdirOverride,-1
;   flipXoverride,1
;   flipYoverride,-1
;   flipZoverride,1
;   toolheadOffsets,0,0|0,0|0,0|0,0|0,0|0,0
;   overrideFirmwareConfiguration,1
;   firmwareTypeOverride,RepRap (Marlin/Repetier/Sprinter)
;   GPXconfigOverride,r2
;   baudRateOverride,250000
;   overridePrinterModels,1
;   printerModelsOverride
;   startingGcode,;Init 181010,;G28 			; Home all axes,;G1 Z5 F3000 ; lift,;G92 E0			; Reset extrusion distance,,; // From Cura 181010,; // Update 190823 (GueroLoco),; // Start_gcode,M117 *Start Clean*		; Indicate nozzle clean in progress on LCD,;,M104 S[extruder0_temperature] ,M109 S[extruder0_temperature] ,M109 R[extruder0_temperature] ,;,M107			; Turn layer fan off,G21			; Set to metric [change to G20 if you want Imperial],G90			; Force coordinates to be absolute relative to the origin,G28			; Home X/Y/Z axis,;,;G1 X3 Y1 Z15 F9000		; Move safe Z height to shear strings,;G0 X1 Y1 Z0.2 F9000		; Move in 1mm from edge and up [z] 0.2mm,;G92 E0			; Set extruder to [0] zero,;G1 X100 E12 F500		; Extrude 30mm filiment along X axis 100mm long to prime and clean the nozzle,;G92 E0			; Reset extruder to [0] zero end of cleaning run,;G1 E-1 F500			; Retract filiment by 1 mm to reduce string effect,;G1 X180 F4000		; Quick wipe away from the filament line / purge,;,G92 E0			; Set Extruder to 0 ,G1 X0 Y0 F2000		; Move X and Y to 0 with speed 2000 (mm/min),G1 Z0.1 F1000		; Move Z to 0.1,G1 X8.0 F2000		; Move X to 8.0,G1 Y60.0 E4.0 F1000.0		; Prime - Move Y to 60 and Extruder with 4.0,G1 Y100.0 E8.5 F1000.0		; Prime - Move Y to 100 and Extruder with 8.5,G92 E0			; Set extruder to 0,M117 *End Clean*		; Indicate nozzle clean in progress on LCD,G1 Z5 F3000			; Lift - Move Z to 5,; ,M117 *Printing...*		; start msg,; // Begin printing with sliced GCode after here,;
;   layerChangeGcode,
;   retractionGcode,
;   toolChangeGcode,
;   endingGcode,;,; init 181010,;,;M107 			; Fan off,;G1 E-1 F300 			; Retract the filament a bit before lifting the nozzle,;M104 S0 			; Turn off extruder,;M140 S0 			; Turn off bed,;G91			; Relative positioning,;G28 X0 Y0 			; Move X/Y to min endstops so the head is out of teh way,;M84 			; Disable motors,;G90 			; Absolute positioning,;M117 Print ready...,,;,; // From Cura 181010,; // End_gcode,G92 E0			; Zero the extruded length,G1 E-30 F300			; Retract E -30,M106 S0			; Turn off cooling fan,M104 S0			; Turn off temperature,M140 S0		     	; Turn off bed,G91			; Relative positioning,G1 E-1 F300			; Retract the filament a bit before lifting the nozzle to release some of the pressure,G1 Z+20 E-5 X-20 Y-20 F7200	; Move Z up a bit and retract filament even more,G1 X0 Y150 F10000		; Move right min,M107			; Turn off layer fan,M84			; Disable motors,G90			; Absolute positioning,M117 *The-End* 		; End msg,;,
;   exportFileFormat,gcode
;   celebration,0
;   celebrationSong,Star Wars
;   postProcessing,
;   defaultSpeed,1800
;   outlineUnderspeed,0.5
;   solidInfillUnderspeed,0.8
;   supportUnderspeed,0.8
;   rapidXYspeed,6000
;   rapidZspeed,1002
;   minBridgingArea,50
;   bridgingExtraInflation,0.2
;   bridgingExtrusionMultiplier,1
;   bridgingSpeedMultiplier,0.6
;   useFixedBridgingAngle,0
;   fixedBridgingAngle,0
;   applyBridgingToPerimeters,0
;   filamentDiameters,1.75|1.75|1.75|1.75|1.75|1.75
;   filamentPricesPerKg,30|46|46|46|46|46
;   filamentDensities,1.25|1.25|1.25|1.25|1.25|1.25
;   useMinPrintHeight,0
;   minPrintHeight,0
;   useMaxPrintHeight,0
;   maxPrintHeight,9
;   useDiaphragm,0
;   diaphragmLayerInterval,20
;   robustSlicing,1
;   mergeAllIntoSolid,0
;   onlyRetractWhenCrossingOutline,1
;   retractBetweenLayers,1
;   useRetractionMinTravel,0
;   retractionMinTravel,3
;   retractWhileWiping,0
;   onlyWipeOutlines,1
;   avoidCrossingOutline,0
;   maxMovementDetourFactor,3
;   toolChangeRetractionDistance,12
;   toolChangeExtraRestartDistance,-0.5
;   toolChangeRetractionSpeed,600
;   externalThinWallType,1
;   internalThinWallType,1
;   thinWallAllowedOverlapPercentage,15
;   singleExtrusionMinLength,1
;   singleExtrusionMinPrintingWidthPercentage,50
;   singleExtrusionMaxPrintingWidthPercentage,200
;   singleExtrusionEndpointExtension,0.2
;   horizontalSizeCompensation,0
G90
M82
M106 S0
M140 S50
M190 S50
;Init 181010
;G28 			; Home all axes
;G1 Z5 F3000 ; lift
;G92 E0			; Reset extrusion distance
; // From Cura 181010
; // Update 190823 (GueroLoco)
; // Start_gcode
M117 *Start Clean*		; Indicate nozzle clean in progress on LCD
;
M104 S210 
M109 S210 
M109 R210 
;
M107			; Turn layer fan off
G21			; Set to metric [change to G20 if you want Imperial]
G90			; Force coordinates to be absolute relative to the origin
G28			; Home X/Y/Z axis
;
;G1 X3 Y1 Z15 F9000		; Move safe Z height to shear strings
;G0 X1 Y1 Z0.2 F9000		; Move in 1mm from edge and up [z] 0.2mm
;G92 E0			; Set extruder to [0] zero
;G1 X100 E12 F500		; Extrude 30mm filiment along X axis 100mm long to prime and clean the nozzle
;G92 E0			; Reset extruder to [0] zero end of cleaning run
;G1 E-1 F500			; Retract filiment by 1 mm to reduce string effect
;G1 X180 F4000		; Quick wipe away from the filament line / purge
;
G92 E0			; Set Extruder to 0 
G1 X0 Y0 F2000		; Move X and Y to 0 with speed 2000 (mm/min)
G1 Z0.1 F1000		; Move Z to 0.1
G1 X8.0 F2000		; Move X to 8.0
G1 Y60.0 E4.0 F1000.0		; Prime - Move Y to 60 and Extruder with 4.0
G1 Y100.0 E8.5 F1000.0		; Prime - Move Y to 100 and Extruder with 8.5
G92 E0			; Set extruder to 0
M117 *End Clean*		; Indicate nozzle clean in progress on LCD
G1 Z5 F3000			; Lift - Move Z to 5
; 
M117 *Printing...*		; start msg
; // Begin printing with sliced GCode after here
;
G92 E0
G1 E-6.0000 F3000
G1 Z0.480 F1002
; process Process1
; layer 1, Z = 0.180
T0
; tool H0.180 W0.350
; skirt
G1 X130.261 Y130.332 F6000
G1 Z0.180 F1002
G1 E0.0000 F900
G92 E0
G1 X130.346 Y130.247 E0.0030 F900
G1 X130.362 Y130.232 E0.0035
G1 X132.269 Y128.504 E0.0675
G1 X132.285 Y128.490 E0.0681
G1 X132.377 Y128.415 E0.0711
G1 X132.394 Y128.402 E0.0716
G1 X134.461 Y126.868 E0.1356
G1 X134.479 Y126.856 E0.1362
G1 X134.578 Y126.789 E0.1391
G1 X134.596 Y126.778 E0.1397
G1 X136.803 Y125.455 E0.2037
G1 X136.822 Y125.445 E0.2042
G1 X136.927 Y125.388 E0.2072
G1 X136.946 Y125.379 E0.2077
G1 X139.272 Y124.279 E0.2718
G1 X139.292 Y124.270 E0.2723
G1 X139.402 Y124.224 E0.2753
G1 X139.422 Y124.217 E0.2758
G1 X141.845 Y123.349 E0.3398
G1 X141.865 Y123.342 E0.3404
G1 X141.980 Y123.308 E0.3433
G1 X142.001 Y123.302 E0.3439
G1 X144.497 Y122.677 E0.4079
G1 X144.518 Y122.672 E0.4084
G1 X144.635 Y122.649 E0.4114
G1 X144.656 Y122.645 E0.4119
G1 X147.199 Y122.268 E0.4759
G1 X147.220 Y122.265 E0.4764
G1 X147.339 Y122.254 E0.4794
G1 X147.361 Y122.252 E0.4799
G1 X149.923 Y122.126 E0.5438
G1 X149.945 Y122.126 E0.5443
G1 X150.064 Y122.125 E0.5473
G1 X150.085 Y122.126 E0.5478
G1 X152.663 Y122.251 E0.6120
G1 X152.684 Y122.253 E0.6126
G1 X152.804 Y122.265 E0.6156
G1 X152.825 Y122.267 E0.6161
G1 X155.369 Y122.644 E0.6801
G1 X155.390 Y122.648 E0.6806
G1 X155.507 Y122.671 E0.6836
G1 X155.528 Y122.676 E0.6841
G1 X158.022 Y123.300 E0.7481
G1 X158.042 Y123.306 E0.7486
G1 X158.157 Y123.340 E0.7516
G1 X158.177 Y123.347 E0.7521
G1 X160.602 Y124.215 E0.8162
G1 X160.622 Y124.222 E0.8167
G1 X160.733 Y124.268 E0.8197
G1 X160.752 Y124.277 E0.8203
G1 X163.077 Y125.375 E0.8842
G1 X163.096 Y125.385 E0.8848
G1 X163.201 Y125.441 E0.8877
G1 X163.220 Y125.452 E0.8883
G1 X165.429 Y126.775 E0.9523
G1 X165.447 Y126.787 E0.9529
G1 X165.547 Y126.853 E0.9558
G1 X165.564 Y126.865 E0.9564
G1 X167.631 Y128.398 E1.0204
G1 X167.648 Y128.411 E1.0209
G1 X167.740 Y128.486 E1.0239
G1 X167.756 Y128.500 E1.0244
G1 X169.663 Y130.227 E1.0884
G1 X169.678 Y130.242 E1.0890
G1 X169.763 Y130.327 E1.0920
G1 X169.778 Y130.343 E1.0925
G1 X171.508 Y132.250 E1.1566
G1 X171.521 Y132.267 E1.1571
G1 X171.597 Y132.359 E1.1601
G1 X171.610 Y132.376 E1.1606
G1 X173.145 Y134.444 E1.2247
G1 X173.158 Y134.462 E1.2252
G1 X173.224 Y134.562 E1.2282
G1 X173.236 Y134.580 E1.2288
G1 X174.558 Y136.785 E1.2927
G1 X174.569 Y136.804 E1.2933
G1 X174.625 Y136.909 E1.2962
G1 X174.635 Y136.929 E1.2968
G1 X175.736 Y139.257 E1.3609
G1 X175.745 Y139.276 E1.3614
G1 X175.790 Y139.387 E1.3644
G1 X175.798 Y139.407 E1.3649
G1 X176.665 Y141.828 E1.4289
G1 X176.672 Y141.848 E1.4294
G1 X176.707 Y141.963 E1.4324
G1 X176.712 Y141.983 E1.4329
G1 X177.338 Y144.482 E1.4970
G1 X177.343 Y144.503 E1.4976
G1 X177.366 Y144.621 E1.5006
G1 X177.370 Y144.642 E1.5011
G1 X177.748 Y147.187 E1.5651
G1 X177.750 Y147.209 E1.5657
G1 X177.762 Y147.328 E1.5686
G1 X177.764 Y147.350 E1.5692
G1 X177.889 Y149.919 E1.6332
G1 X177.890 Y149.940 E1.6337
G1 X177.890 Y150.060 E1.6367
G1 X177.889 Y150.081 E1.6372
G1 X177.764 Y152.650 E1.7012
G1 X177.762 Y152.672 E1.7018
G1 X177.750 Y152.791 E1.7048
G1 X177.748 Y152.813 E1.7053
G1 X177.370 Y155.358 E1.7693
G1 X177.366 Y155.379 E1.7699
G1 X177.343 Y155.496 E1.7728
G1 X177.338 Y155.517 E1.7734
G1 X176.714 Y158.010 E1.8373
G1 X176.708 Y158.031 E1.8378
G1 X176.674 Y158.146 E1.8408
G1 X176.667 Y158.166 E1.8414
G1 X175.800 Y160.590 E1.9054
G1 X175.792 Y160.610 E1.9059
G1 X175.746 Y160.720 E1.9089
G1 X175.737 Y160.740 E1.9095
G1 X174.641 Y163.058 E1.9733
G1 X174.632 Y163.077 E1.9738
G1 X174.575 Y163.182 E1.9768
G1 X174.565 Y163.201 E1.9773
G1 X173.239 Y165.416 E2.0415
G1 X173.227 Y165.434 E2.0421
G1 X173.161 Y165.534 E2.0451
G1 X173.148 Y165.551 E2.0456
G1 X171.616 Y167.617 E2.1096
G1 X171.603 Y167.634 E2.1101
G1 X171.528 Y167.726 E2.1131
G1 X171.514 Y167.742 E2.1136
G1 X169.789 Y169.647 E2.1776
G1 X169.774 Y169.663 E2.1781
G1 X169.689 Y169.748 E2.1811
G1 X169.673 Y169.762 E2.1816
G1 X167.767 Y171.491 E2.2456
G1 X167.751 Y171.505 E2.2462
G1 X167.658 Y171.580 E2.2491
G1 X167.641 Y171.593 E2.2497
G1 X165.575 Y173.127 E2.3137
G1 X165.558 Y173.139 E2.3142
G1 X165.458 Y173.206 E2.3172
G1 X165.440 Y173.217 E2.3177
G1 X163.236 Y174.539 E2.3817
G1 X163.217 Y174.550 E2.3822
G1 X163.112 Y174.606 E2.3852
G1 X163.093 Y174.616 E2.3857
G1 X160.764 Y175.718 E2.4498
G1 X160.744 Y175.727 E2.4504
G1 X160.634 Y175.773 E2.4534
G1 X160.614 Y175.781 E2.4539
G1 X158.194 Y176.648 E2.5179
G1 X158.173 Y176.654 E2.5184
G1 X158.059 Y176.689 E2.5214
G1 X158.038 Y176.695 E2.5219
G1 X155.538 Y177.322 E2.5860
G1 X155.517 Y177.327 E2.5866
G1 X155.400 Y177.350 E2.5896
G1 X155.378 Y177.354 E2.5901
G1 X152.831 Y177.732 E2.6542
G1 X152.810 Y177.735 E2.6547
G1 X152.690 Y177.747 E2.6577
G1 X152.669 Y177.748 E2.6582
G1 X150.098 Y177.874 E2.7223
G1 X150.076 Y177.875 E2.7228
G1 X149.957 Y177.875 E2.7258
G1 X149.936 Y177.874 E2.7263
G1 X147.365 Y177.749 E2.7904
G1 X147.343 Y177.747 E2.7909
G1 X147.224 Y177.735 E2.7939
G1 X147.202 Y177.733 E2.7944
G1 X144.657 Y177.355 E2.8585
G1 X144.636 Y177.351 E2.8590
G1 X144.519 Y177.328 E2.8620
G1 X144.498 Y177.323 E2.8625
G1 X142.001 Y176.698 E2.9265
G1 X141.981 Y176.693 E2.9271
G1 X141.866 Y176.658 E2.9301
G1 X141.845 Y176.651 E2.9306
G1 X139.423 Y175.784 E2.9946
G1 X139.403 Y175.776 E2.9952
G1 X139.292 Y175.730 E2.9981
G1 X139.273 Y175.722 E2.9987
G1 X136.947 Y174.621 E3.0627
G1 X136.928 Y174.612 E3.0632
G1 X136.822 Y174.555 E3.0662
G1 X136.803 Y174.545 E3.0667
G1 X134.597 Y173.222 E3.1307
G1 X134.578 Y173.211 E3.1313
G1 X134.479 Y173.144 E3.1343
G1 X134.461 Y173.132 E3.1348
G1 X132.394 Y171.599 E3.1988
G1 X132.377 Y171.585 E3.1994
G1 X132.285 Y171.510 E3.2023
G1 X132.269 Y171.496 E3.2029
G1 X130.364 Y169.770 E3.2668
G1 X130.348 Y169.755 E3.2674
G1 X130.264 Y169.670 E3.2703
G1 X130.249 Y169.655 E3.2709
G1 X128.519 Y167.746 E3.3350
G1 X128.505 Y167.730 E3.3355
G1 X128.430 Y167.638 E3.3385
G1 X128.416 Y167.621 E3.3390
G1 X126.883 Y165.554 E3.4030
G1 X126.871 Y165.536 E3.4036
G1 X126.804 Y165.436 E3.4066
G1 X126.793 Y165.418 E3.4071
G1 X125.470 Y163.212 E3.4711
G1 X125.460 Y163.193 E3.4716
G1 X125.403 Y163.087 E3.4746
G1 X125.394 Y163.068 E3.4752
G1 X124.293 Y160.742 E3.5392
G1 X124.285 Y160.723 E3.5397
G1 X124.239 Y160.612 E3.5427
G1 X124.231 Y160.592 E3.5432
G1 X123.364 Y158.170 E3.6072
G1 X123.357 Y158.149 E3.6078
G1 X123.322 Y158.034 E3.6108
G1 X123.317 Y158.014 E3.6113
G1 X122.692 Y155.517 E3.6753
G1 X122.687 Y155.496 E3.6759
G1 X122.664 Y155.379 E3.6788
G1 X122.660 Y155.358 E3.6794
G1 X122.282 Y152.813 E3.7434
G1 X122.280 Y152.791 E3.7439
G1 X122.268 Y152.672 E3.7469
G1 X122.266 Y152.650 E3.7475
G1 X122.141 Y150.081 E3.8115
G1 X122.140 Y150.060 E3.8120
G1 X122.140 Y149.940 E3.8150
G1 X122.141 Y149.919 E3.8155
G1 X122.266 Y147.350 E3.8795
