; G-Code generated by Simplify3D(R) Version 4.1.2
; Sep 21, 2019 at 12:08:42 PM
; Settings Summary
;   processName,Process1
;   applyToModels,Tevo Tornado - Support Capteur Optique Filament 08
;   profileName,101.01 40% Tevo Tornado (experimental)
;   profileVersion,2019-09-14 14:29:36
;   baseProfile,Creality CR-10(2)
;   printMaterial,PLA
;   printQuality,Medium
;   printExtruders,
;   extruderName,Primary Extruder
;   extruderToolheadNumber,0
;   extruderDiameter,0.4
;   extruderAutoWidth,0
;   extruderWidth,0.35
;   extrusionMultiplier,0.95
;   extruderUseRetract,1
;   extruderRetractionDistance,6
;   extruderExtraRestartDistance,0
;   extruderRetractionZLift,0.3
;   extruderRetractionSpeed,3000
;   extruderUseCoasting,0
;   extruderCoastingDistance,0.2
;   extruderUseWipe,0
;   extruderWipeDistance,4
;   primaryExtruder,0
;   layerHeight,0.15
;   topSolidLayers,4
;   bottomSolidLayers,3
;   perimeterOutlines,3
;   printPerimetersInsideOut,0
;   startPointOption,2
;   startPointOriginX,0
;   startPointOriginY,300
;   sequentialIslands,0
;   spiralVaseMode,0
;   firstLayerHeightPercentage,120
;   firstLayerWidthPercentage,100
;   firstLayerUnderspeed,0.5
;   useRaft,0
;   raftExtruder,0
;   raftTopLayers,3
;   raftBaseLayers,2
;   raftOffset,3
;   raftSeparationDistance,0.14
;   raftTopInfill,100
;   aboveRaftSpeedMultiplier,0.3
;   useSkirt,1
;   skirtExtruder,0
;   skirtLayers,1
;   skirtOutlines,3
;   skirtOffset,2
;   usePrimePillar,0
;   primePillarExtruder,999
;   primePillarWidth,12
;   primePillarLocation,7
;   primePillarSpeedMultiplier,1
;   useOozeShield,0
;   oozeShieldExtruder,999
;   oozeShieldOffset,2
;   oozeShieldOutlines,1
;   oozeShieldSidewallShape,1
;   oozeShieldSidewallAngle,30
;   oozeShieldSpeedMultiplier,1
;   infillExtruder,0
;   internalInfillPattern,Rectilinear
;   externalInfillPattern,Rectilinear
;   infillPercentage,40
;   outlineOverlapPercentage,15
;   infillExtrusionWidthPercentage,100
;   minInfillLength,5
;   infillLayerInterval,1
;   internalInfillAngles,45,-45
;   overlapInternalInfillAngles,0
;   externalInfillAngles,45,-45
;   generateSupport,0
;   supportExtruder,0
;   supportInfillPercentage,30
;   supportExtraInflation,0
;   supportBaseLayers,0
;   denseSupportExtruder,0
;   denseSupportLayers,0
;   denseSupportInfillPercentage,70
;   supportLayerInterval,1
;   supportHorizontalPartOffset,0.4
;   supportUpperSeparationLayers,1
;   supportLowerSeparationLayers,1
;   supportType,0
;   supportGridSpacing,4.5
;   maxOverhangAngle,45
;   supportAngles,0
;   temperatureName,Primary Extruder,Heated Bed
;   temperatureNumber,0,0
;   temperatureSetpointCount,2,1
;   temperatureSetpointLayers,1,2,1
;   temperatureSetpointTemperatures,210,205,50
;   temperatureStabilizeAtStartup,1,1
;   temperatureHeatedBed,0,1
;   fanLayers,1,2
;   fanSpeeds,0,100
;   blipFanToFullPower,0
;   adjustSpeedForCooling,1
;   minSpeedLayerTime,15
;   minCoolingSpeedSlowdown,50
;   increaseFanForCooling,1
;   minFanLayerTime,25
;   maxCoolingFanSpeed,100
;   increaseFanForBridging,1
;   bridgingFanSpeed,100
;   use5D,1
;   relativeEdistances,0
;   allowEaxisZeroing,1
;   independentExtruderAxes,0
;   includeM10123,0
;   stickySupport,1
;   applyToolheadOffsets,0
;   gcodeXoffset,0
;   gcodeYoffset,0
;   gcodeZoffset,0
;   overrideMachineDefinition,1
;   machineTypeOverride,0
;   strokeXoverride,300
;   strokeYoverride,300
;   strokeZoverride,400
;   originOffsetXoverride,0
;   originOffsetYoverride,0
;   originOffsetZoverride,0
;   homeXdirOverride,-1
;   homeYdirOverride,-1
;   homeZdirOverride,-1
;   flipXoverride,1
;   flipYoverride,-1
;   flipZoverride,1
;   toolheadOffsets,0,0|0,0|0,0|0,0|0,0|0,0
;   overrideFirmwareConfiguration,1
;   firmwareTypeOverride,RepRap (Marlin/Repetier/Sprinter)
;   GPXconfigOverride,r2
;   baudRateOverride,250000
;   overridePrinterModels,1
;   printerModelsOverride
;   startingGcode,;Init 181010,;G28 			; Home all axes,;G1 Z5 F3000 ; lift,;G92 E0			; Reset extrusion distance,,; // From Cura 181010,; // Update 190823 (GueroLoco),; // Start_gcode,M117 *Start Clean*		; Indicate nozzle clean in progress on LCD,;,M104 S[extruder0_temperature] ,M109 S[extruder0_temperature] ,M109 R[extruder0_temperature] ,;,M107			; Turn layer fan off,G21			; Set to metric [change to G20 if you want Imperial],G90			; Force coordinates to be absolute relative to the origin,G28			; Home X/Y/Z axis,;,;G1 X3 Y1 Z15 F9000		; Move safe Z height to shear strings,;G0 X1 Y1 Z0.2 F9000		; Move in 1mm from edge and up [z] 0.2mm,;G92 E0			; Set extruder to [0] zero,;G1 X100 E12 F500		; Extrude 30mm filiment along X axis 100mm long to prime and clean the nozzle,;G92 E0			; Reset extruder to [0] zero end of cleaning run,;G1 E-1 F500			; Retract filiment by 1 mm to reduce string effect,;G1 X180 F4000		; Quick wipe away from the filament line / purge,;,G92 E0			; Set Extruder to 0 ,G1 X0 Y0 F2000		; Move X and Y to 0 with speed 2000 (mm/min),G1 Z0.1 F1000		; Move Z to 0.1,G1 X8.0 F2000		; Move X to 8.0,G1 Y60.0 E4.0 F1000.0		; Prime - Move Y to 60 and Extruder with 4.0,G1 Y100.0 E8.5 F1000.0		; Prime - Move Y to 100 and Extruder with 8.5,G92 E0			; Set extruder to 0,M117 *End Clean*		; Indicate nozzle clean in progress on LCD,G1 Z5 F3000			; Lift - Move Z to 5,; ,M117 *Printing...*		; start msg,; // Begin printing with sliced GCode after here,;
;   layerChangeGcode,
;   retractionGcode,
;   toolChangeGcode,
;   endingGcode,;,; init 181010,;,;M107 			; Fan off,;G1 E-1 F300 			; Retract the filament a bit before lifting the nozzle,;M104 S0 			; Turn off extruder,;M140 S0 			; Turn off bed,;G91			; Relative positioning,;G28 X0 Y0 			; Move X/Y to min endstops so the head is out of teh way,;M84 			; Disable motors,;G90 			; Absolute positioning,;M117 Print ready...,,;,; // From Cura 181010,; // End_gcode,G92 E0			; Zero the extruded length,G1 E-30 F300			; Retract E -30,M106 S0			; Turn off cooling fan,M104 S0			; Turn off temperature,M140 S0		     	; Turn off bed,G91			; Relative positioning,G1 E-1 F300			; Retract the filament a bit before lifting the nozzle to release some of the pressure,G1 Z+20 E-5 X-20 Y-20 F7200	; Move Z up a bit and retract filament even more,G1 X0 Y150 F10000		; Move right min,M107			; Turn off layer fan,M84			; Disable motors,G90			; Absolute positioning,M117 *The-End* 		; End msg,;,
;   exportFileFormat,gcode
;   celebration,0
;   celebrationSong,Star Wars
;   postProcessing,
;   defaultSpeed,1800
;   outlineUnderspeed,0.5
;   solidInfillUnderspeed,0.8
;   supportUnderspeed,0.8
;   rapidXYspeed,6000
;   rapidZspeed,1002
;   minBridgingArea,50
;   bridgingExtraInflation,0.2
;   bridgingExtrusionMultiplier,1
;   bridgingSpeedMultiplier,0.6
;   useFixedBridgingAngle,0
;   fixedBridgingAngle,0
;   applyBridgingToPerimeters,0
;   filamentDiameters,1.75|1.75|1.75|1.75|1.75|1.75
;   filamentPricesPerKg,30|46|46|46|46|46
;   filamentDensities,1.25|1.25|1.25|1.25|1.25|1.25
;   useMinPrintHeight,0
;   minPrintHeight,0
;   useMaxPrintHeight,0
;   maxPrintHeight,9
;   useDiaphragm,0
;   diaphragmLayerInterval,20
;   robustSlicing,1
;   mergeAllIntoSolid,0
;   onlyRetractWhenCrossingOutline,1
;   retractBetweenLayers,1
;   useRetractionMinTravel,0
;   retractionMinTravel,3
;   retractWhileWiping,0
;   onlyWipeOutlines,1
;   avoidCrossingOutline,0
;   maxMovementDetourFactor,3
;   toolChangeRetractionDistance,12
;   toolChangeExtraRestartDistance,-0.5
;   toolChangeRetractionSpeed,600
;   externalThinWallType,1
;   internalThinWallType,1
;   thinWallAllowedOverlapPercentage,15
;   singleExtrusionMinLength,1
;   singleExtrusionMinPrintingWidthPercentage,50
;   singleExtrusionMaxPrintingWidthPercentage,200
;   singleExtrusionEndpointExtension,0.2
;   horizontalSizeCompensation,0
G90
M82
M106 S0
M140 S50
M190 S50
;Init 181010
;G28 			; Home all axes
;G1 Z5 F3000 ; lift
;G92 E0			; Reset extrusion distance
; // From Cura 181010
; // Update 190823 (GueroLoco)
; // Start_gcode
M117 *Start Clean*		; Indicate nozzle clean in progress on LCD
;
M104 S210 
M109 S210 
M109 R210 
;
M107			; Turn layer fan off
G21			; Set to metric [change to G20 if you want Imperial]
G90			; Force coordinates to be absolute relative to the origin
G28			; Home X/Y/Z axis
;
;G1 X3 Y1 Z15 F9000		; Move safe Z height to shear strings
;G0 X1 Y1 Z0.2 F9000		; Move in 1mm from edge and up [z] 0.2mm
;G92 E0			; Set extruder to [0] zero
;G1 X100 E12 F500		; Extrude 30mm filiment along X axis 100mm long to prime and clean the nozzle
;G92 E0			; Reset extruder to [0] zero end of cleaning run
;G1 E-1 F500			; Retract filiment by 1 mm to reduce string effect
;G1 X180 F4000		; Quick wipe away from the filament line / purge
;
G92 E0			; Set Extruder to 0 
G1 X0 Y0 F2000		; Move X and Y to 0 with speed 2000 (mm/min)
G1 Z0.1 F1000		; Move Z to 0.1
G1 X8.0 F2000		; Move X to 8.0
G1 Y60.0 E4.0 F1000.0		; Prime - Move Y to 60 and Extruder with 4.0
G1 Y100.0 E8.5 F1000.0		; Prime - Move Y to 100 and Extruder with 8.5
G92 E0			; Set extruder to 0
M117 *End Clean*		; Indicate nozzle clean in progress on LCD
G1 Z5 F3000			; Lift - Move Z to 5
; 
M117 *Printing...*		; start msg
; // Begin printing with sliced GCode after here
;
; process Process1
; layer 1, Z = 0.180
T0
G92 E0.0000
G1 E-6.0000 F3000
; feature skirt
; tool H0.180 W0.350
G1 Z0.300 F1002
G1 X101.529 Y127.595 F6000
G1 Z0.180 F1002
G1 E0.0000 F3000
G92 E0.0000
G1 X192.581 Y127.594 E2.2656 F900
G1 X192.742 Y127.603 E2.2696
G1 X194.046 Y127.750 E2.3023
G1 X194.361 Y127.822 E2.3103
G1 X195.677 Y128.282 E2.3450
G1 X195.967 Y128.422 E2.3530
G1 X197.147 Y129.163 E2.3877
G1 X197.400 Y129.365 E2.3958
G1 X198.385 Y130.350 E2.4304
G1 X198.587 Y130.603 E2.4385
G1 X199.328 Y131.783 E2.4731
G1 X199.468 Y132.073 E2.4812
G1 X199.928 Y133.389 E2.5159
G1 X200.000 Y133.704 E2.5239
G1 X200.147 Y135.008 E2.5566
G1 X200.156 Y135.169 E2.5606
G1 X200.156 Y146.211 E2.8353
G1 X200.147 Y146.372 E2.8393
G1 X200.000 Y147.676 E2.8720
G1 X199.928 Y147.991 E2.8800
G1 X199.468 Y149.307 E2.9147
G1 X199.328 Y149.598 E2.9227
G1 X198.587 Y150.778 E2.9574
G1 X198.385 Y151.030 E2.9654
G1 X197.400 Y152.016 E3.0001
G1 X197.147 Y152.217 E3.0082
G1 X195.967 Y152.958 E3.0428
G1 X195.676 Y153.098 E3.0509
G1 X194.361 Y153.559 E3.0855
G1 X194.046 Y153.631 E3.0936
G1 X192.742 Y153.778 E3.1262
G1 X192.581 Y153.787 E3.1303
G1 X176.090 Y153.787 E3.5406
G1 X175.178 Y153.890 E3.5634
G1 X174.469 Y154.142 E3.5822
G1 X173.834 Y154.546 E3.6009
G1 X173.191 Y155.200 E3.6237
G1 X172.845 Y155.644 E3.6377
G1 X172.737 Y155.766 E3.6418
G1 X171.648 Y156.875 E3.6804
G1 X171.394 Y157.080 E3.6886
G1 X170.015 Y157.959 E3.7292
G1 X169.722 Y158.102 E3.7374
G1 X168.180 Y158.648 E3.7781
G1 X167.862 Y158.721 E3.7862
G1 X166.318 Y158.897 E3.8249
G1 X166.155 Y158.906 E3.8289
G1 X153.029 Y158.905 E4.1555
G1 X151.345 Y157.221 E4.2148
G1 X151.345 Y150.405 E4.3844
G1 X121.875 Y150.406 E5.1177
G1 X121.875 Y170.722 E5.6232
G1 X120.191 Y172.406 E5.6825
G1 X101.529 Y172.405 E6.1468
G1 X99.845 Y170.721 E6.2061
G1 X99.845 Y129.279 E7.2373
G1 X101.529 Y127.595 E7.2965
G92 E0.0000
G1 E-6.0000 F3000
G1 Z0.480 F1002
G1 X101.674 Y127.945 F6000
G1 Z0.180 F1002
G1 E0.0000 F3000
G92 E0.0000
G1 X192.571 Y127.944 E2.2618 F900
G1 X192.712 Y127.952 E2.2653
G1 X193.988 Y128.095 E2.2972
G1 X194.264 Y128.158 E2.3043
G1 X195.542 Y128.606 E2.3380
G1 X195.798 Y128.729 E2.3450
G1 X196.945 Y129.449 E2.3787
G1 X197.166 Y129.626 E2.3858
G1 X198.124 Y130.584 E2.4195
G1 X198.301 Y130.805 E2.4265
G1 X199.021 Y131.952 E2.4602
G1 X199.144 Y132.208 E2.4673
G1 X199.592 Y133.486 E2.5010
G1 X199.655 Y133.762 E2.5081
G1 X199.798 Y135.038 E2.5400
G1 X199.806 Y135.179 E2.5435
G1 X199.806 Y146.201 E2.8178
G1 X199.798 Y146.342 E2.8213
G1 X199.655 Y147.618 E2.8532
G1 X199.592 Y147.894 E2.8603
G1 X199.144 Y149.173 E2.8940
G1 X199.021 Y149.428 E2.9010
G1 X198.301 Y150.575 E2.9347
G1 X198.124 Y150.797 E2.9418
G1 X197.166 Y151.754 E2.9755
G1 X196.945 Y151.931 E2.9825
G1 X195.798 Y152.651 E3.0162
G1 X195.542 Y152.775 E3.0233
G1 X194.264 Y153.222 E3.0570
G1 X193.988 Y153.285 E3.0641
G1 X192.712 Y153.429 E3.0960
G1 X192.571 Y153.437 E3.0995
G1 X176.070 Y153.437 E3.5101
G1 X175.099 Y153.547 E3.5344
G1 X174.314 Y153.825 E3.5551
G1 X173.612 Y154.272 E3.5758
G1 X172.927 Y154.969 E3.6002
G1 X172.575 Y155.420 E3.6144
G1 X172.481 Y155.528 E3.6180
G1 X171.412 Y156.615 E3.6559
G1 X171.190 Y156.795 E3.6630
G1 X169.844 Y157.653 E3.7027
G1 X169.586 Y157.779 E3.7099
G1 X168.082 Y158.311 E3.7496
G1 X167.802 Y158.376 E3.7567
G1 X166.288 Y158.548 E3.7946
G1 X166.145 Y158.556 E3.7982
G1 X153.174 Y158.555 E4.1209
G1 X151.695 Y157.076 E4.1730
G1 X151.695 Y150.055 E4.3477
G1 X121.525 Y150.056 E5.0984
G1 X121.525 Y170.577 E5.6090
G1 X120.046 Y172.056 E5.6611
G1 X101.674 Y172.055 E6.1182
G1 X100.195 Y170.576 E6.1703
G1 X100.195 Y129.424 E7.1942
G1 X101.674 Y127.945 E7.2463
G92 E0.0000
G1 E-6.0000 F3000
G1 Z0.480 F1002
G1 X101.819 Y128.295 F6000
G1 Z0.180 F1002
G1 E0.0000 F3000
G92 E0.0000
G1 X192.561 Y128.294 E2.2579 F900
G1 X192.683 Y128.300 E2.2609
G1 X193.929 Y128.441 E2.2921
G1 X194.167 Y128.495 E2.2982
G1 X195.408 Y128.930 E2.3309
G1 X195.628 Y129.036 E2.3370
G1 X196.742 Y129.735 E2.3697
G1 X196.933 Y129.887 E2.3758
G1 X197.863 Y130.817 E2.4085
G1 X198.015 Y131.008 E2.4146
G1 X198.714 Y132.122 E2.4473
G1 X198.820 Y132.342 E2.4534
G1 X199.255 Y133.583 E2.4861
G1 X199.309 Y133.821 E2.4922
G1 X199.450 Y135.067 E2.5234
G1 X199.456 Y135.189 E2.5265
G1 X199.456 Y146.191 E2.8002
G1 X199.450 Y146.313 E2.8033
G1 X199.309 Y147.559 E2.8345
G1 X199.255 Y147.797 E2.8405
G1 X198.820 Y149.038 E2.8733
G1 X198.714 Y149.258 E2.8793
G1 X198.015 Y150.372 E2.9121
G1 X197.863 Y150.563 E2.9181
G1 X196.933 Y151.493 E2.9509
G1 X196.742 Y151.645 E2.9569
G1 X195.628 Y152.345 E2.9897
G1 X195.408 Y152.451 E2.9957
G1 X194.167 Y152.885 E3.0285
G1 X193.929 Y152.939 E3.0345
G1 X192.683 Y153.080 E3.0657
G1 X192.561 Y153.087 E3.0688
G1 X176.050 Y153.087 E3.4796
G1 X175.020 Y153.204 E3.5054
G1 X174.160 Y153.508 E3.5281
G1 X173.390 Y153.999 E3.5508
G1 X172.664 Y154.738 E3.5766
G1 X172.305 Y155.197 E3.5911
G1 X172.224 Y155.290 E3.5942
G1 X171.177 Y156.356 E3.6313
G1 X170.985 Y156.511 E3.6375
G1 X169.672 Y157.347 E3.6762
G1 X169.450 Y157.455 E3.6824
G1 X167.984 Y157.975 E3.7211
G1 X167.743 Y158.030 E3.7272
G1 X166.258 Y158.199 E3.7644
G1 X166.135 Y158.206 E3.7675
G1 X153.319 Y158.205 E4.0864
G1 X152.045 Y156.931 E4.1312
G1 X152.045 Y149.705 E4.3110
G1 X121.175 Y149.706 E5.0791
G1 X121.175 Y170.432 E5.5948
G1 X119.901 Y171.706 E5.6397
G1 X101.819 Y171.705 E6.0896
G1 X100.545 Y170.431 E6.1344
G1 X100.545 Y129.569 E7.1512
G1 X101.819 Y128.295 E7.1960
G92 E0.0000
G1 E-6.0000 F3000
; feature outer perimeter
G1 Z0.480 F1002
G1 X102.895 Y130.645 F6000
G1 Z0.180 F1002
G1 E0.0000 F3000
G92 E0.0000
G1 X192.490 Y130.644 E2.2294 F450
G1 X193.525 Y130.760 E2.2553
G1 X194.498 Y131.101 E2.2809
G1 X195.371 Y131.649 E2.3066
G1 X196.101 Y132.379 E2.3323
G1 X196.649 Y133.252 E2.3579
G1 X196.990 Y134.225 E2.3836
G1 X197.106 Y135.260 E2.4095
G1 X197.106 Y146.120 E2.6797
G1 X196.990 Y147.155 E2.7056
G1 X196.649 Y148.128 E2.7313
G1 X196.101 Y149.002 E2.7570
G1 X195.371 Y149.731 E2.7826
G1 X194.498 Y150.279 E2.8083
G1 X193.525 Y150.620 E2.8339
G1 X192.490 Y150.737 E2.8598
G1 X175.916 Y150.737 E3.2722
G1 X174.488 Y150.899 E3.3080
G1 X173.123 Y151.383 E3.3440
G1 X171.902 Y152.161 E3.3801
G1 X170.894 Y153.186 E3.4158
G1 X170.498 Y153.694 E3.4319
G1 X169.601 Y154.606 E3.4637
G1 X168.531 Y155.288 E3.4953
G1 X167.334 Y155.712 E3.5269
G1 X166.064 Y155.856 E3.5587
G1 X154.395 Y155.855 E3.8490
G1 X154.395 Y147.355 E4.0605
G1 X118.825 Y147.356 E4.9456
G1 X118.825 Y169.356 E5.4930
G1 X102.895 Y169.355 E5.8894
G1 X102.895 Y130.645 E6.8526
; feature inner perimeter
G1 X103.245 Y130.995 F6000
G92 E0.0000
G1 X192.471 Y130.994 E2.2202 F675
G1 X193.446 Y131.104 E2.2446
G1 X194.345 Y131.418 E2.2683
G1 X195.152 Y131.925 E2.2920
G1 X195.825 Y132.598 E2.3157
G1 X196.332 Y133.405 E2.3394
G1 X196.646 Y134.304 E2.3631
G1 X196.756 Y135.279 E2.3875
G1 X196.756 Y146.101 E2.6568
