; G-Code generated by Simplify3D(R) Version 4.1.2
; Sep 22, 2019 at 12:45:20 PM
; Settings Summary
;   processName,Process1
;   applyToModels,Tevo Tornado - Support Capteur Optique Filament 103
;   profileName,101.01 40% Tevo Tornado (experimental)
;   profileVersion,2019-09-14 14:29:36
;   baseProfile,Creality CR-10(2)
;   printMaterial,PLA
;   printQuality,Medium
;   printExtruders,
;   extruderName,Primary Extruder
;   extruderToolheadNumber,0
;   extruderDiameter,0.4
;   extruderAutoWidth,0
;   extruderWidth,0.35
;   extrusionMultiplier,0.95
;   extruderUseRetract,1
;   extruderRetractionDistance,6
;   extruderExtraRestartDistance,0
;   extruderRetractionZLift,0.3
;   extruderRetractionSpeed,3000
;   extruderUseCoasting,0
;   extruderCoastingDistance,0.2
;   extruderUseWipe,0
;   extruderWipeDistance,4
;   primaryExtruder,0
;   layerHeight,0.15
;   topSolidLayers,4
;   bottomSolidLayers,3
;   perimeterOutlines,3
;   printPerimetersInsideOut,0
;   startPointOption,2
;   startPointOriginX,0
;   startPointOriginY,300
;   sequentialIslands,0
;   spiralVaseMode,0
;   firstLayerHeightPercentage,120
;   firstLayerWidthPercentage,100
;   firstLayerUnderspeed,0.5
;   useRaft,0
;   raftExtruder,0
;   raftTopLayers,3
;   raftBaseLayers,2
;   raftOffset,3
;   raftSeparationDistance,0.14
;   raftTopInfill,100
;   aboveRaftSpeedMultiplier,0.3
;   useSkirt,1
;   skirtExtruder,0
;   skirtLayers,1
;   skirtOutlines,3
;   skirtOffset,2
;   usePrimePillar,0
;   primePillarExtruder,999
;   primePillarWidth,12
;   primePillarLocation,7
;   primePillarSpeedMultiplier,1
;   useOozeShield,0
;   oozeShieldExtruder,999
;   oozeShieldOffset,2
;   oozeShieldOutlines,1
;   oozeShieldSidewallShape,1
;   oozeShieldSidewallAngle,30
;   oozeShieldSpeedMultiplier,1
;   infillExtruder,0
;   internalInfillPattern,Rectilinear
;   externalInfillPattern,Rectilinear
;   infillPercentage,40
;   outlineOverlapPercentage,15
;   infillExtrusionWidthPercentage,100
;   minInfillLength,5
;   infillLayerInterval,1
;   internalInfillAngles,45,-45
;   overlapInternalInfillAngles,0
;   externalInfillAngles,45,-45
;   generateSupport,0
;   supportExtruder,0
;   supportInfillPercentage,30
;   supportExtraInflation,0
;   supportBaseLayers,0
;   denseSupportExtruder,0
;   denseSupportLayers,0
;   denseSupportInfillPercentage,70
;   supportLayerInterval,1
;   supportHorizontalPartOffset,0.4
;   supportUpperSeparationLayers,1
;   supportLowerSeparationLayers,1
;   supportType,0
;   supportGridSpacing,4.5
;   maxOverhangAngle,45
;   supportAngles,0
;   temperatureName,Primary Extruder,Heated Bed
;   temperatureNumber,0,0
;   temperatureSetpointCount,2,1
;   temperatureSetpointLayers,1,2,1
;   temperatureSetpointTemperatures,210,205,50
;   temperatureStabilizeAtStartup,1,1
;   temperatureHeatedBed,0,1
;   fanLayers,1,2
;   fanSpeeds,0,100
;   blipFanToFullPower,0
;   adjustSpeedForCooling,1
;   minSpeedLayerTime,15
;   minCoolingSpeedSlowdown,50
;   increaseFanForCooling,1
;   minFanLayerTime,25
;   maxCoolingFanSpeed,100
;   increaseFanForBridging,1
;   bridgingFanSpeed,100
;   use5D,1
;   relativeEdistances,0
;   allowEaxisZeroing,1
;   independentExtruderAxes,0
;   includeM10123,0
;   stickySupport,1
;   applyToolheadOffsets,0
;   gcodeXoffset,0
;   gcodeYoffset,0
;   gcodeZoffset,0
;   overrideMachineDefinition,1
;   machineTypeOverride,0
;   strokeXoverride,300
;   strokeYoverride,300
;   strokeZoverride,400
;   originOffsetXoverride,0
;   originOffsetYoverride,0
;   originOffsetZoverride,0
;   homeXdirOverride,-1
;   homeYdirOverride,-1
;   homeZdirOverride,-1
;   flipXoverride,1
;   flipYoverride,-1
;   flipZoverride,1
;   toolheadOffsets,0,0|0,0|0,0|0,0|0,0|0,0
;   overrideFirmwareConfiguration,1
;   firmwareTypeOverride,RepRap (Marlin/Repetier/Sprinter)
;   GPXconfigOverride,r2
;   baudRateOverride,250000
;   overridePrinterModels,1
;   printerModelsOverride
;   startingGcode,;Init 181010,;G28 			; Home all axes,;G1 Z5 F3000 ; lift,;G92 E0			; Reset extrusion distance,,; // From Cura 181010,; // Update 190823 (GueroLoco),; // Start_gcode,M117 *Start Clean*		; Indicate nozzle clean in progress on LCD,;,M104 S[extruder0_temperature] ,M109 S[extruder0_temperature] ,M109 R[extruder0_temperature] ,;,M107			; Turn layer fan off,G21			; Set to metric [change to G20 if you want Imperial],G90			; Force coordinates to be absolute relative to the origin,G28			; Home X/Y/Z axis,;,;G1 X3 Y1 Z15 F9000		; Move safe Z height to shear strings,;G0 X1 Y1 Z0.2 F9000		; Move in 1mm from edge and up [z] 0.2mm,;G92 E0			; Set extruder to [0] zero,;G1 X100 E12 F500		; Extrude 30mm filiment along X axis 100mm long to prime and clean the nozzle,;G92 E0			; Reset extruder to [0] zero end of cleaning run,;G1 E-1 F500			; Retract filiment by 1 mm to reduce string effect,;G1 X180 F4000		; Quick wipe away from the filament line / purge,;,G92 E0			; Set Extruder to 0 ,G1 X0 Y0 F2000		; Move X and Y to 0 with speed 2000 (mm/min),G1 Z0.1 F1000		; Move Z to 0.1,G1 X8.0 F2000		; Move X to 8.0,G1 Y60.0 E4.0 F1000.0		; Prime - Move Y to 60 and Extruder with 4.0,G1 Y100.0 E8.5 F1000.0		; Prime - Move Y to 100 and Extruder with 8.5,G92 E0			; Set extruder to 0,M117 *End Clean*		; Indicate nozzle clean in progress on LCD,G1 Z5 F3000			; Lift - Move Z to 5,; ,M117 *Printing...*		; start msg,; // Begin printing with sliced GCode after here,;
;   layerChangeGcode,
;   retractionGcode,
;   toolChangeGcode,
;   endingGcode,;,; init 181010,;,;M107 			; Fan off,;G1 E-1 F300 			; Retract the filament a bit before lifting the nozzle,;M104 S0 			; Turn off extruder,;M140 S0 			; Turn off bed,;G91			; Relative positioning,;G28 X0 Y0 			; Move X/Y to min endstops so the head is out of teh way,;M84 			; Disable motors,;G90 			; Absolute positioning,;M117 Print ready...,,;,; // From Cura 181010,; // End_gcode,G92 E0			; Zero the extruded length,G1 E-30 F300			; Retract E -30,M106 S0			; Turn off cooling fan,M104 S0			; Turn off temperature,M140 S0		     	; Turn off bed,G91			; Relative positioning,G1 E-1 F300			; Retract the filament a bit before lifting the nozzle to release some of the pressure,G1 Z+20 E-5 X-20 Y-20 F7200	; Move Z up a bit and retract filament even more,G1 X0 Y150 F10000		; Move right min,M107			; Turn off layer fan,M84			; Disable motors,G90			; Absolute positioning,M117 *The-End* 		; End msg,;,
;   exportFileFormat,gcode
;   celebration,0
;   celebrationSong,Star Wars
;   postProcessing,
;   defaultSpeed,1800
;   outlineUnderspeed,0.5
;   solidInfillUnderspeed,0.8
;   supportUnderspeed,0.8
;   rapidXYspeed,6000
;   rapidZspeed,1002
;   minBridgingArea,50
;   bridgingExtraInflation,0.2
;   bridgingExtrusionMultiplier,1
;   bridgingSpeedMultiplier,0.6
;   useFixedBridgingAngle,0
;   fixedBridgingAngle,0
;   applyBridgingToPerimeters,0
;   filamentDiameters,1.75|1.75|1.75|1.75|1.75|1.75
;   filamentPricesPerKg,30|46|46|46|46|46
;   filamentDensities,1.25|1.25|1.25|1.25|1.25|1.25
;   useMinPrintHeight,0
;   minPrintHeight,0
;   useMaxPrintHeight,0
;   maxPrintHeight,9
;   useDiaphragm,0
;   diaphragmLayerInterval,20
;   robustSlicing,1
;   mergeAllIntoSolid,0
;   onlyRetractWhenCrossingOutline,1
;   retractBetweenLayers,1
;   useRetractionMinTravel,0
;   retractionMinTravel,3
;   retractWhileWiping,0
;   onlyWipeOutlines,1
;   avoidCrossingOutline,0
;   maxMovementDetourFactor,3
;   toolChangeRetractionDistance,12
;   toolChangeExtraRestartDistance,-0.5
;   toolChangeRetractionSpeed,600
;   externalThinWallType,1
;   internalThinWallType,1
;   thinWallAllowedOverlapPercentage,15
;   singleExtrusionMinLength,1
;   singleExtrusionMinPrintingWidthPercentage,50
;   singleExtrusionMaxPrintingWidthPercentage,200
;   singleExtrusionEndpointExtension,0.2
;   horizontalSizeCompensation,0
G90
M82
M106 S0
M140 S50
M190 S50
;Init 181010
;G28 			; Home all axes
;G1 Z5 F3000 ; lift
;G92 E0			; Reset extrusion distance
; // From Cura 181010
; // Update 190823 (GueroLoco)
; // Start_gcode
M117 *Start Clean*		; Indicate nozzle clean in progress on LCD
;
M104 S210 
M109 S210 
M109 R210 
;
M107			; Turn layer fan off
G21			; Set to metric [change to G20 if you want Imperial]
G90			; Force coordinates to be absolute relative to the origin
G28			; Home X/Y/Z axis
;
;G1 X3 Y1 Z15 F9000		; Move safe Z height to shear strings
;G0 X1 Y1 Z0.2 F9000		; Move in 1mm from edge and up [z] 0.2mm
;G92 E0			; Set extruder to [0] zero
;G1 X100 E12 F500		; Extrude 30mm filiment along X axis 100mm long to prime and clean the nozzle
;G92 E0			; Reset extruder to [0] zero end of cleaning run
;G1 E-1 F500			; Retract filiment by 1 mm to reduce string effect
;G1 X180 F4000		; Quick wipe away from the filament line / purge
;
G92 E0			; Set Extruder to 0 
G1 X0 Y0 F2000		; Move X and Y to 0 with speed 2000 (mm/min)
G1 Z0.1 F1000		; Move Z to 0.1
G1 X8.0 F2000		; Move X to 8.0
G1 Y60.0 E4.0 F1000.0		; Prime - Move Y to 60 and Extruder with 4.0
G1 Y100.0 E8.5 F1000.0		; Prime - Move Y to 100 and Extruder with 8.5
G92 E0			; Set extruder to 0
M117 *End Clean*		; Indicate nozzle clean in progress on LCD
G1 Z5 F3000			; Lift - Move Z to 5
; 
M117 *Printing...*		; start msg
; // Begin printing with sliced GCode after here
;
; process Process1
; layer 1, Z = 0.180
T0
G92 E0.0000
G1 E-6.0000 F3000
; feature skirt
; tool H0.180 W0.350
G1 Z0.300 F1002
G1 X101.723 Y128.259 F6000
G1 Z0.180 F1002
G1 E0.0000 F3000
G92 E0.0000
G1 X102.334 Y127.875 E0.0180 F900
G1 X102.625 Y127.735 E0.0260
G1 X103.306 Y127.496 E0.0440
G1 X103.621 Y127.424 E0.0520
G1 X104.258 Y127.353 E0.0679
G1 X104.419 Y127.344 E0.0720
G1 X191.581 Y127.344 E2.2408
G1 X191.742 Y127.353 E2.2448
G1 X193.269 Y127.525 E2.2830
G1 X193.584 Y127.597 E2.2911
G1 X195.110 Y128.131 E2.3313
G1 X195.401 Y128.271 E2.3393
G1 X196.771 Y129.132 E2.3796
G1 X197.023 Y129.333 E2.3876
G1 X198.167 Y130.477 E2.4279
G1 X198.368 Y130.729 E2.4359
G1 X199.229 Y132.099 E2.4762
G1 X199.369 Y132.390 E2.4842
G1 X199.903 Y133.916 E2.5244
G1 X199.975 Y134.231 E2.5325
G1 X200.147 Y135.758 E2.5707
G1 X200.156 Y135.919 E2.5747
G1 X200.156 Y146.631 E2.8413
G1 X200.147 Y146.792 E2.8453
G1 X199.975 Y148.319 E2.8835
G1 X199.903 Y148.634 E2.8915
G1 X199.369 Y150.160 E2.9318
G1 X199.229 Y150.451 E2.9398
G1 X198.369 Y151.821 E2.9801
G1 X198.167 Y152.073 E2.9881
G1 X197.023 Y153.217 E3.0284
G1 X196.771 Y153.419 E3.0364
G1 X195.401 Y154.279 E3.0766
G1 X195.110 Y154.419 E3.0847
G1 X193.584 Y154.953 E3.1249
G1 X193.269 Y155.025 E3.1330
G1 X191.742 Y155.197 E3.1712
G1 X191.581 Y155.206 E3.1752
G1 X176.026 Y155.206 E3.5623
G1 X175.131 Y155.306 E3.5847
G1 X174.432 Y155.549 E3.6031
G1 X173.805 Y155.940 E3.6215
G1 X173.164 Y156.573 E3.6439
G1 X172.817 Y157.003 E3.6576
G1 X172.709 Y157.122 E3.6616
G1 X171.625 Y158.195 E3.6996
G1 X171.373 Y158.393 E3.7076
G1 X170.010 Y159.242 E3.7475
G1 X169.720 Y159.380 E3.7555
G1 X168.203 Y159.907 E3.7955
G1 X167.891 Y159.978 E3.8034
G1 X166.374 Y160.147 E3.8414
G1 X166.214 Y160.156 E3.8454
G1 X154.837 Y160.156 E4.1285
G1 X154.612 Y160.139 E4.1341
G1 X154.051 Y160.050 E4.1482
G1 X153.620 Y159.910 E4.1595
G1 X153.013 Y159.601 E4.1764
G1 X152.647 Y159.335 E4.1877
G1 X152.165 Y158.853 E4.2047
G1 X151.899 Y158.487 E4.2159
G1 X151.590 Y157.880 E4.2329
G1 X151.450 Y157.449 E4.2441
G1 X151.361 Y156.888 E4.2583
G1 X151.344 Y156.663 E4.2639
G1 X151.344 Y151.656 E4.3885
G1 X121.656 Y151.656 E5.1272
G1 X121.656 Y168.081 E5.5359
G1 X121.647 Y168.242 E5.5399
G1 X121.576 Y168.879 E5.5558
G1 X121.504 Y169.194 E5.5639
G1 X121.265 Y169.875 E5.5818
G1 X121.125 Y170.166 E5.5898
G1 X120.741 Y170.777 E5.6078
G1 X120.540 Y171.029 E5.6158
G1 X120.029 Y171.540 E5.6338
G1 X119.777 Y171.741 E5.6418
G1 X119.166 Y172.125 E5.6598
G1 X118.875 Y172.265 E5.6678
G1 X118.194 Y172.504 E5.6858
G1 X117.879 Y172.576 E5.6938
G1 X117.242 Y172.647 E5.7098
G1 X117.081 Y172.656 E5.7138
G1 X104.419 Y172.656 E6.0288
G1 X104.258 Y172.647 E6.0329
G1 X103.621 Y172.576 E6.0488
G1 X103.306 Y172.504 E6.0568
G1 X102.625 Y172.265 E6.0748
G1 X102.334 Y172.125 E6.0828
G1 X101.723 Y171.741 E6.1008
G1 X101.471 Y171.540 E6.1088
G1 X100.960 Y171.029 E6.1268
G1 X100.759 Y170.777 E6.1348
G1 X100.375 Y170.166 E6.1528
G1 X100.235 Y169.875 E6.1608
G1 X99.996 Y169.194 E6.1788
G1 X99.924 Y168.879 E6.1868
G1 X99.853 Y168.242 E6.2028
G1 X99.844 Y168.081 E6.2068
G1 X99.844 Y131.919 E7.1066
G1 X99.853 Y131.758 E7.1106
G1 X99.924 Y131.121 E7.1265
G1 X99.996 Y130.806 E7.1346
G1 X100.235 Y130.125 E7.1525
G1 X100.375 Y129.834 E7.1606
G1 X100.759 Y129.223 E7.1785
G1 X100.960 Y128.971 E7.1866
G1 X101.471 Y128.460 E7.2045
G1 X101.723 Y128.259 E7.2126
G92 E0.0000
G1 E-6.0000 F3000
G1 Z0.480 F1002
G1 X101.926 Y128.545 F6000
G1 Z0.180 F1002
G1 E0.0000 F3000
G92 E0.0000
G1 X102.504 Y128.182 E0.0170 F900
G1 X102.759 Y128.059 E0.0240
G1 X103.403 Y127.833 E0.0410
G1 X103.680 Y127.770 E0.0481
G1 X104.288 Y127.702 E0.0633
G1 X104.429 Y127.694 E0.0668
G1 X191.571 Y127.694 E2.2351
G1 X191.712 Y127.702 E2.2387
G1 X193.210 Y127.870 E2.2762
G1 X193.487 Y127.933 E2.2832
G1 X194.976 Y128.455 E2.3225
G1 X195.232 Y128.578 E2.3296
G1 X196.568 Y129.417 E2.3688
G1 X196.790 Y129.594 E2.3759
G1 X197.906 Y130.710 E2.4152
G1 X198.083 Y130.932 E2.4222
G1 X198.922 Y132.268 E2.4615
G1 X199.045 Y132.524 E2.4685
G1 X199.567 Y134.013 E2.5078
G1 X199.630 Y134.290 E2.5149
G1 X199.798 Y135.788 E2.5524
G1 X199.806 Y135.929 E2.5559
G1 X199.806 Y146.621 E2.8219
G1 X199.798 Y146.762 E2.8255
G1 X199.630 Y148.260 E2.8630
G1 X199.567 Y148.537 E2.8700
G1 X199.045 Y150.026 E2.9093
G1 X198.922 Y150.282 E2.9164
G1 X198.083 Y151.618 E2.9556
G1 X197.906 Y151.840 E2.9627
G1 X196.790 Y152.956 E3.0019
G1 X196.568 Y153.133 E3.0090
G1 X195.232 Y153.972 E3.0483
G1 X194.976 Y154.095 E3.0553
G1 X193.487 Y154.617 E3.0946
G1 X193.210 Y154.680 E3.1017
G1 X191.712 Y154.848 E3.1392
G1 X191.571 Y154.856 E3.1427
G1 X176.006 Y154.856 E3.5300
G1 X175.053 Y154.963 E3.5538
G1 X174.281 Y155.231 E3.5742
G1 X173.586 Y155.663 E3.5945
G1 X172.904 Y156.338 E3.6184
G1 X172.551 Y156.775 E3.6324
G1 X172.456 Y156.880 E3.6359
G1 X171.392 Y157.932 E3.6731
G1 X171.171 Y158.106 E3.6801
G1 X169.841 Y158.935 E3.7191
G1 X169.587 Y159.056 E3.7261
G1 X168.107 Y159.570 E3.7651
G1 X167.832 Y159.632 E3.7721
G1 X166.345 Y159.799 E3.8094
G1 X166.205 Y159.806 E3.8129
G1 X154.851 Y159.806 E4.0954
G1 X154.653 Y159.791 E4.1003
G1 X154.133 Y159.708 E4.1134
G1 X153.755 Y159.586 E4.1233
G1 X153.197 Y159.301 E4.1389
G1 X152.875 Y159.068 E4.1488
G1 X152.432 Y158.625 E4.1644
G1 X152.199 Y158.303 E4.1743
G1 X151.914 Y157.745 E4.1899
G1 X151.792 Y157.367 E4.1997
G1 X151.709 Y156.847 E4.2128
G1 X151.694 Y156.649 E4.2178
G1 X151.694 Y151.306 E4.3507
G1 X121.306 Y151.306 E5.1068
G1 X121.306 Y168.071 E5.5240
G1 X121.298 Y168.212 E5.5275
G1 X121.230 Y168.820 E5.5427
G1 X121.167 Y169.096 E5.5498
G1 X120.941 Y169.741 E5.5668
G1 X120.818 Y169.996 E5.5738
G1 X120.455 Y170.574 E5.5908
G1 X120.278 Y170.796 E5.5979
G1 X119.796 Y171.278 E5.6149
G1 X119.574 Y171.455 E5.6219
G1 X118.996 Y171.818 E5.6389
G1 X118.741 Y171.941 E5.6460
G1 X118.097 Y172.167 E5.6629
G1 X117.820 Y172.230 E5.6700
G1 X117.212 Y172.298 E5.6852
G1 X117.071 Y172.306 E5.6887
G1 X104.429 Y172.306 E6.0033
G1 X104.288 Y172.298 E6.0068
G1 X103.680 Y172.230 E6.0220
G1 X103.403 Y172.167 E6.0291
G1 X102.759 Y171.941 E6.0461
G1 X102.504 Y171.818 E6.0531
G1 X101.926 Y171.455 E6.0701
G1 X101.704 Y171.278 E6.0772
G1 X101.222 Y170.796 E6.0942
G1 X101.045 Y170.574 E6.1012
G1 X100.682 Y169.996 E6.1182
G1 X100.559 Y169.741 E6.1253
G1 X100.333 Y169.096 E6.1422
G1 X100.270 Y168.820 E6.1493
G1 X100.202 Y168.212 E6.1645
G1 X100.194 Y168.071 E6.1680
G1 X100.194 Y131.929 E7.0673
G1 X100.202 Y131.788 E7.0709
G1 X100.270 Y131.180 E7.0861
G1 X100.333 Y130.904 E7.0931
G1 X100.559 Y130.259 E7.1101
G1 X100.682 Y130.004 E7.1172
G1 X101.045 Y129.426 E7.1342
G1 X101.222 Y129.204 E7.1412
G1 X101.704 Y128.722 E7.1582
G1 X101.926 Y128.545 E7.1653
G92 E0.0000
G1 E-6.0000 F3000
G1 Z0.480 F1002
G1 X102.129 Y128.831 F6000
G1 Z0.180 F1002
G1 E0.0000 F3000
G92 E0.0000
G1 X102.673 Y128.488 E0.0160 F900
G1 X102.893 Y128.382 E0.0221
