; G-Code generated by Simplify3D(R) Version 4.1.2
; Sep 15, 2019 at 9:34:40 AM
; Settings Summary
;   processName,Process1
;   applyToModels,Tevo Tornado - Support Capteur Optique Filament 3 - Epreuve03
;   profileName,101 Tevo Tornado (experimental)
;   profileVersion,2019-09-10 19:17:41
;   baseProfile,Creality CR-10(2)
;   printMaterial,PLA
;   printQuality,Medium
;   printExtruders,
;   extruderName,Primary Extruder
;   extruderToolheadNumber,0
;   extruderDiameter,0.4
;   extruderAutoWidth,0
;   extruderWidth,0.35
;   extrusionMultiplier,0.95
;   extruderUseRetract,1
;   extruderRetractionDistance,6
;   extruderExtraRestartDistance,0
;   extruderRetractionZLift,0.3
;   extruderRetractionSpeed,3000
;   extruderUseCoasting,0
;   extruderCoastingDistance,0.2
;   extruderUseWipe,0
;   extruderWipeDistance,4
;   primaryExtruder,0
;   layerHeight,0.15
;   topSolidLayers,4
;   bottomSolidLayers,3
;   perimeterOutlines,3
;   printPerimetersInsideOut,0
;   startPointOption,3
;   startPointOriginX,0
;   startPointOriginY,300
;   sequentialIslands,0
;   spiralVaseMode,0
;   firstLayerHeightPercentage,120
;   firstLayerWidthPercentage,100
;   firstLayerUnderspeed,0.5
;   useRaft,0
;   raftExtruder,0
;   raftTopLayers,3
;   raftBaseLayers,2
;   raftOffset,3
;   raftSeparationDistance,0.14
;   raftTopInfill,100
;   aboveRaftSpeedMultiplier,0.3
;   useSkirt,1
;   skirtExtruder,0
;   skirtLayers,1
;   skirtOutlines,3
;   skirtOffset,2
;   usePrimePillar,0
;   primePillarExtruder,999
;   primePillarWidth,12
;   primePillarLocation,7
;   primePillarSpeedMultiplier,1
;   useOozeShield,0
;   oozeShieldExtruder,999
;   oozeShieldOffset,2
;   oozeShieldOutlines,1
;   oozeShieldSidewallShape,1
;   oozeShieldSidewallAngle,30
;   oozeShieldSpeedMultiplier,1
;   infillExtruder,0
;   internalInfillPattern,Rectilinear
;   externalInfillPattern,Rectilinear
;   infillPercentage,15
;   outlineOverlapPercentage,15
;   infillExtrusionWidthPercentage,100
;   minInfillLength,5
;   infillLayerInterval,1
;   internalInfillAngles,45,-45
;   overlapInternalInfillAngles,0
;   externalInfillAngles,45,-45
;   generateSupport,0
;   supportExtruder,0
;   supportInfillPercentage,30
;   supportExtraInflation,0
;   supportBaseLayers,0
;   denseSupportExtruder,0
;   denseSupportLayers,0
;   denseSupportInfillPercentage,70
;   supportLayerInterval,1
;   supportHorizontalPartOffset,0.4
;   supportUpperSeparationLayers,1
;   supportLowerSeparationLayers,1
;   supportType,0
;   supportGridSpacing,4.5
;   maxOverhangAngle,45
;   supportAngles,0
;   temperatureName,Primary Extruder,Heated Bed
;   temperatureNumber,0,0
;   temperatureSetpointCount,2,1
;   temperatureSetpointLayers,1,2,1
;   temperatureSetpointTemperatures,210,205,50
;   temperatureStabilizeAtStartup,1,1
;   temperatureHeatedBed,0,1
;   fanLayers,1,2
;   fanSpeeds,0,100
;   blipFanToFullPower,0
;   adjustSpeedForCooling,1
;   minSpeedLayerTime,15
;   minCoolingSpeedSlowdown,50
;   increaseFanForCooling,1
;   minFanLayerTime,25
;   maxCoolingFanSpeed,100
;   increaseFanForBridging,1
;   bridgingFanSpeed,100
;   use5D,1
;   relativeEdistances,0
;   allowEaxisZeroing,1
;   independentExtruderAxes,0
;   includeM10123,0
;   stickySupport,1
;   applyToolheadOffsets,0
;   gcodeXoffset,0
;   gcodeYoffset,0
;   gcodeZoffset,0
;   overrideMachineDefinition,1
;   machineTypeOverride,0
;   strokeXoverride,300
;   strokeYoverride,300
;   strokeZoverride,400
;   originOffsetXoverride,0
;   originOffsetYoverride,0
;   originOffsetZoverride,0
;   homeXdirOverride,-1
;   homeYdirOverride,-1
;   homeZdirOverride,-1
;   flipXoverride,1
;   flipYoverride,-1
;   flipZoverride,1
;   toolheadOffsets,0,0|0,0|0,0|0,0|0,0|0,0
;   overrideFirmwareConfiguration,1
;   firmwareTypeOverride,RepRap (Marlin/Repetier/Sprinter)
;   GPXconfigOverride,r2
;   baudRateOverride,250000
;   overridePrinterModels,1
;   printerModelsOverride
;   startingGcode,;Init 181010,;G28 			; Home all axes,;G1 Z5 F3000 ; lift,;G92 E0			; Reset extrusion distance,,; // From Cura 181010,; // Update 190823 (GueroLoco),; // Start_gcode,M117 *Start Clean*		; Indicate nozzle clean in progress on LCD,;,M104 S[extruder0_temperature] ,M109 S[extruder0_temperature] ,M109 R[extruder0_temperature] ,;,M107			; Turn layer fan off,G21			; Set to metric [change to G20 if you want Imperial],G90			; Force coordinates to be absolute relative to the origin,G28			; Home X/Y/Z axis,;,;G1 X3 Y1 Z15 F9000		; Move safe Z height to shear strings,;G0 X1 Y1 Z0.2 F9000		; Move in 1mm from edge and up [z] 0.2mm,;G92 E0			; Set extruder to [0] zero,;G1 X100 E12 F500		; Extrude 30mm filiment along X axis 100mm long to prime and clean the nozzle,;G92 E0			; Reset extruder to [0] zero end of cleaning run,;G1 E-1 F500			; Retract filiment by 1 mm to reduce string effect,;G1 X180 F4000		; Quick wipe away from the filament line / purge,;,G92 E0			; Set Extruder to 0 ,G1 X0 Y0 F2000		; Move X and Y to 0 with speed 2000 (mm/min),G1 Z0.1 F1000		; Move Z to 0.1,G1 X8.0 F2000		; Move X to 8.0,G1 Y60.0 E4.0 F1000.0		; Prime - Move Y to 60 and Extruder with 4.0,G1 Y100.0 E8.5 F1000.0		; Prime - Move Y to 100 and Extruder with 8.5,G92 E0			; Set extruder to 0,M117 *End Clean*		; Indicate nozzle clean in progress on LCD,G1 Z5 F3000			; Lift - Move Z to 5,; ,M117 *Printing...*		; start msg,; // Begin printing with sliced GCode after here,;
;   layerChangeGcode,
;   retractionGcode,
;   toolChangeGcode,
;   endingGcode,;,; init 181010,;,;M107 			; Fan off,;G1 E-1 F300 			; Retract the filament a bit before lifting the nozzle,;M104 S0 			; Turn off extruder,;M140 S0 			; Turn off bed,;G91			; Relative positioning,;G28 X0 Y0 			; Move X/Y to min endstops so the head is out of teh way,;M84 			; Disable motors,;G90 			; Absolute positioning,;M117 Print ready...,,;,; // From Cura 181010,; // End_gcode,G92 E0			; Zero the extruded length,G1 E-30 F300			; Retract E -30,M106 S0			; Turn off cooling fan,M104 S0			; Turn off temperature,M140 S0		     	; Turn off bed,G91			; Relative positioning,G1 E-1 F300			; Retract the filament a bit before lifting the nozzle to release some of the pressure,G1 Z+20 E-5 X-20 Y-20 F7200	; Move Z up a bit and retract filament even more,G1 X0 Y150 F10000		; Move right min,M107			; Turn off layer fan,M84			; Disable motors,G90			; Absolute positioning,M117 *The-End* 		; End msg,;,
;   exportFileFormat,gcode
;   celebration,0
;   celebrationSong,Star Wars
;   postProcessing,
;   defaultSpeed,1800
;   outlineUnderspeed,0.5
;   solidInfillUnderspeed,0.8
;   supportUnderspeed,0.8
;   rapidXYspeed,6000
;   rapidZspeed,1002
;   minBridgingArea,50
;   bridgingExtraInflation,0.2
;   bridgingExtrusionMultiplier,1
;   bridgingSpeedMultiplier,0.6
;   useFixedBridgingAngle,0
;   fixedBridgingAngle,0
;   applyBridgingToPerimeters,0
;   filamentDiameters,1.75|1.75|1.75|1.75|1.75|1.75
;   filamentPricesPerKg,30|46|46|46|46|46
;   filamentDensities,1.25|1.25|1.25|1.25|1.25|1.25
;   useMinPrintHeight,0
;   minPrintHeight,0
;   useMaxPrintHeight,0
;   maxPrintHeight,9
;   useDiaphragm,0
;   diaphragmLayerInterval,20
;   robustSlicing,1
;   mergeAllIntoSolid,0
;   onlyRetractWhenCrossingOutline,1
;   retractBetweenLayers,1
;   useRetractionMinTravel,0
;   retractionMinTravel,3
;   retractWhileWiping,0
;   onlyWipeOutlines,1
;   avoidCrossingOutline,0
;   maxMovementDetourFactor,3
;   toolChangeRetractionDistance,12
;   toolChangeExtraRestartDistance,-0.5
;   toolChangeRetractionSpeed,600
;   externalThinWallType,1
;   internalThinWallType,1
;   thinWallAllowedOverlapPercentage,15
;   singleExtrusionMinLength,1
;   singleExtrusionMinPrintingWidthPercentage,50
;   singleExtrusionMaxPrintingWidthPercentage,200
;   singleExtrusionEndpointExtension,0.2
;   horizontalSizeCompensation,0
G90
M82
M106 S0
M140 S50
M190 S50
;Init 181010
;G28 			; Home all axes
;G1 Z5 F3000 ; lift
;G92 E0			; Reset extrusion distance
; // From Cura 181010
; // Update 190823 (GueroLoco)
; // Start_gcode
M117 *Start Clean*		; Indicate nozzle clean in progress on LCD
;
M104 S210 
M109 S210 
M109 R210 
;
M107			; Turn layer fan off
G21			; Set to metric [change to G20 if you want Imperial]
G90			; Force coordinates to be absolute relative to the origin
G28			; Home X/Y/Z axis
;
;G1 X3 Y1 Z15 F9000		; Move safe Z height to shear strings
;G0 X1 Y1 Z0.2 F9000		; Move in 1mm from edge and up [z] 0.2mm
;G92 E0			; Set extruder to [0] zero
;G1 X100 E12 F500		; Extrude 30mm filiment along X axis 100mm long to prime and clean the nozzle
;G92 E0			; Reset extruder to [0] zero end of cleaning run
;G1 E-1 F500			; Retract filiment by 1 mm to reduce string effect
;G1 X180 F4000		; Quick wipe away from the filament line / purge
;
G92 E0			; Set Extruder to 0 
G1 X0 Y0 F2000		; Move X and Y to 0 with speed 2000 (mm/min)
G1 Z0.1 F1000		; Move Z to 0.1
G1 X8.0 F2000		; Move X to 8.0
G1 Y60.0 E4.0 F1000.0		; Prime - Move Y to 60 and Extruder with 4.0
G1 Y100.0 E8.5 F1000.0		; Prime - Move Y to 100 and Extruder with 8.5
G92 E0			; Set extruder to 0
M117 *End Clean*		; Indicate nozzle clean in progress on LCD
G1 Z5 F3000			; Lift - Move Z to 5
; 
M117 *Printing...*		; start msg
; // Begin printing with sliced GCode after here
;
; process Process1
; layer 1, Z = 0.180
T0
G92 E0.0000
G1 E-6.0000 F3000
; feature skirt
; tool H0.180 W0.350
G1 Z0.300 F1002
G1 X102.309 Y171.625 F6000
G1 Z0.180 F1002
G1 E0.0000 F3000
G92 E0.0000
G1 X100.625 Y169.941 E0.0593 F900
G1 X100.625 Y130.059 E1.0516
G1 X102.309 Y128.375 E1.1109
G1 X197.691 Y128.375 E3.4843
G1 X199.375 Y130.059 E3.5435
G1 X199.375 Y153.321 E4.1223
G1 X197.691 Y155.005 E4.1816
G1 X173.402 Y155.005 E4.7860
G1 X169.857 Y159.543 E4.9293
G1 X168.664 Y160.125 E4.9623
G1 X151.809 Y160.125 E5.3817
G1 X150.125 Y158.441 E5.4409
G1 X150.125 Y151.625 E5.6105
G1 X120.875 Y151.625 E6.3384
G1 X120.875 Y169.941 E6.7941
G1 X119.191 Y171.625 E6.8534
G1 X102.309 Y171.625 E7.2734
G92 E0.0000
G1 E-6.0000 F3000
G1 Z0.480 F1002
G1 X102.454 Y171.275 F6000
G1 Z0.180 F1002
G1 E0.0000 F3000
G92 E0.0000
G1 X100.975 Y169.796 E0.0520 F900
G1 X100.975 Y130.204 E1.0372
G1 X102.454 Y128.725 E1.0893
G1 X197.546 Y128.725 E3.4554
G1 X199.025 Y130.204 E3.5074
G1 X199.025 Y153.176 E4.0791
G1 X197.546 Y154.655 E4.1311
G1 X173.232 Y154.655 E4.7361
G1 X169.631 Y159.264 E4.8816
G1 X168.583 Y159.775 E4.9106
G1 X151.954 Y159.775 E5.3244
G1 X150.475 Y158.296 E5.3765
G1 X150.475 Y151.275 E5.5512
G1 X120.525 Y151.275 E6.2964
G1 X120.525 Y169.796 E6.7573
G1 X119.046 Y171.275 E6.8093
G1 X102.454 Y171.275 E7.2221
G92 E0.0000
G1 E-6.0000 F3000
G1 Z0.480 F1002
G1 X102.599 Y170.925 F6000
G1 Z0.180 F1002
G1 E0.0000 F3000
G92 E0.0000
G1 X101.325 Y169.651 E0.0448 F900
G1 X101.325 Y130.349 E1.0228
G1 X102.599 Y129.075 E1.0676
G1 X197.401 Y129.075 E3.4265
G1 X198.675 Y130.349 E3.4714
G1 X198.675 Y153.031 E4.0358
G1 X197.401 Y154.305 E4.0806
G1 X173.061 Y154.305 E4.6862
G1 X169.405 Y158.985 E4.8340
G1 X168.502 Y159.425 E4.8590
G1 X152.099 Y159.425 E5.2671
G1 X150.825 Y158.151 E5.3120
G1 X150.825 Y150.925 E5.4918
G1 X120.175 Y150.925 E6.2544
G1 X120.175 Y169.651 E6.7204
G1 X118.901 Y170.925 E6.7652
G1 X102.599 Y170.925 E7.1709
G92 E0.0000
G1 E-6.0000 F3000
; feature outer perimeter
G1 Z0.480 F1002
G1 X103.675 Y168.575 F6000
G1 Z0.180 F1002
G1 E0.0000 F3000
G92 E0.0000
G1 X103.675 Y131.425 E0.9244 F450
G1 X196.325 Y131.425 E3.2298
G1 X196.325 Y151.955 E3.7406
G1 X171.915 Y151.955 E4.3480
G1 X167.915 Y157.075 E4.5097
G1 X153.175 Y157.075 E4.8765
G1 X153.175 Y148.575 E5.0880
G1 X117.825 Y148.575 E5.9676
G1 X117.825 Y168.575 E6.4652
G1 X103.675 Y168.575 E6.8173
; feature inner perimeter
G1 X104.025 Y168.225 F6000
G92 E0.0000
G1 X104.025 Y131.775 E0.9070 F675
G1 X195.975 Y131.775 E3.1949
G1 X195.975 Y151.605 E3.6884
G1 X171.744 Y151.605 E4.2913
G1 X167.744 Y156.725 E4.4530
G1 X153.525 Y156.725 E4.8068
G1 X153.525 Y148.225 E5.0183
G1 X117.475 Y148.225 E5.9153
G1 X117.475 Y168.225 E6.4130
G1 X104.025 Y168.225 E6.7476
G1 X104.375 Y167.875 F6000
G92 E0.0000
G1 X104.375 Y157.605 E0.2555 F675
G1 X117.125 Y157.605 E0.5728
G1 X117.125 Y167.875 E0.8283
G1 X104.375 Y167.875 E1.1456
G1 X104.375 Y154.855 F6000
G92 E0.0000
G1 X104.375 Y132.125 E0.5656 F675
G1 X195.625 Y132.125 E2.8361
G1 X195.625 Y151.255 E3.3121
G1 X171.573 Y151.255 E3.9106
G1 X167.573 Y156.375 E4.0723
G1 X153.875 Y156.375 E4.4131
G1 X153.875 Y147.875 E4.6246
G1 X117.125 Y147.875 E5.5391
G1 X117.125 Y154.855 E5.7128
G1 X104.375 Y154.855 E6.0300
; feature outer perimeter
G1 X105.325 Y155.555 F6000
G92 E0.0000
G1 X105.325 Y156.905 E0.0336 F450
G1 X116.376 Y156.905 E0.3086
G1 X116.371 Y155.555 E0.3422
G1 X105.325 Y155.555 E0.6170
; feature inner perimeter
G1 X104.975 Y155.205 F6000
G92 E0.0000
G1 X104.975 Y157.255 E0.0510 F675
G1 X116.727 Y157.255 E0.3434
G1 X116.720 Y155.205 E0.3944
G1 X104.975 Y155.205 E0.6867
G92 E0.0000
G1 E-6.0000 F3000
; feature outer perimeter
G1 Z0.480 F1002
G1 X159.951 Y150.445 F6000
G1 Z0.180 F1002
G1 E0.0000 F3000
G92 E0.0000
G1 X160.041 Y151.181 E0.0185 F450
G1 X160.304 Y151.874 E0.0369
G1 X160.725 Y152.484 E0.0554
G1 X161.280 Y152.976 E0.0738
G1 X161.937 Y153.321 E0.0923
G1 X162.657 Y153.498 E0.1107
G1 X163.398 Y153.498 E0.1292
G1 X164.119 Y153.321 E0.1476
G1 X164.775 Y152.976 E0.1661
G1 X165.330 Y152.484 E0.1845
G1 X165.752 Y151.874 E0.2030
G1 X166.015 Y151.181 E0.2214
G1 X166.104 Y150.445 E0.2399
G1 X166.015 Y149.708 E0.2583
G1 X165.752 Y149.015 E0.2768
G1 X165.330 Y148.405 E0.2953
G1 X164.775 Y147.913 E0.3137
G1 X164.119 Y147.568 E0.3322
G1 X163.398 Y147.391 E0.3506
G1 X162.657 Y147.391 E0.3691
G1 X161.937 Y147.568 E0.3875
G1 X161.280 Y147.913 E0.4060
G1 X160.725 Y148.405 E0.4244
G1 X160.304 Y149.015 E0.4429
G1 X160.041 Y149.708 E0.4613
G1 X159.951 Y150.445 E0.4798
; feature inner perimeter
G1 X159.599 Y150.445 F6000
G92 E0.0000
G1 X159.698 Y151.265 E0.0206 F675
G1 X159.992 Y152.038 E0.0411
G1 X160.461 Y152.718 E0.0617
G1 X161.080 Y153.266 E0.0823
G1 X161.812 Y153.651 E0.1028
G1 X162.614 Y153.848 E0.1234
G1 X163.441 Y153.848 E0.1440
G1 X164.244 Y153.651 E0.1645
G1 X164.975 Y153.266 E0.1851
G1 X165.594 Y152.718 E0.2057
G1 X166.064 Y152.038 E0.2263
G1 X166.357 Y151.265 E0.2468
G1 X166.457 Y150.445 E0.2674
G1 X166.357 Y149.624 E0.2880
G1 X166.064 Y148.851 E0.3085
G1 X165.594 Y148.171 E0.3291
G1 X164.975 Y147.623 E0.3497
G1 X164.244 Y147.239 E0.3702
G1 X163.441 Y147.041 E0.3908
G1 X162.614 Y147.041 E0.4114
G1 X161.812 Y147.239 E0.4319
G1 X161.080 Y147.623 E0.4525
G1 X160.461 Y148.171 E0.4731
G1 X159.992 Y148.851 E0.4936
G1 X159.698 Y149.624 E0.5142
G1 X159.599 Y150.445 E0.5348
G1 X159.246 Y150.445 F6000
G92 E0.0000
G1 X159.356 Y151.349 E0.0227 F675
G1 X159.679 Y152.202 E0.0454
G1 X160.197 Y152.952 E0.0680
G1 X160.880 Y153.557 E0.0907
G1 X161.687 Y153.980 E0.1134
G1 X162.572 Y154.198 E0.1361
G1 X163.483 Y154.198 E0.1588
G1 X164.369 Y153.980 E0.1815
G1 X165.176 Y153.557 E0.2041
G1 X165.858 Y152.952 E0.2268
G1 X166.376 Y152.202 E0.2495
G1 X166.699 Y151.350 E0.2722
G1 X166.809 Y150.444 E0.2949
G1 X166.699 Y149.540 E0.3176
G1 X166.376 Y148.687 E0.3402
G1 X165.858 Y147.937 E0.3629
G1 X165.176 Y147.332 E0.3856
G1 X164.369 Y146.909 E0.4083
G1 X163.483 Y146.691 E0.4310
G1 X162.572 Y146.691 E0.4537
G1 X161.687 Y146.909 E0.4763
G1 X160.880 Y147.332 E0.4990
G1 X160.197 Y147.937 E0.5217
G1 X159.679 Y148.687 E0.5444
G1 X159.356 Y149.540 E0.5671
G1 X159.246 Y150.445 E0.5898
G92 E0.0000
G1 E-6.0000 F3000
; feature outer perimeter
G1 Z0.480 F1002
G1 X181.144 Y147.684 F6000
G1 Z0.180 F1002
G1 E0.0000 F3000
G92 E0.0000
G1 X181.407 Y148.378 E0.0185 F450
G1 X181.828 Y148.988 E0.0369
G1 X182.383 Y149.480 E0.0554
G1 X183.040 Y149.824 E0.0738
G1 X183.760 Y150.002 E0.0923
G1 X184.502 Y150.002 E0.1107
G1 X185.222 Y149.824 E0.1292
G1 X185.879 Y149.480 E0.1476
G1 X186.434 Y148.988 E0.1661
G1 X186.855 Y148.378 E0.1845
G1 X187.118 Y147.684 E0.2030
G1 X187.207 Y146.948 E0.2214
G1 X187.118 Y146.212 E0.2399
G1 X186.855 Y145.518 E0.2583
G1 X186.434 Y144.908 E0.2768
G1 X185.879 Y144.416 E0.2953
G1 X185.222 Y144.072 E0.3137
G1 X184.502 Y143.894 E0.3322
G1 X183.760 Y143.894 E0.3506
