; G-Code generated by Simplify3D(R) Version 4.1.2
; Sep 15, 2019 at 1:29:25 PM
; Settings Summary
;   processName,Process1
;   applyToModels,Tevo Tornado - Support Capteur Optique Filament 3 - Epreuve04
;   profileName,101.01 40% Tevo Tornado (experimental) (modified)
;   profileVersion,2019-09-14 14:29:36
;   baseProfile,Creality CR-10(2)
;   printMaterial,PLA
;   printQuality,Medium
;   printExtruders,
;   extruderName,Primary Extruder
;   extruderToolheadNumber,0
;   extruderDiameter,0.4
;   extruderAutoWidth,0
;   extruderWidth,0.35
;   extrusionMultiplier,0.95
;   extruderUseRetract,1
;   extruderRetractionDistance,6
;   extruderExtraRestartDistance,0
;   extruderRetractionZLift,0.3
;   extruderRetractionSpeed,3000
;   extruderUseCoasting,0
;   extruderCoastingDistance,0.2
;   extruderUseWipe,0
;   extruderWipeDistance,4
;   primaryExtruder,0
;   layerHeight,0.15
;   topSolidLayers,4
;   bottomSolidLayers,3
;   perimeterOutlines,3
;   printPerimetersInsideOut,0
;   startPointOption,2
;   startPointOriginX,0
;   startPointOriginY,300
;   sequentialIslands,0
;   spiralVaseMode,0
;   firstLayerHeightPercentage,120
;   firstLayerWidthPercentage,100
;   firstLayerUnderspeed,0.5
;   useRaft,0
;   raftExtruder,0
;   raftTopLayers,3
;   raftBaseLayers,2
;   raftOffset,3
;   raftSeparationDistance,0.14
;   raftTopInfill,100
;   aboveRaftSpeedMultiplier,0.3
;   useSkirt,1
;   skirtExtruder,0
;   skirtLayers,1
;   skirtOutlines,3
;   skirtOffset,2
;   usePrimePillar,0
;   primePillarExtruder,999
;   primePillarWidth,12
;   primePillarLocation,7
;   primePillarSpeedMultiplier,1
;   useOozeShield,0
;   oozeShieldExtruder,999
;   oozeShieldOffset,2
;   oozeShieldOutlines,1
;   oozeShieldSidewallShape,1
;   oozeShieldSidewallAngle,30
;   oozeShieldSpeedMultiplier,1
;   infillExtruder,0
;   internalInfillPattern,Rectilinear
;   externalInfillPattern,Rectilinear
;   infillPercentage,40
;   outlineOverlapPercentage,15
;   infillExtrusionWidthPercentage,100
;   minInfillLength,5
;   infillLayerInterval,1
;   internalInfillAngles,45,-45
;   overlapInternalInfillAngles,0
;   externalInfillAngles,45,-45
;   generateSupport,0
;   supportExtruder,0
;   supportInfillPercentage,30
;   supportExtraInflation,0
;   supportBaseLayers,0
;   denseSupportExtruder,0
;   denseSupportLayers,0
;   denseSupportInfillPercentage,70
;   supportLayerInterval,1
;   supportHorizontalPartOffset,0.4
;   supportUpperSeparationLayers,1
;   supportLowerSeparationLayers,1
;   supportType,0
;   supportGridSpacing,4.5
;   maxOverhangAngle,45
;   supportAngles,0
;   temperatureName,Primary Extruder,Heated Bed
;   temperatureNumber,0,0
;   temperatureSetpointCount,2,1
;   temperatureSetpointLayers,1,2,1
;   temperatureSetpointTemperatures,210,205,50
;   temperatureStabilizeAtStartup,1,1
;   temperatureHeatedBed,0,1
;   fanLayers,1,2
;   fanSpeeds,0,100
;   blipFanToFullPower,0
;   adjustSpeedForCooling,1
;   minSpeedLayerTime,15
;   minCoolingSpeedSlowdown,50
;   increaseFanForCooling,1
;   minFanLayerTime,25
;   maxCoolingFanSpeed,100
;   increaseFanForBridging,1
;   bridgingFanSpeed,100
;   use5D,1
;   relativeEdistances,0
;   allowEaxisZeroing,1
;   independentExtruderAxes,0
;   includeM10123,0
;   stickySupport,1
;   applyToolheadOffsets,0
;   gcodeXoffset,0
;   gcodeYoffset,0
;   gcodeZoffset,0
;   overrideMachineDefinition,1
;   machineTypeOverride,0
;   strokeXoverride,300
;   strokeYoverride,300
;   strokeZoverride,400
;   originOffsetXoverride,0
;   originOffsetYoverride,0
;   originOffsetZoverride,0
;   homeXdirOverride,-1
;   homeYdirOverride,-1
;   homeZdirOverride,-1
;   flipXoverride,1
;   flipYoverride,-1
;   flipZoverride,1
;   toolheadOffsets,0,0|0,0|0,0|0,0|0,0|0,0
;   overrideFirmwareConfiguration,1
;   firmwareTypeOverride,RepRap (Marlin/Repetier/Sprinter)
;   GPXconfigOverride,r2
;   baudRateOverride,250000
;   overridePrinterModels,1
;   printerModelsOverride
;   startingGcode,;Init 181010,;G28 			; Home all axes,;G1 Z5 F3000 ; lift,;G92 E0			; Reset extrusion distance,,; // From Cura 181010,; // Update 190823 (GueroLoco),; // Start_gcode,M117 *Start Clean*		; Indicate nozzle clean in progress on LCD,;,M104 S[extruder0_temperature] ,M109 S[extruder0_temperature] ,M109 R[extruder0_temperature] ,;,M107			; Turn layer fan off,G21			; Set to metric [change to G20 if you want Imperial],G90			; Force coordinates to be absolute relative to the origin,G28			; Home X/Y/Z axis,;,;G1 X3 Y1 Z15 F9000		; Move safe Z height to shear strings,;G0 X1 Y1 Z0.2 F9000		; Move in 1mm from edge and up [z] 0.2mm,;G92 E0			; Set extruder to [0] zero,;G1 X100 E12 F500		; Extrude 30mm filiment along X axis 100mm long to prime and clean the nozzle,;G92 E0			; Reset extruder to [0] zero end of cleaning run,;G1 E-1 F500			; Retract filiment by 1 mm to reduce string effect,;G1 X180 F4000		; Quick wipe away from the filament line / purge,;,G92 E0			; Set Extruder to 0 ,G1 X0 Y0 F2000		; Move X and Y to 0 with speed 2000 (mm/min),G1 Z0.1 F1000		; Move Z to 0.1,G1 X8.0 F2000		; Move X to 8.0,G1 Y60.0 E4.0 F1000.0		; Prime - Move Y to 60 and Extruder with 4.0,G1 Y100.0 E8.5 F1000.0		; Prime - Move Y to 100 and Extruder with 8.5,G92 E0			; Set extruder to 0,M117 *End Clean*		; Indicate nozzle clean in progress on LCD,G1 Z5 F3000			; Lift - Move Z to 5,; ,M117 *Printing...*		; start msg,; // Begin printing with sliced GCode after here,;
;   layerChangeGcode,
;   retractionGcode,
;   toolChangeGcode,
;   endingGcode,;,; init 181010,;,;M107 			; Fan off,;G1 E-1 F300 			; Retract the filament a bit before lifting the nozzle,;M104 S0 			; Turn off extruder,;M140 S0 			; Turn off bed,;G91			; Relative positioning,;G28 X0 Y0 			; Move X/Y to min endstops so the head is out of teh way,;M84 			; Disable motors,;G90 			; Absolute positioning,;M117 Print ready...,,;,; // From Cura 181010,; // End_gcode,G92 E0			; Zero the extruded length,G1 E-30 F300			; Retract E -30,M106 S0			; Turn off cooling fan,M104 S0			; Turn off temperature,M140 S0		     	; Turn off bed,G91			; Relative positioning,G1 E-1 F300			; Retract the filament a bit before lifting the nozzle to release some of the pressure,G1 Z+20 E-5 X-20 Y-20 F7200	; Move Z up a bit and retract filament even more,G1 X0 Y150 F10000		; Move right min,M107			; Turn off layer fan,M84			; Disable motors,G90			; Absolute positioning,M117 *The-End* 		; End msg,;,
;   exportFileFormat,gcode
;   celebration,0
;   celebrationSong,Star Wars
;   postProcessing,
;   defaultSpeed,1800
;   outlineUnderspeed,0.5
;   solidInfillUnderspeed,0.8
;   supportUnderspeed,0.8
;   rapidXYspeed,6000
;   rapidZspeed,1002
;   minBridgingArea,50
;   bridgingExtraInflation,0.2
;   bridgingExtrusionMultiplier,1
;   bridgingSpeedMultiplier,0.6
;   useFixedBridgingAngle,0
;   fixedBridgingAngle,0
;   applyBridgingToPerimeters,0
;   filamentDiameters,1.75|1.75|1.75|1.75|1.75|1.75
;   filamentPricesPerKg,30|46|46|46|46|46
;   filamentDensities,1.25|1.25|1.25|1.25|1.25|1.25
;   useMinPrintHeight,0
;   minPrintHeight,0
;   useMaxPrintHeight,0
;   maxPrintHeight,9
;   useDiaphragm,0
;   diaphragmLayerInterval,20
;   robustSlicing,1
;   mergeAllIntoSolid,0
;   onlyRetractWhenCrossingOutline,1
;   retractBetweenLayers,1
;   useRetractionMinTravel,0
;   retractionMinTravel,3
;   retractWhileWiping,0
;   onlyWipeOutlines,1
;   avoidCrossingOutline,0
;   maxMovementDetourFactor,3
;   toolChangeRetractionDistance,12
;   toolChangeExtraRestartDistance,-0.5
;   toolChangeRetractionSpeed,600
;   externalThinWallType,1
;   internalThinWallType,1
;   thinWallAllowedOverlapPercentage,15
;   singleExtrusionMinLength,1
;   singleExtrusionMinPrintingWidthPercentage,50
;   singleExtrusionMaxPrintingWidthPercentage,200
;   singleExtrusionEndpointExtension,0.2
;   horizontalSizeCompensation,0
G90
M82
M106 S0
M140 S50
M190 S50
;Init 181010
;G28 			; Home all axes
;G1 Z5 F3000 ; lift
;G92 E0			; Reset extrusion distance
; // From Cura 181010
; // Update 190823 (GueroLoco)
; // Start_gcode
M117 *Start Clean*		; Indicate nozzle clean in progress on LCD
;
M104 S210 
M109 S210 
M109 R210 
;
M107			; Turn layer fan off
G21			; Set to metric [change to G20 if you want Imperial]
G90			; Force coordinates to be absolute relative to the origin
G28			; Home X/Y/Z axis
;
;G1 X3 Y1 Z15 F9000		; Move safe Z height to shear strings
;G0 X1 Y1 Z0.2 F9000		; Move in 1mm from edge and up [z] 0.2mm
;G92 E0			; Set extruder to [0] zero
;G1 X100 E12 F500		; Extrude 30mm filiment along X axis 100mm long to prime and clean the nozzle
;G92 E0			; Reset extruder to [0] zero end of cleaning run
;G1 E-1 F500			; Retract filiment by 1 mm to reduce string effect
;G1 X180 F4000		; Quick wipe away from the filament line / purge
;
G92 E0			; Set Extruder to 0 
G1 X0 Y0 F2000		; Move X and Y to 0 with speed 2000 (mm/min)
G1 Z0.1 F1000		; Move Z to 0.1
G1 X8.0 F2000		; Move X to 8.0
G1 Y60.0 E4.0 F1000.0		; Prime - Move Y to 60 and Extruder with 4.0
G1 Y100.0 E8.5 F1000.0		; Prime - Move Y to 100 and Extruder with 8.5
G92 E0			; Set extruder to 0
M117 *End Clean*		; Indicate nozzle clean in progress on LCD
G1 Z5 F3000			; Lift - Move Z to 5
; 
M117 *Printing...*		; start msg
; // Begin printing with sliced GCode after here
;
; process Process1
; layer 1, Z = 0.180
T0
G92 E0.0000
G1 E-6.0000 F3000
; feature skirt
; tool H0.180 W0.350
G1 Z0.300 F1002
G1 X102.309 Y128.375 F6000
G1 Z0.180 F1002
G1 E0.0000 F3000
G92 E0.0000
G1 X197.691 Y128.375 E2.3734 F900
G1 X199.375 Y130.059 E2.4326
G1 X199.375 Y153.321 E3.0114
G1 X197.691 Y155.005 E3.0707
G1 X173.402 Y155.005 E3.6751
G1 X169.857 Y159.543 E3.8184
G1 X168.664 Y160.125 E3.8514
G1 X151.809 Y160.125 E4.2708
G1 X150.125 Y158.441 E4.3301
G1 X150.125 Y151.625 E4.4996
G1 X120.875 Y151.625 E5.2275
G1 X120.875 Y169.941 E5.6832
G1 X119.191 Y171.625 E5.7425
G1 X102.309 Y171.625 E6.1625
G1 X100.625 Y169.941 E6.2218
G1 X100.625 Y130.059 E7.2142
G1 X102.309 Y128.375 E7.2734
G92 E0.0000
G1 E-6.0000 F3000
G1 Z0.480 F1002
G1 X102.454 Y128.725 F6000
G1 Z0.180 F1002
G1 E0.0000 F3000
G92 E0.0000
G1 X197.546 Y128.725 E2.3661 F900
G1 X199.025 Y130.204 E2.4182
G1 X199.025 Y153.176 E2.9898
G1 X197.546 Y154.655 E3.0418
G1 X173.232 Y154.655 E3.6469
G1 X169.631 Y159.264 E3.7924
G1 X168.583 Y159.775 E3.8214
G1 X151.954 Y159.775 E4.2352
G1 X150.475 Y158.296 E4.2872
G1 X150.475 Y151.275 E4.4619
G1 X120.525 Y151.275 E5.2072
G1 X120.525 Y169.796 E5.6680
G1 X119.046 Y171.275 E5.7201
G1 X102.454 Y171.275 E6.1329
G1 X100.975 Y169.796 E6.1849
G1 X100.975 Y130.204 E7.1701
G1 X102.454 Y128.725 E7.2221
G92 E0.0000
G1 E-6.0000 F3000
G1 Z0.480 F1002
G1 X102.599 Y129.075 F6000
G1 Z0.180 F1002
G1 E0.0000 F3000
G92 E0.0000
G1 X197.401 Y129.075 E2.3589 F900
G1 X198.675 Y130.349 E2.4038
G1 X198.675 Y153.031 E2.9682
G1 X197.401 Y154.305 E3.0130
G1 X173.061 Y154.305 E3.6186
G1 X169.405 Y158.985 E3.7664
G1 X168.502 Y159.425 E3.7914
G1 X152.099 Y159.425 E4.1995
G1 X150.825 Y158.151 E4.2444
G1 X150.825 Y150.925 E4.4242
G1 X120.175 Y150.925 E5.1868
G1 X120.175 Y169.651 E5.6528
G1 X118.901 Y170.925 E5.6976
G1 X102.599 Y170.925 E6.1033
G1 X101.325 Y169.651 E6.1481
G1 X101.325 Y130.349 E7.1260
G1 X102.599 Y129.075 E7.1709
G92 E0.0000
G1 E-6.0000 F3000
; feature outer perimeter
G1 Z0.480 F1002
G1 X103.675 Y131.425 F6000
G1 Z0.180 F1002
G1 E0.0000 F3000
G92 E0.0000
G1 X196.325 Y131.425 E2.3054 F450
G1 X196.325 Y151.955 E2.8162
G1 X171.915 Y151.955 E3.4236
G1 X167.915 Y157.075 E3.5853
G1 X153.175 Y157.075 E3.9521
G1 X153.175 Y148.575 E4.1636
G1 X117.825 Y148.575 E5.0432
G1 X117.825 Y168.575 E5.5408
G1 X103.675 Y168.575 E5.8929
G1 X103.675 Y131.425 E6.8173
; feature inner perimeter
G1 X104.025 Y131.775 F6000
G92 E0.0000
G1 X195.975 Y131.775 E2.2880 F675
G1 X195.975 Y151.605 E2.7814
G1 X171.744 Y151.605 E3.3843
G1 X167.744 Y156.725 E3.5460
G1 X153.525 Y156.725 E3.8998
G1 X153.525 Y148.225 E4.1113
G1 X117.475 Y148.225 E5.0083
G1 X117.475 Y168.225 E5.5060
G1 X104.025 Y168.225 E5.8407
G1 X104.025 Y131.775 E6.7476
G1 X104.375 Y132.125 F6000
G92 E0.0000
G1 X195.625 Y132.125 E2.2705 F675
G1 X195.625 Y151.255 E2.7466
G1 X171.573 Y151.255 E3.3450
G1 X167.573 Y156.375 E3.5067
G1 X153.875 Y156.375 E3.8476
G1 X153.875 Y147.875 E4.0591
G1 X117.125 Y147.875 E4.9735
G1 X117.125 Y154.855 E5.1472
G1 X104.375 Y154.855 E5.4644
G1 X104.375 Y132.125 E6.0300
G1 X104.375 Y157.605 F6000
G92 E0.0000
G1 X117.125 Y157.605 E0.3173 F675
G1 X117.125 Y167.875 E0.5728
G1 X104.375 Y167.875 E0.8901
G1 X104.375 Y157.605 E1.1456
; feature outer perimeter
G1 X105.325 Y156.905 F6000
G92 E0.0000
G1 X116.376 Y156.905 E0.2750 F450
G1 X116.371 Y155.555 E0.3086
G1 X105.325 Y155.555 E0.5834
G1 X105.325 Y156.905 E0.6170
; feature inner perimeter
G1 X104.975 Y157.255 F6000
G92 E0.0000
G1 X116.727 Y157.255 E0.2924 F675
G1 X116.720 Y155.205 E0.3434
G1 X104.975 Y155.205 E0.6357
G1 X104.975 Y157.255 E0.6867
G92 E0.0000
G1 E-6.0000 F3000
; feature outer perimeter
G1 Z0.480 F1002
G1 X159.851 Y150.445 F6000
G1 Z0.180 F1002
G1 E0.0000 F3000
G92 E0.0000
G1 X159.944 Y151.205 E0.0191 F450
G1 X160.215 Y151.921 E0.0381
G1 X160.650 Y152.551 E0.0572
G1 X161.223 Y153.059 E0.0762
G1 X161.901 Y153.414 E0.0953
G1 X162.645 Y153.598 E0.1143
G1 X163.411 Y153.598 E0.1334
G1 X164.154 Y153.414 E0.1524
G1 X164.832 Y153.059 E0.1715
G1 X165.405 Y152.551 E0.1905
G1 X165.840 Y151.921 E0.2096
G1 X166.112 Y151.205 E0.2286
G1 X166.204 Y150.445 E0.2477
G1 X166.112 Y149.684 E0.2667
G1 X165.840 Y148.968 E0.2858
G1 X165.405 Y148.338 E0.3049
G1 X164.832 Y147.831 E0.3239
G1 X164.154 Y147.475 E0.3430
G1 X163.411 Y147.291 E0.3620
G1 X162.645 Y147.291 E0.3811
G1 X161.901 Y147.475 E0.4001
G1 X161.223 Y147.831 E0.4192
G1 X160.650 Y148.338 E0.4382
G1 X160.215 Y148.968 E0.4573
G1 X159.944 Y149.684 E0.4763
G1 X159.851 Y150.445 E0.4954
; feature inner perimeter
G1 X159.499 Y150.445 F6000
G92 E0.0000
G1 X159.601 Y151.289 E0.0212 F675
G1 X159.903 Y152.084 E0.0423
G1 X160.386 Y152.785 E0.0635
G1 X161.023 Y153.349 E0.0847
G1 X161.776 Y153.744 E0.1058
G1 X162.602 Y153.948 E0.1270
G1 X163.453 Y153.948 E0.1482
G1 X164.279 Y153.744 E0.1693
G1 X165.032 Y153.349 E0.1905
G1 X165.669 Y152.785 E0.2117
G1 X166.152 Y152.084 E0.2328
G1 X166.454 Y151.289 E0.2540
G1 X166.557 Y150.445 E0.2752
G1 X166.454 Y149.600 E0.2964
G1 X166.152 Y148.805 E0.3175
G1 X165.669 Y148.104 E0.3387
G1 X165.032 Y147.540 E0.3599
G1 X164.279 Y147.145 E0.3810
G1 X163.453 Y146.941 E0.4022
G1 X162.602 Y146.941 E0.4234
G1 X161.776 Y147.145 E0.4445
G1 X161.023 Y147.540 E0.4657
G1 X160.386 Y148.104 E0.4869
G1 X159.903 Y148.805 E0.5080
G1 X159.601 Y149.600 E0.5292
G1 X159.499 Y150.445 E0.5504
G1 X159.146 Y150.445 F6000
G92 E0.0000
G1 X159.259 Y151.373 E0.0233 F675
G1 X159.591 Y152.248 E0.0466
G1 X160.122 Y153.018 E0.0698
G1 X160.823 Y153.639 E0.0931
G1 X161.651 Y154.074 E0.1164
G1 X162.560 Y154.298 E0.1397
G1 X163.496 Y154.298 E0.1630
G1 X164.404 Y154.074 E0.1863
G1 X165.233 Y153.639 E0.2095
G1 X165.933 Y153.018 E0.2328
G1 X166.464 Y152.248 E0.2561
G1 X166.796 Y151.373 E0.2794
G1 X166.909 Y150.445 E0.3027
G1 X166.796 Y149.516 E0.3260
G1 X166.464 Y148.641 E0.3492
G1 X165.933 Y147.871 E0.3725
G1 X165.233 Y147.250 E0.3958
G1 X164.404 Y146.815 E0.4191
G1 X163.495 Y146.591 E0.4424
G1 X162.560 Y146.591 E0.4657
G1 X161.651 Y146.815 E0.4889
G1 X160.823 Y147.250 E0.5122
G1 X160.122 Y147.871 E0.5355
G1 X159.591 Y148.641 E0.5588
G1 X159.259 Y149.516 E0.5821
G1 X159.146 Y150.445 E0.6054
G92 E0.0000
G1 E-6.0000 F3000
; feature outer perimeter
G1 Z0.480 F1002
G1 X181.047 Y147.708 F6000
G1 Z0.180 F1002
G1 E0.0000 F3000
G92 E0.0000
G1 X181.319 Y148.424 E0.0191 F450
G1 X181.754 Y149.054 E0.0381
G1 X182.327 Y149.562 E0.0572
G1 X183.005 Y149.918 E0.0762
G1 X183.748 Y150.101 E0.0953
G1 X184.514 Y150.101 E0.1143
G1 X185.257 Y149.918 E0.1334
G1 X185.935 Y149.562 E0.1524
G1 X186.509 Y149.054 E0.1715
G1 X186.943 Y148.424 E0.1905
G1 X187.215 Y147.708 E0.2096
G1 X187.307 Y146.948 E0.2286
G1 X187.215 Y146.188 E0.2477
G1 X186.943 Y145.472 E0.2667
G1 X186.509 Y144.842 E0.2858
G1 X185.935 Y144.334 E0.3048
G1 X185.257 Y143.978 E0.3239
G1 X184.514 Y143.795 E0.3430
