; G-Code generated by Simplify3D(R) Version 4.1.2
; Sep 14, 2019 at 2:31:25 PM
; Settings Summary
;   processName,Process1
;   applyToModels,Tevo Tornado - Support Capteur Optique Filament
;   profileName,101.A Tevo Tornado (experimental)
;   profileVersion,2019-09-14 14:27:52
;   baseProfile,Creality CR-10(2)
;   printMaterial,PLA
;   printQuality,Medium
;   printExtruders,
;   extruderName,Primary Extruder
;   extruderToolheadNumber,0
;   extruderDiameter,0.4
;   extruderAutoWidth,0
;   extruderWidth,0.35
;   extrusionMultiplier,0.95
;   extruderUseRetract,1
;   extruderRetractionDistance,6
;   extruderExtraRestartDistance,0
;   extruderRetractionZLift,0.3
;   extruderRetractionSpeed,3000
;   extruderUseCoasting,0
;   extruderCoastingDistance,0.2
;   extruderUseWipe,0
;   extruderWipeDistance,4
;   primaryExtruder,0
;   layerHeight,0.15
;   topSolidLayers,4
;   bottomSolidLayers,3
;   perimeterOutlines,3
;   printPerimetersInsideOut,0
;   startPointOption,2
;   startPointOriginX,0
;   startPointOriginY,300
;   sequentialIslands,0
;   spiralVaseMode,0
;   firstLayerHeightPercentage,120
;   firstLayerWidthPercentage,100
;   firstLayerUnderspeed,0.5
;   useRaft,0
;   raftExtruder,0
;   raftTopLayers,3
;   raftBaseLayers,2
;   raftOffset,3
;   raftSeparationDistance,0.14
;   raftTopInfill,100
;   aboveRaftSpeedMultiplier,0.3
;   useSkirt,1
;   skirtExtruder,0
;   skirtLayers,1
;   skirtOutlines,3
;   skirtOffset,2
;   usePrimePillar,0
;   primePillarExtruder,999
;   primePillarWidth,12
;   primePillarLocation,7
;   primePillarSpeedMultiplier,1
;   useOozeShield,0
;   oozeShieldExtruder,999
;   oozeShieldOffset,2
;   oozeShieldOutlines,1
;   oozeShieldSidewallShape,1
;   oozeShieldSidewallAngle,30
;   oozeShieldSpeedMultiplier,1
;   infillExtruder,0
;   internalInfillPattern,Rectilinear
;   externalInfillPattern,Rectilinear
;   infillPercentage,15
;   outlineOverlapPercentage,15
;   infillExtrusionWidthPercentage,100
;   minInfillLength,5
;   infillLayerInterval,1
;   internalInfillAngles,45,-45
;   overlapInternalInfillAngles,0
;   externalInfillAngles,45,-45
;   generateSupport,0
;   supportExtruder,0
;   supportInfillPercentage,30
;   supportExtraInflation,0
;   supportBaseLayers,0
;   denseSupportExtruder,0
;   denseSupportLayers,0
;   denseSupportInfillPercentage,70
;   supportLayerInterval,1
;   supportHorizontalPartOffset,0.4
;   supportUpperSeparationLayers,1
;   supportLowerSeparationLayers,1
;   supportType,0
;   supportGridSpacing,4.5
;   maxOverhangAngle,45
;   supportAngles,0
;   temperatureName,Primary Extruder,Heated Bed
;   temperatureNumber,0,0
;   temperatureSetpointCount,2,1
;   temperatureSetpointLayers,1,2,1
;   temperatureSetpointTemperatures,210,205,50
;   temperatureStabilizeAtStartup,1,1
;   temperatureHeatedBed,0,1
;   fanLayers,1,2
;   fanSpeeds,0,100
;   blipFanToFullPower,0
;   adjustSpeedForCooling,1
;   minSpeedLayerTime,15
;   minCoolingSpeedSlowdown,50
;   increaseFanForCooling,1
;   minFanLayerTime,25
;   maxCoolingFanSpeed,100
;   increaseFanForBridging,1
;   bridgingFanSpeed,100
;   use5D,1
;   relativeEdistances,0
;   allowEaxisZeroing,1
;   independentExtruderAxes,0
;   includeM10123,0
;   stickySupport,1
;   applyToolheadOffsets,0
;   gcodeXoffset,0
;   gcodeYoffset,0
;   gcodeZoffset,0
;   overrideMachineDefinition,1
;   machineTypeOverride,0
;   strokeXoverride,300
;   strokeYoverride,300
;   strokeZoverride,400
;   originOffsetXoverride,0
;   originOffsetYoverride,0
;   originOffsetZoverride,0
;   homeXdirOverride,-1
;   homeYdirOverride,-1
;   homeZdirOverride,-1
;   flipXoverride,1
;   flipYoverride,-1
;   flipZoverride,1
;   toolheadOffsets,0,0|0,0|0,0|0,0|0,0|0,0
;   overrideFirmwareConfiguration,1
;   firmwareTypeOverride,RepRap (Marlin/Repetier/Sprinter)
;   GPXconfigOverride,r2
;   baudRateOverride,250000
;   overridePrinterModels,1
;   printerModelsOverride
;   startingGcode,;Init 181010,;G28 			; Home all axes,;G1 Z5 F3000 ; lift,;G92 E0			; Reset extrusion distance,,; // From Cura 181010,; // Update 190823 (GueroLoco),; // Start_gcode,M117 *Start Clean*		; Indicate nozzle clean in progress on LCD,;,M104 S[extruder0_temperature] ,M109 S[extruder0_temperature] ,M109 R[extruder0_temperature] ,;,M107			; Turn layer fan off,G21			; Set to metric [change to G20 if you want Imperial],G90			; Force coordinates to be absolute relative to the origin,G28			; Home X/Y/Z axis,;,;G1 X3 Y1 Z15 F9000		; Move safe Z height to shear strings,;G0 X1 Y1 Z0.2 F9000		; Move in 1mm from edge and up [z] 0.2mm,;G92 E0			; Set extruder to [0] zero,;G1 X100 E12 F500		; Extrude 30mm filiment along X axis 100mm long to prime and clean the nozzle,;G92 E0			; Reset extruder to [0] zero end of cleaning run,;G1 E-1 F500			; Retract filiment by 1 mm to reduce string effect,;G1 X180 F4000		; Quick wipe away from the filament line / purge,;,G92 E0			; Set Extruder to 0 ,G1 X0 Y0 F2000		; Move X and Y to 0 with speed 2000 (mm/min),G1 Z0.1 F1000		; Move Z to 0.1,G1 X8.0 F2000		; Move X to 8.0,G1 Y60.0 E4.0 F1000.0		; Prime - Move Y to 60 and Extruder with 4.0,G1 Y100.0 E8.5 F1000.0		; Prime - Move Y to 100 and Extruder with 8.5,G92 E0			; Set extruder to 0,M117 *End Clean*		; Indicate nozzle clean in progress on LCD,G1 Z5 F3000			; Lift - Move Z to 5,; ,M117 *Printing...*		; start msg,; // Begin printing with sliced GCode after here,;
;   layerChangeGcode,
;   retractionGcode,
;   toolChangeGcode,
;   endingGcode,;,; init 181010,;,;M107 			; Fan off,;G1 E-1 F300 			; Retract the filament a bit before lifting the nozzle,;M104 S0 			; Turn off extruder,;M140 S0 			; Turn off bed,;G91			; Relative positioning,;G28 X0 Y0 			; Move X/Y to min endstops so the head is out of teh way,;M84 			; Disable motors,;G90 			; Absolute positioning,;M117 Print ready...,,;,; // From Cura 181010,; // End_gcode,G92 E0			; Zero the extruded length,G1 E-30 F300			; Retract E -30,M106 S0			; Turn off cooling fan,M104 S0			; Turn off temperature,M140 S0		     	; Turn off bed,G91			; Relative positioning,G1 E-1 F300			; Retract the filament a bit before lifting the nozzle to release some of the pressure,G1 Z+20 E-5 X-20 Y-20 F7200	; Move Z up a bit and retract filament even more,G1 X0 Y150 F10000		; Move right min,M107			; Turn off layer fan,M84			; Disable motors,G90			; Absolute positioning,M117 *The-End* 		; End msg,;,
;   exportFileFormat,gcode
;   celebration,0
;   celebrationSong,Star Wars
;   postProcessing,
;   defaultSpeed,1800
;   outlineUnderspeed,0.5
;   solidInfillUnderspeed,0.8
;   supportUnderspeed,0.8
;   rapidXYspeed,6000
;   rapidZspeed,1002
;   minBridgingArea,50
;   bridgingExtraInflation,0.2
;   bridgingExtrusionMultiplier,1
;   bridgingSpeedMultiplier,0.6
;   useFixedBridgingAngle,0
;   fixedBridgingAngle,0
;   applyBridgingToPerimeters,0
;   filamentDiameters,1.75|1.75|1.75|1.75|1.75|1.75
;   filamentPricesPerKg,30|46|46|46|46|46
;   filamentDensities,1.25|1.25|1.25|1.25|1.25|1.25
;   useMinPrintHeight,0
;   minPrintHeight,0
;   useMaxPrintHeight,0
;   maxPrintHeight,9
;   useDiaphragm,0
;   diaphragmLayerInterval,20
;   robustSlicing,1
;   mergeAllIntoSolid,0
;   onlyRetractWhenCrossingOutline,1
;   retractBetweenLayers,1
;   useRetractionMinTravel,0
;   retractionMinTravel,3
;   retractWhileWiping,0
;   onlyWipeOutlines,1
;   avoidCrossingOutline,0
;   maxMovementDetourFactor,3
;   toolChangeRetractionDistance,12
;   toolChangeExtraRestartDistance,-0.5
;   toolChangeRetractionSpeed,600
;   externalThinWallType,1
;   internalThinWallType,1
;   thinWallAllowedOverlapPercentage,15
;   singleExtrusionMinLength,1
;   singleExtrusionMinPrintingWidthPercentage,50
;   singleExtrusionMaxPrintingWidthPercentage,200
;   singleExtrusionEndpointExtension,0.2
;   horizontalSizeCompensation,0
G90
M82
M106 S0
M140 S50
M190 S50
;Init 181010
;G28 			; Home all axes
;G1 Z5 F3000 ; lift
;G92 E0			; Reset extrusion distance
; // From Cura 181010
; // Update 190823 (GueroLoco)
; // Start_gcode
M117 *Start Clean*		; Indicate nozzle clean in progress on LCD
;
M104 S210 
M109 S210 
M109 R210 
;
M107			; Turn layer fan off
G21			; Set to metric [change to G20 if you want Imperial]
G90			; Force coordinates to be absolute relative to the origin
G28			; Home X/Y/Z axis
;
;G1 X3 Y1 Z15 F9000		; Move safe Z height to shear strings
;G0 X1 Y1 Z0.2 F9000		; Move in 1mm from edge and up [z] 0.2mm
;G92 E0			; Set extruder to [0] zero
;G1 X100 E12 F500		; Extrude 30mm filiment along X axis 100mm long to prime and clean the nozzle
;G92 E0			; Reset extruder to [0] zero end of cleaning run
;G1 E-1 F500			; Retract filiment by 1 mm to reduce string effect
;G1 X180 F4000		; Quick wipe away from the filament line / purge
;
G92 E0			; Set Extruder to 0 
G1 X0 Y0 F2000		; Move X and Y to 0 with speed 2000 (mm/min)
G1 Z0.1 F1000		; Move Z to 0.1
G1 X8.0 F2000		; Move X to 8.0
G1 Y60.0 E4.0 F1000.0		; Prime - Move Y to 60 and Extruder with 4.0
G1 Y100.0 E8.5 F1000.0		; Prime - Move Y to 100 and Extruder with 8.5
G92 E0			; Set extruder to 0
M117 *End Clean*		; Indicate nozzle clean in progress on LCD
G1 Z5 F3000			; Lift - Move Z to 5
; 
M117 *Printing...*		; start msg
; // Begin printing with sliced GCode after here
;
; process Process1
; layer 1, Z = 0.180
T0
G92 E0.0000
G1 E-6.0000 F3000
; feature skirt
; tool H0.180 W0.350
G1 Z0.300 F1002
G1 X102.813 Y129.622 F6000
G1 Z0.180 F1002
G1 E0.0000 F3000
G92 E0.0000
G1 X103.397 Y129.255 E0.0172 F900
G1 X103.688 Y129.115 E0.0252
G1 X104.339 Y128.887 E0.0423
G1 X104.654 Y128.816 E0.0504
G1 X105.258 Y128.747 E0.0655
G1 X105.419 Y128.738 E0.0695
G1 X191.581 Y128.738 E2.2135
G1 X191.742 Y128.747 E2.2175
G1 X193.014 Y128.891 E2.2493
G1 X193.329 Y128.963 E2.2574
G1 X194.614 Y129.412 E2.2912
G1 X194.905 Y129.552 E2.2993
G1 X196.057 Y130.276 E2.3332
G1 X196.310 Y130.478 E2.3412
G1 X197.272 Y131.440 E2.3751
G1 X197.473 Y131.693 E2.3831
G1 X198.198 Y132.845 E2.4170
G1 X198.338 Y133.136 E2.4250
G1 X198.787 Y134.421 E2.4589
G1 X198.859 Y134.736 E2.4669
G1 X199.003 Y136.008 E2.4988
G1 X199.012 Y136.169 E2.5028
G1 X199.012 Y147.211 E2.7775
G1 X199.003 Y147.372 E2.7815
G1 X198.859 Y148.644 E2.8134
G1 X198.787 Y148.959 E2.8214
G1 X198.338 Y150.244 E2.8553
G1 X198.198 Y150.535 E2.8633
G1 X197.474 Y151.687 E2.8972
G1 X197.272 Y151.940 E2.9052
G1 X196.310 Y152.902 E2.9391
G1 X196.057 Y153.104 E2.9471
G1 X194.905 Y153.828 E2.9810
G1 X194.614 Y153.968 E2.9891
G1 X193.329 Y154.418 E3.0229
G1 X193.014 Y154.489 E3.0310
G1 X191.742 Y154.633 E3.0628
G1 X191.581 Y154.642 E3.0668
G1 X175.334 Y154.642 E3.4711
G1 X174.277 Y154.762 E3.4976
G1 X173.430 Y155.062 E3.5199
G1 X172.679 Y155.541 E3.5421
G1 X170.637 Y157.642 E3.6150
G1 X170.378 Y157.854 E3.6233
G1 X168.927 Y158.778 E3.6661
G1 X168.633 Y158.921 E3.6742
G1 X167.016 Y159.494 E3.7169
G1 X166.698 Y159.567 E3.7251
G1 X165.074 Y159.752 E3.7657
G1 X164.911 Y159.762 E3.7698
G1 X155.219 Y159.762 E4.0109
G1 X155.058 Y159.753 E4.0150
G1 X154.387 Y159.677 E4.0318
G1 X154.072 Y159.605 E4.0398
G1 X153.358 Y159.355 E4.0586
G1 X153.067 Y159.215 E4.0667
G1 X152.426 Y158.813 E4.0855
G1 X152.174 Y158.611 E4.0935
G1 X151.639 Y158.076 E4.1124
G1 X151.437 Y157.824 E4.1204
G1 X151.035 Y157.183 E4.1392
G1 X150.895 Y156.892 E4.1473
G1 X150.645 Y156.178 E4.1661
G1 X150.573 Y155.863 E4.1741
G1 X150.497 Y155.192 E4.1909
G1 X150.488 Y155.031 E4.1949
G1 X150.488 Y151.262 E4.2887
G1 X120.512 Y151.262 E5.0346
G1 X120.512 Y166.831 E5.4220
G1 X120.503 Y166.992 E5.4260
G1 X120.434 Y167.596 E5.4412
G1 X120.363 Y167.911 E5.4492
G1 X120.135 Y168.562 E5.4664
G1 X119.995 Y168.853 E5.4744
G1 X119.628 Y169.437 E5.4916
G1 X119.427 Y169.689 E5.4996
G1 X118.939 Y170.177 E5.5168
G1 X118.687 Y170.378 E5.5248
G1 X118.103 Y170.745 E5.5420
G1 X117.812 Y170.885 E5.5500
G1 X117.161 Y171.113 E5.5671
G1 X116.846 Y171.184 E5.5752
G1 X116.242 Y171.253 E5.5903
G1 X116.081 Y171.262 E5.5943
G1 X105.419 Y171.262 E5.8596
G1 X105.258 Y171.253 E5.8636
G1 X104.654 Y171.184 E5.8788
G1 X104.339 Y171.113 E5.8868
G1 X103.688 Y170.885 E5.9040
G1 X103.397 Y170.745 E5.9120
G1 X102.813 Y170.378 E5.9292
G1 X102.561 Y170.177 E5.9372
G1 X102.073 Y169.689 E5.9543
G1 X101.872 Y169.437 E5.9624
G1 X101.505 Y168.853 E5.9795
G1 X101.365 Y168.562 E5.9876
G1 X101.137 Y167.911 E6.0047
G1 X101.066 Y167.596 E6.0128
G1 X100.997 Y166.992 E6.0279
G1 X100.988 Y166.831 E6.0319
G1 X100.988 Y133.169 E6.8695
G1 X100.997 Y133.008 E6.8735
G1 X101.066 Y132.404 E6.8887
G1 X101.137 Y132.089 E6.8967
G1 X101.365 Y131.438 E6.9138
G1 X101.505 Y131.147 E6.9219
G1 X101.872 Y130.563 E6.9390
G1 X102.073 Y130.311 E6.9471
G1 X102.561 Y129.823 E6.9642
G1 X102.813 Y129.622 E6.9723
G92 E0.0000
G1 E-6.0000 F3000
G1 Z0.480 F1002
G1 X103.016 Y129.908 F6000
G1 Z0.180 F1002
G1 E0.0000 F3000
G92 E0.0000
G1 X103.567 Y129.562 E0.0162 F900
G1 X103.822 Y129.439 E0.0232
G1 X104.436 Y129.224 E0.0394
G1 X104.712 Y129.161 E0.0465
G1 X105.288 Y129.096 E0.0609
G1 X105.429 Y129.088 E0.0644
G1 X191.571 Y129.088 E2.2078
G1 X191.712 Y129.096 E2.2114
G1 X192.955 Y129.236 E2.2425
G1 X193.232 Y129.299 E2.2496
G1 X194.480 Y129.736 E2.2824
G1 X194.735 Y129.859 E2.2895
G1 X195.854 Y130.562 E2.3224
G1 X196.076 Y130.739 E2.3295
G1 X197.011 Y131.674 E2.3623
G1 X197.188 Y131.896 E2.3694
G1 X197.891 Y133.015 E2.4023
G1 X198.014 Y133.270 E2.4093
G1 X198.451 Y134.518 E2.4422
G1 X198.514 Y134.795 E2.4493
G1 X198.654 Y136.038 E2.4804
G1 X198.662 Y136.179 E2.4839
G1 X198.662 Y147.201 E2.7582
G1 X198.654 Y147.343 E2.7617
G1 X198.514 Y148.586 E2.7929
G1 X198.451 Y148.862 E2.7999
G1 X198.014 Y150.110 E2.8328
G1 X197.891 Y150.365 E2.8399
G1 X197.188 Y151.485 E2.8728
G1 X197.011 Y151.706 E2.8798
G1 X196.076 Y152.641 E2.9127
G1 X195.854 Y152.818 E2.9198
G1 X194.735 Y153.521 E2.9527
G1 X194.480 Y153.644 E2.9597
G1 X193.232 Y154.081 E2.9926
G1 X192.955 Y154.144 E2.9997
G1 X191.712 Y154.284 E3.0308
G1 X191.571 Y154.292 E3.0343
G1 X175.314 Y154.292 E3.4388
G1 X174.198 Y154.419 E3.4668
G1 X173.276 Y154.746 E3.4911
G1 X172.457 Y155.267 E3.5153
G1 X170.400 Y157.384 E3.5887
G1 X170.172 Y157.570 E3.5960
G1 X168.756 Y158.472 E3.6378
G1 X168.498 Y158.598 E3.6450
G1 X166.918 Y159.157 E3.6867
G1 X166.638 Y159.222 E3.6938
G1 X165.044 Y159.403 E3.7337
G1 X164.901 Y159.412 E3.7373
G1 X155.229 Y159.412 E3.9780
G1 X155.088 Y159.404 E3.9815
G1 X154.445 Y159.331 E3.9976
G1 X154.169 Y159.268 E4.0046
G1 X153.492 Y159.031 E4.0225
G1 X153.236 Y158.908 E4.0295
G1 X152.629 Y158.527 E4.0474
G1 X152.407 Y158.350 E4.0544
G1 X151.900 Y157.843 E4.0723
G1 X151.723 Y157.621 E4.0793
G1 X151.342 Y157.014 E4.0972
G1 X151.219 Y156.758 E4.1042
G1 X150.982 Y156.081 E4.1221
G1 X150.919 Y155.805 E4.1291
G1 X150.846 Y155.162 E4.1452
G1 X150.838 Y155.021 E4.1488
G1 X150.838 Y150.912 E4.2510
G1 X120.162 Y150.912 E5.0143
G1 X120.162 Y166.821 E5.4102
G1 X120.154 Y166.962 E5.4137
G1 X120.089 Y167.538 E5.4281
G1 X120.026 Y167.814 E5.4352
G1 X119.811 Y168.428 E5.4514
G1 X119.688 Y168.683 E5.4584
G1 X119.342 Y169.234 E5.4746
G1 X119.165 Y169.456 E5.4816
G1 X118.706 Y169.915 E5.4978
G1 X118.484 Y170.092 E5.5049
G1 X117.933 Y170.438 E5.5211
G1 X117.678 Y170.561 E5.5281
G1 X117.064 Y170.776 E5.5443
G1 X116.788 Y170.839 E5.5513
G1 X116.212 Y170.904 E5.5658
G1 X116.071 Y170.912 E5.5693
G1 X105.429 Y170.912 E5.8341
G1 X105.288 Y170.904 E5.8376
G1 X104.712 Y170.839 E5.8520
G1 X104.436 Y170.776 E5.8591
G1 X103.822 Y170.561 E5.8752
G1 X103.567 Y170.438 E5.8823
G1 X103.016 Y170.092 E5.8985
G1 X102.794 Y169.915 E5.9055
G1 X102.335 Y169.456 E5.9217
G1 X102.158 Y169.234 E5.9288
G1 X101.812 Y168.683 E5.9449
G1 X101.689 Y168.428 E5.9520
G1 X101.474 Y167.814 E5.9682
G1 X101.411 Y167.538 E5.9752
G1 X101.346 Y166.962 E5.9896
G1 X101.338 Y166.821 E5.9932
G1 X101.338 Y133.179 E6.8303
G1 X101.346 Y133.038 E6.8338
G1 X101.411 Y132.462 E6.8482
G1 X101.474 Y132.186 E6.8553
G1 X101.689 Y131.572 E6.8714
G1 X101.812 Y131.317 E6.8785
G1 X102.158 Y130.766 E6.8947
G1 X102.335 Y130.544 E6.9017
G1 X102.794 Y130.085 E6.9179
G1 X103.016 Y129.908 E6.9250
G92 E0.0000
G1 E-6.0000 F3000
G1 Z0.480 F1002
G1 X103.219 Y130.194 F6000
G1 Z0.180 F1002
G1 E0.0000 F3000
G92 E0.0000
