; G-Code generated by Simplify3D(R) Version 4.1.2
; Aug 20, 2020 at 4:34:54 PM
; Settings Summary
;   processName,Process1
;   applyToModels,Pendulum_Arm,Pendulum_insert
;   profileName,A03-04-15s Tevo Tornado
;   profileVersion,2020-04-13 17:35:39
;   baseProfile,Creality CR-10(2)
;   printMaterial,PLA
;   printQuality,Medium
;   printExtruders,
;   extruderName,Primary Extruder
;   extruderToolheadNumber,0
;   extruderDiameter,0.4
;   extruderAutoWidth,0
;   extruderWidth,0.35
;   extrusionMultiplier,0.95
;   extruderUseRetract,1
;   extruderRetractionDistance,4
;   extruderExtraRestartDistance,0
;   extruderRetractionZLift,0.3
;   extruderRetractionSpeed,3000
;   extruderUseCoasting,0
;   extruderCoastingDistance,0.2
;   extruderUseWipe,0
;   extruderWipeDistance,4
;   primaryExtruder,0
;   layerHeight,0.15
;   topSolidLayers,4
;   bottomSolidLayers,3
;   perimeterOutlines,3
;   printPerimetersInsideOut,0
;   startPointOption,1
;   startPointOriginX,0
;   startPointOriginY,300
;   sequentialIslands,0
;   spiralVaseMode,0
;   firstLayerHeightPercentage,120
;   firstLayerWidthPercentage,100
;   firstLayerUnderspeed,0.5
;   useRaft,1
;   raftExtruder,0
;   raftTopLayers,3
;   raftBaseLayers,2
;   raftOffset,3
;   raftSeparationDistance,0.14
;   raftTopInfill,100
;   aboveRaftSpeedMultiplier,0.3
;   useSkirt,1
;   skirtExtruder,0
;   skirtLayers,1
;   skirtOutlines,3
;   skirtOffset,2
;   usePrimePillar,0
;   primePillarExtruder,999
;   primePillarWidth,12
;   primePillarLocation,7
;   primePillarSpeedMultiplier,1
;   useOozeShield,0
;   oozeShieldExtruder,999
;   oozeShieldOffset,2
;   oozeShieldOutlines,1
;   oozeShieldSidewallShape,1
;   oozeShieldSidewallAngle,30
;   oozeShieldSpeedMultiplier,1
;   infillExtruder,0
;   internalInfillPattern,Rectilinear
;   externalInfillPattern,Rectilinear
;   infillPercentage,15
;   outlineOverlapPercentage,15
;   infillExtrusionWidthPercentage,100
;   minInfillLength,5
;   infillLayerInterval,1
;   internalInfillAngles,45,-45
;   overlapInternalInfillAngles,0
;   externalInfillAngles,45,-45
;   generateSupport,1
;   supportExtruder,0
;   supportInfillPercentage,30
;   supportExtraInflation,0
;   supportBaseLayers,0
;   denseSupportExtruder,0
;   denseSupportLayers,0
;   denseSupportInfillPercentage,70
;   supportLayerInterval,1
;   supportHorizontalPartOffset,0.4
;   supportUpperSeparationLayers,1
;   supportLowerSeparationLayers,1
;   supportType,0
;   supportGridSpacing,4.5
;   maxOverhangAngle,45
;   supportAngles,0
;   temperatureName,Primary Extruder,Heated Bed
;   temperatureNumber,0,0
;   temperatureSetpointCount,1,1
;   temperatureSetpointLayers,1,1
;   temperatureSetpointTemperatures,215,55
;   temperatureStabilizeAtStartup,1,1
;   temperatureHeatedBed,0,1
;   fanLayers,1,2
;   fanSpeeds,0,100
;   blipFanToFullPower,0
;   adjustSpeedForCooling,1
;   minSpeedLayerTime,15
;   minCoolingSpeedSlowdown,50
;   increaseFanForCooling,1
;   minFanLayerTime,25
;   maxCoolingFanSpeed,100
;   increaseFanForBridging,1
;   bridgingFanSpeed,100
;   use5D,1
;   relativeEdistances,0
;   allowEaxisZeroing,1
;   independentExtruderAxes,0
;   includeM10123,0
;   stickySupport,1
;   applyToolheadOffsets,0
;   gcodeXoffset,0
;   gcodeYoffset,0
;   gcodeZoffset,0
;   overrideMachineDefinition,1
;   machineTypeOverride,0
;   strokeXoverride,300
;   strokeYoverride,300
;   strokeZoverride,400
;   originOffsetXoverride,0
;   originOffsetYoverride,0
;   originOffsetZoverride,0
;   homeXdirOverride,-1
;   homeYdirOverride,-1
;   homeZdirOverride,-1
;   flipXoverride,1
;   flipYoverride,-1
;   flipZoverride,1
;   toolheadOffsets,0,0|0,0|0,0|0,0|0,0|0,0
;   overrideFirmwareConfiguration,1
;   firmwareTypeOverride,RepRap (Marlin/Repetier/Sprinter)
;   GPXconfigOverride,r2
;   baudRateOverride,250000
;   overridePrinterModels,1
;   printerModelsOverride
;   startingGcode,;,; -]H.P.B[- MarshMalloW  ,; $VER: StartScript 1.02 (26.12.2019) MarshMalloW,;,; Begin Startcode,;,M117 *Preheat*     	; Preheat,;extruder0_temperature,M104 S[extruder0_temperature]  ,M109 S[extruder0_temperature] ,M109 R[extruder0_temperature] ,;,M117 *Auto-leveling*     	; Auto-leveling,M107                   	; Turn layer fan off,G21                    	; Set to metric [change to G20 if you want Imperial],G90                    	; Force coordinates to be absolute relative to the origin,G28                    	; Home X/Y/Z axis,G29                    	; Auto-leveling (BL-Touch),;,M117 *Start Clean*     	; Indicate nozzle clean in progress on LCD,G92 E0                 	; Set Extruder to 0 ,G1 X0 Y0 F2000         	; Move X and Y to 0 with speed 2000 (mm/min),G1 Z0.1 F1000          	; Move Z to   0.1 with speed 1000 (mm/min),G1 X8.0 F2000          	; Move X to   8.0 with speed 2000 (mm/min),G1 Y60.0 E4.0 F1000.0  	; Move Y to  60 and Extruder with 4.0 with speed 1000 (mm/min),G1 Y100.0 E8.5 F1000.0 	; Move Y to 100 and Extruder with 8.5 with speed 1000 (mm/min),G92 E0                 	; Set extruder to 0,G1 X16.0 F3000         	; Move X to 16.0 with speed 3000 (mm/min),G1 Y60.0 F3000         	; Move Y to 60.0 with speed 3000 (mm/min),M117 *End Clean*       	; Indicate nozzle clean in progress on LCD,G1 Z5 F3000            	; Move Z to  5.0 with speed 3000 (mm/min),G1 X20.0 F3000         	; Move X to 20.0 with speed 3000 (mm/min),G1 Y20.0 F3000         	; Move Y to 20.0 with speed 3000 (mm/min),; ,M117 *Printing...*     	; Start printing msg on LCD,;,; End Startcode,;,; Begin printing with sliced GCode after here,;
;   layerChangeGcode,
;   retractionGcode,
;   toolChangeGcode,
;   endingGcode,;,; init 181010,;,;M107 			; Fan off,;G1 E-1 F300 			; Retract the filament a bit before lifting the nozzle,;M104 S0 			; Turn off extruder,;M140 S0 			; Turn off bed,;G91			; Relative positioning,;G28 X0 Y0 			; Move X/Y to min endstops so the head is out of teh way,;M84 			; Disable motors,;G90 			; Absolute positioning,;M117 Print ready...,,;,; // From Cura 181010,; // End_gcode,G92 E0			; Zero the extruded length,;G1 E-30 F300		; Retract E -30,M106 S0			; Turn off cooling fan,M104 S0			; Turn off temperature,M140 S0		     	; Turn off bed,G91			; Relative positioning,G1 E-1 F300			; Retract the filament a bit before lifting the nozzle to release some of the pressure,G1 Z+20 E-5 X-20 Y-20 F7200	; Move Z up a bit and retract filament even more,G1 X0 Y150 F10000		; Move right min,M107			; Turn off layer fan,M84			; Disable motors,G90			; Absolute positioning,M117 *The-End* 		; End msg,;,
;   exportFileFormat,gcode
;   celebration,0
;   celebrationSong,Star Wars
;   postProcessing,
;   defaultSpeed,1800
;   outlineUnderspeed,0.5
;   solidInfillUnderspeed,0.8
;   supportUnderspeed,0.8
;   rapidXYspeed,6000
;   rapidZspeed,1002
;   minBridgingArea,50
;   bridgingExtraInflation,0.2
;   bridgingExtrusionMultiplier,1
;   bridgingSpeedMultiplier,0.6
;   useFixedBridgingAngle,0
;   fixedBridgingAngle,0
;   applyBridgingToPerimeters,0
;   filamentDiameters,1.75|1.75|1.75|1.75|1.75|1.75
;   filamentPricesPerKg,30|46|46|46|46|46
;   filamentDensities,1.25|1.25|1.25|1.25|1.25|1.25
;   useMinPrintHeight,0
;   minPrintHeight,0
;   useMaxPrintHeight,0
;   maxPrintHeight,9
;   useDiaphragm,0
;   diaphragmLayerInterval,20
;   robustSlicing,1
;   mergeAllIntoSolid,0
;   onlyRetractWhenCrossingOutline,1
;   retractBetweenLayers,1
;   useRetractionMinTravel,0
;   retractionMinTravel,3
;   retractWhileWiping,0
;   onlyWipeOutlines,1
;   avoidCrossingOutline,0
;   maxMovementDetourFactor,3
;   toolChangeRetractionDistance,12
;   toolChangeExtraRestartDistance,-0.5
;   toolChangeRetractionSpeed,600
;   externalThinWallType,1
;   internalThinWallType,1
;   thinWallAllowedOverlapPercentage,10
;   singleExtrusionMinLength,1
;   singleExtrusionMinPrintingWidthPercentage,50
;   singleExtrusionMaxPrintingWidthPercentage,200
;   singleExtrusionEndpointExtension,0.2
;   horizontalSizeCompensation,0
G90
M82
M106 S0
M140 S55
M190 S55
;
; -]H.P.B[- MarshMalloW  
; $VER: StartScript 1.02 (26.12.2019) MarshMalloW
;
; Begin Startcode
;
M117 *Preheat*     	; Preheat
;extruder0_temperature
M104 S215  
M109 S215 
M109 R215 
;
M117 *Auto-leveling*     	; Auto-leveling
M107                   	; Turn layer fan off
G21                    	; Set to metric [change to G20 if you want Imperial]
G90                    	; Force coordinates to be absolute relative to the origin
G28                    	; Home X/Y/Z axis
G29                    	; Auto-leveling (BL-Touch)
;
M117 *Start Clean*     	; Indicate nozzle clean in progress on LCD
G92 E0                 	; Set Extruder to 0 
G1 X0 Y0 F2000         	; Move X and Y to 0 with speed 2000 (mm/min)
G1 Z0.1 F1000          	; Move Z to   0.1 with speed 1000 (mm/min)
G1 X8.0 F2000          	; Move X to   8.0 with speed 2000 (mm/min)
G1 Y60.0 E4.0 F1000.0  	; Move Y to  60 and Extruder with 4.0 with speed 1000 (mm/min)
G1 Y100.0 E8.5 F1000.0 	; Move Y to 100 and Extruder with 8.5 with speed 1000 (mm/min)
G92 E0                 	; Set extruder to 0
G1 X16.0 F3000         	; Move X to 16.0 with speed 3000 (mm/min)
G1 Y60.0 F3000         	; Move Y to 60.0 with speed 3000 (mm/min)
M117 *End Clean*       	; Indicate nozzle clean in progress on LCD
G1 Z5 F3000            	; Move Z to  5.0 with speed 3000 (mm/min)
G1 X20.0 F3000         	; Move X to 20.0 with speed 3000 (mm/min)
G1 Y20.0 F3000         	; Move Y to 20.0 with speed 3000 (mm/min)
; 
M117 *Printing...*     	; Start printing msg on LCD
;
; End Startcode
;
; Begin printing with sliced GCode after here
;
; process Process1
; layer 1, Z = 0.600
T0
G92 E0.0000
G1 E-4.0000 F3000
; feature skirt
; tool H0.600 W0.350
G1 Z0.600 F1002
G1 X110.358 Y52.835 F6000
G1 E0.0000 F3000
G92 E0.0000
G1 X111.157 Y53.166 E0.0718 F900
G1 X113.526 Y55.536 E0.3497
G1 X113.858 Y56.335 E0.4215
G1 X198.522 Y56.335 E7.4438
G1 X199.151 Y56.530 E7.4983
G1 X201.226 Y57.950 E7.7069
G1 X201.634 Y58.465 E7.7614
G1 X202.284 Y60.138 E7.9103
G1 X202.306 Y60.202 E7.9158
G1 X202.383 Y60.442 E7.9368
G1 X202.401 Y60.507 E7.9423
G1 X202.664 Y61.548 E8.0315
G1 X202.678 Y61.614 E8.0370
G1 X202.725 Y61.862 E8.0580
G1 X202.735 Y61.929 E8.0635
G1 X202.817 Y62.587 E8.1186
G1 X202.823 Y62.654 E8.1242
G1 X202.839 Y62.906 E8.1451
G1 X202.841 Y62.973 E8.1507
G1 X202.841 Y64.090 E8.2433
G1 X202.837 Y64.179 E8.2507
G1 X202.809 Y64.515 E8.2786
G1 X202.798 Y64.604 E8.2861
G1 X202.608 Y65.747 E8.3822
G1 X202.590 Y65.834 E8.3896
G1 X202.508 Y66.160 E8.4175
G1 X202.482 Y66.246 E8.4249
G1 X201.741 Y68.416 E8.6151
G1 X201.335 Y68.962 E8.6715
G1 X199.216 Y70.477 E8.8876
G1 X198.568 Y70.685 E8.9441
G1 X113.858 Y70.686 E15.9702
G1 X113.527 Y71.485 E16.0419
G1 X111.157 Y73.854 E16.3198
G1 X110.358 Y74.185 E16.3916
G1 X100.007 Y74.185 E17.2501
G1 X99.208 Y73.854 E17.3219
G1 X96.839 Y71.485 E17.5998
G1 X96.508 Y70.686 E17.6715
G1 X96.508 Y66.006 E18.0597
G1 X96.530 Y65.788 E18.0779
G1 X96.695 Y64.979 E18.1464
G1 X96.760 Y64.769 E18.1645
G1 X97.050 Y64.090 E18.2258
G1 X97.143 Y63.784 E18.2524
G1 X97.144 Y63.778 E18.2528
G1 X97.167 Y63.455 E18.2797
G1 X97.167 Y63.450 E18.2801
G1 X97.121 Y63.149 E18.3053
G1 X96.723 Y62.127 E18.3964
G1 X96.667 Y61.932 E18.4131
G1 X96.526 Y61.184 E18.4763
G1 X96.508 Y60.983 E18.4931
G1 X96.508 Y56.335 E18.8785
G1 X96.839 Y55.536 E18.9503
G1 X99.208 Y53.166 E19.2282
G1 X100.007 Y52.835 E19.3000
G1 X110.358 Y52.835 E20.1585
G92 E0.0000
G1 E-4.0000 F3000
G1 Z0.900 F1002
G1 X136.816 Y120.398 F6000
G1 Z0.600 F1002
G1 E0.0000 F3000
G92 E0.0000
G1 X136.695 Y120.367 E0.0104 F900
G1 X136.101 Y120.189 E0.0618
G1 X135.983 Y120.148 E0.0721
G1 X135.625 Y120.006 E0.1041
G1 X135.511 Y119.955 E0.1145
G1 X134.697 Y119.546 E0.1901
G1 X134.552 Y119.462 E0.2039
G1 X134.122 Y119.179 E0.2466
G1 X133.988 Y119.080 E0.2604
G1 X133.236 Y118.450 E0.3418
G1 X133.114 Y118.335 E0.3557
G1 X132.759 Y117.959 E0.3986
G1 X132.651 Y117.831 E0.4125
G1 X132.141 Y117.146 E0.4834
G1 X132.092 Y117.077 E0.4903
G1 X131.950 Y116.860 E0.5118
G1 X131.906 Y116.789 E0.5188
G1 X121.855 Y99.381 E2.1861
G1 X121.815 Y99.307 E2.1930
G1 X121.699 Y99.074 E2.2146
G1 X121.663 Y98.998 E2.2216
G1 X121.352 Y98.274 E2.2870
G1 X121.307 Y98.157 E2.2974
G1 X121.185 Y97.788 E2.3295
G1 X121.151 Y97.668 E2.3399
G1 X121.009 Y97.065 E2.3913
G1 X120.985 Y96.942 E2.4017
G1 X120.930 Y96.561 E2.4336
G1 X120.917 Y96.437 E2.4440
G1 X120.864 Y95.527 E2.5196
G1 X120.864 Y95.360 E2.5334
G1 X120.894 Y94.846 E2.5761
G1 X120.913 Y94.680 E2.5900
G1 X121.083 Y93.714 E2.6713
G1 X121.121 Y93.551 E2.6852
G1 X121.269 Y93.055 E2.7282
G1 X121.326 Y92.898 E2.7421
G1 X121.664 Y92.113 E2.8129
G1 X121.700 Y92.037 E2.8199
G1 X121.816 Y91.805 E2.8414
G1 X121.856 Y91.731 E2.8483
G1 X131.906 Y74.324 E4.5155
G1 X131.950 Y74.253 E4.5224
G1 X132.093 Y74.036 E4.5440
G1 X132.141 Y73.967 E4.5509
G1 X132.652 Y73.282 E4.6218
G1 X132.760 Y73.153 E4.6357
G1 X133.115 Y72.777 E4.6787
G1 X133.238 Y72.662 E4.6926
G1 X133.990 Y72.032 E4.7740
G1 X134.123 Y71.933 E4.7878
G1 X134.553 Y71.650 E4.8305
G1 X134.698 Y71.567 E4.8443
G1 X135.060 Y71.385 E4.8779
G1 X114.325 Y71.385 E6.5976
G1 X114.120 Y71.882 E6.6422
G1 X111.554 Y74.448 E6.9432
G1 X110.497 Y74.885 E7.0381
G1 X99.868 Y74.885 E7.9197
G1 X98.811 Y74.448 E8.0145
G1 X96.245 Y71.881 E8.3155
G1 X95.808 Y70.825 E8.4104
G1 X95.808 Y65.971 E8.8130
G1 X95.837 Y65.682 E8.8371
G1 X96.016 Y64.804 E8.9114
G1 X96.102 Y64.527 E8.9354
G1 X96.391 Y63.851 E8.9964
G1 X96.451 Y63.653 E9.0136
G1 X96.463 Y63.480 E9.0280
G1 X96.441 Y63.331 E9.0405
G1 X96.059 Y62.351 E9.1277
G1 X95.985 Y62.094 E9.1499
G1 X95.832 Y61.281 E9.2185
G1 X95.808 Y61.015 E9.2406
G1 X95.808 Y56.196 E9.6404
G1 X96.245 Y55.139 E9.7352
G1 X98.811 Y52.573 E10.0362
G1 X99.868 Y52.135 E10.1311
G1 X110.497 Y52.135 E11.0127
G1 X111.554 Y52.573 E11.1076
G1 X114.120 Y55.139 E11.4086
G1 X114.325 Y55.635 E11.4531
G1 X198.628 Y55.635 E18.4454
G1 X199.459 Y55.892 E18.5175
G1 X201.708 Y57.432 E18.7436
G1 X202.249 Y58.113 E18.8157
G1 X202.940 Y59.895 E18.9742
G1 X202.970 Y59.979 E18.9816
G1 X203.053 Y60.240 E19.0043
G1 X203.077 Y60.325 E19.0117
G1 X203.345 Y61.388 E19.1026
G1 X203.364 Y61.474 E19.1099
G1 X203.415 Y61.744 E19.1327
G1 X203.428 Y61.832 E19.1400
G1 X203.513 Y62.512 E19.1969
G1 X203.521 Y62.600 E19.2042
G1 X203.538 Y62.874 E19.2270
G1 X203.541 Y62.962 E19.2343
G1 X203.541 Y64.104 E19.3290
G1 X203.536 Y64.222 E19.3389
G1 X203.506 Y64.587 E19.3692
G1 X203.491 Y64.704 E19.3790
G1 X203.297 Y65.875 E19.4775
G1 X203.272 Y65.991 E19.4873
G1 X203.183 Y66.345 E19.5176
G1 X203.150 Y66.459 E19.5274
G1 X202.368 Y68.746 E19.7279
G1 X201.831 Y69.468 E19.8025
G1 X199.534 Y71.111 E20.0367
G1 X198.677 Y71.385 E20.1113
G1 X162.132 Y71.385 E23.1425
G1 X162.270 Y71.455 E23.1553
G1 X162.415 Y71.538 E23.1691
G1 X163.175 Y72.038 E23.2446
G1 X163.276 Y72.111 E23.2549
G1 X163.578 Y72.350 E23.2869
G1 X163.673 Y72.431 E23.2972
G1 X164.123 Y72.856 E23.3486
G1 X164.211 Y72.946 E23.3590
G1 X164.469 Y73.235 E23.3911
G1 X164.548 Y73.332 E23.4016
G1 X165.020 Y73.965 E23.4670
G1 X165.068 Y74.034 E23.4740
G1 X165.211 Y74.251 E23.4956
G1 X165.256 Y74.323 E23.5025
G1 X175.307 Y91.731 E25.1698
G1 X175.347 Y91.805 E25.1768
G1 X175.463 Y92.037 E25.1983
G1 X175.498 Y92.113 E25.2053
G1 X175.811 Y92.838 E25.2708
G1 X175.855 Y92.956 E25.2812
G1 X175.977 Y93.324 E25.3134
G1 X176.011 Y93.445 E25.3238
G1 X176.154 Y94.048 E25.3752
G1 X176.177 Y94.171 E25.3856
G1 X176.233 Y94.552 E25.4175
G1 X176.246 Y94.677 E25.4279
G1 X176.299 Y95.586 E25.5035
G1 X176.299 Y95.753 E25.5173
G1 X176.269 Y96.267 E25.5600
G1 X176.250 Y96.433 E25.5739
G1 X176.080 Y97.399 E25.6552
G1 X176.042 Y97.562 E25.6691
G1 X175.893 Y98.058 E25.7121
G1 X175.836 Y98.216 E25.7260
G1 X175.498 Y99.000 E25.7968
G1 X175.463 Y99.076 E25.8038
G1 X175.346 Y99.308 E25.8253
G1 X175.307 Y99.382 E25.8322
G1 X165.257 Y116.789 E27.4993
G1 X165.213 Y116.860 E27.5063
G1 X165.070 Y117.077 E27.5278
G1 X165.022 Y117.145 E27.5348
G1 X164.512 Y117.830 E27.6056
G1 X164.404 Y117.959 E27.6195
G1 X164.048 Y118.335 E27.6625
G1 X163.926 Y118.450 E27.6764
G1 X163.174 Y119.080 E27.7577
G1 X163.041 Y119.179 E27.7716
