; G-Code generated by Simplify3D(R) Version 4.1.2
; Aug 20, 2020 at 9:18:32 PM
; Settings Summary
;   processName,Process1
;   applyToModels,Pendulum_Pin
;   profileName,A04-04-50 Tevo Tornado
;   profileVersion,2020-08-20 21:18:05
;   baseProfile,Creality CR-10(2)
;   printMaterial,PLA
;   printQuality,Medium
;   printExtruders,
;   extruderName,Primary Extruder
;   extruderToolheadNumber,0
;   extruderDiameter,0.4
;   extruderAutoWidth,0
;   extruderWidth,0.35
;   extrusionMultiplier,0.95
;   extruderUseRetract,1
;   extruderRetractionDistance,4
;   extruderExtraRestartDistance,0
;   extruderRetractionZLift,0.3
;   extruderRetractionSpeed,3000
;   extruderUseCoasting,1
;   extruderCoastingDistance,0.8
;   extruderUseWipe,0
;   extruderWipeDistance,4
;   primaryExtruder,0
;   layerHeight,0.15
;   topSolidLayers,4
;   bottomSolidLayers,3
;   perimeterOutlines,3
;   printPerimetersInsideOut,0
;   startPointOption,1
;   startPointOriginX,0
;   startPointOriginY,300
;   sequentialIslands,0
;   spiralVaseMode,0
;   firstLayerHeightPercentage,120
;   firstLayerWidthPercentage,100
;   firstLayerUnderspeed,0.35
;   useRaft,0
;   raftExtruder,0
;   raftTopLayers,3
;   raftBaseLayers,2
;   raftOffset,3
;   raftSeparationDistance,0.14
;   raftTopInfill,100
;   aboveRaftSpeedMultiplier,0.3
;   useSkirt,1
;   skirtExtruder,0
;   skirtLayers,1
;   skirtOutlines,3
;   skirtOffset,2
;   usePrimePillar,0
;   primePillarExtruder,999
;   primePillarWidth,12
;   primePillarLocation,7
;   primePillarSpeedMultiplier,1
;   useOozeShield,0
;   oozeShieldExtruder,999
;   oozeShieldOffset,2
;   oozeShieldOutlines,1
;   oozeShieldSidewallShape,1
;   oozeShieldSidewallAngle,30
;   oozeShieldSpeedMultiplier,1
;   infillExtruder,0
;   internalInfillPattern,Rectilinear
;   externalInfillPattern,Rectilinear
;   infillPercentage,50
;   outlineOverlapPercentage,15
;   infillExtrusionWidthPercentage,100
;   minInfillLength,5
;   infillLayerInterval,1
;   internalInfillAngles,45,-45
;   overlapInternalInfillAngles,0
;   externalInfillAngles,45,-45
;   generateSupport,0
;   supportExtruder,0
;   supportInfillPercentage,30
;   supportExtraInflation,0
;   supportBaseLayers,0
;   denseSupportExtruder,0
;   denseSupportLayers,0
;   denseSupportInfillPercentage,70
;   supportLayerInterval,1
;   supportHorizontalPartOffset,0.4
;   supportUpperSeparationLayers,1
;   supportLowerSeparationLayers,1
;   supportType,0
;   supportGridSpacing,4.5
;   maxOverhangAngle,45
;   supportAngles,0
;   temperatureName,Primary Extruder,Heated Bed
;   temperatureNumber,0,0
;   temperatureSetpointCount,1,1
;   temperatureSetpointLayers,1,1
;   temperatureSetpointTemperatures,215,55
;   temperatureStabilizeAtStartup,1,1
;   temperatureHeatedBed,0,1
;   fanLayers,1,2
;   fanSpeeds,0,100
;   blipFanToFullPower,0
;   adjustSpeedForCooling,1
;   minSpeedLayerTime,15
;   minCoolingSpeedSlowdown,50
;   increaseFanForCooling,1
;   minFanLayerTime,25
;   maxCoolingFanSpeed,100
;   increaseFanForBridging,1
;   bridgingFanSpeed,100
;   use5D,1
;   relativeEdistances,0
;   allowEaxisZeroing,1
;   independentExtruderAxes,0
;   includeM10123,0
;   stickySupport,1
;   applyToolheadOffsets,0
;   gcodeXoffset,0
;   gcodeYoffset,0
;   gcodeZoffset,0
;   overrideMachineDefinition,1
;   machineTypeOverride,0
;   strokeXoverride,300
;   strokeYoverride,300
;   strokeZoverride,400
;   originOffsetXoverride,0
;   originOffsetYoverride,0
;   originOffsetZoverride,0
;   homeXdirOverride,-1
;   homeYdirOverride,-1
;   homeZdirOverride,-1
;   flipXoverride,1
;   flipYoverride,-1
;   flipZoverride,1
;   toolheadOffsets,0,0|0,0|0,0|0,0|0,0|0,0
;   overrideFirmwareConfiguration,1
;   firmwareTypeOverride,RepRap (Marlin/Repetier/Sprinter)
;   GPXconfigOverride,r2
;   baudRateOverride,250000
;   overridePrinterModels,1
;   printerModelsOverride
;   startingGcode,;,; -]H.P.B[- MarshMalloW  ,; $VER: StartScript 1.02 (26.12.2019) MarshMalloW,;,; Begin Startcode,;,M117 *Preheat*     	; Preheat,;extruder0_temperature,M104 S[extruder0_temperature]  ,M109 S[extruder0_temperature] ,M109 R[extruder0_temperature] ,;,M117 *Auto-leveling*     	; Auto-leveling,M107                   	; Turn layer fan off,G21                    	; Set to metric [change to G20 if you want Imperial],G90                    	; Force coordinates to be absolute relative to the origin,G28                    	; Home X/Y/Z axis,G29                    	; Auto-leveling (BL-Touch),;,M117 *Start Clean*     	; Indicate nozzle clean in progress on LCD,G92 E0                 	; Set Extruder to 0 ,G1 X0 Y0 F2000         	; Move X and Y to 0 with speed 2000 (mm/min),G1 Z0.1 F1000          	; Move Z to   0.1 with speed 1000 (mm/min),G1 X8.0 F2000          	; Move X to   8.0 with speed 2000 (mm/min),G1 Y60.0 E4.0 F1000.0  	; Move Y to  60 and Extruder with 4.0 with speed 1000 (mm/min),G1 Y100.0 E8.5 F1000.0 	; Move Y to 100 and Extruder with 8.5 with speed 1000 (mm/min),G92 E0                 	; Set extruder to 0,G1 X16.0 F3000         	; Move X to 16.0 with speed 3000 (mm/min),G1 Y60.0 F3000         	; Move Y to 60.0 with speed 3000 (mm/min),M117 *End Clean*       	; Indicate nozzle clean in progress on LCD,G1 Z5 F3000            	; Move Z to  5.0 with speed 3000 (mm/min),G1 X20.0 F3000         	; Move X to 20.0 with speed 3000 (mm/min),G1 Y20.0 F3000         	; Move Y to 20.0 with speed 3000 (mm/min),; ,M117 *Printing...*     	; Start printing msg on LCD,;,; End Startcode,;,; Begin printing with sliced GCode after here,;
;   layerChangeGcode,
;   retractionGcode,
;   toolChangeGcode,
;   endingGcode,;,; init 181010,;,;M107 			; Fan off,;G1 E-1 F300 			; Retract the filament a bit before lifting the nozzle,;M104 S0 			; Turn off extruder,;M140 S0 			; Turn off bed,;G91			; Relative positioning,;G28 X0 Y0 			; Move X/Y to min endstops so the head is out of teh way,;M84 			; Disable motors,;G90 			; Absolute positioning,;M117 Print ready...,,;,; // From Cura 181010,; // End_gcode,G92 E0			; Zero the extruded length,;G1 E-30 F300		; Retract E -30,M106 S0			; Turn off cooling fan,M104 S0			; Turn off temperature,M140 S0		     	; Turn off bed,G91			; Relative positioning,G1 E-1 F300			; Retract the filament a bit before lifting the nozzle to release some of the pressure,G1 Z+20 E-5 X-20 Y-20 F7200	; Move Z up a bit and retract filament even more,G1 X0 Y150 F10000		; Move right min,M107			; Turn off layer fan,M84			; Disable motors,G90			; Absolute positioning,M117 *The-End* 		; End msg,;,
;   exportFileFormat,gcode
;   celebration,0
;   celebrationSong,Star Wars
;   postProcessing,|{REPLACE "; layer " "M117 INDICATOR-Layer"}|{REPLACE ", Z = " "\n; Z="}
;   defaultSpeed,1800
;   outlineUnderspeed,0.5
;   solidInfillUnderspeed,0.8
;   supportUnderspeed,0.8
;   rapidXYspeed,6000
;   rapidZspeed,1002
;   minBridgingArea,50
;   bridgingExtraInflation,0.2
;   bridgingExtrusionMultiplier,1
;   bridgingSpeedMultiplier,0.6
;   useFixedBridgingAngle,0
;   fixedBridgingAngle,0
;   applyBridgingToPerimeters,0
;   filamentDiameters,1.75|1.75|1.75|1.75|1.75|1.75
;   filamentPricesPerKg,30|46|46|46|46|46
;   filamentDensities,1.25|1.25|1.25|1.25|1.25|1.25
;   useMinPrintHeight,0
;   minPrintHeight,0
;   useMaxPrintHeight,0
;   maxPrintHeight,9
;   useDiaphragm,0
;   diaphragmLayerInterval,20
;   robustSlicing,1
;   mergeAllIntoSolid,0
;   onlyRetractWhenCrossingOutline,1
;   retractBetweenLayers,0
;   useRetractionMinTravel,0
;   retractionMinTravel,3
;   retractWhileWiping,0
;   onlyWipeOutlines,1
;   avoidCrossingOutline,1
;   maxMovementDetourFactor,3
;   toolChangeRetractionDistance,12
;   toolChangeExtraRestartDistance,-0.5
;   toolChangeRetractionSpeed,600
;   externalThinWallType,1
;   internalThinWallType,1
;   thinWallAllowedOverlapPercentage,10
;   singleExtrusionMinLength,1
;   singleExtrusionMinPrintingWidthPercentage,50
;   singleExtrusionMaxPrintingWidthPercentage,200
;   singleExtrusionEndpointExtension,0.2
;   horizontalSizeCompensation,0
G90
M82
M106 S102
M140 S55
M190 S55
;
; -]H.P.B[- MarshMalloW  
; $VER: StartScript 1.02 (26.12.2019) MarshMalloW
;
; Begin Startcode
;
M117 *Preheat*     	; Preheat
;extruder0_temperature
M104 S215  
M109 S215 
M109 R215 
;
M117 *Auto-leveling*     	; Auto-leveling
M107                   	; Turn layer fan off
G21                    	; Set to metric [change to G20 if you want Imperial]
G90                    	; Force coordinates to be absolute relative to the origin
G28                    	; Home X/Y/Z axis
G29                    	; Auto-leveling (BL-Touch)
;
M117 *Start Clean*     	; Indicate nozzle clean in progress on LCD
G92 E0                 	; Set Extruder to 0 
G1 X0 Y0 F2000         	; Move X and Y to 0 with speed 2000 (mm/min)
G1 Z0.1 F1000          	; Move Z to   0.1 with speed 1000 (mm/min)
G1 X8.0 F2000          	; Move X to   8.0 with speed 2000 (mm/min)
G1 Y60.0 E4.0 F1000.0  	; Move Y to  60 and Extruder with 4.0 with speed 1000 (mm/min)
G1 Y100.0 E8.5 F1000.0 	; Move Y to 100 and Extruder with 8.5 with speed 1000 (mm/min)
G92 E0                 	; Set extruder to 0
G1 X16.0 F3000         	; Move X to 16.0 with speed 3000 (mm/min)
G1 Y60.0 F3000         	; Move Y to 60.0 with speed 3000 (mm/min)
M117 *End Clean*       	; Indicate nozzle clean in progress on LCD
G1 Z5 F3000            	; Move Z to  5.0 with speed 3000 (mm/min)
G1 X20.0 F3000         	; Move X to 20.0 with speed 3000 (mm/min)
G1 Y20.0 F3000         	; Move Y to 20.0 with speed 3000 (mm/min)
; 
M117 *Printing...*     	; Start printing msg on LCD
;
; End Startcode
;
; Begin printing with sliced GCode after here
;
; process Process1
M117 INDICATOR-Layer1
; Z=0.180
T0
G92 E0.0000
G1 E-4.0000 F3000
; feature skirt
; tool H0.180 W0.350
G1 Z0.300 F1002
G1 X152.882 Y69.688 F6000
G1 Z0.180 F1002
G1 E0.0000 F3000
G92 E0.0000
G1 X153.878 Y69.933 E0.0255 F405
G1 X154.204 Y70.057 E0.0342
G1 X155.110 Y70.532 E0.0597
G1 X155.397 Y70.730 E0.0683
G1 X156.162 Y71.408 E0.0938
G1 X156.393 Y71.669 E0.1024
G1 X156.974 Y72.510 E0.1279
G1 X157.135 Y72.818 E0.1365
G1 X157.498 Y73.775 E0.1620
G1 X157.581 Y74.112 E0.1706
G1 X157.705 Y75.128 E0.1961
G1 X157.705 Y75.475 E0.2047
G1 X157.581 Y76.491 E0.2302
G1 X157.498 Y76.829 E0.2389
G1 X157.135 Y77.785 E0.2643
G1 X156.974 Y78.093 E0.2730
G1 X156.393 Y78.935 E0.2984
G1 X156.162 Y79.195 E0.3071
G1 X155.397 Y79.873 E0.3325
G1 X155.110 Y80.071 E0.3412
G1 X154.205 Y80.546 E0.3666
G1 X153.879 Y80.669 E0.3753
G1 X152.886 Y80.914 E0.4007
G1 X152.541 Y80.956 E0.4094
G1 X151.518 Y80.956 E0.4348
G1 X151.173 Y80.914 E0.4435
G1 X150.180 Y80.669 E0.4689
G1 X149.855 Y80.546 E0.4776
G1 X148.949 Y80.071 E0.5030
G1 X148.663 Y79.873 E0.5117
G1 X147.897 Y79.195 E0.5371
G1 X147.667 Y78.935 E0.5458
G1 X147.086 Y78.093 E0.5712
G1 X146.924 Y77.785 E0.5799
G1 X146.561 Y76.829 E0.6054
G1 X146.478 Y76.491 E0.6140
G1 X146.355 Y75.475 E0.6395
G1 X146.355 Y75.128 E0.6481
G1 X146.478 Y74.112 E0.6736
G1 X146.561 Y73.775 E0.6822
G1 X146.924 Y72.818 E0.7077
G1 X147.085 Y72.510 E0.7163
G1 X147.667 Y71.669 E0.7418
G1 X147.897 Y71.408 E0.7504
G1 X148.663 Y70.730 E0.7759
G1 X148.949 Y70.532 E0.7845
G1 X149.855 Y70.057 E0.8100
G1 X150.180 Y69.934 E0.8186
G1 X151.170 Y69.690 E0.8440
G1 X151.514 Y69.648 E0.8526
G1 X152.536 Y69.647 E0.8781
G1 X152.882 Y69.688 E0.8867
G92 E0.0000
G1 E-4.0000 F3000
G1 Z0.480 F1002
G1 X152.344 Y72.697 F6000
G1 X151.762 Y72.698
G1 X150.126 Y77.095
G1 X150.539 Y77.461
G1 X149.130 Y79.771
G1 Z0.180 F1002
G1 E0.0000 F3000
G92 E0.0000
G1 X148.879 Y79.597 E0.0076 F405
G1 X148.145 Y78.947 E0.0320
G1 X147.943 Y78.718 E0.0396
G1 X147.386 Y77.911 E0.0640
G1 X147.244 Y77.641 E0.0716
G1 X146.896 Y76.724 E0.0960
G1 X146.823 Y76.428 E0.1036
G1 X146.705 Y75.454 E0.1280
G1 X146.705 Y75.149 E0.1356
G1 X146.823 Y74.176 E0.1600
G1 X146.896 Y73.879 E0.1676
G1 X147.244 Y72.962 E0.1920
G1 X147.386 Y72.692 E0.1996
G1 X147.943 Y71.885 E0.2240
G1 X148.145 Y71.656 E0.2316
G1 X148.879 Y71.006 E0.2560
G1 X149.130 Y70.832 E0.2636
G1 X149.999 Y70.377 E0.2880
G1 X150.284 Y70.269 E0.2956
G1 X151.233 Y70.035 E0.3199
G1 X151.535 Y69.998 E0.3275
G1 X152.515 Y69.997 E0.3519
G1 X152.819 Y70.033 E0.3595
G1 X153.774 Y70.268 E0.3839
G1 X154.060 Y70.377 E0.3916
G1 X154.929 Y70.832 E0.4160
G1 X155.180 Y71.006 E0.4236
G1 X155.914 Y71.656 E0.4480
G1 X156.117 Y71.885 E0.4556
G1 X156.674 Y72.692 E0.4800
G1 X156.816 Y72.962 E0.4876
G1 X157.163 Y73.879 E0.5120
G1 X157.237 Y74.176 E0.5196
G1 X157.355 Y75.149 E0.5440
G1 X157.355 Y75.454 E0.5516
G1 X157.237 Y76.428 E0.5760
G1 X157.163 Y76.724 E0.5836
G1 X156.816 Y77.641 E0.6080
G1 X156.674 Y77.911 E0.6156
G1 X156.117 Y78.718 E0.6400
G1 X155.914 Y78.947 E0.6476
G1 X155.180 Y79.597 E0.6720
G1 X154.929 Y79.771 E0.6796
G1 X154.061 Y80.226 E0.7039
G1 X153.775 Y80.335 E0.7115
G1 X152.823 Y80.569 E0.7359
G1 X152.520 Y80.606 E0.7435
G1 X151.539 Y80.606 E0.7679
G1 X151.236 Y80.569 E0.7755
G1 X150.284 Y80.335 E0.7999
G1 X149.999 Y80.226 E0.8075
G1 X149.130 Y79.771 E0.8319
G92 E0.0000
G1 E-4.0000 F3000
G1 Z0.480 F1002
G1 X150.539 Y77.461 F6000
G1 X151.099 Y77.755
G1 X151.713 Y77.906
G1 X151.746 Y77.906
G1 X154.583 Y75.885
G1 X154.653 Y75.302
G1 X154.577 Y74.674
G1 X156.892 Y74.239
G1 Z0.180 F1002
G1 E0.0000 F3000
G92 E0.0000
G1 X157.005 Y75.170 E0.0233 F405
G1 X157.005 Y75.433 E0.0299
G1 X156.892 Y76.364 E0.0532
G1 X156.829 Y76.620 E0.0598
G1 X156.496 Y77.497 E0.0831
G1 X156.374 Y77.730 E0.0897
G1 X155.841 Y78.502 E0.1130
G1 X155.666 Y78.699 E0.1196
G1 X154.964 Y79.321 E0.1429
G1 X154.748 Y79.471 E0.1495
G1 X153.917 Y79.907 E0.1728
G1 X153.671 Y80.000 E0.1793
G1 X152.760 Y80.224 E0.2027
G1 X152.499 Y80.256 E0.2092
G1 X151.561 Y80.256 E0.2326
G1 X151.299 Y80.224 E0.2391
G1 X150.388 Y80.000 E0.2625
G1 X150.142 Y79.907 E0.2690
G1 X149.312 Y79.471 E0.2924
G1 X149.095 Y79.321 E0.2989
G1 X148.393 Y78.699 E0.3222
G1 X148.219 Y78.502 E0.3288
G1 X147.686 Y77.730 E0.3521
G1 X147.563 Y77.497 E0.3587
G1 X147.231 Y76.620 E0.3820
G1 X147.168 Y76.364 E0.3886
G1 X147.055 Y75.433 E0.4119
G1 X147.055 Y75.170 E0.4185
G1 X147.168 Y74.239 E0.4418
G1 X147.231 Y73.983 E0.4484
G1 X147.563 Y73.106 E0.4717
G1 X147.686 Y72.873 E0.4783
G1 X148.219 Y72.101 E0.5016
G1 X148.393 Y71.904 E0.5081
G1 X149.095 Y71.282 E0.5315
G1 X149.312 Y71.133 E0.5380
G1 X150.143 Y70.697 E0.5614
G1 X150.388 Y70.603 E0.5679
G1 X151.297 Y70.379 E0.5912
G1 X151.557 Y70.348 E0.5977
G1 X152.494 Y70.347 E0.6210
G1 X152.756 Y70.378 E0.6276
G1 X153.670 Y70.603 E0.6510
G1 X153.916 Y70.696 E0.6576
G1 X154.748 Y71.132 E0.6809
G1 X154.964 Y71.282 E0.6875
G1 X155.666 Y71.904 E0.7108
G1 X155.841 Y72.101 E0.7174
G1 X156.374 Y72.873 E0.7407
G1 X156.496 Y73.106 E0.7473
G1 X156.829 Y73.983 E0.7706
G1 X156.892 Y74.239 E0.7772
G92 E0.0000
G1 E-4.0000 F3000
; feature outer perimeter
G1 Z0.480 F1002
G1 X154.577 Y74.674 F6000
G1 X154.353 Y74.082
G1 X154.282 Y73.980
G1 X150.066 Y73.562
G1 Z0.180 F1002
G1 E0.0000 F3000
G92 E0.0000
G1 X150.539 Y73.142 E0.0157 F203
G1 X151.099 Y72.848 E0.0315
G1 X151.711 Y72.698 E0.0472
G1 X152.344 Y72.697 E0.0629
G1 X152.960 Y72.848 E0.0787
G1 X153.520 Y73.142 E0.0944
G1 X153.994 Y73.562 E0.1102
G1 X154.353 Y74.082 E0.1259
G1 X154.577 Y74.674 E0.1416
G1 X154.653 Y75.302 E0.1574
G1 X154.577 Y75.930 E0.1731
G1 X154.353 Y76.521 E0.1889
G1 X153.994 Y77.041 E0.2046
G1 X153.520 Y77.461 E0.2203
G1 X152.960 Y77.755 E0.2361
G1 X152.346 Y77.906 E0.2518
G1 X151.713 Y77.906 E0.2676
G1 X151.099 Y77.755 E0.2833
G1 X150.539 Y77.461 E0.2990
G1 X150.066 Y77.041 E0.3148
G1 X149.706 Y76.521 E0.3305
G1 X149.482 Y75.930 E0.3462
G1 X149.406 Y75.302 E0.3620
G1 X149.482 Y74.674 E0.3777
G1 X149.647 Y74.239 E0.3893
G1 X149.706 Y74.082 F203
G1 X150.066 Y73.562
; feature inner perimeter
G1 X150.330 Y73.796 F6000
G92 E0.0000
G1 X150.740 Y73.432 E0.0136 F304
G1 X151.224 Y73.178 E0.0272
G1 X151.754 Y73.048 E0.0408
G1 X152.301 Y73.047 E0.0544
G1 X152.835 Y73.178 E0.0681
G1 X153.320 Y73.432 E0.0817
G1 X153.730 Y73.796 E0.0954
G1 X154.041 Y74.246 E0.1090
G1 X154.235 Y74.758 E0.1226
G1 X154.301 Y75.302 E0.1362
G1 X154.235 Y75.845 E0.1499
G1 X154.041 Y76.357 E0.1635
G1 X153.730 Y76.808 E0.1771
