; G-Code generated by Simplify3D(R) Version 4.1.2
; Aug 20, 2020 at 11:00:53 PM
; Settings Summary
;   processName,Process1
;   applyToModels,Pendulum_Pin2
;   profileName,A04-04-50 Tevo Tornado
;   profileVersion,2020-08-20 21:18:05
;   baseProfile,Creality CR-10(2)
;   printMaterial,PLA
;   printQuality,Medium
;   printExtruders,
;   extruderName,Primary Extruder
;   extruderToolheadNumber,0
;   extruderDiameter,0.4
;   extruderAutoWidth,0
;   extruderWidth,0.35
;   extrusionMultiplier,0.95
;   extruderUseRetract,1
;   extruderRetractionDistance,4
;   extruderExtraRestartDistance,0
;   extruderRetractionZLift,0.3
;   extruderRetractionSpeed,3000
;   extruderUseCoasting,1
;   extruderCoastingDistance,0.8
;   extruderUseWipe,0
;   extruderWipeDistance,4
;   primaryExtruder,0
;   layerHeight,0.15
;   topSolidLayers,4
;   bottomSolidLayers,3
;   perimeterOutlines,3
;   printPerimetersInsideOut,0
;   startPointOption,1
;   startPointOriginX,0
;   startPointOriginY,300
;   sequentialIslands,0
;   spiralVaseMode,0
;   firstLayerHeightPercentage,120
;   firstLayerWidthPercentage,100
;   firstLayerUnderspeed,0.35
;   useRaft,0
;   raftExtruder,0
;   raftTopLayers,3
;   raftBaseLayers,2
;   raftOffset,3
;   raftSeparationDistance,0.14
;   raftTopInfill,100
;   aboveRaftSpeedMultiplier,0.3
;   useSkirt,1
;   skirtExtruder,0
;   skirtLayers,1
;   skirtOutlines,3
;   skirtOffset,2
;   usePrimePillar,0
;   primePillarExtruder,999
;   primePillarWidth,12
;   primePillarLocation,7
;   primePillarSpeedMultiplier,1
;   useOozeShield,0
;   oozeShieldExtruder,999
;   oozeShieldOffset,2
;   oozeShieldOutlines,1
;   oozeShieldSidewallShape,1
;   oozeShieldSidewallAngle,30
;   oozeShieldSpeedMultiplier,1
;   infillExtruder,0
;   internalInfillPattern,Rectilinear
;   externalInfillPattern,Rectilinear
;   infillPercentage,50
;   outlineOverlapPercentage,15
;   infillExtrusionWidthPercentage,100
;   minInfillLength,5
;   infillLayerInterval,1
;   internalInfillAngles,45,-45
;   overlapInternalInfillAngles,0
;   externalInfillAngles,45,-45
;   generateSupport,0
;   supportExtruder,0
;   supportInfillPercentage,30
;   supportExtraInflation,0
;   supportBaseLayers,0
;   denseSupportExtruder,0
;   denseSupportLayers,0
;   denseSupportInfillPercentage,70
;   supportLayerInterval,1
;   supportHorizontalPartOffset,0.4
;   supportUpperSeparationLayers,1
;   supportLowerSeparationLayers,1
;   supportType,0
;   supportGridSpacing,4.5
;   maxOverhangAngle,45
;   supportAngles,0
;   temperatureName,Primary Extruder,Heated Bed
;   temperatureNumber,0,0
;   temperatureSetpointCount,1,1
;   temperatureSetpointLayers,1,1
;   temperatureSetpointTemperatures,215,55
;   temperatureStabilizeAtStartup,1,1
;   temperatureHeatedBed,0,1
;   fanLayers,1,2
;   fanSpeeds,0,100
;   blipFanToFullPower,0
;   adjustSpeedForCooling,1
;   minSpeedLayerTime,15
;   minCoolingSpeedSlowdown,50
;   increaseFanForCooling,1
;   minFanLayerTime,25
;   maxCoolingFanSpeed,100
;   increaseFanForBridging,1
;   bridgingFanSpeed,100
;   use5D,1
;   relativeEdistances,0
;   allowEaxisZeroing,1
;   independentExtruderAxes,0
;   includeM10123,0
;   stickySupport,1
;   applyToolheadOffsets,0
;   gcodeXoffset,0
;   gcodeYoffset,0
;   gcodeZoffset,0
;   overrideMachineDefinition,1
;   machineTypeOverride,0
;   strokeXoverride,300
;   strokeYoverride,300
;   strokeZoverride,400
;   originOffsetXoverride,0
;   originOffsetYoverride,0
;   originOffsetZoverride,0
;   homeXdirOverride,-1
;   homeYdirOverride,-1
;   homeZdirOverride,-1
;   flipXoverride,1
;   flipYoverride,-1
;   flipZoverride,1
;   toolheadOffsets,0,0|0,0|0,0|0,0|0,0|0,0
;   overrideFirmwareConfiguration,1
;   firmwareTypeOverride,RepRap (Marlin/Repetier/Sprinter)
;   GPXconfigOverride,r2
;   baudRateOverride,250000
;   overridePrinterModels,1
;   printerModelsOverride
;   startingGcode,;,; -]H.P.B[- MarshMalloW  ,; $VER: StartScript 1.02 (26.12.2019) MarshMalloW,;,; Begin Startcode,;,M117 *Preheat*     	; Preheat,;extruder0_temperature,M104 S[extruder0_temperature]  ,M109 S[extruder0_temperature] ,M109 R[extruder0_temperature] ,;,M117 *Auto-leveling*     	; Auto-leveling,M107                   	; Turn layer fan off,G21                    	; Set to metric [change to G20 if you want Imperial],G90                    	; Force coordinates to be absolute relative to the origin,G28                    	; Home X/Y/Z axis,G29                    	; Auto-leveling (BL-Touch),;,M117 *Start Clean*     	; Indicate nozzle clean in progress on LCD,G92 E0                 	; Set Extruder to 0 ,G1 X0 Y0 F2000         	; Move X and Y to 0 with speed 2000 (mm/min),G1 Z0.1 F1000          	; Move Z to   0.1 with speed 1000 (mm/min),G1 X8.0 F2000          	; Move X to   8.0 with speed 2000 (mm/min),G1 Y60.0 E4.0 F1000.0  	; Move Y to  60 and Extruder with 4.0 with speed 1000 (mm/min),G1 Y100.0 E8.5 F1000.0 	; Move Y to 100 and Extruder with 8.5 with speed 1000 (mm/min),G92 E0                 	; Set extruder to 0,G1 X16.0 F3000         	; Move X to 16.0 with speed 3000 (mm/min),G1 Y60.0 F3000         	; Move Y to 60.0 with speed 3000 (mm/min),M117 *End Clean*       	; Indicate nozzle clean in progress on LCD,G1 Z5 F3000            	; Move Z to  5.0 with speed 3000 (mm/min),G1 X20.0 F3000         	; Move X to 20.0 with speed 3000 (mm/min),G1 Y20.0 F3000         	; Move Y to 20.0 with speed 3000 (mm/min),; ,M117 *Printing...*     	; Start printing msg on LCD,;,; End Startcode,;,; Begin printing with sliced GCode after here,;
;   layerChangeGcode,
;   retractionGcode,
;   toolChangeGcode,
;   endingGcode,;,; init 181010,;,;M107 			; Fan off,;G1 E-1 F300 			; Retract the filament a bit before lifting the nozzle,;M104 S0 			; Turn off extruder,;M140 S0 			; Turn off bed,;G91			; Relative positioning,;G28 X0 Y0 			; Move X/Y to min endstops so the head is out of teh way,;M84 			; Disable motors,;G90 			; Absolute positioning,;M117 Print ready...,,;,; // From Cura 181010,; // End_gcode,G92 E0			; Zero the extruded length,;G1 E-30 F300		; Retract E -30,M106 S0			; Turn off cooling fan,M104 S0			; Turn off temperature,M140 S0		     	; Turn off bed,G91			; Relative positioning,G1 E-1 F300			; Retract the filament a bit before lifting the nozzle to release some of the pressure,G1 Z+20 E-5 X-20 Y-20 F7200	; Move Z up a bit and retract filament even more,G1 X0 Y150 F10000		; Move right min,M107			; Turn off layer fan,M84			; Disable motors,G90			; Absolute positioning,M117 *The-End* 		; End msg,;,
;   exportFileFormat,gcode
;   celebration,0
;   celebrationSong,Star Wars
;   postProcessing,|{REPLACE "; layer " "M117 INDICATOR-Layer"}|{REPLACE ", Z = " "\n; Z="}
;   defaultSpeed,1800
;   outlineUnderspeed,0.5
;   solidInfillUnderspeed,0.8
;   supportUnderspeed,0.8
;   rapidXYspeed,6000
;   rapidZspeed,1002
;   minBridgingArea,50
;   bridgingExtraInflation,0.2
;   bridgingExtrusionMultiplier,1
;   bridgingSpeedMultiplier,0.6
;   useFixedBridgingAngle,0
;   fixedBridgingAngle,0
;   applyBridgingToPerimeters,0
;   filamentDiameters,1.75|1.75|1.75|1.75|1.75|1.75
;   filamentPricesPerKg,30|46|46|46|46|46
;   filamentDensities,1.25|1.25|1.25|1.25|1.25|1.25
;   useMinPrintHeight,0
;   minPrintHeight,0
;   useMaxPrintHeight,0
;   maxPrintHeight,9
;   useDiaphragm,0
;   diaphragmLayerInterval,20
;   robustSlicing,1
;   mergeAllIntoSolid,0
;   onlyRetractWhenCrossingOutline,1
;   retractBetweenLayers,0
;   useRetractionMinTravel,0
;   retractionMinTravel,3
;   retractWhileWiping,0
;   onlyWipeOutlines,1
;   avoidCrossingOutline,1
;   maxMovementDetourFactor,3
;   toolChangeRetractionDistance,12
;   toolChangeExtraRestartDistance,-0.5
;   toolChangeRetractionSpeed,600
;   externalThinWallType,1
;   internalThinWallType,1
;   thinWallAllowedOverlapPercentage,10
;   singleExtrusionMinLength,1
;   singleExtrusionMinPrintingWidthPercentage,50
;   singleExtrusionMaxPrintingWidthPercentage,200
;   singleExtrusionEndpointExtension,0.2
;   horizontalSizeCompensation,0
G90
M82
M106 S203
M140 S55
M190 S55
;
; -]H.P.B[- MarshMalloW  
; $VER: StartScript 1.02 (26.12.2019) MarshMalloW
;
; Begin Startcode
;
M117 *Preheat*     	; Preheat
;extruder0_temperature
M104 S215  
M109 S215 
M109 R215 
;
M117 *Auto-leveling*     	; Auto-leveling
M107                   	; Turn layer fan off
G21                    	; Set to metric [change to G20 if you want Imperial]
G90                    	; Force coordinates to be absolute relative to the origin
G28                    	; Home X/Y/Z axis
G29                    	; Auto-leveling (BL-Touch)
;
M117 *Start Clean*     	; Indicate nozzle clean in progress on LCD
G92 E0                 	; Set Extruder to 0 
G1 X0 Y0 F2000         	; Move X and Y to 0 with speed 2000 (mm/min)
G1 Z0.1 F1000          	; Move Z to   0.1 with speed 1000 (mm/min)
G1 X8.0 F2000          	; Move X to   8.0 with speed 2000 (mm/min)
G1 Y60.0 E4.0 F1000.0  	; Move Y to  60 and Extruder with 4.0 with speed 1000 (mm/min)
G1 Y100.0 E8.5 F1000.0 	; Move Y to 100 and Extruder with 8.5 with speed 1000 (mm/min)
G92 E0                 	; Set extruder to 0
G1 X16.0 F3000         	; Move X to 16.0 with speed 3000 (mm/min)
G1 Y60.0 F3000         	; Move Y to 60.0 with speed 3000 (mm/min)
M117 *End Clean*       	; Indicate nozzle clean in progress on LCD
G1 Z5 F3000            	; Move Z to  5.0 with speed 3000 (mm/min)
G1 X20.0 F3000         	; Move X to 20.0 with speed 3000 (mm/min)
G1 Y20.0 F3000         	; Move Y to 20.0 with speed 3000 (mm/min)
; 
M117 *Printing...*     	; Start printing msg on LCD
;
; End Startcode
;
; Begin printing with sliced GCode after here
;
; process Process1
M117 INDICATOR-Layer1
; Z=0.180
T0
G92 E0.0000
G1 E-4.0000 F3000
; feature skirt
; tool H0.180 W0.350
G1 Z0.300 F1002
G1 X158.953 Y72.291 F6000
G1 Z0.180 F1002
G1 E0.0000 F3000
G92 E0.0000
G1 X159.619 Y72.455 E0.0171 F315
G1 X159.944 Y72.578 E0.0257
G1 X160.551 Y72.897 E0.0428
G1 X160.838 Y73.094 E0.0514
G1 X161.351 Y73.549 E0.0685
G1 X161.581 Y73.809 E0.0771
G1 X161.971 Y74.373 E0.0942
G1 X162.132 Y74.681 E0.1028
G1 X162.375 Y75.322 E0.1199
G1 X162.458 Y75.660 E0.1286
G1 X162.541 Y76.340 E0.1456
G1 X162.541 Y76.688 E0.1543
G1 X162.458 Y77.368 E0.1713
G1 X162.375 Y77.706 E0.1800
G1 X162.132 Y78.347 E0.1970
G1 X161.971 Y78.655 E0.2057
G1 X161.581 Y79.218 E0.2227
G1 X161.351 Y79.479 E0.2314
G1 X160.838 Y79.933 E0.2484
G1 X160.551 Y80.131 E0.2571
G1 X159.945 Y80.449 E0.2741
G1 X159.619 Y80.573 E0.2828
G1 X158.954 Y80.737 E0.2998
G1 X158.609 Y80.779 E0.3085
G1 X157.923 Y80.779 E0.3256
G1 X157.578 Y80.737 E0.3342
G1 X156.913 Y80.573 E0.3513
G1 X156.588 Y80.449 E0.3599
G1 X155.981 Y80.131 E0.3770
G1 X155.694 Y79.933 E0.3856
G1 X155.181 Y79.479 E0.4027
G1 X154.951 Y79.219 E0.4113
G1 X154.562 Y78.654 E0.4284
G1 X154.400 Y78.347 E0.4370
G1 X154.157 Y77.706 E0.4541
G1 X154.074 Y77.368 E0.4627
G1 X153.991 Y76.688 E0.4798
G1 X153.991 Y76.340 E0.4884
G1 X154.074 Y75.660 E0.5055
G1 X154.157 Y75.322 E0.5142
G1 X154.400 Y74.681 E0.5312
G1 X154.562 Y74.373 E0.5399
G1 X154.951 Y73.809 E0.5569
G1 X155.181 Y73.549 E0.5656
G1 X155.694 Y73.094 E0.5826
G1 X155.981 Y72.897 E0.5913
G1 X156.586 Y72.579 E0.6083
G1 X156.910 Y72.456 E0.6169
G1 X157.575 Y72.292 E0.6339
G1 X157.920 Y72.249 E0.6426
G1 X158.607 Y72.249 E0.6597
G1 X158.953 Y72.291 E0.6684
G92 E0.0000
G1 E-4.0000 F3000
G1 Z0.480 F1002
G1 X158.414 Y75.299 F6000
G1 X158.118 Y75.299
G1 X157.831 Y75.370
G1 X157.809 Y75.382
G1 X157.183 Y77.083
G1 X157.350 Y77.325
G1 X157.571 Y77.521
G1 X156.162 Y79.831
G1 Z0.180 F1002
G1 E0.0000 F3000
G92 E0.0000
G1 X155.911 Y79.657 E0.0076 F315
G1 X155.429 Y79.231 E0.0236
G1 X155.227 Y79.002 E0.0312
G1 X154.862 Y78.473 E0.0472
G1 X154.720 Y78.203 E0.0548
G1 X154.492 Y77.601 E0.0708
G1 X154.419 Y77.305 E0.0784
G1 X154.341 Y76.667 E0.0944
G1 X154.341 Y76.361 E0.1020
G1 X154.419 Y75.723 E0.1180
G1 X154.492 Y75.426 E0.1256
G1 X154.720 Y74.825 E0.1416
G1 X154.862 Y74.555 E0.1492
G1 X155.227 Y74.025 E0.1652
G1 X155.429 Y73.797 E0.1728
G1 X155.911 Y73.370 E0.1888
G1 X156.162 Y73.197 E0.1964
G1 X156.730 Y72.899 E0.2124
G1 X157.014 Y72.791 E0.2199
G1 X157.638 Y72.637 E0.2359
G1 X157.941 Y72.599 E0.2435
G1 X158.586 Y72.599 E0.2596
G1 X158.890 Y72.636 E0.2672
G1 X159.515 Y72.790 E0.2832
G1 X159.801 Y72.898 E0.2908
G1 X160.370 Y73.197 E0.3068
G1 X160.621 Y73.370 E0.3144
G1 X161.103 Y73.797 E0.3304
G1 X161.305 Y74.025 E0.3380
G1 X161.670 Y74.555 E0.3540
G1 X161.812 Y74.825 E0.3616
G1 X162.040 Y75.426 E0.3776
G1 X162.114 Y75.723 E0.3852
G1 X162.191 Y76.361 E0.4012
G1 X162.191 Y76.667 E0.4088
G1 X162.114 Y77.305 E0.4248
G1 X162.040 Y77.601 E0.4324
G1 X161.812 Y78.203 E0.4484
G1 X161.670 Y78.473 E0.4560
G1 X161.305 Y79.002 E0.4720
G1 X161.103 Y79.231 E0.4796
G1 X160.621 Y79.657 E0.4956
G1 X160.370 Y79.831 E0.5032
G1 X159.801 Y80.130 E0.5192
G1 X159.515 Y80.238 E0.5268
G1 X158.891 Y80.392 E0.5428
G1 X158.588 Y80.429 E0.5504
G1 X157.945 Y80.429 E0.5664
G1 X157.641 Y80.392 E0.5740
G1 X157.017 Y80.238 E0.5900
G1 X156.731 Y80.130 E0.5976
G1 X156.162 Y79.831 E0.6136
G92 E0.0000
G1 E-4.0000 F3000
G1 Z0.480 F1002
G1 X161.769 Y75.786 F6000
G1 Z0.180 F1002
G1 E0.0000 F3000
G92 E0.0000
G1 X161.841 Y76.382 E0.0149 F315
G1 X161.841 Y76.645 E0.0215
G1 X161.769 Y77.242 E0.0364
G1 X161.706 Y77.497 E0.0430
G1 X161.493 Y78.059 E0.0579
G1 X161.370 Y78.292 E0.0645
G1 X161.029 Y78.786 E0.0794
G1 X160.855 Y78.983 E0.0860
G1 X160.405 Y79.381 E0.1009
G1 X160.189 Y79.531 E0.1075
G1 X159.657 Y79.810 E0.1224
G1 X159.411 Y79.903 E0.1290
G1 X158.828 Y80.047 E0.1439
G1 X158.566 Y80.079 E0.1504
G1 X157.966 Y80.079 E0.1654
G1 X157.704 Y80.047 E0.1719
G1 X157.121 Y79.903 E0.1869
G1 X156.875 Y79.810 E0.1934
G1 X156.344 Y79.531 E0.2084
G1 X156.127 Y79.381 E0.2149
G1 X155.677 Y78.983 E0.2299
G1 X155.503 Y78.786 E0.2364
G1 X155.162 Y78.292 E0.2514
G1 X155.039 Y78.059 E0.2579
G1 X154.826 Y77.497 E0.2729
G1 X154.763 Y77.242 E0.2794
G1 X154.691 Y76.645 E0.2943
G1 X154.691 Y76.382 E0.3009
G1 X154.763 Y75.786 E0.3158
G1 X154.826 Y75.531 E0.3224
G1 X155.039 Y74.969 E0.3373
G1 X155.162 Y74.736 E0.3439
G1 X155.503 Y74.242 E0.3588
G1 X155.677 Y74.045 E0.3654
G1 X156.127 Y73.646 E0.3803
G1 X156.344 Y73.497 E0.3869
G1 X156.874 Y73.219 E0.4018
G1 X157.119 Y73.125 E0.4083
G1 X157.702 Y72.981 E0.4232
G1 X157.963 Y72.949 E0.4298
G1 X158.565 Y72.949 E0.4448
G1 X158.827 Y72.981 E0.4513
G1 X159.411 Y73.124 E0.4663
G1 X159.657 Y73.218 E0.4728
G1 X160.189 Y73.497 E0.4878
G1 X160.405 Y73.646 E0.4943
G1 X160.855 Y74.045 E0.5093
G1 X161.029 Y74.242 E0.5158
G1 X161.370 Y74.736 E0.5308
G1 X161.493 Y74.969 E0.5373
G1 X161.706 Y75.531 E0.5523
G1 X161.769 Y75.786 E0.5588
G92 E0.0000
G1 E-4.0000 F3000
; feature outer perimeter
G1 Z0.480 F1002
G1 X159.454 Y76.221 F6000
G1 X159.350 Y75.945
G1 X159.206 Y75.737
G1 X157.350 Y75.702
G1 Z0.180 F1002
G1 E0.0000 F3000
G92 E0.0000
G1 X157.571 Y75.507 E0.0073 F158
G1 X157.831 Y75.370 E0.0147
G1 X158.118 Y75.299 E0.0220
G1 X158.414 Y75.299 E0.0294
G1 X158.700 Y75.370 E0.0367
G1 X158.961 Y75.507 E0.0440
G1 X159.182 Y75.702 E0.0514
G1 X159.350 Y75.945 E0.0587
G1 X159.454 Y76.221 E0.0661
G1 X159.490 Y76.514 E0.0734
G1 X159.454 Y76.807 E0.0807
G1 X159.350 Y77.083 E0.0881
G1 X159.182 Y77.325 E0.0954
G1 X158.961 Y77.521 E0.1028
G1 X158.700 Y77.658 E0.1101
G1 X158.414 Y77.729 E0.1174
G1 X158.119 Y77.729 E0.1248
G1 X157.832 Y77.658 E0.1321
G1 X157.571 Y77.521 E0.1395
G1 X157.350 Y77.325 E0.1468
G1 X157.183 Y77.083 E0.1541
G1 X157.078 Y76.807 E0.1615
G1 X157.042 Y76.514 E0.1688
G1 X157.053 Y76.429 E0.1709
G1 X157.078 Y76.221 F158
G1 X157.183 Y75.945
G1 X157.350 Y75.702
; feature inner perimeter
G1 X157.614 Y75.936 F6000
G92 E0.0000
G1 X157.771 Y75.797 E0.0052 F236
G1 X157.956 Y75.700 E0.0104
G1 X158.160 Y75.649 E0.0157
G1 X158.371 Y75.649 E0.0209
G1 X158.575 Y75.699 E0.0261
G1 X158.761 Y75.797 E0.0314
G1 X158.918 Y75.936 E0.0366
G1 X159.037 Y76.109 E0.0418
G1 X159.112 Y76.305 E0.0470
G1 X159.137 Y76.514 E0.0523
G1 X159.112 Y76.722 E0.0575
G1 X159.037 Y76.919 E0.0627
G1 X158.918 Y77.091 E0.0679
G1 X158.761 Y77.231 E0.0732
G1 X158.575 Y77.328 E0.0784
G1 X158.371 Y77.379 E0.0836
