; G-Code generated by Simplify3D(R) Version 4.1.2
; Aug 20, 2020 at 4:28:13 PM
; Settings Summary
;   processName,Process1
;   applyToModels,Pendulum_Arm,Pendulum_insert
;   profileName,A04-04-15 Tevo Tornado
;   profileVersion,2020-07-01 20:14:39
;   baseProfile,Creality CR-10(2)
;   printMaterial,PLA
;   printQuality,Medium
;   printExtruders,
;   extruderName,Primary Extruder
;   extruderToolheadNumber,0
;   extruderDiameter,0.4
;   extruderAutoWidth,0
;   extruderWidth,0.35
;   extrusionMultiplier,0.95
;   extruderUseRetract,1
;   extruderRetractionDistance,4
;   extruderExtraRestartDistance,0
;   extruderRetractionZLift,0.3
;   extruderRetractionSpeed,3000
;   extruderUseCoasting,1
;   extruderCoastingDistance,0.8
;   extruderUseWipe,0
;   extruderWipeDistance,4
;   primaryExtruder,0
;   layerHeight,0.15
;   topSolidLayers,4
;   bottomSolidLayers,3
;   perimeterOutlines,3
;   printPerimetersInsideOut,0
;   startPointOption,1
;   startPointOriginX,0
;   startPointOriginY,300
;   sequentialIslands,0
;   spiralVaseMode,0
;   firstLayerHeightPercentage,120
;   firstLayerWidthPercentage,100
;   firstLayerUnderspeed,0.5
;   useRaft,0
;   raftExtruder,0
;   raftTopLayers,3
;   raftBaseLayers,2
;   raftOffset,3
;   raftSeparationDistance,0.14
;   raftTopInfill,100
;   aboveRaftSpeedMultiplier,0.3
;   useSkirt,1
;   skirtExtruder,0
;   skirtLayers,1
;   skirtOutlines,3
;   skirtOffset,2
;   usePrimePillar,0
;   primePillarExtruder,999
;   primePillarWidth,12
;   primePillarLocation,7
;   primePillarSpeedMultiplier,1
;   useOozeShield,0
;   oozeShieldExtruder,999
;   oozeShieldOffset,2
;   oozeShieldOutlines,1
;   oozeShieldSidewallShape,1
;   oozeShieldSidewallAngle,30
;   oozeShieldSpeedMultiplier,1
;   infillExtruder,0
;   internalInfillPattern,Rectilinear
;   externalInfillPattern,Rectilinear
;   infillPercentage,15
;   outlineOverlapPercentage,15
;   infillExtrusionWidthPercentage,100
;   minInfillLength,5
;   infillLayerInterval,1
;   internalInfillAngles,45,-45
;   overlapInternalInfillAngles,0
;   externalInfillAngles,45,-45
;   generateSupport,0
;   supportExtruder,0
;   supportInfillPercentage,30
;   supportExtraInflation,0
;   supportBaseLayers,0
;   denseSupportExtruder,0
;   denseSupportLayers,0
;   denseSupportInfillPercentage,70
;   supportLayerInterval,1
;   supportHorizontalPartOffset,0.4
;   supportUpperSeparationLayers,1
;   supportLowerSeparationLayers,1
;   supportType,0
;   supportGridSpacing,4.5
;   maxOverhangAngle,45
;   supportAngles,0
;   temperatureName,Primary Extruder,Heated Bed
;   temperatureNumber,0,0
;   temperatureSetpointCount,1,1
;   temperatureSetpointLayers,1,1
;   temperatureSetpointTemperatures,215,55
;   temperatureStabilizeAtStartup,1,1
;   temperatureHeatedBed,0,1
;   fanLayers,1,2
;   fanSpeeds,0,100
;   blipFanToFullPower,0
;   adjustSpeedForCooling,1
;   minSpeedLayerTime,15
;   minCoolingSpeedSlowdown,50
;   increaseFanForCooling,1
;   minFanLayerTime,25
;   maxCoolingFanSpeed,100
;   increaseFanForBridging,1
;   bridgingFanSpeed,100
;   use5D,1
;   relativeEdistances,0
;   allowEaxisZeroing,1
;   independentExtruderAxes,0
;   includeM10123,0
;   stickySupport,1
;   applyToolheadOffsets,0
;   gcodeXoffset,0
;   gcodeYoffset,0
;   gcodeZoffset,0
;   overrideMachineDefinition,1
;   machineTypeOverride,0
;   strokeXoverride,300
;   strokeYoverride,300
;   strokeZoverride,400
;   originOffsetXoverride,0
;   originOffsetYoverride,0
;   originOffsetZoverride,0
;   homeXdirOverride,-1
;   homeYdirOverride,-1
;   homeZdirOverride,-1
;   flipXoverride,1
;   flipYoverride,-1
;   flipZoverride,1
;   toolheadOffsets,0,0|0,0|0,0|0,0|0,0|0,0
;   overrideFirmwareConfiguration,1
;   firmwareTypeOverride,RepRap (Marlin/Repetier/Sprinter)
;   GPXconfigOverride,r2
;   baudRateOverride,250000
;   overridePrinterModels,1
;   printerModelsOverride
;   startingGcode,;,; -]H.P.B[- MarshMalloW  ,; $VER: StartScript 1.02 (26.12.2019) MarshMalloW,;,; Begin Startcode,;,M117 *Preheat*     	; Preheat,;extruder0_temperature,M104 S[extruder0_temperature]  ,M109 S[extruder0_temperature] ,M109 R[extruder0_temperature] ,;,M117 *Auto-leveling*     	; Auto-leveling,M107                   	; Turn layer fan off,G21                    	; Set to metric [change to G20 if you want Imperial],G90                    	; Force coordinates to be absolute relative to the origin,G28                    	; Home X/Y/Z axis,G29                    	; Auto-leveling (BL-Touch),;,M117 *Start Clean*     	; Indicate nozzle clean in progress on LCD,G92 E0                 	; Set Extruder to 0 ,G1 X0 Y0 F2000         	; Move X and Y to 0 with speed 2000 (mm/min),G1 Z0.1 F1000          	; Move Z to   0.1 with speed 1000 (mm/min),G1 X8.0 F2000          	; Move X to   8.0 with speed 2000 (mm/min),G1 Y60.0 E4.0 F1000.0  	; Move Y to  60 and Extruder with 4.0 with speed 1000 (mm/min),G1 Y100.0 E8.5 F1000.0 	; Move Y to 100 and Extruder with 8.5 with speed 1000 (mm/min),G92 E0                 	; Set extruder to 0,G1 X16.0 F3000         	; Move X to 16.0 with speed 3000 (mm/min),G1 Y60.0 F3000         	; Move Y to 60.0 with speed 3000 (mm/min),M117 *End Clean*       	; Indicate nozzle clean in progress on LCD,G1 Z5 F3000            	; Move Z to  5.0 with speed 3000 (mm/min),G1 X20.0 F3000         	; Move X to 20.0 with speed 3000 (mm/min),G1 Y20.0 F3000         	; Move Y to 20.0 with speed 3000 (mm/min),; ,M117 *Printing...*     	; Start printing msg on LCD,;,; End Startcode,;,; Begin printing with sliced GCode after here,;
;   layerChangeGcode,
;   retractionGcode,
;   toolChangeGcode,
;   endingGcode,;,; init 181010,;,;M107 			; Fan off,;G1 E-1 F300 			; Retract the filament a bit before lifting the nozzle,;M104 S0 			; Turn off extruder,;M140 S0 			; Turn off bed,;G91			; Relative positioning,;G28 X0 Y0 			; Move X/Y to min endstops so the head is out of teh way,;M84 			; Disable motors,;G90 			; Absolute positioning,;M117 Print ready...,,;,; // From Cura 181010,; // End_gcode,G92 E0			; Zero the extruded length,;G1 E-30 F300		; Retract E -30,M106 S0			; Turn off cooling fan,M104 S0			; Turn off temperature,M140 S0		     	; Turn off bed,G91			; Relative positioning,G1 E-1 F300			; Retract the filament a bit before lifting the nozzle to release some of the pressure,G1 Z+20 E-5 X-20 Y-20 F7200	; Move Z up a bit and retract filament even more,G1 X0 Y150 F10000		; Move right min,M107			; Turn off layer fan,M84			; Disable motors,G90			; Absolute positioning,M117 *The-End* 		; End msg,;,
;   exportFileFormat,gcode
;   celebration,0
;   celebrationSong,Star Wars
;   postProcessing,|{REPLACE "; layer " "M117 INDICATOR-Layer"}|{REPLACE ", Z = " "\n; Z="}
;   defaultSpeed,1800
;   outlineUnderspeed,0.5
;   solidInfillUnderspeed,0.8
;   supportUnderspeed,0.8
;   rapidXYspeed,6000
;   rapidZspeed,1002
;   minBridgingArea,50
;   bridgingExtraInflation,0.2
;   bridgingExtrusionMultiplier,1
;   bridgingSpeedMultiplier,0.6
;   useFixedBridgingAngle,0
;   fixedBridgingAngle,0
;   applyBridgingToPerimeters,0
;   filamentDiameters,1.75|1.75|1.75|1.75|1.75|1.75
;   filamentPricesPerKg,30|46|46|46|46|46
;   filamentDensities,1.25|1.25|1.25|1.25|1.25|1.25
;   useMinPrintHeight,0
;   minPrintHeight,0
;   useMaxPrintHeight,0
;   maxPrintHeight,50
;   useDiaphragm,0
;   diaphragmLayerInterval,20
;   robustSlicing,1
;   mergeAllIntoSolid,0
;   onlyRetractWhenCrossingOutline,1
;   retractBetweenLayers,0
;   useRetractionMinTravel,0
;   retractionMinTravel,3
;   retractWhileWiping,0
;   onlyWipeOutlines,1
;   avoidCrossingOutline,1
;   maxMovementDetourFactor,3
;   toolChangeRetractionDistance,12
;   toolChangeExtraRestartDistance,-0.5
;   toolChangeRetractionSpeed,600
;   externalThinWallType,1
;   internalThinWallType,1
;   thinWallAllowedOverlapPercentage,10
;   singleExtrusionMinLength,1
;   singleExtrusionMinPrintingWidthPercentage,50
;   singleExtrusionMaxPrintingWidthPercentage,200
;   singleExtrusionEndpointExtension,0.2
;   horizontalSizeCompensation,0
G90
M82
M106 S0
M140 S55
M190 S55
;
; -]H.P.B[- MarshMalloW  
; $VER: StartScript 1.02 (26.12.2019) MarshMalloW
;
; Begin Startcode
;
M117 *Preheat*     	; Preheat
;extruder0_temperature
M104 S215  
M109 S215 
M109 R215 
;
M117 *Auto-leveling*     	; Auto-leveling
M107                   	; Turn layer fan off
G21                    	; Set to metric [change to G20 if you want Imperial]
G90                    	; Force coordinates to be absolute relative to the origin
G28                    	; Home X/Y/Z axis
G29                    	; Auto-leveling (BL-Touch)
;
M117 *Start Clean*     	; Indicate nozzle clean in progress on LCD
G92 E0                 	; Set Extruder to 0 
G1 X0 Y0 F2000         	; Move X and Y to 0 with speed 2000 (mm/min)
G1 Z0.1 F1000          	; Move Z to   0.1 with speed 1000 (mm/min)
G1 X8.0 F2000          	; Move X to   8.0 with speed 2000 (mm/min)
G1 Y60.0 E4.0 F1000.0  	; Move Y to  60 and Extruder with 4.0 with speed 1000 (mm/min)
G1 Y100.0 E8.5 F1000.0 	; Move Y to 100 and Extruder with 8.5 with speed 1000 (mm/min)
G92 E0                 	; Set extruder to 0
G1 X16.0 F3000         	; Move X to 16.0 with speed 3000 (mm/min)
G1 Y60.0 F3000         	; Move Y to 60.0 with speed 3000 (mm/min)
M117 *End Clean*       	; Indicate nozzle clean in progress on LCD
G1 Z5 F3000            	; Move Z to  5.0 with speed 3000 (mm/min)
G1 X20.0 F3000         	; Move X to 20.0 with speed 3000 (mm/min)
G1 Y20.0 F3000         	; Move Y to 20.0 with speed 3000 (mm/min)
; 
M117 *Printing...*     	; Start printing msg on LCD
;
; End Startcode
;
; Begin printing with sliced GCode after here
;
; process Process1
M117 INDICATOR-Layer1
; Z=0.180
T0
G92 E0.0000
G1 E-4.0000 F3000
; feature skirt
; tool H0.180 W0.350
G1 Z0.300 F1002
G1 X109.873 Y55.135 F6000
G1 Z0.180 F1002
G1 E0.0000 F3000
G92 E0.0000
G1 X111.558 Y56.819 E0.0593 F900
G1 X111.558 Y58.635 E0.1044
G1 X198.155 Y58.635 E2.2592
G1 X199.623 Y59.640 E2.3035
G1 X200.126 Y60.936 E2.3381
G1 X200.180 Y61.105 E2.3425
G1 X200.425 Y62.074 E2.3674
G1 X200.457 Y62.249 E2.3718
G1 X200.530 Y62.833 E2.3864
G1 X200.541 Y63.011 E2.3909
G1 X200.541 Y64.040 E2.4165
G1 X200.521 Y64.276 E2.4224
G1 X200.348 Y65.320 E2.4487
G1 X200.290 Y65.550 E2.4546
G1 X199.688 Y67.312 E2.5010
G1 X198.187 Y68.385 E2.5468
G1 X111.558 Y68.385 E4.7024
G1 X111.558 Y70.201 E4.7476
G1 X109.873 Y71.885 E4.8069
G1 X100.492 Y71.885 E5.0403
G1 X98.808 Y70.201 E5.0996
G1 X98.808 Y66.139 E5.2007
G1 X98.924 Y65.571 E5.2151
G1 X99.223 Y64.868 E5.2341
G1 X99.385 Y64.331 E5.2480
G1 X99.434 Y64.057 E5.2550
G1 X99.475 Y63.496 E5.2690
G1 X99.463 Y63.217 E5.2759
G1 X99.376 Y62.646 E5.2903
G1 X99.332 Y62.477 E5.2946
G1 X98.907 Y61.387 E5.3238
G1 X98.808 Y60.860 E5.3371
G1 X98.808 Y56.819 E5.4376
G1 X100.492 Y55.135 E5.4969
G1 X109.873 Y55.135 E5.7303
G92 E0.0000
G1 E-4.0000 F3000
G1 Z0.480 F1002
G1 X108.508 Y58.185 F6000
G1 X108.508 Y61.685
G1 X109.816 Y61.685
G1 X109.812 Y62.135
G1 X109.508 Y62.135
G1 X109.508 Y64.885
G1 X109.787 Y64.885
G1 X109.783 Y65.335
G1 X108.508 Y65.335
G1 X108.508 Y68.835
G1 X109.729 Y71.535
G1 Z0.180 F1002
G1 E0.0000 F3000
G92 E0.0000
G1 X100.637 Y71.535 E0.2262 F900
G1 X99.158 Y70.056 E0.2783
G1 X99.158 Y66.174 E0.3749
G1 X99.259 Y65.675 E0.3875
G1 X99.552 Y64.987 E0.4061
G1 X99.726 Y64.413 E0.4211
G1 X99.782 Y64.101 E0.4290
G1 X99.825 Y63.501 E0.4439
G1 X99.812 Y63.183 E0.4519
G1 X99.720 Y62.575 E0.4671
G1 X99.666 Y62.369 E0.4725
G1 X99.245 Y61.290 E0.5013
G1 X99.158 Y60.827 E0.5130
G1 X99.158 Y56.964 E0.6091
G1 X100.637 Y55.485 E0.6612
G1 X109.729 Y55.485 E0.8874
G1 X111.208 Y56.964 E0.9394
G1 X111.208 Y58.985 E0.9897
G1 X198.047 Y58.985 E3.1505
G1 X199.336 Y59.868 E3.1894
G1 X199.796 Y61.053 E3.2210
G1 X199.843 Y61.201 E3.2249
G1 X200.083 Y62.149 E3.2492
G1 X200.111 Y62.303 E3.2531
G1 X200.181 Y62.866 E3.2672
G1 X200.191 Y63.021 E3.2711
G1 X200.191 Y64.025 E3.2961
G1 X200.174 Y64.233 E3.3013
G1 X200.005 Y65.249 E3.3269
G1 X199.954 Y65.450 E3.3321
G1 X199.393 Y67.093 E3.3753
G1 X198.075 Y68.035 E3.4156
G1 X111.208 Y68.035 E5.5771
G1 X111.208 Y70.056 E5.6274
G1 X109.729 Y71.535 E5.6794
G92 E0.0000
G1 E-4.0000 F3000
G1 Z0.480 F1002
G1 X108.508 Y68.835 F6000
G1 X108.508 Y65.335
G1 X164.096 Y65.335
G1 X168.042 Y64.885
G1 X189.858 Y64.885
G1 X189.858 Y62.397
G1 X196.102 Y61.685
G1 X197.145 Y61.685
G1 X197.248 Y61.950
G1 X199.507 Y61.297
G1 Z0.180 F1002
G1 E0.0000 F3000
G92 E0.0000
G1 X199.740 Y62.224 E0.0238 F900
G1 X199.765 Y62.357 E0.0271
G1 X199.832 Y62.898 E0.0407
G1 X199.841 Y63.032 E0.0441
G1 X199.841 Y64.011 E0.0684
G1 X199.826 Y64.190 E0.0729
G1 X199.662 Y65.177 E0.0978
G1 X199.618 Y65.351 E0.1022
G1 X199.098 Y66.874 E0.1423
G1 X197.963 Y67.685 E0.1770
G1 X110.858 Y67.685 E2.3444
G1 X110.858 Y69.911 E2.3998
G1 X109.584 Y71.185 E2.4446
G1 X100.782 Y71.185 E2.6637
G1 X99.508 Y69.911 E2.7085
G1 X99.508 Y66.210 E2.8006
G1 X99.595 Y65.780 E2.8115
G1 X99.882 Y65.107 E2.8297
G1 X100.067 Y64.496 E2.8456
G1 X100.130 Y64.144 E2.8545
G1 X100.176 Y63.506 E2.8704
G1 X100.160 Y63.149 E2.8793
G1 X100.063 Y62.505 E2.8955
G1 X99.999 Y62.261 E2.9018
G1 X99.583 Y61.193 E2.9303
G1 X99.508 Y60.794 E2.9404
G1 X99.508 Y57.109 E3.0321
G1 X100.782 Y55.835 E3.0769
G1 X109.584 Y55.835 E3.2959
G1 X110.858 Y57.109 E3.3408
G1 X110.858 Y59.335 E3.3962
G1 X197.938 Y59.335 E5.5630
G1 X199.049 Y60.096 E5.5965
G1 X199.466 Y61.169 E5.6251
G1 X199.507 Y61.297 E5.6285
G92 E0.0000
G1 E-4.0000 F3000
G1 Z0.480 F1002
G1 X197.248 Y61.950 F6000
G1 X197.330 Y62.226
G1 X129.059 Y91.355
G1 X127.163 Y94.640
G1 X124.401 Y93.342
G1 Z0.180 F1002
G1 E0.0000 F3000
G92 E0.0000
G1 X124.477 Y93.192 E0.0042 F900
G1 X134.481 Y75.864 E0.5021
G1 X134.574 Y75.723 E0.5062
G1 X134.978 Y75.181 E0.5231
G1 X135.146 Y74.993 E0.5293
G1 X135.498 Y74.662 E0.5414
G1 X135.693 Y74.507 E0.5476
G1 X136.320 Y74.095 E0.5662
G1 X136.618 Y73.945 E0.5745
G1 X137.369 Y73.671 E0.5944
G1 X137.695 Y73.593 E0.6028
G1 X138.409 Y73.509 E0.6207
G1 X138.577 Y73.499 E0.6248
G1 X158.587 Y73.499 E1.1227
G1 X158.755 Y73.509 E1.1269
G1 X159.468 Y73.593 E1.1448
G1 X159.794 Y73.671 E1.1531
G1 X160.545 Y73.945 E1.1730
G1 X160.842 Y74.095 E1.1813
G1 X161.469 Y74.507 E1.2000
G1 X161.665 Y74.661 E1.2062
G1 X162.017 Y74.993 E1.2182
G1 X162.184 Y75.180 E1.2245
G1 X162.587 Y75.721 E1.2413
G1 X162.680 Y75.862 E1.2455
G1 X172.686 Y93.192 E1.7434
G1 X172.761 Y93.342 E1.7476
G1 X173.029 Y93.963 E1.7644
G1 X173.108 Y94.202 E1.7707
G1 X173.219 Y94.672 E1.7827
G1 X173.255 Y94.919 E1.7889
G1 X173.298 Y95.670 E1.8076
G1 X173.279 Y96.003 E1.8159
G1 X173.141 Y96.790 E1.8358
G1 X173.045 Y97.112 E1.8441
G1 X172.761 Y97.771 E1.8620
G1 X172.686 Y97.921 E1.8662
G1 X162.681 Y115.249 E2.3640
G1 X162.589 Y115.390 E2.3682
G1 X162.185 Y115.932 E2.3851
G1 X162.018 Y116.120 E2.3913
G1 X161.666 Y116.451 E2.4033
G1 X161.470 Y116.606 E2.4096
G1 X160.842 Y117.019 E2.4283
G1 X160.544 Y117.169 E2.4366
G1 X159.793 Y117.443 E2.4565
G1 X159.466 Y117.521 E2.4648
G1 X158.753 Y117.604 E2.4827
G1 X158.586 Y117.614 E2.4868
G1 X138.575 Y117.614 E2.9848
G1 X138.407 Y117.604 E2.9890
G1 X137.696 Y117.520 E3.0068
G1 X137.369 Y117.443 E3.0151
G1 X136.619 Y117.169 E3.0350
G1 X136.321 Y117.019 E3.0433
G1 X135.693 Y116.606 E3.0620
G1 X135.497 Y116.451 E3.0682
G1 X135.145 Y116.120 E3.0802
G1 X134.978 Y115.932 E3.0865
G1 X134.574 Y115.390 E3.1033
G1 X134.481 Y115.249 E3.1075
G1 X124.476 Y97.920 E3.6054
G1 X124.400 Y97.769 E3.6096
G1 X124.134 Y97.150 E3.6264
G1 X124.055 Y96.911 E3.6327
G1 X123.944 Y96.441 E3.6447
G1 X123.908 Y96.194 E3.6509
G1 X123.864 Y95.443 E3.6696
G1 X123.883 Y95.110 E3.6779
G1 X124.021 Y94.323 E3.6978
G1 X124.117 Y94.001 E3.7061
G1 X124.401 Y93.342 E3.7240
G92 E0.0000
G1 E-4.0000 F3000
G1 Z0.480 F1002
G1 X135.898 Y116.322 F6000
G1 Z0.180 F1002
G1 E0.0000 F3000
G92 E0.0000
G1 X135.726 Y116.186 E0.0055 F900
G1 X135.396 Y115.875 E0.0167
G1 X135.249 Y115.710 E0.0222
G1 X134.860 Y115.189 E0.0384
G1 X134.779 Y115.066 E0.0421
G1 X124.784 Y97.754 E0.5395
G1 X124.718 Y97.621 E0.5432
G1 X124.461 Y97.025 E0.5593
G1 X124.392 Y96.816 E0.5648
G1 X124.288 Y96.375 E0.5761
G1 X124.256 Y96.158 E0.5815
