; G-Code generated by Simplify3D(R) Version 4.1.2
; Aug 20, 2020 at 11:29:04 PM
; Settings Summary
;   processName,Process1
;   applyToModels,Pendulum_Pin2(2)
;   profileName,A04-04-50j Tevo Tornado
;   profileVersion,2020-08-20 21:18:05
;   baseProfile,Creality CR-10(2)
;   printMaterial,PLA
;   printQuality,Medium
;   printExtruders,
;   extruderName,Primary Extruder
;   extruderToolheadNumber,0
;   extruderDiameter,0.4
;   extruderAutoWidth,0
;   extruderWidth,0.35
;   extrusionMultiplier,0.95
;   extruderUseRetract,1
;   extruderRetractionDistance,4
;   extruderExtraRestartDistance,0
;   extruderRetractionZLift,0.3
;   extruderRetractionSpeed,3000
;   extruderUseCoasting,1
;   extruderCoastingDistance,0.8
;   extruderUseWipe,0
;   extruderWipeDistance,4
;   primaryExtruder,0
;   layerHeight,0.15
;   topSolidLayers,4
;   bottomSolidLayers,3
;   perimeterOutlines,3
;   printPerimetersInsideOut,0
;   startPointOption,1
;   startPointOriginX,0
;   startPointOriginY,300
;   sequentialIslands,0
;   spiralVaseMode,0
;   firstLayerHeightPercentage,120
;   firstLayerWidthPercentage,100
;   firstLayerUnderspeed,0.35
;   useRaft,0
;   raftExtruder,0
;   raftTopLayers,3
;   raftBaseLayers,2
;   raftOffset,3
;   raftSeparationDistance,0.14
;   raftTopInfill,100
;   aboveRaftSpeedMultiplier,0.3
;   useSkirt,1
;   skirtExtruder,0
;   skirtLayers,1
;   skirtOutlines,7
;   skirtOffset,0
;   usePrimePillar,0
;   primePillarExtruder,999
;   primePillarWidth,12
;   primePillarLocation,7
;   primePillarSpeedMultiplier,1
;   useOozeShield,0
;   oozeShieldExtruder,999
;   oozeShieldOffset,2
;   oozeShieldOutlines,1
;   oozeShieldSidewallShape,1
;   oozeShieldSidewallAngle,30
;   oozeShieldSpeedMultiplier,1
;   infillExtruder,0
;   internalInfillPattern,Rectilinear
;   externalInfillPattern,Rectilinear
;   infillPercentage,50
;   outlineOverlapPercentage,15
;   infillExtrusionWidthPercentage,100
;   minInfillLength,5
;   infillLayerInterval,1
;   internalInfillAngles,45,-45
;   overlapInternalInfillAngles,0
;   externalInfillAngles,45,-45
;   generateSupport,0
;   supportExtruder,0
;   supportInfillPercentage,30
;   supportExtraInflation,0
;   supportBaseLayers,0
;   denseSupportExtruder,0
;   denseSupportLayers,0
;   denseSupportInfillPercentage,70
;   supportLayerInterval,1
;   supportHorizontalPartOffset,0.4
;   supportUpperSeparationLayers,1
;   supportLowerSeparationLayers,1
;   supportType,0
;   supportGridSpacing,4.5
;   maxOverhangAngle,45
;   supportAngles,0
;   temperatureName,Primary Extruder,Heated Bed
;   temperatureNumber,0,0
;   temperatureSetpointCount,1,1
;   temperatureSetpointLayers,1,1
;   temperatureSetpointTemperatures,215,55
;   temperatureStabilizeAtStartup,1,1
;   temperatureHeatedBed,0,1
;   fanLayers,1,2
;   fanSpeeds,0,100
;   blipFanToFullPower,0
;   adjustSpeedForCooling,1
;   minSpeedLayerTime,15
;   minCoolingSpeedSlowdown,50
;   increaseFanForCooling,1
;   minFanLayerTime,25
;   maxCoolingFanSpeed,100
;   increaseFanForBridging,1
;   bridgingFanSpeed,100
;   use5D,1
;   relativeEdistances,0
;   allowEaxisZeroing,1
;   independentExtruderAxes,0
;   includeM10123,0
;   stickySupport,1
;   applyToolheadOffsets,0
;   gcodeXoffset,0
;   gcodeYoffset,0
;   gcodeZoffset,0
;   overrideMachineDefinition,1
;   machineTypeOverride,0
;   strokeXoverride,300
;   strokeYoverride,300
;   strokeZoverride,400
;   originOffsetXoverride,0
;   originOffsetYoverride,0
;   originOffsetZoverride,0
;   homeXdirOverride,-1
;   homeYdirOverride,-1
;   homeZdirOverride,-1
;   flipXoverride,1
;   flipYoverride,-1
;   flipZoverride,1
;   toolheadOffsets,0,0|0,0|0,0|0,0|0,0|0,0
;   overrideFirmwareConfiguration,1
;   firmwareTypeOverride,RepRap (Marlin/Repetier/Sprinter)
;   GPXconfigOverride,r2
;   baudRateOverride,250000
;   overridePrinterModels,1
;   printerModelsOverride
;   startingGcode,;,; -]H.P.B[- MarshMalloW  ,; $VER: StartScript 1.02 (26.12.2019) MarshMalloW,;,; Begin Startcode,;,M117 *Preheat*     	; Preheat,;extruder0_temperature,M104 S[extruder0_temperature]  ,M109 S[extruder0_temperature] ,M109 R[extruder0_temperature] ,;,M117 *Auto-leveling*     	; Auto-leveling,M107                   	; Turn layer fan off,G21                    	; Set to metric [change to G20 if you want Imperial],G90                    	; Force coordinates to be absolute relative to the origin,G28                    	; Home X/Y/Z axis,G29                    	; Auto-leveling (BL-Touch),;,M117 *Start Clean*     	; Indicate nozzle clean in progress on LCD,G92 E0                 	; Set Extruder to 0 ,G1 X0 Y0 F2000         	; Move X and Y to 0 with speed 2000 (mm/min),G1 Z0.1 F1000          	; Move Z to   0.1 with speed 1000 (mm/min),G1 X8.0 F2000          	; Move X to   8.0 with speed 2000 (mm/min),G1 Y60.0 E4.0 F1000.0  	; Move Y to  60 and Extruder with 4.0 with speed 1000 (mm/min),G1 Y100.0 E8.5 F1000.0 	; Move Y to 100 and Extruder with 8.5 with speed 1000 (mm/min),G92 E0                 	; Set extruder to 0,G1 X16.0 F3000         	; Move X to 16.0 with speed 3000 (mm/min),G1 Y60.0 F3000         	; Move Y to 60.0 with speed 3000 (mm/min),M117 *End Clean*       	; Indicate nozzle clean in progress on LCD,G1 Z5 F3000            	; Move Z to  5.0 with speed 3000 (mm/min),G1 X20.0 F3000         	; Move X to 20.0 with speed 3000 (mm/min),G1 Y20.0 F3000         	; Move Y to 20.0 with speed 3000 (mm/min),; ,M117 *Printing...*     	; Start printing msg on LCD,;,; End Startcode,;,; Begin printing with sliced GCode after here,;
;   layerChangeGcode,
;   retractionGcode,
;   toolChangeGcode,
;   endingGcode,;,; init 181010,;,;M107 			; Fan off,;G1 E-1 F300 			; Retract the filament a bit before lifting the nozzle,;M104 S0 			; Turn off extruder,;M140 S0 			; Turn off bed,;G91			; Relative positioning,;G28 X0 Y0 			; Move X/Y to min endstops so the head is out of teh way,;M84 			; Disable motors,;G90 			; Absolute positioning,;M117 Print ready...,,;,; // From Cura 181010,; // End_gcode,G92 E0			; Zero the extruded length,;G1 E-30 F300		; Retract E -30,M106 S0			; Turn off cooling fan,M104 S0			; Turn off temperature,M140 S0		     	; Turn off bed,G91			; Relative positioning,G1 E-1 F300			; Retract the filament a bit before lifting the nozzle to release some of the pressure,G1 Z+20 E-5 X-20 Y-20 F7200	; Move Z up a bit and retract filament even more,G1 X0 Y150 F10000		; Move right min,M107			; Turn off layer fan,M84			; Disable motors,G90			; Absolute positioning,M117 *The-End* 		; End msg,;,
;   exportFileFormat,gcode
;   celebration,0
;   celebrationSong,Star Wars
;   postProcessing,|{REPLACE "; layer " "M117 INDICATOR-Layer"}|{REPLACE ", Z = " "\n; Z="}
;   defaultSpeed,1800
;   outlineUnderspeed,0.5
;   solidInfillUnderspeed,0.8
;   supportUnderspeed,0.8
;   rapidXYspeed,6000
;   rapidZspeed,1002
;   minBridgingArea,50
;   bridgingExtraInflation,0.2
;   bridgingExtrusionMultiplier,1
;   bridgingSpeedMultiplier,0.6
;   useFixedBridgingAngle,0
;   fixedBridgingAngle,0
;   applyBridgingToPerimeters,0
;   filamentDiameters,1.75|1.75|1.75|1.75|1.75|1.75
;   filamentPricesPerKg,30|46|46|46|46|46
;   filamentDensities,1.25|1.25|1.25|1.25|1.25|1.25
;   useMinPrintHeight,0
;   minPrintHeight,0
;   useMaxPrintHeight,0
;   maxPrintHeight,9
;   useDiaphragm,0
;   diaphragmLayerInterval,20
;   robustSlicing,1
;   mergeAllIntoSolid,0
;   onlyRetractWhenCrossingOutline,1
;   retractBetweenLayers,0
;   useRetractionMinTravel,0
;   retractionMinTravel,3
;   retractWhileWiping,0
;   onlyWipeOutlines,1
;   avoidCrossingOutline,1
;   maxMovementDetourFactor,3
;   toolChangeRetractionDistance,12
;   toolChangeExtraRestartDistance,-0.5
;   toolChangeRetractionSpeed,600
;   externalThinWallType,1
;   internalThinWallType,1
;   thinWallAllowedOverlapPercentage,10
;   singleExtrusionMinLength,1
;   singleExtrusionMinPrintingWidthPercentage,50
;   singleExtrusionMaxPrintingWidthPercentage,200
;   singleExtrusionEndpointExtension,0.2
;   horizontalSizeCompensation,0
G90
M82
M106 S203
M140 S55
M190 S55
;
; -]H.P.B[- MarshMalloW  
; $VER: StartScript 1.02 (26.12.2019) MarshMalloW
;
; Begin Startcode
;
M117 *Preheat*     	; Preheat
;extruder0_temperature
M104 S215  
M109 S215 
M109 R215 
;
M117 *Auto-leveling*     	; Auto-leveling
M107                   	; Turn layer fan off
G21                    	; Set to metric [change to G20 if you want Imperial]
G90                    	; Force coordinates to be absolute relative to the origin
G28                    	; Home X/Y/Z axis
G29                    	; Auto-leveling (BL-Touch)
;
M117 *Start Clean*     	; Indicate nozzle clean in progress on LCD
G92 E0                 	; Set Extruder to 0 
G1 X0 Y0 F2000         	; Move X and Y to 0 with speed 2000 (mm/min)
G1 Z0.1 F1000          	; Move Z to   0.1 with speed 1000 (mm/min)
G1 X8.0 F2000          	; Move X to   8.0 with speed 2000 (mm/min)
G1 Y60.0 E4.0 F1000.0  	; Move Y to  60 and Extruder with 4.0 with speed 1000 (mm/min)
G1 Y100.0 E8.5 F1000.0 	; Move Y to 100 and Extruder with 8.5 with speed 1000 (mm/min)
G92 E0                 	; Set extruder to 0
G1 X16.0 F3000         	; Move X to 16.0 with speed 3000 (mm/min)
G1 Y60.0 F3000         	; Move Y to 60.0 with speed 3000 (mm/min)
M117 *End Clean*       	; Indicate nozzle clean in progress on LCD
G1 Z5 F3000            	; Move Z to  5.0 with speed 3000 (mm/min)
G1 X20.0 F3000         	; Move X to 20.0 with speed 3000 (mm/min)
G1 Y20.0 F3000         	; Move Y to 20.0 with speed 3000 (mm/min)
; 
M117 *Printing...*     	; Start printing msg on LCD
;
; End Startcode
;
; Begin printing with sliced GCode after here
;
; process Process1
M117 INDICATOR-Layer1
; Z=0.180
T0
G92 E0.0000
G1 E-4.0000 F3000
; feature skirt
; tool H0.180 W0.350
G1 Z0.300 F1002
G1 X168.060 Y68.166 F6000
G1 Z0.180 F1002
G1 E0.0000 F3000
G92 E0.0000
G1 X168.655 Y68.313 E0.0153 F315
G1 X168.913 Y68.411 E0.0221
G1 X169.455 Y68.695 E0.0374
G1 X169.682 Y68.852 E0.0442
G1 X170.140 Y69.258 E0.0594
G1 X170.323 Y69.464 E0.0663
G1 X170.671 Y69.968 E0.0815
G1 X170.799 Y70.212 E0.0884
G1 X171.016 Y70.785 E0.1036
G1 X171.082 Y71.052 E0.1105
G1 X171.156 Y71.660 E0.1257
G1 X171.156 Y71.936 E0.1326
G1 X171.082 Y72.544 E0.1478
G1 X171.016 Y72.811 E0.1547
G1 X170.798 Y73.385 E0.1699
G1 X170.670 Y73.628 E0.1768
G1 X170.323 Y74.132 E0.1920
G1 X170.140 Y74.338 E0.1989
G1 X169.681 Y74.744 E0.2141
G1 X169.455 Y74.901 E0.2210
G1 X168.912 Y75.186 E0.2362
G1 X168.655 Y75.283 E0.2431
G1 X168.060 Y75.430 E0.2583
G1 X167.787 Y75.463 E0.2651
G1 X167.174 Y75.463 E0.2804
G1 X166.901 Y75.430 E0.2872
G1 X166.306 Y75.283 E0.3025
G1 X166.048 Y75.185 E0.3093
G1 X165.506 Y74.901 E0.3246
G1 X165.280 Y74.744 E0.3314
G1 X164.821 Y74.338 E0.3467
G1 X164.639 Y74.132 E0.3535
G1 X164.291 Y73.628 E0.3688
G1 X164.163 Y73.385 E0.3756
G1 X163.945 Y72.811 E0.3909
G1 X163.880 Y72.544 E0.3977
G1 X163.806 Y71.936 E0.4130
G1 X163.806 Y71.660 E0.4198
G1 X163.880 Y71.052 E0.4351
G1 X163.945 Y70.785 E0.4419
G1 X164.163 Y70.212 E0.4571
G1 X164.290 Y69.968 E0.4640
G1 X164.638 Y69.464 E0.4792
G1 X164.821 Y69.258 E0.4861
G1 X165.280 Y68.852 E0.5013
G1 X165.506 Y68.695 E0.5082
G1 X166.047 Y68.411 E0.5234
G1 X166.304 Y68.314 E0.5302
G1 X166.900 Y68.167 E0.5455
G1 X167.174 Y68.133 E0.5524
G1 X167.787 Y68.133 E0.5676
G1 X168.060 Y68.166 E0.5745
G92 E0.0000
G1 E-4.0000 F3000
G1 Z0.480 F1002
G1 X167.628 Y70.583 F6000
G1 X167.333 Y70.583
G1 X167.152 Y70.628
G1 X166.472 Y72.474
G1 X166.565 Y72.609
G1 X166.786 Y72.805
G1 X165.688 Y74.601
G1 Z0.180 F1002
G1 E0.0000 F3000
G92 E0.0000
G1 X165.496 Y74.468 E0.0058 F315
G1 X165.069 Y74.090 E0.0200
G1 X164.915 Y73.916 E0.0258
G1 X164.591 Y73.447 E0.0400
G1 X164.483 Y73.241 E0.0458
G1 X164.280 Y72.707 E0.0600
G1 X164.224 Y72.481 E0.0658
G1 X164.156 Y71.914 E0.0799
G1 X164.156 Y71.681 E0.0857
G1 X164.224 Y71.115 E0.0999
G1 X164.280 Y70.889 E0.1057
G1 X164.482 Y70.356 E0.1199
G1 X164.591 Y70.150 E0.1257
G1 X164.914 Y69.680 E0.1399
G1 X165.069 Y69.506 E0.1457
G1 X165.496 Y69.128 E0.1599
G1 X165.688 Y68.995 E0.1657
G1 X166.191 Y68.731 E0.1798
G1 X166.408 Y68.649 E0.1856
G1 X166.963 Y68.511 E0.1998
G1 X167.195 Y68.483 E0.2057
G1 X167.766 Y68.483 E0.2199
G1 X167.997 Y68.511 E0.2257
G1 X168.551 Y68.648 E0.2399
G1 X168.769 Y68.730 E0.2456
G1 X169.274 Y68.996 E0.2598
G1 X169.465 Y69.128 E0.2656
G1 X169.892 Y69.506 E0.2798
G1 X170.047 Y69.680 E0.2856
G1 X170.371 Y70.150 E0.2998
G1 X170.479 Y70.356 E0.3056
G1 X170.681 Y70.889 E0.3198
G1 X170.737 Y71.115 E0.3256
G1 X170.806 Y71.682 E0.3398
G1 X170.806 Y71.914 E0.3456
G1 X170.737 Y72.481 E0.3598
G1 X170.681 Y72.707 E0.3656
G1 X170.479 Y73.241 E0.3798
G1 X170.370 Y73.447 E0.3856
G1 X170.047 Y73.916 E0.3998
G1 X169.892 Y74.090 E0.4055
G1 X169.465 Y74.468 E0.4197
G1 X169.273 Y74.601 E0.4255
G1 X168.768 Y74.866 E0.4397
G1 X168.550 Y74.948 E0.4455
G1 X167.997 Y75.085 E0.4597
G1 X167.766 Y75.113 E0.4655
G1 X167.196 Y75.113 E0.4797
G1 X166.964 Y75.085 E0.4855
G1 X166.410 Y74.948 E0.4997
G1 X166.192 Y74.865 E0.5055
G1 X165.688 Y74.601 E0.5197
G92 E0.0000
G1 E-4.0000 F3000
G1 Z0.480 F1002
G1 X166.786 Y72.805 F6000
G1 X167.047 Y72.942
G1 X167.333 Y73.013
G1 X167.628 Y73.013
G1 X167.915 Y72.942
G1 X168.104 Y72.843
G1 X168.267 Y72.724
G1 X168.397 Y72.609
G1 X168.564 Y72.367
G1 X168.669 Y72.091
G1 X168.704 Y71.798
G1 X168.669 Y71.505
G1 X170.392 Y71.178
G1 Z0.180 F1002
G1 E0.0000 F3000
G92 E0.0000
G1 X170.456 Y71.703 E0.0131 F315
G1 X170.456 Y71.893 E0.0179
G1 X170.392 Y72.418 E0.0310
G1 X170.346 Y72.603 E0.0358
G1 X170.159 Y73.097 E0.0489
G1 X170.070 Y73.265 E0.0537
G1 X169.771 Y73.700 E0.0668
G1 X169.644 Y73.842 E0.0715
G1 X169.249 Y74.192 E0.0847
G1 X169.092 Y74.301 E0.0894
G1 X168.624 Y74.546 E0.1026
G1 X168.446 Y74.614 E0.1073
G1 X167.934 Y74.740 E0.1204
G1 X167.745 Y74.763 E0.1252
G1 X167.217 Y74.763 E0.1383
G1 X167.028 Y74.740 E0.1430
G1 X166.515 Y74.613 E0.1562
G1 X166.336 Y74.546 E0.1609
G1 X165.869 Y74.300 E0.1741
G1 X165.712 Y74.192 E0.1788
G1 X165.317 Y73.842 E0.1919
G1 X165.191 Y73.699 E0.1967
G1 X164.891 Y73.265 E0.2098
G1 X164.802 Y73.097 E0.2146
G1 X164.615 Y72.602 E0.2277
G1 X164.569 Y72.417 E0.2324
G1 X164.506 Y71.893 E0.2456
G1 X164.506 Y71.703 E0.2503
G1 X164.569 Y71.178 E0.2635
G1 X164.615 Y70.993 E0.2682
G1 X164.802 Y70.500 E0.2813
G1 X164.891 Y70.331 E0.2861
G1 X165.191 Y69.897 E0.2992
G1 X165.317 Y69.754 E0.3040
G1 X165.712 Y69.404 E0.3171
G1 X165.869 Y69.295 E0.3219
G1 X166.335 Y69.051 E0.3349
G1 X166.513 Y68.983 E0.3397
G1 X167.026 Y68.856 E0.3528
G1 X167.216 Y68.833 E0.3576
G1 X167.745 Y68.833 E0.3707
G1 X167.934 Y68.856 E0.3755
G1 X168.447 Y68.983 E0.3886
G1 X168.625 Y69.050 E0.3934
G1 X169.092 Y69.296 E0.4065
G1 X169.249 Y69.404 E0.4113
G1 X169.644 Y69.754 E0.4244
G1 X169.771 Y69.897 E0.4291
G1 X170.071 Y70.331 E0.4423
G1 X170.159 Y70.500 E0.4470
G1 X170.346 Y70.993 E0.4601
G1 X170.392 Y71.178 E0.4649
G92 E0.0000
G1 E-4.0000 F3000
G1 Z0.480 F1002
G1 X168.669 Y71.505 F6000
G1 X168.564 Y71.229
G1 X168.397 Y70.987
G1 X168.313 Y70.912
G1 X166.899 Y70.731
G1 X166.786 Y70.791
G1 X166.565 Y70.986
G1 X166.397 Y71.229
G1 X165.191 Y70.512
G1 Z0.180 F1002
G1 E0.0000 F3000
G92 E0.0000
G1 X165.467 Y70.113 E0.0121 F315
G1 X165.565 Y70.002 E0.0158
G1 X165.929 Y69.680 E0.0279
G1 X166.051 Y69.596 E0.0315
G1 X166.479 Y69.371 E0.0436
G1 X166.617 Y69.318 E0.0473
G1 X167.090 Y69.201 E0.0594
G1 X167.238 Y69.183 E0.0631
G1 X167.723 Y69.183 E0.0752
G1 X167.871 Y69.201 E0.0789
G1 X168.342 Y69.317 E0.0910
G1 X168.481 Y69.370 E0.0946
G1 X168.911 Y69.596 E0.1067
G1 X169.033 Y69.680 E0.1104
G1 X169.396 Y70.002 E0.1225
G1 X169.495 Y70.113 E0.1262
G1 X169.771 Y70.512 E0.1383
G1 X169.839 Y70.644 E0.1420
G1 X170.012 Y71.098 E0.1540
G1 X170.047 Y71.242 E0.1577
G1 X170.106 Y71.724 E0.1698
G1 X170.106 Y71.872 E0.1735
G1 X170.047 Y72.354 E0.1856
G1 X170.012 Y72.498 E0.1893
G1 X169.839 Y72.953 E0.2014
G1 X169.770 Y73.084 E0.2051
G1 X169.495 Y73.483 E0.2171
G1 X169.396 Y73.594 E0.2208
G1 X169.033 Y73.916 E0.2329
G1 X168.911 Y74.000 E0.2366
G1 X168.481 Y74.226 E0.2487
G1 X168.342 Y74.279 E0.2524
G1 X167.871 Y74.395 E0.2645
G1 X167.723 Y74.413 E0.2681
