; G-Code generated by Simplify3D(R) Version 4.0.1
; Aug 20, 2020 at 5:50:32 PM
; Settings Summary
;   processName,Process1
;   applyToModels,Pendulum_Arm,Pendulum_insert
;   profileName,A04-04-15s Tevo Tornado
;   profileVersion,2020-04-29 16:00:54
;   baseProfile,Creality CR-10(2)
;   printMaterial,PLA
;   printQuality,Medium
;   printExtruders,
;   extruderName,Primary Extruder
;   extruderToolheadNumber,0
;   extruderDiameter,0.4
;   extruderAutoWidth,0
;   extruderWidth,0.35
;   extrusionMultiplier,0.95
;   extruderUseRetract,1
;   extruderRetractionDistance,4
;   extruderExtraRestartDistance,0
;   extruderRetractionZLift,0.3
;   extruderRetractionSpeed,3000
;   extruderUseCoasting,1
;   extruderCoastingDistance,0.8
;   extruderUseWipe,0
;   extruderWipeDistance,4
;   primaryExtruder,0
;   layerHeight,0.15
;   topSolidLayers,4
;   bottomSolidLayers,3
;   perimeterOutlines,3
;   printPerimetersInsideOut,0
;   startPointOption,1
;   startPointOriginX,0
;   startPointOriginY,300
;   sequentialIslands,0
;   spiralVaseMode,0
;   firstLayerHeightPercentage,120
;   firstLayerWidthPercentage,100
;   firstLayerUnderspeed,0.35
;   useRaft,0
;   raftExtruder,0
;   raftTopLayers,3
;   raftBaseLayers,2
;   raftOffset,3
;   raftSeparationDistance,0.14
;   raftTopInfill,100
;   aboveRaftSpeedMultiplier,0.3
;   useSkirt,1
;   skirtExtruder,0
;   skirtLayers,1
;   skirtOutlines,3
;   skirtOffset,2
;   usePrimePillar,0
;   primePillarExtruder,999
;   primePillarWidth,12
;   primePillarLocation,7
;   primePillarSpeedMultiplier,1
;   useOozeShield,0
;   oozeShieldExtruder,999
;   oozeShieldOffset,2
;   oozeShieldOutlines,1
;   oozeShieldSidewallShape,1
;   oozeShieldSidewallAngle,30
;   oozeShieldSpeedMultiplier,1
;   infillExtruder,0
;   internalInfillPattern,Rectilinear
;   externalInfillPattern,Rectilinear
;   infillPercentage,15
;   outlineOverlapPercentage,15
;   infillExtrusionWidthPercentage,100
;   minInfillLength,5
;   infillLayerInterval,1
;   internalInfillAngles,45,-45
;   overlapInternalInfillAngles,0
;   externalInfillAngles,45,-45
;   generateSupport,1
;   supportExtruder,0
;   supportInfillPercentage,30
;   supportExtraInflation,0
;   supportBaseLayers,0
;   denseSupportExtruder,0
;   denseSupportLayers,0
;   denseSupportInfillPercentage,70
;   supportLayerInterval,1
;   supportHorizontalPartOffset,0.4
;   supportUpperSeparationLayers,1
;   supportLowerSeparationLayers,1
;   supportType,0
;   supportGridSpacing,4.5
;   maxOverhangAngle,45
;   supportAngles,0
;   temperatureName,Primary Extruder,Heated Bed
;   temperatureNumber,0,0
;   temperatureSetpointCount,1,1
;   temperatureSetpointLayers,1,1
;   temperatureSetpointTemperatures,215,55
;   temperatureStabilizeAtStartup,1,1
;   temperatureHeatedBed,0,1
;   temperatureRelayBetweenLayers,0,0
;   temperatureRelayBetweenLoops,0,0
;   fanLayers,1,2
;   fanSpeeds,0,100
;   blipFanToFullPower,0
;   adjustSpeedForCooling,1
;   minSpeedLayerTime,15
;   minCoolingSpeedSlowdown,50
;   increaseFanForCooling,1
;   minFanLayerTime,25
;   maxCoolingFanSpeed,100
;   increaseFanForBridging,1
;   bridgingFanSpeed,100
;   use5D,1
;   relativeEdistances,0
;   allowEaxisZeroing,1
;   independentExtruderAxes,0
;   includeM10123,0
;   stickySupport,1
;   applyToolheadOffsets,0
;   gcodeXoffset,0
;   gcodeYoffset,0
;   gcodeZoffset,0
;   overrideMachineDefinition,1
;   machineTypeOverride,0
;   strokeXoverride,300
;   strokeYoverride,300
;   strokeZoverride,400
;   originOffsetXoverride,0
;   originOffsetYoverride,0
;   originOffsetZoverride,0
;   homeXdirOverride,-1
;   homeYdirOverride,-1
;   homeZdirOverride,-1
;   flipXoverride,1
;   flipYoverride,-1
;   flipZoverride,1
;   toolheadOffsets,0,0|0,0|0,0|0,0|0,0|0,0
;   overrideFirmwareConfiguration,1
;   firmwareTypeOverride,RepRap (Marlin/Repetier/Sprinter)
;   GPXconfigOverride,r2
;   baudRateOverride,250000
;   overridePrinterModels,1
;   printerModelsOverride
;   startingGcode,;,; -]H.P.B[- MarshMalloW  ,; $VER: StartScript 1.02 (26.12.2019) MarshMalloW,;,; Begin Startcode,;,M117 *Preheat*     	; Preheat,;extruder0_temperature,M104 S[extruder0_temperature]  ,M109 S[extruder0_temperature] ,M109 R[extruder0_temperature] ,;,M117 *Auto-leveling*     	; Auto-leveling,M107                   	; Turn layer fan off,G21                    	; Set to metric [change to G20 if you want Imperial],G90                    	; Force coordinates to be absolute relative to the origin,G28                    	; Home X/Y/Z axis,G29                    	; Auto-leveling (BL-Touch),;,M117 *Start Clean*     	; Indicate nozzle clean in progress on LCD,G92 E0                 	; Set Extruder to 0 ,G1 X0 Y0 F2000         	; Move X and Y to 0 with speed 2000 (mm/min),G1 Z0.1 F1000          	; Move Z to   0.1 with speed 1000 (mm/min),G1 X8.0 F2000          	; Move X to   8.0 with speed 2000 (mm/min),G1 Y60.0 E4.0 F1000.0  	; Move Y to  60 and Extruder with 4.0 with speed 1000 (mm/min),G1 Y100.0 E8.5 F1000.0 	; Move Y to 100 and Extruder with 8.5 with speed 1000 (mm/min),G92 E0                 	; Set extruder to 0,G1 X16.0 F3000         	; Move X to 16.0 with speed 3000 (mm/min),G1 Y60.0 F3000         	; Move Y to 60.0 with speed 3000 (mm/min),M117 *End Clean*       	; Indicate nozzle clean in progress on LCD,G1 Z5 F3000            	; Move Z to  5.0 with speed 3000 (mm/min),G1 X20.0 F3000         	; Move X to 20.0 with speed 3000 (mm/min),G1 Y20.0 F3000         	; Move Y to 20.0 with speed 3000 (mm/min),; ,M117 *Printing...*     	; Start printing msg on LCD,;,; End Startcode,;,; Begin printing with sliced GCode after here,;
;   layerChangeGcode,
;   retractionGcode,
;   toolChangeGcode,
;   endingGcode,;,; init 181010,;,;M107 			; Fan off,;G1 E-1 F300 			; Retract the filament a bit before lifting the nozzle,;M104 S0 			; Turn off extruder,;M140 S0 			; Turn off bed,;G91			; Relative positioning,;G28 X0 Y0 			; Move X/Y to min endstops so the head is out of teh way,;M84 			; Disable motors,;G90 			; Absolute positioning,;M117 Print ready...,,;,; // From Cura 181010,; // End_gcode,G92 E0			; Zero the extruded length,;G1 E-30 F300		; Retract E -30,M106 S0			; Turn off cooling fan,M104 S0			; Turn off temperature,M140 S0		     	; Turn off bed,G91			; Relative positioning,G1 E-1 F300			; Retract the filament a bit before lifting the nozzle to release some of the pressure,G1 Z+20 E-5 X-20 Y-20 F7200	; Move Z up a bit and retract filament even more,G1 X0 Y150 F10000		; Move right min,M107			; Turn off layer fan,M84			; Disable motors,G90			; Absolute positioning,M117 *The-End* 		; End msg,;,
;   exportFileFormat,gcode
;   celebration,0
;   celebrationSong,Star Wars
;   postProcessing,|{REPLACE "; layer " "M117 INDICATOR-Layer"}|{REPLACE ", Z = " "\n; Z="}
;   defaultSpeed,1800
;   outlineUnderspeed,0.5
;   solidInfillUnderspeed,0.8
;   supportUnderspeed,0.8
;   rapidXYspeed,6000
;   rapidZspeed,1002
;   minBridgingArea,50
;   bridgingExtraInflation,0.2
;   bridgingExtrusionMultiplier,1
;   bridgingSpeedMultiplier,0.6
;   useFixedBridgingAngle,0
;   fixedBridgingAngle,0
;   applyBridgingToPerimeters,0
;   filamentDiameters,1.75|1.75|1.75|1.75|1.75|1.75
;   filamentPricesPerKg,30|46|46|46|46|46
;   filamentDensities,1.25|1.25|1.25|1.25|1.25|1.25
;   useMinPrintHeight,0
;   minPrintHeight,0
;   useMaxPrintHeight,0
;   maxPrintHeight,9
;   useDiaphragm,0
;   diaphragmLayerInterval,20
;   robustSlicing,1
;   mergeAllIntoSolid,0
;   onlyRetractWhenCrossingOutline,1
;   retractBetweenLayers,0
;   useRetractionMinTravel,0
;   retractionMinTravel,3
;   retractWhileWiping,0
;   onlyWipeOutlines,1
;   avoidCrossingOutline,1
;   maxMovementDetourFactor,3
;   toolChangeRetractionDistance,12
;   toolChangeExtraRestartDistance,-0.5
;   toolChangeRetractionSpeed,600
;   externalThinWallType,1
;   internalThinWallType,1
;   thinWallAllowedOverlapPercentage,10
;   singleExtrusionMinLength,1
;   singleExtrusionMinPrintingWidthPercentage,50
;   singleExtrusionMaxPrintingWidthPercentage,200
;   singleExtrusionEndpointExtension,0.2
;   horizontalSizeCompensation,0
G90
M82
M106 S0
M140 S55
M190 S55
;
; -]H.P.B[- MarshMalloW  
; $VER: StartScript 1.02 (26.12.2019) MarshMalloW
;
; Begin Startcode
;
M117 *Preheat*     	; Preheat
;extruder0_temperature
M104 S215  
M109 S215 
M109 R215 
;
M117 *Auto-leveling*     	; Auto-leveling
M107                   	; Turn layer fan off
G21                    	; Set to metric [change to G20 if you want Imperial]
G90                    	; Force coordinates to be absolute relative to the origin
G28                    	; Home X/Y/Z axis
G29                    	; Auto-leveling (BL-Touch)
;
M117 *Start Clean*     	; Indicate nozzle clean in progress on LCD
G92 E0                 	; Set Extruder to 0 
G1 X0 Y0 F2000         	; Move X and Y to 0 with speed 2000 (mm/min)
G1 Z0.1 F1000          	; Move Z to   0.1 with speed 1000 (mm/min)
G1 X8.0 F2000          	; Move X to   8.0 with speed 2000 (mm/min)
G1 Y60.0 E4.0 F1000.0  	; Move Y to  60 and Extruder with 4.0 with speed 1000 (mm/min)
G1 Y100.0 E8.5 F1000.0 	; Move Y to 100 and Extruder with 8.5 with speed 1000 (mm/min)
G92 E0                 	; Set extruder to 0
G1 X16.0 F3000         	; Move X to 16.0 with speed 3000 (mm/min)
G1 Y60.0 F3000         	; Move Y to 60.0 with speed 3000 (mm/min)
M117 *End Clean*       	; Indicate nozzle clean in progress on LCD
G1 Z5 F3000            	; Move Z to  5.0 with speed 3000 (mm/min)
G1 X20.0 F3000         	; Move X to 20.0 with speed 3000 (mm/min)
G1 Y20.0 F3000         	; Move Y to 20.0 with speed 3000 (mm/min)
; 
M117 *Printing...*     	; Start printing msg on LCD
;
; End Startcode
;
; Begin printing with sliced GCode after here
;
G92 E0
G1 E-4.0000 F3000
G1 Z0.480 F1002
; process Process1
M117 INDICATOR-Layer1
; Z=0.180
T0
; tool H0.180 W0.350
; skirt
G1 X98.941 Y56.686 F6000
G1 Z0.180 F1002
G1 E0.0000 F900
G92 E0
G1 X100.359 Y55.269 E0.0499 F630
G1 X100.680 Y55.135 E0.0586
G1 X109.685 Y55.135 E0.2826
G1 X110.007 Y55.269 E0.2913
G1 X111.424 Y56.686 E0.3412
G1 X111.558 Y57.008 E0.3498
G1 X111.558 Y58.635 E0.3903
G1 X198.043 Y58.635 E2.5423
G1 X198.304 Y58.719 E2.5491
G1 X199.570 Y59.624 E2.5879
G1 X199.734 Y59.844 E2.5947
G1 X200.273 Y61.422 E2.6362
G1 X200.281 Y61.447 E2.6368
G1 X200.321 Y61.591 E2.6406
G1 X200.327 Y61.617 E2.6412
G1 X200.443 Y62.167 E2.6552
G1 X200.447 Y62.193 E2.6559
G1 X200.469 Y62.343 E2.6596
G1 X200.472 Y62.370 E2.6603
G1 X200.554 Y63.347 E2.6847
G1 X200.555 Y63.374 E2.6854
G1 X200.559 Y63.525 E2.6891
G1 X200.558 Y63.553 E2.6898
G1 X200.535 Y64.115 E2.7038
G1 X200.533 Y64.141 E2.7045
G1 X200.518 Y64.291 E2.7082
G1 X200.514 Y64.318 E2.7089
G1 X200.352 Y65.294 E2.7335
G1 X200.345 Y65.330 E2.7344
G1 X200.296 Y65.523 E2.7394
G1 X200.286 Y65.558 E2.7403
G1 X199.736 Y67.175 E2.7828
G1 X199.572 Y67.395 E2.7896
G1 X198.305 Y68.302 E2.8284
G1 X198.044 Y68.385 E2.8352
G1 X111.558 Y68.385 E4.9872
G1 X111.558 Y70.013 E5.0277
G1 X111.424 Y70.334 E5.0364
G1 X110.007 Y71.752 E5.0863
G1 X109.685 Y71.885 E5.0949
G1 X100.680 Y71.885 E5.3190
G1 X100.359 Y71.752 E5.3277
G1 X98.941 Y70.334 E5.3776
G1 X98.808 Y70.013 E5.3862
G1 X98.808 Y66.183 E5.4815
G1 X98.816 Y66.096 E5.4837
G1 X98.915 Y65.614 E5.4959
G1 X98.941 Y65.530 E5.4981
G1 X99.223 Y64.868 E5.5160
G1 X99.385 Y64.331 E5.5300
G1 X99.434 Y64.057 E5.5369
G1 X99.475 Y63.496 E5.5509
G1 X99.463 Y63.217 E5.5578
G1 X99.376 Y62.646 E5.5722
G1 X99.332 Y62.477 E5.5766
G1 X98.922 Y61.425 E5.6047
G1 X98.899 Y61.346 E5.6067
G1 X98.815 Y60.900 E5.6180
G1 X98.808 Y60.819 E5.6200
G1 X98.808 Y57.460 E5.7036
G1 X98.808 Y57.008 F630
G1 X98.941 Y56.686 F630
G92 E0
G1 E-4.0000 F3000
G1 Z0.480 F1002
G1 X101.854 Y58.182 F6000
G1 X101.854 Y58.259 F6000
G1 X134.476 Y75.873 F6000
G1 Z0.180 F1002
G1 E0.0000 F3000
G92 E0
G1 X134.489 Y75.851 E0.0006 F630
G1 X134.568 Y75.732 E0.0042
G1 X134.583 Y75.711 E0.0048
G1 X134.989 Y75.167 E0.0217
G1 X135.021 Y75.128 E0.0230
G1 X135.217 Y74.921 E0.0301
G1 X135.254 Y74.886 E0.0313
G1 X135.828 Y74.406 E0.0500
G1 X135.869 Y74.375 E0.0512
G1 X136.107 Y74.220 E0.0583
G1 X136.151 Y74.194 E0.0596
G1 X136.789 Y73.875 E0.0773
G1 X136.824 Y73.859 E0.0783
G1 X137.022 Y73.781 E0.0836
G1 X137.058 Y73.769 E0.0845
G1 X137.484 Y73.642 E0.0956
G1 X137.521 Y73.632 E0.0965
G1 X137.728 Y73.590 E0.1018
G1 X137.766 Y73.584 E0.1027
G1 X138.399 Y73.510 E0.1186
G1 X138.424 Y73.508 E0.1192
G1 X138.565 Y73.500 E0.1228
G1 X138.590 Y73.499 E0.1234
G1 X158.575 Y73.499 E0.6207
G1 X158.601 Y73.500 E0.6213
G1 X158.744 Y73.508 E0.6249
G1 X158.769 Y73.511 E0.6255
G1 X159.443 Y73.590 E0.6424
G1 X159.493 Y73.599 E0.6436
G1 X159.770 Y73.665 E0.6507
G1 X159.818 Y73.680 E0.6520
G1 X160.522 Y73.937 E0.6706
G1 X160.569 Y73.957 E0.6719
G1 X160.822 Y74.085 E0.6790
G1 X160.866 Y74.110 E0.6802
G1 X161.462 Y74.503 E0.6980
G1 X161.493 Y74.526 E0.6989
G1 X161.660 Y74.658 E0.7042
G1 X161.689 Y74.683 E0.7052
G1 X162.012 Y74.989 E0.7162
G1 X162.038 Y75.016 E0.7172
G1 X162.179 Y75.174 E0.7225
G1 X162.203 Y75.204 E0.7234
G1 X162.583 Y75.715 E0.7393
G1 X162.597 Y75.736 E0.7399
G1 X162.675 Y75.854 E0.7434
G1 X162.688 Y75.876 E0.7440
G1 X172.680 Y93.182 E1.2413
G1 X172.692 Y93.205 E1.2419
G1 X172.756 Y93.332 E1.2455
G1 X172.767 Y93.356 E1.2461
G1 X173.035 Y93.979 E1.2630
G1 X173.053 Y94.027 E1.2643
G1 X173.134 Y94.299 E1.2713
G1 X173.146 Y94.348 E1.2726
G1 X173.275 Y95.086 E1.2912
G1 X173.281 Y95.137 E1.2925
G1 X173.297 Y95.420 E1.2996
G1 X173.297 Y95.471 E1.3008
G1 X173.255 Y96.183 E1.3186
G1 X173.251 Y96.221 E1.3195
G1 X173.220 Y96.432 E1.3248
G1 X173.212 Y96.469 E1.3258
G1 X173.109 Y96.902 E1.3369
G1 X173.099 Y96.939 E1.3378
G1 X173.032 Y97.140 E1.3431
G1 X173.018 Y97.175 E1.3440
G1 X172.765 Y97.761 E1.3599
G1 X172.755 Y97.784 E1.3605
G1 X172.691 Y97.911 E1.3641
G1 X172.679 Y97.933 E1.3647
G1 X162.687 Y115.240 E1.8619
G1 X162.674 Y115.261 E1.8626
G1 X162.595 Y115.381 E1.8661
G1 X162.580 Y115.402 E1.8668
G1 X162.175 Y115.945 E1.8836
G1 X162.142 Y115.984 E1.8849
G1 X161.947 Y116.191 E1.8920
G1 X161.910 Y116.226 E1.8933
G1 X161.336 Y116.707 E1.9119
G1 X161.295 Y116.737 E1.9132
G1 X161.057 Y116.893 E1.9202
G1 X161.013 Y116.918 E1.9215
G1 X160.375 Y117.238 E1.9392
G1 X160.341 Y117.253 E1.9402
G1 X160.143 Y117.332 E1.9455
G1 X160.106 Y117.344 E1.9464
G1 X159.680 Y117.471 E1.9575
G1 X159.643 Y117.480 E1.9585
G1 X159.436 Y117.523 E1.9637
G1 X159.398 Y117.529 E1.9647
G1 X158.764 Y117.603 E1.9806
G1 X158.739 Y117.605 E1.9812
G1 X158.598 Y117.613 E1.9847
G1 X158.572 Y117.614 E1.9853
G1 X138.588 Y117.614 E2.4826
G1 X138.563 Y117.613 E2.4832
G1 X138.420 Y117.605 E2.4868
G1 X138.394 Y117.603 E2.4874
G1 X137.721 Y117.523 E2.5043
G1 X137.671 Y117.514 E2.5056
G1 X137.394 Y117.449 E2.5126
G1 X137.345 Y117.434 E2.5139
G1 X136.642 Y117.177 E2.5325
G1 X136.595 Y117.157 E2.5338
G1 X136.342 Y117.029 E2.5409
G1 X136.298 Y117.004 E2.5421
G1 X135.702 Y116.611 E2.5599
G1 X135.671 Y116.589 E2.5608
G1 X135.504 Y116.456 E2.5661
G1 X135.475 Y116.431 E2.5671
G1 X135.152 Y116.125 E2.5782
G1 X135.125 Y116.098 E2.5791
G1 X134.985 Y115.940 E2.5844
G1 X134.961 Y115.910 E2.5853
G1 X134.580 Y115.398 E2.6012
G1 X134.565 Y115.377 E2.6018
G1 X134.488 Y115.259 E2.6054
G1 X134.474 Y115.238 E2.6060
G1 X124.482 Y97.931 E3.1032
G1 X124.470 Y97.908 E3.1039
G1 X124.406 Y97.781 E3.1074
G1 X124.395 Y97.758 E3.1081
G1 X124.127 Y97.135 E3.1250
G1 X124.110 Y97.087 E3.1262
G1 X124.029 Y96.814 E3.1333
G1 X124.017 Y96.765 E3.1346
G1 X123.888 Y96.027 E3.1532
G1 X123.882 Y95.977 E3.1545
G1 X123.866 Y95.693 E3.1615
G1 X123.866 Y95.642 E3.1628
G1 X123.908 Y94.930 E3.1805
G1 X123.912 Y94.892 E3.1815
G1 X123.943 Y94.681 E3.1868
G1 X123.950 Y94.644 E3.1877
G1 X124.053 Y94.211 E3.1988
G1 X124.064 Y94.175 E3.1998
G1 X124.130 Y93.974 E3.2050
G1 X124.144 Y93.938 E3.2060
G1 X124.396 Y93.354 E3.2218
G1 X124.407 Y93.331 E3.2224
G1 X124.471 Y93.204 E3.2260
G1 X124.483 Y93.182 E3.2266
G1 X134.076 Y76.566 E3.7040
G1 X134.476 Y75.873 F630
G1 X134.776 Y76.053 F6000
G92 E0
G1 X134.785 Y76.039 E0.0004 F630
G1 X134.858 Y75.928 E0.0037
G1 X134.866 Y75.916 E0.0041
G1 X135.263 Y75.384 E0.0206
