; G-Code generated by Simplify3D(R) Version 4.1.2
; Oct 11, 2022 at 8:18:37 AM
; Settings Summary
;   processName,A12-04-50 Tevo Tornado
;   applyToModels,pumpkin-lid-75mm
;   profileName,A13-04-10 Tevo Tornado
;   profileVersion,2022-10-09 17:10:17
;   baseProfile,Creality CR-10(2)
;   printMaterial,PLA
;   printQuality,Medium
;   printExtruders,
;   extruderName,Primary Extruder
;   extruderToolheadNumber,0
;   extruderDiameter,0.4
;   extruderAutoWidth,0
;   extruderWidth,0.35
;   extrusionMultiplier,0.95
;   extruderUseRetract,1
;   extruderRetractionDistance,4
;   extruderExtraRestartDistance,0
;   extruderRetractionZLift,0.3
;   extruderRetractionSpeed,3600
;   extruderUseCoasting,0
;   extruderCoastingDistance,0.5
;   extruderUseWipe,0
;   extruderWipeDistance,5
;   primaryExtruder,0
;   layerHeight,0.15
;   topSolidLayers,4
;   bottomSolidLayers,3
;   perimeterOutlines,3
;   printPerimetersInsideOut,0
;   startPointOption,2
;   startPointOriginX,0
;   startPointOriginY,300
;   sequentialIslands,0
;   spiralVaseMode,0
;   firstLayerHeightPercentage,120
;   firstLayerWidthPercentage,100
;   firstLayerUnderspeed,0.5
;   useRaft,0
;   raftExtruder,0
;   raftTopLayers,3
;   raftBaseLayers,2
;   raftOffset,3
;   raftSeparationDistance,0.14
;   raftTopInfill,100
;   aboveRaftSpeedMultiplier,0.3
;   useSkirt,1
;   skirtExtruder,0
;   skirtLayers,1
;   skirtOutlines,2
;   skirtOffset,3
;   usePrimePillar,0
;   primePillarExtruder,999
;   primePillarWidth,12
;   primePillarLocation,7
;   primePillarSpeedMultiplier,1
;   useOozeShield,0
;   oozeShieldExtruder,999
;   oozeShieldOffset,2
;   oozeShieldOutlines,1
;   oozeShieldSidewallShape,1
;   oozeShieldSidewallAngle,30
;   oozeShieldSpeedMultiplier,1
;   infillExtruder,0
;   internalInfillPattern,Rectilinear
;   externalInfillPattern,Rectilinear
;   infillPercentage,10
;   outlineOverlapPercentage,15
;   infillExtrusionWidthPercentage,100
;   minInfillLength,5
;   infillLayerInterval,1
;   internalInfillAngles,45,-45
;   overlapInternalInfillAngles,0
;   externalInfillAngles,45,-45
;   generateSupport,0
;   supportExtruder,0
;   supportInfillPercentage,30
;   supportExtraInflation,0
;   supportBaseLayers,0
;   denseSupportExtruder,0
;   denseSupportLayers,0
;   denseSupportInfillPercentage,70
;   supportLayerInterval,1
;   supportHorizontalPartOffset,0.4
;   supportUpperSeparationLayers,1
;   supportLowerSeparationLayers,1
;   supportType,0
;   supportGridSpacing,4.5
;   maxOverhangAngle,45
;   supportAngles,0
;   temperatureName,Primary Extruder,Heated Bed
;   temperatureNumber,0,0
;   temperatureSetpointCount,2,2
;   temperatureSetpointLayers,1,2,1,2
;   temperatureSetpointTemperatures,200,195,55,50
;   temperatureStabilizeAtStartup,1,1
;   temperatureHeatedBed,0,1
;   fanLayers,1,2
;   fanSpeeds,0,100
;   blipFanToFullPower,0
;   adjustSpeedForCooling,1
;   minSpeedLayerTime,15
;   minCoolingSpeedSlowdown,20
;   increaseFanForCooling,1
;   minFanLayerTime,25
;   maxCoolingFanSpeed,100
;   increaseFanForBridging,1
;   bridgingFanSpeed,100
;   use5D,1
;   relativeEdistances,0
;   allowEaxisZeroing,1
;   independentExtruderAxes,0
;   includeM10123,0
;   stickySupport,1
;   applyToolheadOffsets,0
;   gcodeXoffset,0
;   gcodeYoffset,0
;   gcodeZoffset,0
;   overrideMachineDefinition,1
;   machineTypeOverride,0
;   strokeXoverride,300
;   strokeYoverride,300
;   strokeZoverride,400
;   originOffsetXoverride,0
;   originOffsetYoverride,0
;   originOffsetZoverride,0
;   homeXdirOverride,-1
;   homeYdirOverride,-1
;   homeZdirOverride,-1
;   flipXoverride,1
;   flipYoverride,-1
;   flipZoverride,1
;   toolheadOffsets,0,0|0,0|0,0|0,0|0,0|0,0
;   overrideFirmwareConfiguration,1
;   firmwareTypeOverride,RepRap (Marlin/Repetier/Sprinter)
;   GPXconfigOverride,r2
;   baudRateOverride,250000
;   overridePrinterModels,1
;   printerModelsOverride
;   startingGcode,;,; -]H.P.B[- MarshMalloW  ,; $VER: StartScript 1.02 (26.12.2019) MarshMalloW,;,; Begin Startcode,;,M117 *Preheat*     	; Preheat,;extruder0_temperature,M104 S[extruder0_temperature]  ,M109 S[extruder0_temperature] ,M109 R[extruder0_temperature] ,;,M117 *Auto-leveling*     	; Auto-leveling,M107                   	; Turn layer fan off,G21                    	; Set to metric [change to G20 if you want Imperial],G90                    	; Force coordinates to be absolute relative to the origin,G28                    	; Home X/Y/Z axis,G29                    	; Auto-leveling (BL-Touch),;,M117 *Start Clean*     	; Indicate nozzle clean in progress on LCD,G92 E0                 	; Set Extruder to 0 ,G1 X0 Y0 F2000         	; Move X and Y to 0 with speed 2000 (mm/min),G1 Z0.1 F1000          	; Move Z to   0.1 with speed 1000 (mm/min),G1 X8.0 F2000          	; Move X to   8.0 with speed 2000 (mm/min),G1 Y60.0 E4.0 F1000.0  	; Move Y to  60 and Extruder with 4.0 with speed 1000 (mm/min),G1 Y100.0 E8.5 F1000.0 	; Move Y to 100 and Extruder with 8.5 with speed 1000 (mm/min),G92 E0                 	; Set extruder to 0,G1 X16.0 F3000         	; Move X to 16.0 with speed 3000 (mm/min),G1 Y60.0 F3000         	; Move Y to 60.0 with speed 3000 (mm/min),M117 *End Clean*       	; Indicate nozzle clean in progress on LCD,G1 Z5 F3000            	; Move Z to  5.0 with speed 3000 (mm/min),G1 X20.0 F3000         	; Move X to 20.0 with speed 3000 (mm/min),G1 Y20.0 F3000         	; Move Y to 20.0 with speed 3000 (mm/min),; ,M117 *Printing...*     	; Start printing msg on LCD,;,; End Startcode,;,; Begin printing with sliced GCode after here,;
;   layerChangeGcode,
;   retractionGcode,
;   toolChangeGcode,
;   endingGcode,;,; init 181010,;,;M107 			; Fan off,;G1 E-1 F300 			; Retract the filament a bit before lifting the nozzle,;M104 S0 			; Turn off extruder,;M140 S0 			; Turn off bed,;G91			; Relative positioning,;G28 X0 Y0 			; Move X/Y to min endstops so the head is out of teh way,;M84 			; Disable motors,;G90 			; Absolute positioning,;M117 Print ready...,,;,; // From Cura 181010,; // End_gcode,G92 E0			; Zero the extruded length,;G1 E-30 F300		; Retract E -30,M106 S0			; Turn off cooling fan,M104 S0			; Turn off temperature,M140 S0		     	; Turn off bed,G91			; Relative positioning,G1 E-1 F300			; Retract the filament a bit before lifting the nozzle to release some of the pressure,G1 Z+20 E-5 X-20 Y-20 F7200	; Move Z up a bit and retract filament even more,G1 X0 Y150 F10000		; Move right min,M107			; Turn off layer fan,M84			; Disable motors,G90			; Absolute positioning,M117 *The-End* 		; End msg,;,
;   exportFileFormat,gcode
;   celebration,0
;   celebrationSong,Star Wars
;   postProcessing,|{REPLACE "; layer " "M117 INDICATOR-Layer"}|{REPLACE ", Z = " "\n; Z="}
;   defaultSpeed,1800
;   outlineUnderspeed,0.5
;   solidInfillUnderspeed,0.8
;   supportUnderspeed,0.8
;   rapidXYspeed,6000
;   rapidZspeed,1002
;   minBridgingArea,50
;   bridgingExtraInflation,0.2
;   bridgingExtrusionMultiplier,1
;   bridgingSpeedMultiplier,0.8
;   useFixedBridgingAngle,0
;   fixedBridgingAngle,0
;   applyBridgingToPerimeters,0
;   filamentDiameters,1.75|1.75|1.75|1.75|1.75|1.75
;   filamentPricesPerKg,30|46|46|46|46|46
;   filamentDensities,1.25|1.25|1.25|1.25|1.25|1.25
;   useMinPrintHeight,0
;   minPrintHeight,0
;   useMaxPrintHeight,0
;   maxPrintHeight,50
;   useDiaphragm,0
;   diaphragmLayerInterval,20
;   robustSlicing,1
;   mergeAllIntoSolid,0
;   onlyRetractWhenCrossingOutline,1
;   retractBetweenLayers,1
;   useRetractionMinTravel,0
;   retractionMinTravel,3
;   retractWhileWiping,0
;   onlyWipeOutlines,1
;   avoidCrossingOutline,0
;   maxMovementDetourFactor,3
;   toolChangeRetractionDistance,12
;   toolChangeExtraRestartDistance,-0.5
;   toolChangeRetractionSpeed,600
;   externalThinWallType,0
;   internalThinWallType,1
;   thinWallAllowedOverlapPercentage,10
;   singleExtrusionMinLength,1
;   singleExtrusionMinPrintingWidthPercentage,50
;   singleExtrusionMaxPrintingWidthPercentage,200
;   singleExtrusionEndpointExtension,0.2
;   horizontalSizeCompensation,0
G90
M82
M106 S0
M140 S55
M190 S55
;
; -]H.P.B[- MarshMalloW  
; $VER: StartScript 1.02 (26.12.2019) MarshMalloW
;
; Begin Startcode
;
M117 *Preheat*     	; Preheat
;extruder0_temperature
M104 S200  
M109 S200 
M109 R200 
;
M117 *Auto-leveling*     	; Auto-leveling
M107                   	; Turn layer fan off
G21                    	; Set to metric [change to G20 if you want Imperial]
G90                    	; Force coordinates to be absolute relative to the origin
G28                    	; Home X/Y/Z axis
G29                    	; Auto-leveling (BL-Touch)
;
M117 *Start Clean*     	; Indicate nozzle clean in progress on LCD
G92 E0                 	; Set Extruder to 0 
G1 X0 Y0 F2000         	; Move X and Y to 0 with speed 2000 (mm/min)
G1 Z0.1 F1000          	; Move Z to   0.1 with speed 1000 (mm/min)
G1 X8.0 F2000          	; Move X to   8.0 with speed 2000 (mm/min)
G1 Y60.0 E4.0 F1000.0  	; Move Y to  60 and Extruder with 4.0 with speed 1000 (mm/min)
G1 Y100.0 E8.5 F1000.0 	; Move Y to 100 and Extruder with 8.5 with speed 1000 (mm/min)
G92 E0                 	; Set extruder to 0
G1 X16.0 F3000         	; Move X to 16.0 with speed 3000 (mm/min)
G1 Y60.0 F3000         	; Move Y to 60.0 with speed 3000 (mm/min)
M117 *End Clean*       	; Indicate nozzle clean in progress on LCD
G1 Z5 F3000            	; Move Z to  5.0 with speed 3000 (mm/min)
G1 X20.0 F3000         	; Move X to 20.0 with speed 3000 (mm/min)
G1 Y20.0 F3000         	; Move Y to 20.0 with speed 3000 (mm/min)
; 
M117 *Printing...*     	; Start printing msg on LCD
;
; End Startcode
;
; Begin printing with sliced GCode after here
;
; process A12-04-50 Tevo Tornado
; layer 1
M117 INDICATOR-Layer1
; Z=0.180
T0
G92 E0.0000
G1 E-4.0000 F3600
; feature skirt
; tool H0.180 W0.350
G1 Z0.300 F1002
G1 X131.337 Y131.717 F6000
G1 Z0.180 F1002
G1 E0.0000 F3600
G92 E0.0000
G1 X133.151 Y129.994 E0.0622 F900
G1 X133.261 Y129.898 E0.0659
G1 X134.939 Y128.550 E0.1194
G1 X135.023 Y128.486 E0.1221
G1 X135.731 Y127.984 E0.1437
G1 X135.830 Y127.919 E0.1466
G1 X137.904 Y126.647 E0.2072
G1 X138.073 Y126.556 E0.2119
G1 X140.125 Y125.587 E0.2684
G1 X140.255 Y125.531 E0.2719
G1 X142.286 Y124.764 E0.3259
G1 X142.448 Y124.711 E0.3302
G1 X143.007 Y124.560 E0.3446
G1 X143.338 Y124.504 E0.3529
G1 X143.767 Y124.472 E0.3636
G1 X148.807 Y123.723 E0.4904
G1 X148.982 Y123.706 E0.4948
G1 X152.143 Y123.554 E0.5736
G1 X152.316 Y123.554 E0.5778
G1 X154.256 Y123.651 E0.6262
G1 X154.558 Y123.692 E0.6338
G1 X154.978 Y123.788 E0.6445
G1 X155.042 Y123.803 E0.6461
G1 X157.887 Y124.560 E0.7194
G1 X157.934 Y124.574 E0.7206
G1 X158.517 Y124.746 E0.7357
G1 X158.617 Y124.779 E0.7383
G1 X161.639 Y125.872 E0.8183
G1 X161.841 Y125.959 E0.8238
G1 X162.421 Y126.255 E0.8400
G1 X162.529 Y126.315 E0.8431
G1 X165.677 Y128.208 E0.9345
G1 X165.812 Y128.298 E0.9385
G1 X168.488 Y130.264 E1.0211
G1 X168.645 Y130.394 E1.0262
G1 X169.087 Y130.805 E1.0412
G1 X169.309 Y131.055 E1.0495
G1 X172.151 Y134.939 E1.1693
G1 X172.269 Y135.122 E1.1747
G1 X174.818 Y139.693 E1.3049
G1 X174.984 Y140.105 E1.3160
G1 X176.149 Y144.528 E1.4298
G1 X176.195 Y144.766 E1.4358
G1 X176.559 Y147.778 E1.5113
G1 X177.031 Y151.181 E1.5968
G1 X177.047 Y151.471 E1.6040
G1 X176.921 Y156.091 E1.7190
G1 X176.841 Y156.572 E1.7312
G1 X175.982 Y159.313 E1.8026
G1 X175.858 Y159.609 E1.8106
G1 X173.894 Y163.328 E1.9153
G1 X173.757 Y163.547 E1.9217
G1 X171.127 Y167.137 E2.0324
G1 X171.036 Y167.251 E2.0361
G1 X170.736 Y167.596 E2.0474
G1 X170.601 Y167.736 E2.0523
G1 X168.293 Y169.866 E2.1304
G1 X168.177 Y169.964 E2.1342
G1 X164.915 Y172.492 E2.2369
G1 X164.660 Y172.657 E2.2445
G1 X161.085 Y174.550 E2.3451
G1 X160.900 Y174.635 E2.3502
G1 X160.415 Y174.824 E2.3631
G1 X160.306 Y174.862 E2.3660
G1 X156.121 Y176.186 E2.4752
G1 X155.767 Y176.259 E2.4842
G1 X154.830 Y176.354 E2.5077
G1 X154.726 Y176.361 E2.5103
G1 X150.618 Y176.534 E2.6126
G1 X150.401 Y176.530 E2.6180
G1 X147.516 Y176.295 E2.6900
G1 X147.463 Y176.290 E2.6913
G1 X146.014 Y176.127 E2.7276
G1 X145.929 Y176.116 E2.7297
G1 X144.397 Y175.868 E2.7683
G1 X144.172 Y175.817 E2.7741
G1 X142.903 Y175.438 E2.8070
G1 X142.804 Y175.405 E2.8096
G1 X140.513 Y174.570 E2.8703
G1 X140.432 Y174.538 E2.8725
G1 X139.504 Y174.147 E2.8975
G1 X139.314 Y174.053 E2.9028
G1 X136.764 Y172.595 E2.9759
G1 X136.142 Y172.287 E2.9932
G1 X135.935 Y172.166 E2.9991
G1 X134.989 Y171.524 E3.0276
G1 X134.901 Y171.460 E3.0303
G1 X132.649 Y169.720 E3.1011
G1 X132.568 Y169.653 E3.1037
G1 X131.756 Y168.945 E3.1305
G1 X131.603 Y168.793 E3.1359
G1 X131.082 Y168.212 E3.1553
G1 X131.017 Y168.136 E3.1578
G1 X128.537 Y165.036 E3.2566
G1 X128.379 Y164.801 E3.2636
G1 X126.645 Y161.732 E3.3513
G1 X126.582 Y161.609 E3.3548
G1 X126.138 Y160.654 E3.3810
G1 X126.062 Y160.463 E3.3861
G1 X124.684 Y156.291 E3.4954
G1 X124.612 Y155.983 E3.5033
G1 X123.972 Y151.444 E3.6173
G1 X123.955 Y151.157 E3.6245
G1 X124.036 Y147.644 E3.7120
G1 X124.058 Y147.403 E3.7180
G1 X124.194 Y146.565 E3.7391
G1 X124.212 Y146.470 E3.7415
G1 X124.834 Y143.625 E3.8140
G1 X124.856 Y143.538 E3.8162
G1 X125.151 Y142.455 E3.8441
G1 X125.208 Y142.281 E3.8487
G1 X126.507 Y138.926 E3.9382
G1 X126.546 Y138.833 E3.9407
G1 X127.198 Y137.401 E3.9799
G1 X127.289 Y137.226 E3.9848
G1 X127.933 Y136.150 E4.0160
G1 X127.978 Y136.077 E4.0181
G1 X128.985 Y134.567 E4.0633
G1 X129.046 Y134.480 E4.0659
G1 X129.823 Y133.454 E4.0979
G1 X129.898 Y133.362 E4.1009
G1 X131.220 Y131.839 E4.1511
G1 X131.337 Y131.717 E4.1553
G92 E0.0000
G1 E-4.0000 F3600
G1 Z0.480 F1002
G1 X131.584 Y131.965 F6000
G1 Z0.180 F1002
G1 E0.0000 F3600
G92 E0.0000
G1 X133.386 Y130.253 E0.0618 F900
G1 X133.486 Y130.166 E0.0651
G1 X135.154 Y128.826 E0.1184
G1 X135.230 Y128.769 E0.1207
G1 X135.929 Y128.273 E0.1421
G1 X136.018 Y128.214 E0.1447
G1 X138.079 Y126.951 E0.2049
G1 X138.231 Y126.869 E0.2092
G1 X140.268 Y125.906 E0.2652
G1 X140.385 Y125.856 E0.2684
G1 X142.402 Y125.094 E0.3220
G1 X142.548 Y125.047 E0.3259
G1 X143.082 Y124.902 E0.3396
G1 X143.380 Y124.851 E0.3472
G1 X143.806 Y124.820 E0.3578
G1 X148.850 Y124.070 E0.4847
G1 X149.007 Y124.055 E0.4886
G1 X152.152 Y123.904 E0.5669
G1 X152.307 Y123.904 E0.5708
G1 X154.223 Y124.000 E0.6185
G1 X154.496 Y124.037 E0.6254
G1 X154.898 Y124.128 E0.6357
G1 X154.955 Y124.142 E0.6371
G1 X157.795 Y124.898 E0.7102
G1 X157.837 Y124.910 E0.7113
G1 X158.413 Y125.080 E0.7263
G1 X158.502 Y125.110 E0.7286
G1 X161.510 Y126.197 E0.8082
G1 X161.691 Y126.276 E0.8131
G1 X162.256 Y126.564 E0.8289
G1 X162.354 Y126.618 E0.8317
G1 X165.489 Y128.504 E0.9227
G1 X165.611 Y128.585 E0.9263
G1 X168.272 Y130.540 E1.0085
G1 X168.414 Y130.657 E1.0131
G1 X168.836 Y131.050 E1.0274
G1 X169.036 Y131.275 E1.0349
G1 X171.863 Y135.137 E1.1540
G1 X171.968 Y135.301 E1.1589
G1 X174.502 Y139.845 E1.2883
G1 X174.651 Y140.215 E1.2983
G1 X175.808 Y144.606 E1.4112
G1 X175.849 Y144.820 E1.4167
G1 X176.212 Y147.823 E1.4919
G1 X176.682 Y151.215 E1.5771
G1 X176.697 Y151.476 E1.5836
G1 X176.572 Y156.057 E1.6977
G1 X176.499 Y156.490 E1.7086
G1 X175.652 Y159.193 E1.7791
G1 X175.541 Y159.460 E1.7863
G1 X173.591 Y163.153 E1.8902
G1 X173.467 Y163.350 E1.8960
G1 X170.849 Y166.924 E2.0062
G1 X170.767 Y167.027 E2.0095
G1 X170.479 Y167.359 E2.0205
G1 X170.356 Y167.485 E2.0248
G1 X168.061 Y169.604 E2.1025
G1 X167.957 Y169.692 E2.1059
G1 X164.713 Y172.207 E2.2081
G1 X164.483 Y172.355 E2.2149
G1 X160.930 Y174.236 E2.3149
G1 X160.763 Y174.313 E2.3195
G1 X160.293 Y174.496 E2.3320
G1 X160.195 Y174.530 E2.3346
G1 X156.032 Y175.847 E2.4433
G1 X155.713 Y175.912 E2.4514
G1 X154.800 Y176.005 E2.4742
G1 X154.706 Y176.012 E2.4765
G1 X150.614 Y176.184 E2.5785
G1 X150.419 Y176.180 E2.5833
G1 X147.547 Y175.946 E2.6550
G1 X147.499 Y175.942 E2.6562
G1 X146.057 Y175.780 E2.6923
G1 X145.981 Y175.769 E2.6942
G1 X144.464 Y175.525 E2.7325
G1 X144.262 Y175.479 E2.7376
G1 X143.008 Y175.104 E2.7702
G1 X142.919 Y175.074 E2.7725
G1 X140.637 Y174.243 E2.8329
G1 X140.564 Y174.214 E2.8349
G1 X139.650 Y173.828 E2.8596
G1 X139.479 Y173.744 E2.8643
G1 X136.929 Y172.286 E2.9374
G1 X136.308 Y171.978 E2.9547
G1 X136.122 Y171.870 E2.9600
