; G-Code generated by Simplify3D(R) Version 4.0.1
; Dec 21, 2018 at 12:39:20 PM
; Settings Summary
;   processName,Tevo Tornado 001
;   applyToModels,BLTouchTornadoScrews
;   profileName,008 Tevo Tornado (experimental) 06-04
;   profileVersion,2018-12-21 11:23:24
;   baseProfile,Creality CR-10(2)
;   printMaterial,PLA
;   printQuality,Medium
;   printExtruders,
;   extruderName,Primary Extruder
;   extruderToolheadNumber,0
;   extruderDiameter,0.4
;   extruderAutoWidth,0
;   extruderWidth,0.4
;   extrusionMultiplier,1
;   extruderUseRetract,1
;   extruderRetractionDistance,6.5
;   extruderExtraRestartDistance,0
;   extruderRetractionZLift,0
;   extruderRetractionSpeed,1800
;   extruderUseCoasting,0
;   extruderCoastingDistance,0.2
;   extruderUseWipe,0
;   extruderWipeDistance,4
;   primaryExtruder,0
;   layerHeight,0.2
;   topSolidLayers,5
;   bottomSolidLayers,4
;   perimeterOutlines,3
;   printPerimetersInsideOut,1
;   startPointOption,2
;   startPointOriginX,0
;   startPointOriginY,500
;   sequentialIslands,0
;   spiralVaseMode,0
;   firstLayerHeightPercentage,150
;   firstLayerWidthPercentage,100
;   firstLayerUnderspeed,0.25
;   useRaft,0
;   raftExtruder,0
;   raftTopLayers,3
;   raftBaseLayers,2
;   raftOffset,3
;   raftSeparationDistance,0.14
;   raftTopInfill,100
;   aboveRaftSpeedMultiplier,0.3
;   useSkirt,1
;   skirtExtruder,0
;   skirtLayers,1
;   skirtOutlines,4
;   skirtOffset,0
;   usePrimePillar,0
;   primePillarExtruder,999
;   primePillarWidth,12
;   primePillarLocation,7
;   primePillarSpeedMultiplier,1
;   useOozeShield,0
;   oozeShieldExtruder,999
;   oozeShieldOffset,2
;   oozeShieldOutlines,1
;   oozeShieldSidewallShape,1
;   oozeShieldSidewallAngle,30
;   oozeShieldSpeedMultiplier,1
;   infillExtruder,0
;   internalInfillPattern,Rectilinear
;   externalInfillPattern,Rectilinear
;   infillPercentage,50
;   outlineOverlapPercentage,30
;   infillExtrusionWidthPercentage,125
;   minInfillLength,5
;   infillLayerInterval,1
;   internalInfillAngles,45,-45
;   overlapInternalInfillAngles,0
;   externalInfillAngles,45,-45
;   generateSupport,0
;   supportExtruder,0
;   supportInfillPercentage,30
;   supportExtraInflation,0
;   supportBaseLayers,0
;   denseSupportExtruder,0
;   denseSupportLayers,0
;   denseSupportInfillPercentage,70
;   supportLayerInterval,1
;   supportHorizontalPartOffset,0.4
;   supportUpperSeparationLayers,1
;   supportLowerSeparationLayers,1
;   supportType,0
;   supportGridSpacing,4.5
;   maxOverhangAngle,45
;   supportAngles,0
;   temperatureName,Primary Extruder,Heated Bed
;   temperatureNumber,0,0
;   temperatureSetpointCount,4,2
;   temperatureSetpointLayers,1,2,3,4,1,2
;   temperatureSetpointTemperatures,210,205,200,195,65,60
;   temperatureStabilizeAtStartup,1,1
;   temperatureHeatedBed,0,1
;   temperatureRelayBetweenLayers,0,0
;   temperatureRelayBetweenLoops,0,0
;   fanLayers,1,2
;   fanSpeeds,0,100
;   blipFanToFullPower,1
;   adjustSpeedForCooling,1
;   minSpeedLayerTime,15
;   minCoolingSpeedSlowdown,50
;   increaseFanForCooling,0
;   minFanLayerTime,45
;   maxCoolingFanSpeed,100
;   increaseFanForBridging,1
;   bridgingFanSpeed,100
;   use5D,1
;   relativeEdistances,0
;   allowEaxisZeroing,1
;   independentExtruderAxes,0
;   includeM10123,0
;   stickySupport,1
;   applyToolheadOffsets,0
;   gcodeXoffset,0
;   gcodeYoffset,0
;   gcodeZoffset,0
;   overrideMachineDefinition,1
;   machineTypeOverride,0
;   strokeXoverride,300
;   strokeYoverride,300
;   strokeZoverride,400
;   originOffsetXoverride,0
;   originOffsetYoverride,0
;   originOffsetZoverride,0
;   homeXdirOverride,-1
;   homeYdirOverride,-1
;   homeZdirOverride,-1
;   flipXoverride,1
;   flipYoverride,-1
;   flipZoverride,1
;   toolheadOffsets,0,0|0,0|0,0|0,0|0,0|0,0
;   overrideFirmwareConfiguration,0
;   firmwareTypeOverride,RepRap (Marlin/Repetier/Sprinter)
;   GPXconfigOverride,r2
;   baudRateOverride,250000
;   overridePrinterModels,1
;   printerModelsOverride
;   startingGcode,;Init 181010,;G28 ; home all axes,;G1 Z5 F3000 ; lift,;G92 E0 ; reset extrusion distance,;From Cura 181010,; start_gcode,M117 Start Clean	; Indicate nozzle clean in progress on LCD,;,M104 S[extruder0_temperature] ,M109 S[extruder0_temperature] ,M109 R[extruder0_temperature] ,;,M107		; Turn layer fan off,G21		; Set to metric [change to G20 if you want Imperial],G90	 	; Force coordinates to be absolute relative to the origin,G28		; Home X/Y/Z axis,;,G1 X3 Y1 Z15 F9000	; Move safe Z height to shear strings,G0 X1 Y1 Z0.2 F9000	; Move in 1mm from edge and up [z] 0.2mm,G92 E0		; Set extruder to [0] zero,G1 X100 E12 F500	; Extrude 30mm filiment along X axis 100mm long to prime and clean the nozzle,G92 E0		; Reset extruder to [0] zero end of cleaning run,G1 E-1 F500		; Retract filiment by 1 mm to reduce string effect,G1 X180 F4000		; quick wipe away from the filament line / purge,M117 End Clean		; Indicate nozzle clean in progress on LCD,;,M117 IMPRESSION...	; start msg,; Begin printing with sliced GCode after here,;
;   layerChangeGcode,
;   retractionGcode,
;   toolChangeGcode,
;   endingGcode,;,; init 181010,;,;M107 ; Fan off,;G1 E-1 F300 ; Retract the filament a bit before lifting the nozzle,;M104 S0 ; turn off extruder,;M140 S0 ; turn off bed,;G91 ; Relative positioning,;G28 X0 Y0 ; Move X/Y to min endstops so the head is out of teh way,;M84 ; disable motors,;G90 ; Absolute positioning,;M117 Print ready...,,;,;From Cura 181010,;,; end_gcode,G92 E0		; zero the extruded length,G1 E-5 F9000		; retract,M104 S0		; turn off temperature,M140 S0		; turn off bed,G91		; relative positioning,G1 E-1 F300		; retract the filament a bit before lifting the nozzle to release some of the pressure,G1 Z+20 E-5 X-20 Y-20 F7200	; move Z up a bit and retract filament even more,G1 X320 Y150 F10000	; move right mid,M107		; turn off layer fan,M84		; disable motors,G90		; absolute positioning,M117 IMPRESSION TERMINEE	; end msg,;,;EOF
;   exportFileFormat,gcode
;   celebration,0
;   celebrationSong,Star Wars
;   postProcessing,
;   defaultSpeed,4200
;   outlineUnderspeed,0.5
;   solidInfillUnderspeed,0.8
;   supportUnderspeed,0.8
;   rapidXYspeed,6000
;   rapidZspeed,1002
;   minBridgingArea,50
;   bridgingExtraInflation,0
;   bridgingExtrusionMultiplier,0.85
;   bridgingSpeedMultiplier,1.05
;   useFixedBridgingAngle,0
;   fixedBridgingAngle,0
;   applyBridgingToPerimeters,0
;   filamentDiameters,1.75|1.75|1.75|1.75|1.75|1.75
;   filamentPricesPerKg,30|46|46|46|46|46
;   filamentDensities,1.25|1.25|1.25|1.25|1.25|1.25
;   useMinPrintHeight,0
;   minPrintHeight,0
;   useMaxPrintHeight,0
;   maxPrintHeight,9
;   useDiaphragm,0
;   diaphragmLayerInterval,20
;   robustSlicing,1
;   mergeAllIntoSolid,0
;   onlyRetractWhenCrossingOutline,1
;   retractBetweenLayers,1
;   useRetractionMinTravel,1
;   retractionMinTravel,3
;   retractWhileWiping,1
;   onlyWipeOutlines,1
;   avoidCrossingOutline,1
;   maxMovementDetourFactor,3
;   toolChangeRetractionDistance,12
;   toolChangeExtraRestartDistance,-0.5
;   toolChangeRetractionSpeed,600
;   externalThinWallType,0
;   internalThinWallType,2
;   thinWallAllowedOverlapPercentage,15
;   singleExtrusionMinLength,1
;   singleExtrusionMinPrintingWidthPercentage,50
;   singleExtrusionMaxPrintingWidthPercentage,200
;   singleExtrusionEndpointExtension,0.2
;   horizontalSizeCompensation,0
G90
M82
M106 S255
G4 P500
M106 S0
M140 S65
M190 S65
;Init 181010
;G28 ; home all axes
;G1 Z5 F3000 ; lift
;G92 E0 ; reset extrusion distance
;From Cura 181010
; start_gcode
M117 Start Clean	; Indicate nozzle clean in progress on LCD
;
M104 S210 
M109 S210 
M109 R210 
;
M107		; Turn layer fan off
G21		; Set to metric [change to G20 if you want Imperial]
G90	 	; Force coordinates to be absolute relative to the origin
G28		; Home X/Y/Z axis
;
G1 X3 Y1 Z15 F9000	; Move safe Z height to shear strings
G0 X1 Y1 Z0.2 F9000	; Move in 1mm from edge and up [z] 0.2mm
G92 E0		; Set extruder to [0] zero
G1 X100 E12 F500	; Extrude 30mm filiment along X axis 100mm long to prime and clean the nozzle
G92 E0		; Reset extruder to [0] zero end of cleaning run
G1 E-1 F500		; Retract filiment by 1 mm to reduce string effect
G1 X180 F4000		; quick wipe away from the filament line / purge
M117 End Clean		; Indicate nozzle clean in progress on LCD
;
M117 IMPRESSION...	; start msg
; Begin printing with sliced GCode after here
;
G92 E0
G1 E-6.5000 F1800
G1 Z0.300 F1002
; process Tevo Tornado 001
; layer 1, Z = 0.300
T0
; tool H0.300 W0.400
; skirt
G1 X133.531 Y132.162 F6000
G1 E0.0000 F540
G92 E0
G1 X133.883 Y131.838 E0.0239 F1050
G1 X133.993 Y131.755 E0.0307
G1 X134.482 Y131.457 E0.0593
G1 X134.606 Y131.398 E0.0662
G1 X135.056 Y131.233 E0.0901
G1 X135.174 Y131.201 E0.0962
G1 X135.638 Y131.119 E0.1197
G1 X135.760 Y131.108 E0.1258
G1 X145.629 Y131.102 E0.6181
G1 X145.719 Y131.108 E0.6227
G1 X146.171 Y131.166 E0.6454
G1 X146.290 Y131.193 E0.6515
G1 X146.739 Y131.333 E0.6750
G1 X146.852 Y131.380 E0.6811
G1 X147.270 Y131.597 E0.7046
G1 X147.374 Y131.662 E0.7107
G1 X147.742 Y131.944 E0.7338
G1 X147.821 Y132.015 E0.7391
G1 X148.087 Y132.292 E0.7583
G1 X148.172 Y132.400 E0.7651
G1 X148.532 Y132.962 E0.7984
G1 X148.600 Y133.099 E0.8061
G1 X148.769 Y133.563 E0.8307
G1 X148.804 Y133.696 E0.8375
G1 X148.890 Y134.248 E0.8654
G1 X148.898 Y134.355 E0.8708
G1 X148.900 Y153.100 E1.8060
G1 X167.546 Y153.100 E2.7362
G1 X167.637 Y153.106 E2.7408
G1 X168.287 Y153.191 E2.7735
G1 X168.464 Y153.238 E2.7826
G1 X169.109 Y153.504 E2.8174
G1 X169.255 Y153.586 E2.8258
G1 X169.743 Y153.942 E2.8559
G1 X169.866 Y154.057 E2.8643
G1 X170.315 Y154.591 E2.8991
G1 X170.414 Y154.746 E2.9083
G1 X170.713 Y155.385 E2.9435
G1 X170.769 Y155.560 E2.9526
G1 X170.887 Y156.225 E2.9863
G1 X170.898 Y156.348 E2.9925
G1 X170.898 Y165.629 E3.4555
G1 X170.892 Y165.720 E3.4601
G1 X170.834 Y166.171 E3.4828
G1 X170.807 Y166.290 E3.4889
G1 X170.667 Y166.739 E3.5124
G1 X170.620 Y166.852 E3.5185
G1 X170.403 Y167.270 E3.5419
G1 X170.338 Y167.374 E3.5480
G1 X170.047 Y167.754 E3.5719
G1 X169.953 Y167.854 E3.5788
G1 X169.517 Y168.238 E3.6077
G1 X169.392 Y168.326 E3.6154
G1 X168.883 Y168.606 E3.6443
G1 X168.757 Y168.660 E3.6512
G1 X168.294 Y168.807 E3.6755
G1 X168.159 Y168.836 E3.6823
G1 X167.619 Y168.896 E3.7094
G1 X167.542 Y168.900 E3.7133
G1 X140.676 Y168.894 E5.0536
G1 X140.616 Y168.891 E5.0566
G1 X139.947 Y168.834 E5.0901
G1 X139.887 Y168.826 E5.0932
G1 X139.225 Y168.710 E5.1267
G1 X139.166 Y168.697 E5.1297
G1 X138.516 Y168.524 E5.1632
G1 X138.458 Y168.506 E5.1663
G1 X137.826 Y168.277 E5.1998
G1 X137.770 Y168.254 E5.2028
G1 X137.161 Y167.971 E5.2363
G1 X137.107 Y167.943 E5.2394
G1 X136.524 Y167.608 E5.2729
G1 X136.473 Y167.575 E5.2760
G1 X135.922 Y167.191 E5.3095
G1 X135.873 Y167.154 E5.3125
G1 X135.358 Y166.723 E5.3460
G1 X135.313 Y166.682 E5.3491
G1 X134.837 Y166.207 E5.3826
G1 X134.796 Y166.162 E5.3856
G1 X134.363 Y165.649 E5.4192
G1 X134.326 Y165.600 E5.4222
G1 X133.935 Y165.044 E5.4561
G1 X133.895 Y164.979 E5.4599
G1 X133.416 Y164.111 E5.5094
G1 X133.383 Y164.042 E5.5132
G1 X133.122 Y163.414 E5.5471
G1 X133.101 Y163.357 E5.5502
G1 X132.898 Y162.717 E5.5837
G1 X132.882 Y162.658 E5.5867
G1 X132.736 Y162.002 E5.6202
G1 X132.725 Y161.942 E5.6233
G1 X132.636 Y161.276 E5.6568
G1 X132.631 Y161.215 E5.6598
G1 X132.601 Y160.559 E5.6926
G1 X132.600 Y160.527 E5.6942
G1 X132.600 Y154.800 E5.9799
G1 X131.877 Y154.800 E6.0160
G1 X131.057 Y153.980 E6.0739
G1 X131.057 Y149.020 E6.3213
G1 X131.877 Y148.200 E6.3792
G1 X132.600 Y148.200 E6.4152
G1 X132.600 Y134.462 E7.1006
G1 X132.604 Y134.386 E7.1044
G1 X132.662 Y133.851 E7.1313
G1 X132.690 Y133.717 E7.1381
G1 X132.833 Y133.261 E7.1620
G1 X132.880 Y133.148 E7.1681
G1 X133.097 Y132.730 E7.1915
G1 X133.162 Y132.626 E7.1976
G1 X133.448 Y132.252 E7.2211
G1 X133.531 Y132.162 E7.2272
G1 X133.814 Y132.445 F6000
G92 E0
G1 X134.139 Y132.146 E0.0220 F1050
G1 X134.218 Y132.087 E0.0269
G1 X134.674 Y131.809 E0.0536
G1 X134.762 Y131.767 E0.0585
G1 X135.177 Y131.615 E0.0805
G1 X135.261 Y131.592 E0.0848
G1 X135.690 Y131.516 E0.1066
G1 X135.778 Y131.508 E0.1110
G1 X145.616 Y131.502 E0.6018
G1 X145.681 Y131.506 E0.6050
G1 X146.102 Y131.561 E0.6262
G1 X146.187 Y131.579 E0.6306
G1 X146.603 Y131.710 E0.6523
G1 X146.684 Y131.743 E0.6567
G1 X147.071 Y131.944 E0.6784
G1 X147.145 Y131.991 E0.6828
G1 X147.487 Y132.252 E0.7043
G1 X147.543 Y132.303 E0.7081
G1 X147.785 Y132.555 E0.7255
G1 X147.846 Y132.632 E0.7304
G1 X148.183 Y133.159 E0.7616
G1 X148.232 Y133.257 E0.7671
G1 X148.387 Y133.682 E0.7896
G1 X148.411 Y133.777 E0.7945
G1 X148.492 Y134.294 E0.8206
G1 X148.498 Y134.371 E0.8245
G1 X148.500 Y153.500 E1.7788
G1 X167.533 Y153.500 E2.7284
G1 X167.598 Y153.504 E2.7316
G1 X168.209 Y153.584 E2.7624
G1 X168.335 Y153.618 E2.7689
G1 X168.934 Y153.865 E2.8012
G1 X169.039 Y153.924 E2.8072
G1 X169.487 Y154.251 E2.8349
G1 X169.575 Y154.333 E2.8409
G1 X169.992 Y154.829 E2.8732
G1 X170.063 Y154.939 E2.8798
G1 X170.340 Y155.531 E2.9124
G1 X170.379 Y155.656 E2.9189
G1 X170.490 Y156.278 E2.9504
G1 X170.498 Y156.365 E2.9548
G1 X170.498 Y165.616 E3.4163
G1 X170.494 Y165.681 E3.4196
G1 X170.439 Y166.102 E3.4408
G1 X170.420 Y166.187 E3.4451
G1 X170.290 Y166.603 E3.4669
G1 X170.257 Y166.684 E3.4712
G1 X170.056 Y167.071 E3.4930
G1 X170.009 Y167.145 E3.4973
G1 X169.741 Y167.495 E3.5193
G1 X169.674 Y167.567 E3.5242
G1 X169.269 Y167.923 E3.5511
G1 X169.180 Y167.986 E3.5566
G1 X168.708 Y168.246 E3.5835
G1 X168.617 Y168.285 E3.5884
G1 X168.191 Y168.420 E3.6107
G1 X168.095 Y168.440 E3.6156
G1 X167.586 Y168.497 E3.6411
G1 X167.531 Y168.500 E3.6439
G1 X140.685 Y168.494 E4.9833
G1 X140.642 Y168.492 E4.9854
G1 X139.990 Y168.436 E5.0180
G1 X139.947 Y168.430 E5.0202
G1 X139.303 Y168.318 E5.0528
G1 X139.260 Y168.308 E5.0550
G1 X138.628 Y168.140 E5.0877
G1 X138.586 Y168.127 E5.0898
G1 X137.971 Y167.904 E5.1225
G1 X137.931 Y167.887 E5.1247
G1 X137.337 Y167.612 E5.1573
G1 X137.298 Y167.592 E5.1595
G1 X136.731 Y167.266 E5.1921
G1 X136.694 Y167.242 E5.1943
G1 X136.158 Y166.868 E5.2270
G1 X136.123 Y166.841 E5.2291
G1 X135.621 Y166.422 E5.2618
G1 X135.589 Y166.392 E5.2639
G1 X135.126 Y165.930 E5.2966
G1 X135.096 Y165.898 E5.2988
G1 X134.675 Y165.398 E5.3314
G1 X134.648 Y165.363 E5.3336
G1 X134.269 Y164.823 E5.3665
G1 X134.240 Y164.777 E5.3692
G1 X133.772 Y163.927 E5.4176
G1 X133.748 Y163.878 E5.4203
G1 X133.495 Y163.269 E5.4533
G1 X133.480 Y163.228 E5.4554
G1 X133.282 Y162.604 E5.4881
G1 X133.271 Y162.562 E5.4903
G1 X133.128 Y161.923 E5.5229
G1 X133.120 Y161.881 E5.5251
G1 X133.034 Y161.232 E5.5577
G1 X133.030 Y161.189 E5.5599
G1 X133.001 Y160.545 E5.5920
G1 X133.000 Y160.523 E5.5931
G1 X133.000 Y154.400 E5.8986
G1 X132.043 Y154.400 E5.9464
G1 X131.457 Y153.814 E5.9877
G1 X131.457 Y149.186 E6.2186
G1 X132.043 Y148.600 E6.2599
G1 X133.000 Y148.600 E6.3077
G1 X133.000 Y134.473 E7.0125
G1 X133.003 Y134.419 E7.0152
G1 X133.058 Y133.914 E7.0405
G1 X133.078 Y133.818 E7.0454
G1 X133.210 Y133.397 E7.0674
G1 X133.243 Y133.316 E7.0718
G1 X133.444 Y132.929 E7.0935
G1 X133.491 Y132.855 E7.0979
G1 X133.755 Y132.509 E7.1196
G1 X133.814 Y132.445 E7.1240
G1 X134.098 Y132.727 F6000
G92 E0
G1 X134.396 Y132.454 E0.0202 F1050
G1 X134.443 Y132.418 E0.0231
G1 X134.865 Y132.161 E0.0478
G1 X134.918 Y132.135 E0.0507
G1 X135.298 Y131.997 E0.0709
G1 X135.348 Y131.983 E0.0735
G1 X135.743 Y131.913 E0.0935
G1 X135.796 Y131.908 E0.0961
G1 X145.603 Y131.902 E0.5854
G1 X145.642 Y131.904 E0.5874
G1 X146.033 Y131.955 E0.6071
G1 X146.084 Y131.966 E0.6097
G1 X146.467 Y132.086 E0.6297
G1 X146.515 Y132.106 E0.6323
G1 X146.871 Y132.291 E0.6523
G1 X146.915 Y132.319 E0.6549
G1 X147.231 Y132.561 E0.6747
G1 X147.266 Y132.591 E0.6770
G1 X147.483 Y132.818 E0.6927
G1 X147.520 Y132.864 E0.6956
G1 X147.834 Y133.356 E0.7248
G1 X147.863 Y133.415 E0.7281
G1 X148.005 Y133.801 E0.7486
G1 X148.019 Y133.858 E0.7515
G1 X148.094 Y134.340 E0.7759
G1 X148.098 Y134.386 E0.7782
G1 X148.100 Y153.900 E1.7517
G1 X167.520 Y153.900 E2.7206
G1 X167.559 Y153.903 E2.7225
G1 X168.131 Y153.978 E2.7513
G1 X168.207 Y153.998 E2.7552
G1 X168.759 Y154.225 E2.7850
G1 X168.822 Y154.261 E2.7886
