; G-Code generated by Simplify3D(R) Version 4.0.1
; Aug 27, 2019 at 12:39:35 PM
; Settings Summary
;   processName,Process1
;   applyToModels,YMotorSecondMount_flat_rescaled
;   profileName,101 Tevo Tornado (experimental)
;   profileVersion,2019-08-25 17:34:33
;   baseProfile,Creality CR-10(2)
;   printMaterial,PLA
;   printQuality,Medium
;   printExtruders,
;   extruderName,Primary Extruder
;   extruderToolheadNumber,0
;   extruderDiameter,0.4
;   extruderAutoWidth,0
;   extruderWidth,0.35
;   extrusionMultiplier,0.95
;   extruderUseRetract,1
;   extruderRetractionDistance,6
;   extruderExtraRestartDistance,0
;   extruderRetractionZLift,0.3
;   extruderRetractionSpeed,3000
;   extruderUseCoasting,0
;   extruderCoastingDistance,0.2
;   extruderUseWipe,0
;   extruderWipeDistance,4
;   primaryExtruder,0
;   layerHeight,0.15
;   topSolidLayers,4
;   bottomSolidLayers,3
;   perimeterOutlines,3
;   printPerimetersInsideOut,0
;   startPointOption,3
;   startPointOriginX,0
;   startPointOriginY,300
;   sequentialIslands,0
;   spiralVaseMode,0
;   firstLayerHeightPercentage,120
;   firstLayerWidthPercentage,100
;   firstLayerUnderspeed,0.5
;   useRaft,0
;   raftExtruder,0
;   raftTopLayers,3
;   raftBaseLayers,2
;   raftOffset,3
;   raftSeparationDistance,0.14
;   raftTopInfill,100
;   aboveRaftSpeedMultiplier,0.3
;   useSkirt,1
;   skirtExtruder,0
;   skirtLayers,1
;   skirtOutlines,3
;   skirtOffset,2
;   usePrimePillar,0
;   primePillarExtruder,999
;   primePillarWidth,12
;   primePillarLocation,7
;   primePillarSpeedMultiplier,1
;   useOozeShield,0
;   oozeShieldExtruder,999
;   oozeShieldOffset,2
;   oozeShieldOutlines,1
;   oozeShieldSidewallShape,1
;   oozeShieldSidewallAngle,30
;   oozeShieldSpeedMultiplier,1
;   infillExtruder,0
;   internalInfillPattern,Rectilinear
;   externalInfillPattern,Rectilinear
;   infillPercentage,15
;   outlineOverlapPercentage,15
;   infillExtrusionWidthPercentage,100
;   minInfillLength,5
;   infillLayerInterval,1
;   internalInfillAngles,45,-45
;   overlapInternalInfillAngles,0
;   externalInfillAngles,45,-45
;   generateSupport,0
;   supportExtruder,0
;   supportInfillPercentage,30
;   supportExtraInflation,0
;   supportBaseLayers,0
;   denseSupportExtruder,0
;   denseSupportLayers,0
;   denseSupportInfillPercentage,70
;   supportLayerInterval,1
;   supportHorizontalPartOffset,0.4
;   supportUpperSeparationLayers,1
;   supportLowerSeparationLayers,1
;   supportType,0
;   supportGridSpacing,4.5
;   maxOverhangAngle,45
;   supportAngles,0
;   temperatureName,Primary Extruder,Heated Bed
;   temperatureNumber,0,0
;   temperatureSetpointCount,2,1
;   temperatureSetpointLayers,1,2,1
;   temperatureSetpointTemperatures,210,205,50
;   temperatureStabilizeAtStartup,1,1
;   temperatureHeatedBed,0,1
;   temperatureRelayBetweenLayers,0,0
;   temperatureRelayBetweenLoops,0,0
;   fanLayers,1,2
;   fanSpeeds,0,100
;   blipFanToFullPower,0
;   adjustSpeedForCooling,1
;   minSpeedLayerTime,15
;   minCoolingSpeedSlowdown,50
;   increaseFanForCooling,1
;   minFanLayerTime,25
;   maxCoolingFanSpeed,100
;   increaseFanForBridging,1
;   bridgingFanSpeed,100
;   use5D,1
;   relativeEdistances,0
;   allowEaxisZeroing,1
;   independentExtruderAxes,0
;   includeM10123,0
;   stickySupport,1
;   applyToolheadOffsets,0
;   gcodeXoffset,0
;   gcodeYoffset,0
;   gcodeZoffset,0
;   overrideMachineDefinition,1
;   machineTypeOverride,0
;   strokeXoverride,300
;   strokeYoverride,300
;   strokeZoverride,400
;   originOffsetXoverride,0
;   originOffsetYoverride,0
;   originOffsetZoverride,0
;   homeXdirOverride,-1
;   homeYdirOverride,-1
;   homeZdirOverride,-1
;   flipXoverride,1
;   flipYoverride,-1
;   flipZoverride,1
;   toolheadOffsets,0,0|0,0|0,0|0,0|0,0|0,0
;   overrideFirmwareConfiguration,1
;   firmwareTypeOverride,RepRap (Marlin/Repetier/Sprinter)
;   GPXconfigOverride,r2
;   baudRateOverride,250000
;   overridePrinterModels,1
;   printerModelsOverride
;   startingGcode,;Init 181010,;G28 			; Home all axes,;G1 Z5 F3000 ; lift,;G92 E0			; Reset extrusion distance,,; // From Cura 181010,; // Update 190823 (GueroLoco),; // Start_gcode,M117 *Start Clean*		; Indicate nozzle clean in progress on LCD,;,M104 S[extruder0_temperature] ,M109 S[extruder0_temperature] ,M109 R[extruder0_temperature] ,;,M107			; Turn layer fan off,G21			; Set to metric [change to G20 if you want Imperial],G90			; Force coordinates to be absolute relative to the origin,G28			; Home X/Y/Z axis,;,;G1 X3 Y1 Z15 F9000		; Move safe Z height to shear strings,;G0 X1 Y1 Z0.2 F9000		; Move in 1mm from edge and up [z] 0.2mm,;G92 E0			; Set extruder to [0] zero,;G1 X100 E12 F500		; Extrude 30mm filiment along X axis 100mm long to prime and clean the nozzle,;G92 E0			; Reset extruder to [0] zero end of cleaning run,;G1 E-1 F500			; Retract filiment by 1 mm to reduce string effect,;G1 X180 F4000		; Quick wipe away from the filament line / purge,;,G92 E0			; Set Extruder to 0 ,G1 X0 Y0 F2000		; Move X and Y to 0 with speed 2000 (mm/min),G1 Z0.1 F1000		; Move Z to 0.1,G1 X8.0 F2000		; Move X to 8.0,G1 Y60.0 E4.0 F1000.0		; Prime - Move Y to 60 and Extruder with 4.0,G1 Y100.0 E8.5 F1000.0		; Prime - Move Y to 100 and Extruder with 8.5,G92 E0			; Set extruder to 0,M117 *End Clean*		; Indicate nozzle clean in progress on LCD,G1 Z5 F3000			; Lift - Move Z to 5,; ,M117 *Printing...*		; start msg,; // Begin printing with sliced GCode after here,;
;   layerChangeGcode,
;   retractionGcode,
;   toolChangeGcode,
;   endingGcode,;,; init 181010,;,;M107 			; Fan off,;G1 E-1 F300 			; Retract the filament a bit before lifting the nozzle,;M104 S0 			; Turn off extruder,;M140 S0 			; Turn off bed,;G91			; Relative positioning,;G28 X0 Y0 			; Move X/Y to min endstops so the head is out of teh way,;M84 			; Disable motors,;G90 			; Absolute positioning,;M117 Print ready...,,;,; // From Cura 181010,; // End_gcode,G92 E0			; Zero the extruded length,G1 E-30 F300			; Retract E -30,M106 S0			; Turn off cooling fan,M104 S0			; Turn off temperature,M140 S0		     	; Turn off bed,G91			; Relative positioning,G1 E-1 F300			; Retract the filament a bit before lifting the nozzle to release some of the pressure,G1 Z+20 E-5 X-20 Y-20 F7200	; Move Z up a bit and retract filament even more,G1 X0 Y150 F10000		; Move right min,M107			; Turn off layer fan,M84			; Disable motors,G90			; Absolute positioning,M117 *The-End* 		; End msg,;,
;   exportFileFormat,gcode
;   celebration,0
;   celebrationSong,Star Wars
;   postProcessing,
;   defaultSpeed,1800
;   outlineUnderspeed,0.5
;   solidInfillUnderspeed,0.8
;   supportUnderspeed,0.8
;   rapidXYspeed,6000
;   rapidZspeed,1002
;   minBridgingArea,50
;   bridgingExtraInflation,0.2
;   bridgingExtrusionMultiplier,1
;   bridgingSpeedMultiplier,0.6
;   useFixedBridgingAngle,0
;   fixedBridgingAngle,0
;   applyBridgingToPerimeters,0
;   filamentDiameters,1.75|1.75|1.75|1.75|1.75|1.75
;   filamentPricesPerKg,30|46|46|46|46|46
;   filamentDensities,1.25|1.25|1.25|1.25|1.25|1.25
;   useMinPrintHeight,0
;   minPrintHeight,0
;   useMaxPrintHeight,0
;   maxPrintHeight,9
;   useDiaphragm,0
;   diaphragmLayerInterval,20
;   robustSlicing,1
;   mergeAllIntoSolid,0
;   onlyRetractWhenCrossingOutline,1
;   retractBetweenLayers,1
;   useRetractionMinTravel,0
;   retractionMinTravel,3
;   retractWhileWiping,0
;   onlyWipeOutlines,1
;   avoidCrossingOutline,0
;   maxMovementDetourFactor,3
;   toolChangeRetractionDistance,12
;   toolChangeExtraRestartDistance,-0.5
;   toolChangeRetractionSpeed,600
;   externalThinWallType,1
;   internalThinWallType,1
;   thinWallAllowedOverlapPercentage,15
;   singleExtrusionMinLength,1
;   singleExtrusionMinPrintingWidthPercentage,50
;   singleExtrusionMaxPrintingWidthPercentage,200
;   singleExtrusionEndpointExtension,0.2
;   horizontalSizeCompensation,0
G90
M82
M106 S0
M140 S50
M190 S50
;Init 181010
;G28 			; Home all axes
;G1 Z5 F3000 ; lift
;G92 E0			; Reset extrusion distance
; // From Cura 181010
; // Update 190823 (GueroLoco)
; // Start_gcode
M117 *Start Clean*		; Indicate nozzle clean in progress on LCD
;
M104 S210 
M109 S210 
M109 R210 
;
M107			; Turn layer fan off
G21			; Set to metric [change to G20 if you want Imperial]
G90			; Force coordinates to be absolute relative to the origin
G28			; Home X/Y/Z axis
;
;G1 X3 Y1 Z15 F9000		; Move safe Z height to shear strings
;G0 X1 Y1 Z0.2 F9000		; Move in 1mm from edge and up [z] 0.2mm
;G92 E0			; Set extruder to [0] zero
;G1 X100 E12 F500		; Extrude 30mm filiment along X axis 100mm long to prime and clean the nozzle
;G92 E0			; Reset extruder to [0] zero end of cleaning run
;G1 E-1 F500			; Retract filiment by 1 mm to reduce string effect
;G1 X180 F4000		; Quick wipe away from the filament line / purge
;
G92 E0			; Set Extruder to 0 
G1 X0 Y0 F2000		; Move X and Y to 0 with speed 2000 (mm/min)
G1 Z0.1 F1000		; Move Z to 0.1
G1 X8.0 F2000		; Move X to 8.0
G1 Y60.0 E4.0 F1000.0		; Prime - Move Y to 60 and Extruder with 4.0
G1 Y100.0 E8.5 F1000.0		; Prime - Move Y to 100 and Extruder with 8.5
G92 E0			; Set extruder to 0
M117 *End Clean*		; Indicate nozzle clean in progress on LCD
G1 Z5 F3000			; Lift - Move Z to 5
; 
M117 *Printing...*		; start msg
; // Begin printing with sliced GCode after here
;
G92 E0
G1 E-6.0000 F3000
G1 Z0.480 F1002
; process Process1
; layer 1, Z = 0.180
M106 S249
T0
; tool H0.180 W0.350
; skirt
G1 X150.175 Y148.682 F6000
G1 Z0.180 F1002
G1 E0.0000 F900
G92 E0
G1 X151.594 Y147.259 E0.0500 F900
G1 X151.916 Y147.125 E0.0587
G1 X155.842 Y147.125 E0.1564
G1 X156.317 Y147.497 E0.1714
G1 X157.215 Y151.120 E0.2642
G1 X156.969 Y151.670 E0.2793
G1 X153.065 Y153.732 E0.3891
G1 X152.606 Y153.720 E0.4005
G1 X150.279 Y152.322 E0.4681
G1 X150.052 Y151.923 E0.4795
G1 X150.043 Y149.004 E0.5521
G1 X150.175 Y148.682 E0.5608
G1 X150.473 Y148.879 F6000
G92 E0
G1 X151.793 Y147.555 E0.0465 F900
G1 X151.986 Y147.475 E0.0517
G1 X155.721 Y147.475 E0.1447
G1 X156.006 Y147.698 E0.1537
G1 X156.846 Y151.087 E0.2406
G1 X156.698 Y151.417 E0.2496
G1 X152.983 Y153.380 E0.3541
G1 X152.708 Y153.372 E0.3610
G1 X150.538 Y152.069 E0.4240
G1 X150.402 Y151.830 E0.4308
G1 X150.393 Y149.073 E0.4994
G1 X150.473 Y148.879 E0.5046
G1 X150.770 Y149.077 F6000
G92 E0
G1 X151.991 Y147.852 E0.0431 F900
G1 X152.056 Y147.825 E0.0448
G1 X155.600 Y147.825 E0.1330
G1 X155.695 Y147.899 E0.1360
G1 X156.478 Y151.054 E0.2169
G1 X156.428 Y151.164 E0.2199
G1 X152.901 Y153.027 E0.3191
G1 X152.809 Y153.025 E0.3214
G1 X150.797 Y151.816 E0.3798
G1 X150.751 Y151.737 E0.3821
G1 X150.743 Y149.142 E0.4467
G1 X150.770 Y149.077 E0.4484
G92 E0
G1 E-6.0000 F3000
G1 Z0.480 F1002
; external single extrusion
G1 X152.962 Y150.490 F6000
G1 Z0.180 F1002
G1 E0.0000 F3000
G92 E0
; tool H0.180 W0.175
G1 X153.002 Y150.424 E0.0010 F450
; tool H0.180 W0.200
G1 X153.042 Y150.357 E0.0021
; tool H0.180 W0.280
G1 X153.082 Y150.291 E0.0036
; tool H0.180 W0.360
G1 X153.122 Y150.225 E0.0056
; tool H0.180 W0.397
G1 X153.182 Y150.197 E0.0074
; tool H0.180 W0.377
G1 X153.248 Y150.180 E0.0093
; tool H0.180 W0.328
G1 X153.380 Y150.147 E0.0125
; tool H0.180 W0.263
G1 X153.512 Y150.114 E0.0150
; tool H0.180 W0.198
G1 X153.644 Y150.082 E0.0169
; tool H0.180 W0.175
G1 X153.777 Y150.049 E0.0186
G1 X153.843 Y150.032 E0.0195
G92 E0
G1 E-6.0000 F3000
G1 Z0.630 F1002
; layer 2, Z = 0.330
M104 S205 T0
M106 S255
; tool H0.150 W0.350
; outer perimeter
G1 X111.366 Y170.240 F6000
G1 Z0.330 F1002
G1 E0.0000 F3000
G92 E0
G1 X111.149 Y170.054 E0.0059 F900
G1 X110.947 Y169.852 E0.0119
G1 X110.760 Y169.635 E0.0178
G1 X110.590 Y169.405 E0.0237
G1 X110.438 Y169.162 E0.0297
G1 X110.304 Y168.910 E0.0356
G1 X110.190 Y168.647 E0.0415
G1 X110.095 Y168.377 E0.0474
G1 X110.021 Y168.101 E0.0534
G1 X109.968 Y167.820 E0.0593
G1 X109.936 Y167.536 E0.0652
G1 X109.925 Y167.247 E0.0712
G1 X109.925 Y132.753 E0.7865
G1 X109.936 Y132.464 E0.7925
G1 X109.968 Y132.180 E0.7984
G1 X110.021 Y131.899 E0.8043
G1 X110.095 Y131.623 E0.8103
G1 X110.190 Y131.353 E0.8162
G1 X110.304 Y131.090 E0.8221
G1 X110.438 Y130.838 E0.8281
G1 X110.590 Y130.595 E0.8340
G1 X110.760 Y130.365 E0.8399
G1 X110.947 Y130.148 E0.8459
G1 X111.149 Y129.946 E0.8518
G1 X111.366 Y129.760 E0.8577
G1 X111.590 Y129.594 E0.8635
G1 X111.838 Y129.437 E0.8696
G1 X112.091 Y129.304 E0.8755
G1 X112.353 Y129.190 E0.8814
G1 X112.623 Y129.095 E0.8874
G1 X112.899 Y129.021 E0.8933
G1 X113.180 Y128.968 E0.8992
G1 X113.465 Y128.936 E0.9052
G1 X113.753 Y128.925 E0.9112
G1 X152.075 Y128.926 E1.7058
G1 X152.075 Y129.032 E1.7080
G1 X152.643 Y129.224 E1.7204
G1 X152.994 Y129.390 E1.7285
G1 X153.325 Y129.597 E1.7366
G1 X153.633 Y129.843 E1.7447
G1 X154.706 Y130.942 E1.7766
G1 X155.414 Y131.694 E1.7980
G1 X160.186 Y137.054 E1.9468
G1 X160.511 Y137.357 E1.9560
G1 X160.731 Y137.512 E1.9616
G1 X160.960 Y137.641 E1.9670
G1 X161.200 Y137.747 E1.9725
G1 X161.650 Y137.876 E1.9822
G1 X161.907 Y137.913 E1.9876
G1 X162.156 Y137.925 E1.9928
G1 X190.075 Y137.925 E2.5717
G1 X190.075 Y142.445 E2.6654
G1 X190.052 Y142.691 E2.6705
G1 X190.014 Y142.844 E2.6738
G1 X189.958 Y142.994 E2.6771
G1 X189.885 Y143.131 E2.6803
G1 X189.745 Y143.312 E2.6851
G1 X166.774 Y143.311 E3.1614
G1 X166.765 Y143.046 E3.1669
G1 X113.710 Y171.073 E4.4111
G1 X113.465 Y171.064 E4.4162
G1 X113.180 Y171.032 E4.4221
G1 X112.899 Y170.979 E4.4280
G1 X112.623 Y170.905 E4.4340
G1 X112.353 Y170.810 E4.4399
G1 X112.091 Y170.696 E4.4458
G1 X111.838 Y170.562 E4.4518
G1 X111.596 Y170.410 E4.4577
G1 X111.366 Y170.240 E4.4636
; inner perimeter
G1 X111.584 Y169.967 F6000
G92 E0
G1 X111.387 Y169.797 E0.0054 F1350
G1 X111.203 Y169.613 E0.0108
G1 X111.034 Y169.416 E0.0162
G1 X110.879 Y169.207 E0.0216
G1 X110.741 Y168.987 E0.0269
G1 X110.620 Y168.758 E0.0323
G1 X110.516 Y168.519 E0.0377
G1 X110.430 Y168.274 E0.0431
G1 X110.363 Y168.023 E0.0485
G1 X110.314 Y167.768 E0.0539
G1 X110.285 Y167.510 E0.0593
G1 X110.275 Y167.240 E0.0649
G1 X110.275 Y132.760 E0.7798
G1 X110.285 Y132.490 E0.7854
G1 X110.314 Y132.232 E0.7908
G1 X110.363 Y131.977 E0.7962
G1 X110.430 Y131.726 E0.8016
G1 X110.516 Y131.481 E0.8070
G1 X110.620 Y131.242 E0.8124
G1 X110.741 Y131.013 E0.8177
G1 X110.879 Y130.793 E0.8231
G1 X111.034 Y130.584 E0.8285
G1 X111.203 Y130.387 E0.8339
G1 X111.387 Y130.203 E0.8393
G1 X111.584 Y130.033 E0.8447
G1 X111.788 Y129.883 E0.8499
G1 X112.013 Y129.741 E0.8555
G1 X112.243 Y129.619 E0.8609
G1 X112.481 Y129.516 E0.8662
G1 X112.726 Y129.430 E0.8716
G1 X112.977 Y129.363 E0.8770
G1 X113.233 Y129.314 E0.8824
G1 X113.491 Y129.285 E0.8878
G1 X113.760 Y129.275 E0.8934
G1 X151.704 Y129.276 E1.6802
G1 X152.512 Y129.549 E1.6979
G1 X152.826 Y129.697 E1.7051
G1 X153.123 Y129.883 E1.7123
G1 X153.398 Y130.103 E1.7196
G1 X154.453 Y131.184 E1.7510
G1 X155.156 Y131.931 E1.7722
G1 X159.936 Y137.299 E1.9213
G1 X160.291 Y137.629 E1.9313
G1 X160.544 Y137.808 E1.9377
G1 X160.802 Y137.954 E1.9439
G1 X161.080 Y138.077 E1.9502
G1 X161.577 Y138.219 E1.9609
G1 X161.873 Y138.262 E1.9671
G1 X162.148 Y138.275 E1.9728
G1 X189.725 Y138.275 E2.5446
G1 X189.725 Y142.429 E2.6308
G1 X189.706 Y142.633 E2.6350
G1 X189.680 Y142.740 E2.6373
G1 X189.638 Y142.850 E2.6397
G1 X189.579 Y142.962 E2.6424
G1 X167.112 Y142.961 E3.1082
G1 X167.096 Y142.475 E3.1183
G1 X113.629 Y170.720 E4.3722
G1 X113.491 Y170.715 E4.3750
G1 X113.233 Y170.686 E4.3804
G1 X112.977 Y170.637 E4.3858
G1 X112.726 Y170.570 E4.3912
G1 X112.481 Y170.484 E4.3966
G1 X112.243 Y170.381 E4.4020
G1 X112.013 Y170.259 E4.4074
G1 X111.793 Y170.121 E4.4127
G1 X111.584 Y169.967 E4.4181
G1 X111.802 Y169.693 F6000
G92 E0
G1 X111.625 Y169.540 E0.0048 F1350
G1 X111.460 Y169.375 E0.0097
G1 X111.308 Y169.198 E0.0145
G1 X111.169 Y169.010 E0.0194
G1 X111.044 Y168.812 E0.0242
G1 X110.935 Y168.606 E0.0291
G1 X110.842 Y168.391 E0.0339
G1 X110.765 Y168.171 E0.0388
G1 X110.704 Y167.945 E0.0436
G1 X110.661 Y167.716 E0.0484
G1 X110.635 Y167.483 E0.0533
G1 X110.625 Y167.234 E0.0585
G1 X110.625 Y132.766 E0.7732
G1 X110.635 Y132.516 E0.7784
G1 X110.661 Y132.284 E0.7832
G1 X110.704 Y132.055 E0.7880
G1 X110.765 Y131.829 E0.7929
G1 X110.842 Y131.609 E0.7977
G1 X110.935 Y131.394 E0.8026
