; G-Code generated by Simplify3D(R) Version 4.0.1
; Aug 27, 2019 at 1:36:12 PM
; Settings Summary
;   processName,Process1
;   applyToModels,Y-axis-support_P1_v3,Y-axis-support_P2_v3
;   profileName,102 Tevo Tornado (experimental)
;   profileVersion,2019-08-25 17:34:35
;   baseProfile,Creality CR-10(2)
;   printMaterial,PLA
;   printQuality,Medium
;   printExtruders,
;   extruderName,Primary Extruder
;   extruderToolheadNumber,0
;   extruderDiameter,0.4
;   extruderAutoWidth,0
;   extruderWidth,0.35
;   extrusionMultiplier,0.95
;   extruderUseRetract,1
;   extruderRetractionDistance,6
;   extruderExtraRestartDistance,0
;   extruderRetractionZLift,0.3
;   extruderRetractionSpeed,3000
;   extruderUseCoasting,0
;   extruderCoastingDistance,0.2
;   extruderUseWipe,0
;   extruderWipeDistance,4
;   primaryExtruder,0
;   layerHeight,0.15
;   topSolidLayers,4
;   bottomSolidLayers,3
;   perimeterOutlines,3
;   printPerimetersInsideOut,0
;   startPointOption,3
;   startPointOriginX,0
;   startPointOriginY,300
;   sequentialIslands,0
;   spiralVaseMode,0
;   firstLayerHeightPercentage,120
;   firstLayerWidthPercentage,100
;   firstLayerUnderspeed,0.5
;   useRaft,0
;   raftExtruder,0
;   raftTopLayers,3
;   raftBaseLayers,2
;   raftOffset,3
;   raftSeparationDistance,0.14
;   raftTopInfill,100
;   aboveRaftSpeedMultiplier,0.3
;   useSkirt,1
;   skirtExtruder,0
;   skirtLayers,1
;   skirtOutlines,3
;   skirtOffset,2
;   usePrimePillar,0
;   primePillarExtruder,999
;   primePillarWidth,12
;   primePillarLocation,7
;   primePillarSpeedMultiplier,1
;   useOozeShield,0
;   oozeShieldExtruder,999
;   oozeShieldOffset,2
;   oozeShieldOutlines,1
;   oozeShieldSidewallShape,1
;   oozeShieldSidewallAngle,30
;   oozeShieldSpeedMultiplier,1
;   infillExtruder,0
;   internalInfillPattern,Rectilinear
;   externalInfillPattern,Rectilinear
;   infillPercentage,15
;   outlineOverlapPercentage,15
;   infillExtrusionWidthPercentage,100
;   minInfillLength,5
;   infillLayerInterval,1
;   internalInfillAngles,45,-45
;   overlapInternalInfillAngles,0
;   externalInfillAngles,45,-45
;   generateSupport,1
;   supportExtruder,0
;   supportInfillPercentage,30
;   supportExtraInflation,0
;   supportBaseLayers,0
;   denseSupportExtruder,0
;   denseSupportLayers,0
;   denseSupportInfillPercentage,70
;   supportLayerInterval,1
;   supportHorizontalPartOffset,0.4
;   supportUpperSeparationLayers,1
;   supportLowerSeparationLayers,1
;   supportType,1
;   supportGridSpacing,4.5
;   maxOverhangAngle,45
;   supportAngles,0
;   temperatureName,Primary Extruder,Heated Bed
;   temperatureNumber,0,0
;   temperatureSetpointCount,2,1
;   temperatureSetpointLayers,1,2,1
;   temperatureSetpointTemperatures,210,205,50
;   temperatureStabilizeAtStartup,1,1
;   temperatureHeatedBed,0,1
;   temperatureRelayBetweenLayers,0,0
;   temperatureRelayBetweenLoops,0,0
;   fanLayers,1,2
;   fanSpeeds,0,100
;   blipFanToFullPower,0
;   adjustSpeedForCooling,1
;   minSpeedLayerTime,15
;   minCoolingSpeedSlowdown,50
;   increaseFanForCooling,1
;   minFanLayerTime,25
;   maxCoolingFanSpeed,100
;   increaseFanForBridging,1
;   bridgingFanSpeed,100
;   use5D,1
;   relativeEdistances,0
;   allowEaxisZeroing,1
;   independentExtruderAxes,0
;   includeM10123,0
;   stickySupport,1
;   applyToolheadOffsets,0
;   gcodeXoffset,0
;   gcodeYoffset,0
;   gcodeZoffset,0
;   overrideMachineDefinition,1
;   machineTypeOverride,0
;   strokeXoverride,300
;   strokeYoverride,300
;   strokeZoverride,400
;   originOffsetXoverride,0
;   originOffsetYoverride,0
;   originOffsetZoverride,0
;   homeXdirOverride,-1
;   homeYdirOverride,-1
;   homeZdirOverride,-1
;   flipXoverride,1
;   flipYoverride,-1
;   flipZoverride,1
;   toolheadOffsets,0,0|0,0|0,0|0,0|0,0|0,0
;   overrideFirmwareConfiguration,0
;   firmwareTypeOverride,RepRap (Marlin/Repetier/Sprinter)
;   GPXconfigOverride,r2
;   baudRateOverride,250000
;   overridePrinterModels,1
;   printerModelsOverride
;   startingGcode,;Init 181010,;G28 			; Home all axes,;G1 Z5 F3000 ; lift,;G92 E0			; Reset extrusion distance,,; // From Cura 181010,; // Update 190823 (GueroLoco),; // Start_gcode,M117 *Start Clean*		; Indicate nozzle clean in progress on LCD,;,M104 S[extruder0_temperature] ,M109 S[extruder0_temperature] ,M109 R[extruder0_temperature] ,;,M107			; Turn layer fan off,G21			; Set to metric [change to G20 if you want Imperial],G90			; Force coordinates to be absolute relative to the origin,G28			; Home X/Y/Z axis,;,;G1 X3 Y1 Z15 F9000		; Move safe Z height to shear strings,;G0 X1 Y1 Z0.2 F9000		; Move in 1mm from edge and up [z] 0.2mm,;G92 E0			; Set extruder to [0] zero,;G1 X100 E12 F500		; Extrude 30mm filiment along X axis 100mm long to prime and clean the nozzle,;G92 E0			; Reset extruder to [0] zero end of cleaning run,;G1 E-1 F500			; Retract filiment by 1 mm to reduce string effect,;G1 X180 F4000		; Quick wipe away from the filament line / purge,;,G92 E0			; Set Extruder to 0 ,G1 X0 Y0 F2000		; Move X and Y to 0 with speed 2000 (mm/min),G1 Z0.1 F1000		; Move Z to 0.1,G1 X8.0 F2000		; Move X to 8.0,G1 Y60.0 E4.0 F1000.0		; Prime - Move Y to 60 and Extruder with 4.0,G1 Y100.0 E8.5 F1000.0		; Prime - Move Y to 100 and Extruder with 8.5,G92 E0			; Set extruder to 0,M117 *End Clean*		; Indicate nozzle clean in progress on LCD,G1 Z5 F3000			; Lift - Move Z to 5,; ,M117 *Printing...*		; start msg,; // Begin printing with sliced GCode after here,;
;   layerChangeGcode,
;   retractionGcode,
;   toolChangeGcode,
;   endingGcode,;,; init 181010,;,;M107 			; Fan off,;G1 E-1 F300 			; Retract the filament a bit before lifting the nozzle,;M104 S0 			; Turn off extruder,;M140 S0 			; Turn off bed,;G91			; Relative positioning,;G28 X0 Y0 			; Move X/Y to min endstops so the head is out of teh way,;M84 			; Disable motors,;G90 			; Absolute positioning,;M117 Print ready...,,;,; // From Cura 181010,; // End_gcode,G92 E0			; Zero the extruded length,G1 E-30 F300			; Retract E -30,M106 S0			; Turn off cooling fan,M104 S0			; Turn off temperature,M140 S0		     	; Turn off bed,G91			; Relative positioning,G1 E-1 F300			; Retract the filament a bit before lifting the nozzle to release some of the pressure,G1 Z+20 E-5 X-20 Y-20 F7200	; Move Z up a bit and retract filament even more,G1 X320 Y150 F10000		; Move right mid,M107			; Turn off layer fan,M84			; Disable motors,G90			; Absolute positioning,M117 *The-End* 		; End msg,;
;   exportFileFormat,gcode
;   celebration,0
;   celebrationSong,Star Wars
;   postProcessing,
;   defaultSpeed,1800
;   outlineUnderspeed,0.5
;   solidInfillUnderspeed,0.8
;   supportUnderspeed,0.8
;   rapidXYspeed,6000
;   rapidZspeed,1002
;   minBridgingArea,50
;   bridgingExtraInflation,0.2
;   bridgingExtrusionMultiplier,1
;   bridgingSpeedMultiplier,0.6
;   useFixedBridgingAngle,0
;   fixedBridgingAngle,0
;   applyBridgingToPerimeters,0
;   filamentDiameters,1.75|1.75|1.75|1.75|1.75|1.75
;   filamentPricesPerKg,30|46|46|46|46|46
;   filamentDensities,1.25|1.25|1.25|1.25|1.25|1.25
;   useMinPrintHeight,0
;   minPrintHeight,0
;   useMaxPrintHeight,0
;   maxPrintHeight,9
;   useDiaphragm,0
;   diaphragmLayerInterval,20
;   robustSlicing,1
;   mergeAllIntoSolid,0
;   onlyRetractWhenCrossingOutline,1
;   retractBetweenLayers,1
;   useRetractionMinTravel,0
;   retractionMinTravel,3
;   retractWhileWiping,0
;   onlyWipeOutlines,1
;   avoidCrossingOutline,0
;   maxMovementDetourFactor,3
;   toolChangeRetractionDistance,12
;   toolChangeExtraRestartDistance,-0.5
;   toolChangeRetractionSpeed,600
;   externalThinWallType,1
;   internalThinWallType,1
;   thinWallAllowedOverlapPercentage,15
;   singleExtrusionMinLength,1
;   singleExtrusionMinPrintingWidthPercentage,50
;   singleExtrusionMaxPrintingWidthPercentage,200
;   singleExtrusionEndpointExtension,0.2
;   horizontalSizeCompensation,0
G90
M82
M106 S0
M140 S50
M190 S50
;Init 181010
;G28 			; Home all axes
;G1 Z5 F3000 ; lift
;G92 E0			; Reset extrusion distance
; // From Cura 181010
; // Update 190823 (GueroLoco)
; // Start_gcode
M117 *Start Clean*		; Indicate nozzle clean in progress on LCD
;
M104 S210 
M109 S210 
M109 R210 
;
M107			; Turn layer fan off
G21			; Set to metric [change to G20 if you want Imperial]
G90			; Force coordinates to be absolute relative to the origin
G28			; Home X/Y/Z axis
;
;G1 X3 Y1 Z15 F9000		; Move safe Z height to shear strings
;G0 X1 Y1 Z0.2 F9000		; Move in 1mm from edge and up [z] 0.2mm
;G92 E0			; Set extruder to [0] zero
;G1 X100 E12 F500		; Extrude 30mm filiment along X axis 100mm long to prime and clean the nozzle
;G92 E0			; Reset extruder to [0] zero end of cleaning run
;G1 E-1 F500			; Retract filiment by 1 mm to reduce string effect
;G1 X180 F4000		; Quick wipe away from the filament line / purge
;
G92 E0			; Set Extruder to 0 
G1 X0 Y0 F2000		; Move X and Y to 0 with speed 2000 (mm/min)
G1 Z0.1 F1000		; Move Z to 0.1
G1 X8.0 F2000		; Move X to 8.0
G1 Y60.0 E4.0 F1000.0		; Prime - Move Y to 60 and Extruder with 4.0
G1 Y100.0 E8.5 F1000.0		; Prime - Move Y to 100 and Extruder with 8.5
G92 E0			; Set extruder to 0
M117 *End Clean*		; Indicate nozzle clean in progress on LCD
G1 Z5 F3000			; Lift - Move Z to 5
; 
M117 *Printing...*		; start msg
; // Begin printing with sliced GCode after here
;
G92 E0
G1 E-6.0000 F3000
G1 Z0.480 F1002
; process Process1
; layer 1, Z = 0.180
T0
; tool H0.180 W0.350
; skirt
G1 X107.849 Y134.667 F6000
G1 Z0.180 F1002
G1 E0.0000 F900
G92 E0
G1 X108.171 Y134.534 E0.0087 F900
G1 X129.301 Y134.534 E0.5344
G1 X129.311 Y131.960 E0.5985
G1 X129.312 Y131.927 E0.5993
G1 X129.327 Y131.743 E0.6039
G1 X129.331 Y131.710 E0.6047
G1 X129.491 Y130.684 E0.6306
G1 X129.497 Y130.654 E0.6313
G1 X129.535 Y130.490 E0.6355
G1 X129.542 Y130.461 E0.6362
G1 X129.735 Y129.825 E0.6528
G1 X129.742 Y129.803 E0.6534
G1 X129.784 Y129.684 E0.6565
G1 X129.793 Y129.663 E0.6571
G1 X130.042 Y129.069 E0.6731
G1 X130.051 Y129.049 E0.6736
G1 X130.106 Y128.935 E0.6768
G1 X130.116 Y128.915 E0.6774
G1 X130.425 Y128.350 E0.6934
G1 X130.436 Y128.331 E0.6939
G1 X130.503 Y128.223 E0.6971
G1 X130.515 Y128.204 E0.6976
G1 X130.881 Y127.674 E0.7137
G1 X130.894 Y127.656 E0.7142
G1 X130.971 Y127.556 E0.7174
G1 X130.985 Y127.538 E0.7179
G1 X131.404 Y127.049 E0.7340
G1 X131.419 Y127.032 E0.7345
G1 X131.506 Y126.940 E0.7377
G1 X131.522 Y126.924 E0.7382
G1 X131.989 Y126.481 E0.7542
G1 X132.006 Y126.466 E0.7548
G1 X132.102 Y126.384 E0.7579
G1 X132.119 Y126.370 E0.7585
G1 X132.630 Y125.977 E0.7745
G1 X132.648 Y125.964 E0.7751
G1 X132.752 Y125.892 E0.7782
G1 X132.771 Y125.879 E0.7788
G1 X133.328 Y125.536 E0.7951
G1 X133.351 Y125.523 E0.7957
G1 X133.480 Y125.453 E0.7994
G1 X133.504 Y125.442 E0.8001
G1 X134.263 Y125.092 E0.8208
G1 X134.287 Y125.082 E0.8215
G1 X134.424 Y125.028 E0.8252
G1 X134.449 Y125.020 E0.8258
G1 X135.073 Y124.819 E0.8421
G1 X135.095 Y124.813 E0.8427
G1 X135.217 Y124.780 E0.8458
G1 X135.239 Y124.775 E0.8464
G1 X135.878 Y124.641 E0.8626
G1 X135.904 Y124.636 E0.8633
G1 X136.049 Y124.614 E0.8670
G1 X136.076 Y124.611 E0.8676
G1 X136.889 Y124.541 E0.8879
G1 X136.908 Y124.539 E0.8884
G1 X137.013 Y124.535 E0.8910
G1 X137.032 Y124.534 E0.8915
G1 X182.301 Y124.534 E2.0179
G1 X182.316 Y124.535 E2.0183
G1 X182.401 Y124.538 E2.0204
G1 X182.416 Y124.538 E2.0208
G1 X183.055 Y124.583 E2.0367
G1 X183.081 Y124.585 E2.0374
G1 X183.229 Y124.605 E2.0411
G1 X183.255 Y124.609 E2.0417
G1 X184.076 Y124.768 E2.0625
G1 X184.098 Y124.773 E2.0631
G1 X184.222 Y124.804 E2.0663
G1 X184.244 Y124.810 E2.0669
G1 X184.700 Y124.949 E2.0787
G1 X184.722 Y124.957 E2.0793
G1 X184.842 Y125.000 E2.0825
G1 X184.863 Y125.009 E2.0830
G1 X185.652 Y125.343 E2.1044
G1 X185.683 Y125.358 E2.1052
G1 X185.853 Y125.446 E2.1100
G1 X185.883 Y125.463 E2.1108
G1 X186.785 Y126.026 E2.1373
G1 X186.813 Y126.046 E2.1381
G1 X186.967 Y126.160 E2.1429
G1 X186.994 Y126.181 E2.1438
G1 X187.665 Y126.764 E2.1659
G1 X187.690 Y126.788 E2.1667
G1 X187.825 Y126.924 E2.1715
G1 X187.848 Y126.950 E2.1724
G1 X188.518 Y127.747 E2.1983
G1 X188.534 Y127.768 E2.1989
G1 X188.623 Y127.888 E2.2027
G1 X188.638 Y127.910 E2.2033
G1 X188.904 Y128.319 E2.2154
G1 X188.916 Y128.338 E2.2160
G1 X188.979 Y128.449 E2.2192
G1 X188.990 Y128.469 E2.2198
G1 X189.370 Y129.213 E2.2406
G1 X189.382 Y129.238 E2.2412
G1 X189.441 Y129.374 E2.2449
G1 X189.451 Y129.399 E2.2456
G1 X189.677 Y130.021 E2.2621
G1 X189.685 Y130.042 E2.2626
G1 X189.722 Y130.164 E2.2658
G1 X189.728 Y130.186 E2.2664
G1 X189.889 Y130.828 E2.2828
G1 X189.894 Y130.854 E2.2835
G1 X189.921 Y131.001 E2.2872
G1 X189.926 Y131.027 E2.2879
G1 X190.029 Y131.868 E2.3090
G1 X190.032 Y131.895 E2.3096
G1 X190.041 Y132.044 E2.3133
G1 X190.042 Y132.071 E2.3140
G1 X190.030 Y167.939 E3.2065
G1 X190.028 Y167.973 E3.2074
G1 X190.013 Y168.163 E3.2121
G1 X190.009 Y168.197 E3.2129
G1 X189.872 Y169.064 E3.2348
G1 X189.866 Y169.094 E3.2356
G1 X189.828 Y169.260 E3.2398
G1 X189.820 Y169.290 E3.2406
G1 X189.573 Y170.099 E3.2616
G1 X189.566 Y170.121 E3.2622
G1 X189.522 Y170.241 E3.2654
G1 X189.514 Y170.262 E3.2659
G1 X189.332 Y170.691 E3.2775
G1 X189.324 Y170.709 E3.2780
G1 X189.278 Y170.805 E3.2806
G1 X189.270 Y170.822 E3.2811
G1 X188.969 Y171.387 E3.2971
G1 X188.958 Y171.407 E3.2976
G1 X188.892 Y171.517 E3.3008
G1 X188.880 Y171.536 E3.3014
G1 X188.516 Y172.076 E3.3176
G1 X188.503 Y172.095 E3.3181
G1 X188.426 Y172.197 E3.3213
G1 X188.412 Y172.214 E3.3219
G1 X187.980 Y172.730 E3.3386
G1 X187.960 Y172.752 E3.3394
G1 X187.841 Y172.875 E3.3436
G1 X187.819 Y172.896 E3.3444
G1 X187.030 Y173.608 E3.3708
G1 X187.000 Y173.632 E3.3718
G1 X186.830 Y173.760 E3.3771
G1 X186.799 Y173.782 E3.3780
G1 X185.888 Y174.351 E3.4047
G1 X185.859 Y174.368 E3.4056
G1 X185.689 Y174.457 E3.4104
G1 X185.658 Y174.471 E3.4112
G1 X184.859 Y174.811 E3.4328
G1 X184.834 Y174.820 E3.4335
G1 X184.694 Y174.870 E3.4372
G1 X184.668 Y174.878 E3.4378
G1 X184.032 Y175.061 E3.4543
G1 X184.010 Y175.067 E3.4549
G1 X183.886 Y175.096 E3.4581
G1 X183.863 Y175.100 E3.4586
G1 X183.222 Y175.213 E3.4748
G1 X183.200 Y175.217 E3.4754
G1 X183.073 Y175.232 E3.4786
G1 X183.050 Y175.235 E3.4791
G1 X182.422 Y175.279 E3.4948
G1 X182.406 Y175.280 E3.4952
G1 X182.320 Y175.283 E3.4973
G1 X182.305 Y175.283 E3.4977
G1 X179.577 Y175.282 E3.5656
G1 X179.560 Y175.282 E3.5660
G1 X179.467 Y175.278 E3.5683
G1 X179.451 Y175.277 E3.5687
G1 X178.150 Y175.178 E3.6012
G1 X178.128 Y175.175 E3.6018
G1 X178.004 Y175.159 E3.6049
G1 X177.981 Y175.156 E3.6054
G1 X177.028 Y174.983 E3.6295
G1 X177.010 Y174.980 E3.6300
G1 X176.908 Y174.957 E3.6326
G1 X176.890 Y174.952 E3.6331
G1 X175.970 Y174.703 E3.6568
G1 X175.954 Y174.698 E3.6572
G1 X175.864 Y174.670 E3.6595
G1 X175.848 Y174.665 E3.6600
G1 X175.116 Y174.405 E3.6793
G1 X175.100 Y174.399 E3.6797
G1 X175.013 Y174.364 E3.6821
G1 X174.997 Y174.357 E3.6825
G1 X174.131 Y173.972 E3.7061
G1 X174.116 Y173.965 E3.7065
G1 X174.032 Y173.924 E3.7088
G1 X174.017 Y173.916 E3.7092
G1 X173.333 Y173.547 E3.7286
G1 X173.318 Y173.538 E3.7290
G1 X173.237 Y173.491 E3.7313
G1 X173.223 Y173.482 E3.7317
G1 X172.443 Y172.980 E3.7548
G1 X172.436 Y172.974 E3.7551
G1 X172.392 Y172.945 E3.7564
G1 X172.384 Y172.940 E3.7566
G1 X142.102 Y151.536 E4.6793
G1 X141.670 Y151.262 E4.6921
G1 X141.252 Y151.036 E4.7039
G1 X140.674 Y150.779 E4.7196
G1 X140.226 Y150.620 E4.7314
G1 X139.758 Y150.488 E4.7435
G1 X139.281 Y150.389 E4.7557
G1 X138.799 Y150.323 E4.7678
G1 X138.312 Y150.290 E4.7799
G1 X114.045 Y150.283 E5.3837
G1 X114.030 Y150.283 E5.3841
G1 X113.946 Y150.280 E5.3862
G1 X113.931 Y150.279 E5.3866
G1 X113.282 Y150.234 E5.4028
G1 X113.251 Y150.231 E5.4035
G1 X113.083 Y150.207 E5.4078
G1 X113.053 Y150.202 E5.4085
G1 X112.034 Y149.986 E5.4345
G1 X112.004 Y149.978 E5.4352
G1 X111.840 Y149.931 E5.4395
G1 X111.811 Y149.922 E5.4402
G1 X111.179 Y149.692 E5.4569
G1 X111.158 Y149.684 E5.4575
G1 X111.041 Y149.634 E5.4607
G1 X111.020 Y149.624 E5.4613
G1 X110.434 Y149.339 E5.4775
G1 X110.414 Y149.329 E5.4780
G1 X110.302 Y149.267 E5.4812
G1 X110.283 Y149.255 E5.4818
G1 X109.731 Y148.911 E5.4980
G1 X109.711 Y148.898 E5.4985
G1 X109.607 Y148.825 E5.5017
G1 X109.588 Y148.811 E5.5023
