;FLAVOR:Marlin
;TIME:8766
;Filament used: 6.79672m
;Layer height: 0.2
;Generated with Cura_SteamEngine 3.1.0
M190 S70
M104 S215
M109 S215
M82 ; absolute extrusion mode
G21 ;metric values
G90 ;absolute positioning
M82 ;set extruder to absolute mode
M107 ;start with the fan off
G28 X0 Y0 ;move X/Y to min endstops
G28 Z0 ;move Z to min endstops
G1 Z15.0 F9000 ;move the platform down 15mm
G92 E0 ;zero the extruded length
G1 F200 E3 ;extrude 3mm of feed stock
G92 E0 ;zero the extruded length again
G1 F9000
;Put printing message on LCD screen
M117 Printing...
;LAYER_COUNT:120
;LAYER:0
M107
G0 F3600 X108.673 Y107.233 Z0.3
;TYPE:SKIRT
G1 F1650 X109.257 Y106.724 E0.03865
G1 X109.509 Y106.548 E0.05398
G1 X110.08 Y106.222 E0.08679
G1 X116.43 Y103.335 E0.4348
G1 X121.236 Y100.775 E0.70646
G1 X125.884 Y97.95 E0.97782
G1 X130.388 Y94.851 E1.25058
G1 X134.696 Y91.513 E1.52248
G1 X138.818 Y87.929 E1.79499
G1 X142.714 Y84.133 E2.06637
G1 X146.102 Y80.464 E2.31552
G1 X146.693 Y79.95 E2.3546
G1 X147.945 Y79.08 E2.43066
G1 X148.407 Y78.807 E2.45743
G1 X149.024 Y78.571 E2.49039
G1 X150.275 Y78.219 E2.55522
G1 X150.801 Y78.112 E2.582
G1 X151.251 Y78.084 E2.6045
G1 X186.864 Y78.096 E4.38124
G1 X187.399 Y78.136 E4.408
G1 X187.786 Y78.216 E4.42772
G1 X188.672 Y78.451 E4.47345
G1 X189.292 Y78.678 E4.50639
G1 X189.779 Y78.909 E4.53328
G1 X190.4 Y79.285 E4.5695
G1 X191.416 Y80.049 E4.63292
G1 X191.819 Y80.402 E4.65965
G1 X192.094 Y80.716 E4.68047
G1 X192.66 Y81.444 E4.72648
G1 X193.029 Y82.027 E4.7609
G1 X193.332 Y82.625 E4.79435
G1 X193.605 Y83.344 E4.83272
G1 X193.901 Y84.48 E4.89128
G1 X193.997 Y85.008 E4.91806
G1 X194.017 Y85.385 E4.93689
G1 X194.05 Y119.824 E6.65506
G1 X194.04 Y120.097 E6.66869
G1 X193.934 Y121.507 E6.73923
G1 X193.787 Y122.289 E6.77893
G1 X193.582 Y122.96 E6.81394
G1 X193.308 Y123.617 E6.84945
G1 X192.869 Y124.431 E6.89559
G1 X192.493 Y124.993 E6.92932
G1 X192.084 Y125.496 E6.96167
G1 X191.628 Y125.963 E6.99423
G1 X190.959 Y126.534 E7.03811
G1 X190.526 Y126.851 E7.06489
G1 X190.137 Y127.062 E7.08696
G1 X188.837 Y127.665 E7.15846
G1 X188.335 Y127.854 E7.18522
G1 X187.846 Y127.961 E7.21019
G1 X186.948 Y128.093 E7.25548
G1 X186.426 Y128.131 E7.28159
G1 X147.8 Y128.15 E9.20865
G1 X147.265 Y128.11 E9.23541
G1 X146.742 Y127.992 E9.26216
G1 X146.37 Y127.855 E9.28194
G1 X142.512 Y126.187 E9.49163
G1 X140.058 Y125.22 E9.62323
G1 X134.852 Y123.423 E9.89799
G1 X129.596 Y121.936 E10.17051
G1 X124.223 Y120.737 E10.44516
G1 X121.63 Y120.275 E10.57657
G1 X116.184 Y119.539 E10.85074
G1 X110.781 Y119.111 E11.12114
G1 X110.251 Y119.029 E11.14789
G1 X109.739 Y118.869 E11.17466
G1 X109.256 Y118.635 E11.20143
G1 X108.814 Y118.332 E11.22817
G1 X108.531 Y118.079 E11.24711
G1 X108.301 Y117.851 E11.26326
G1 X107.949 Y117.446 E11.29003
G1 X107.661 Y116.993 E11.31682
G1 X107.444 Y116.503 E11.34355
G1 X107.302 Y115.986 E11.3703
G1 X107.235 Y115.249 E11.40722
G1 X107.297 Y110.25 E11.65664
G1 X107.344 Y109.716 E11.68339
G1 X107.469 Y109.195 E11.71012
G1 X107.671 Y108.698 E11.73688
G1 X107.919 Y108.273 E11.76143
G1 X108.34 Y107.653 E11.79882
G1 X108.673 Y107.233 E11.82556
G0 F3600 X108.987 Y107.483
G1 F1650 X109.486 Y107.052 E11.85846
G1 X109.738 Y106.876 E11.87379
G1 X110.246 Y106.586 E11.90297
G1 X116.605 Y103.695 E12.25147
G1 X121.44 Y101.12 E12.52477
G1 X126.105 Y98.284 E12.79714
G1 X130.614 Y95.181 E13.07022
G1 X134.949 Y91.823 E13.34379
G1 X139.085 Y88.227 E13.61722
G1 X143.004 Y84.408 E13.89022
G1 X146.396 Y80.735 E14.13965
G1 X146.921 Y80.278 E14.17438
G1 X148.173 Y79.408 E14.25044
G1 X148.61 Y79.153 E14.27569
G1 X149.132 Y78.956 E14.30352
G1 X150.383 Y78.604 E14.36836
G1 X150.879 Y78.506 E14.39358
G1 X151.251 Y78.484 E14.41217
G1 X186.864 Y78.496 E16.18891
G1 X187.368 Y78.536 E16.21414
G1 X187.683 Y78.603 E16.2302
G1 X188.569 Y78.838 E16.27593
G1 X189.12 Y79.04 E16.30521
G1 X189.607 Y79.271 E16.3321
G1 X190.159 Y79.604 E16.36427
G1 X191.175 Y80.368 E16.42769
G1 X191.554 Y80.703 E16.45292
G1 X191.778 Y80.962 E16.47001
G1 X192.344 Y81.69 E16.51601
G1 X192.672 Y82.208 E16.5466
G1 X192.975 Y82.806 E16.58005
G1 X193.218 Y83.445 E16.61415
G1 X193.514 Y84.581 E16.67272
G1 X193.602 Y85.079 E16.69795
G1 X193.617 Y85.385 E16.71324
G1 X193.65 Y119.824 E18.43141
G1 X193.641 Y120.067 E18.44354
G1 X193.535 Y121.477 E18.51408
G1 X193.404 Y122.172 E18.54937
G1 X193.199 Y122.843 E18.58437
G1 X192.956 Y123.427 E18.61593
G1 X192.517 Y124.241 E18.66207
G1 X192.183 Y124.741 E18.69207
G1 X191.774 Y125.244 E18.72441
G1 X191.368 Y125.659 E18.75337
G1 X190.699 Y126.23 E18.79725
G1 X190.29 Y126.527 E18.82247
G1 X189.969 Y126.699 E18.84064
G1 X188.669 Y127.302 E18.91214
G1 X188.195 Y127.478 E18.93736
G1 X187.787 Y127.565 E18.95817
G1 X186.889 Y127.697 E19.00346
G1 X186.426 Y127.731 E19.02662
G1 X147.8 Y127.75 E20.95368
G1 X147.296 Y127.71 E20.9789
G1 X146.804 Y127.592 E21.00414
G1 X146.528 Y127.487 E21.01888
G1 X142.678 Y125.823 E21.22813
G1 X140.199 Y124.846 E21.36106
G1 X134.965 Y123.04 E21.6373
G1 X129.687 Y121.545 E21.91098
G1 X124.307 Y120.346 E22.18597
G1 X121.688 Y119.879 E22.31869
G1 X116.232 Y119.141 E22.59337
G1 X110.812 Y118.712 E22.86462
G1 X110.313 Y118.632 E22.88984
G1 X109.833 Y118.475 E22.91503
G1 X109.383 Y118.244 E22.94027
G1 X108.812 Y117.795 E22.97651
G1 X108.582 Y117.567 E22.99267
G1 X108.252 Y117.183 E23.01793
G1 X107.987 Y116.753 E23.04312
G1 X107.793 Y116.286 E23.06835
G1 X107.674 Y115.795 E23.09356
G1 X107.635 Y115.254 E23.12062
G1 X107.697 Y110.255 E23.37004
G1 X107.743 Y109.752 E23.39524
G1 X107.868 Y109.262 E23.42047
G1 X108.069 Y108.798 E23.4457
G1 X108.25 Y108.497 E23.46322
G1 X108.671 Y107.877 E23.50061
G1 X108.987 Y107.483 E23.52581
G0 F3600 X111.33 Y109.923
;TYPE:SUPPORT
G1 F1650 X111.507 Y109.765 E23.53764
G1 X111.346 Y110.041 E23.55358
G1 X111.281 Y110.205 E23.56239
G1 X111.221 Y110.483 E23.57657
G1 X111.21 Y110.598 E23.58234
G1 X111.188 Y115.331 E23.81847
G1 X111.142 Y115.331 E23.82077
G1 X111.024 Y115.213 E23.82909
G1 X111.034 Y110.627 E24.05789
G1 X111.052 Y110.441 E24.06721
G1 X111.11 Y110.255 E24.07693
G1 X111.197 Y110.095 E24.08602
G1 X111.33 Y109.923 E24.09687
G1 F1500 E17.59687
G0 F3600 X112.651 Y109.307
G0 X136.93 Y106.015
G1 F1500 E24.09687
G1 F1650 X137.473 Y105.589 E24.1313
G1 X137.662 Y105.378 E24.14543
G1 X137.695 Y105.362 E24.14726
G1 X137.953 Y105.095 E24.16578
G1 X138.081 Y105.028 E24.17299
G1 X138.339 Y104.709 E24.19346
G1 X138.483 Y104.637 E24.20149
G1 X138.736 Y104.313 E24.222
G1 X139.008 Y104.154 E24.23772
G1 X139.242 Y103.819 E24.25811
G1 X139.62 Y103.601 E24.27988
G1 X139.82 Y103.265 E24.29938
G1 X140.67 Y102.68 E24.35086
G1 X140.834 Y102.302 E24.37142
G1 X141.122 Y102.085 E24.38941
G1 X141.746 Y101.567 E24.42987
G1 X142.19 Y101.174 E24.45945
G1 X146.929 Y96.591 E24.78836
G1 X147.049 Y96.215 E24.80805
G1 X147.562 Y95.717 E24.84372
G1 X147.75 Y95.275 E24.86768
G1 X147.75 Y85.675 E25.34663
G1 X147.796 Y85.235 E25.3687
G1 X147.858 Y84.916 E25.38491
G1 X148.034 Y84.364 E25.41382
G1 X148.153 Y84.11 E25.42781
G1 X148.326 Y83.783 E25.44627
G1 X148.451 Y83.58 E25.45816
G1 X148.62 Y83.358 E25.47208
G1 X148.859 Y83.064 E25.49098
G1 X148.944 Y82.98 E25.49695
G1 X149.009 Y82.938 E25.50081
G1 X149.251 Y82.722 E25.51699
G1 X149.528 Y82.523 E25.53401
G1 X149.782 Y82.364 E25.54896
G1 X150.008 Y82.24 E25.56182
G1 X150.24 Y82.142 E25.57438
G1 X150.608 Y82.014 E25.59382
G1 X150.875 Y81.94 E25.60764
G1 X151.096 Y81.897 E25.61888
G1 X151.568 Y81.845 E25.64257
G1 X186.475 Y81.845 E27.38408
G1 X186.824 Y81.883 E27.4016
G1 X187.125 Y81.939 E27.41687
G1 X187.409 Y82.014 E27.43153
G1 X187.763 Y82.142 E27.45031
G1 X187.98 Y82.24 E27.46219
G1 X188.208 Y82.364 E27.47514
G1 X188.502 Y82.548 E27.49244
G1 X188.669 Y82.667 E27.50267
G1 X188.999 Y82.938 E27.52397
G1 X189.16 Y83.105 E27.53555
G1 X189.326 Y83.293 E27.54806
G1 X189.555 Y83.592 E27.56685
G1 X189.693 Y83.817 E27.58002
G1 X189.858 Y84.127 E27.59754
G1 X189.955 Y84.349 E27.60962
G1 X190.097 Y84.733 E27.63005
G1 X190.138 Y84.889 E27.6381
G1 X190.214 Y85.322 E27.66003
G1 X190.25 Y85.648 E27.67639
G1 X190.25 Y120.518 E29.41606
G1 X190.199 Y120.949 E29.43772
G1 X190.155 Y121.215 E29.45117
G1 X190.102 Y121.406 E29.46106
G1 X189.956 Y121.853 E29.48452
G1 X189.866 Y122.055 E29.49555
G1 X189.713 Y122.345 E29.51191
G1 X189.561 Y122.586 E29.52612
G1 X189.389 Y122.821 E29.54065
G1 X189.133 Y123.117 E29.56018
G1 X188.996 Y123.254 E29.56984
G1 X188.667 Y123.525 E29.59111
G1 X188.5 Y123.65 E29.60152
G1 X188.238 Y123.812 E29.61688
G1 X187.982 Y123.945 E29.63128
G1 X187.635 Y124.094 E29.65012
G1 X187.377 Y124.185 E29.66377
G1 X187.179 Y124.24 E29.67402
G1 X187.018 Y124.27 E29.68219
G1 X186.364 Y124.345 E29.71503
G1 X147.865 Y124.345 E31.63575
G1 X147.834 Y124.313 E31.63798
G1 X147.216 Y124.068 E31.67114
G1 X146.904 Y123.913 E31.68852
G1 X146.702 Y123.79 E31.70032
G1 X146.445 Y123.603 E31.71618
G1 X146.302 Y123.258 E31.73481
G1 X144.562 Y121.567 E31.85586
G1 X144.387 Y121.265 E31.87328
G1 X143.557 Y120.453 E31.9312
G1 X143.348 Y120.131 E31.95036
G1 X142.77 Y119.572 E31.99047
G1 X142.551 Y119.234 E32.01057
G1 X142.097 Y118.824 E32.04109
G1 X141.886 Y118.507 E32.06008
G1 X141.544 Y118.208 E32.08275
G1 X141.301 Y117.856 E32.10409
G1 X141.015 Y117.609 E32.12294
G1 X140.79 Y117.297 E32.14213
G1 X140.554 Y117.091 E32.15776
G1 X140.307 Y116.786 E32.17734
G1 X138.958 Y115.441 E32.27238
G1 X138.155 Y115.441 E32.31244
G1 X138.031 Y115.4 E32.31896
G1 X137.756 Y115.324 E32.33319
G1 X137.849 Y115.162 E32.34251
G1 X137.833 Y107.877 E32.70596
G1 X137.434 Y107.478 E32.73411
G1 X137.189 Y107.478 E32.74634
G1 X137.469 Y106.804 E32.78275
G1 X137.318 Y106.287 E32.80962
G1 X136.93 Y106.015 E32.83326
G0 F3600 X161.58 Y104.155
G1 F1650 X161.712 Y104.869 E32.86948
G1 X161.893 Y105.476 E32.90109
G1 X161.995 Y105.783 E32.91722
G1 X162.085 Y106.003 E32.92908
G1 X162.311 Y106.484 E32.9556
G1 X162.495 Y106.828 E32.97506
G1 X162.943 Y107.525 E33.0164
G1 X163.195 Y107.838 E33.03645
G1 X163.532 Y108.223 E33.06197
G1 X163.761 Y108.46 E33.07841
G1 X164.078 Y108.757 E33.10009
G1 X164.444 Y109.053 E33.12357
G1 X164.665 Y109.212 E33.13715
G1 X165.074 Y109.477 E33.16147
G1 X165.416 Y109.683 E33.18139
G1 X165.807 Y109.885 E33.20334
G1 X166.03 Y109.988 E33.2156
G1 X166.568 Y110.191 E33.24428
G1 X166.833 Y110.28 E33.25823
G1 X167.253 Y110.388 E33.27987
G1 X167.654 Y110.475 E33.30034
G1 X168.114 Y110.545 E33.32355
G1 X168.326 Y110.57 E33.3342
G1 X168.933 Y110.591 E33.3645
G1 X169.35 Y110.587 E33.38531
G1 X169.886 Y110.545 E33.41213
G1 X170.084 Y110.519 E33.42209
G1 X171.957 Y110.169 E33.51716
G1 X172.243 Y109.854 E33.53838
G1 X172.424 Y109.765 E33.54845
G1 X172.901 Y109.506 E33.57553
G1 X173.156 Y109.342 E33.59065
G1 X173.446 Y109.14 E33.60828
G1 X173.858 Y108.816 E33.63443
G1 X174.168 Y108.53 E33.65548
G1 X174.45 Y108.241 E33.67562
G1 X174.755 Y107.903 E33.69833
G1 X174.95 Y107.657 E33.71399
G1 X175.253 Y107.246 E33.73947
G1 X175.418 Y106.972 E33.75543
G1 X175.66 Y106.541 E33.78009
G1 X175.829 Y106.2 E33.79907
G1 X175.977 Y105.847 E33.81817
G1 X176.136 Y105.409 E33.84142
G1 X176.235 Y105.086 E33.85827
G1 X176.361 Y104.521 E33.88715
G1 X176.423 Y104.199 E33.90351
G1 X176.46 Y103.903 E33.9184
G1 X176.496 Y103.286 E33.94923
G1 X176.503 Y103.027 E33.96216
G1 X176.492 Y102.695 E33.97873
G1 X176.437 Y102.126 E34.00725
G1 X176.377 Y101.744 E34.02654
G1 X176.285 Y101.331 E34.04765
G1 X176.183 Y100.933 E34.06815
G1 X176.138 Y100.787 E34.07577
G1 X175.942 Y100.246 E34.10448
G1 X175.74 Y99.81 E34.12845
G1 X175.547 Y99.438 E34.14936
G1 X175.358 Y99.107 E34.16837
G1 X175.078 Y98.701 E34.19298
G1 X174.924 Y98.496 E34.20577
G1 X174.552 Y98.06 E34.23437
G1 X174.355 Y97.851 E34.24869
G1 X174.067 Y97.572 E34.2687
G1 X173.658 Y97.226 E34.29543
G1 X173.396 Y97.021 E34.31202
G1 X173.091 Y96.806 E34.33064
G1 X172.769 Y96.611 E34.34942
G1 X172.289 Y96.357 E34.37652
G1 X172.058 Y96.248 E34.38926
G1 X171.556 Y96.048 E34.41622
G1 X171.307 Y95.963 E34.42934
G1 X170.806 Y95.811 E34.45546
G1 X170.522 Y95.75 E34.46996
G1 X170.098 Y95.678 E34.49141
G1 X169.601 Y95.62 E34.51638
G1 X169.264 Y95.6 E34.53322
G1 X168.885 Y95.599 E34.55213
G1 X168.433 Y95.624 E34.57471
G1 X168.009 Y95.659 E34.59594
G1 X167.588 Y95.724 E34.61719
G1 X167.148 Y95.826 E34.63972
G1 X166.841 Y95.911 E34.65562
G1 X166.449 Y96.046 E34.6763
G1 X165.99 Y96.223 E34.70084
G1 X165.747 Y96.338 E34.71426
G1 X165.323 Y96.56 E34.73813
G1 X164.945 Y96.788 E34.76016
G1 X164.611 Y97.011 E34.78019
G1 X164.362 Y97.194 E34.79561
G1 X163.989 Y97.511 E34.82003
G1 X163.746 Y97.742 E34.83676
G1 X163.36 Y98.15 E34.86478
G1 X163.115 Y98.439 E34.88368
G1 X162.974 Y98.63 E34.89553
G1 X162.732 Y98.983 E34.91688
G1 X162.47 Y99.399 E34.94141
G1 X162.194 Y99.944 E34.97188
G1 X162.102 Y100.149 E34.98309
G1 X161.983 Y100.457 E34.99957
G1 X161.842 Y100.856 E35.02068
G1 X161.741 Y101.211 E35.03909
G1 X161.631 Y101.724 E35.06527
G1 X161.567 Y102.092 E35.0839
G1 X161.521 Y102.449 E35.10186
G1 X161.504 Y102.987 E35.12872
G1 X161.506 Y103.307 E35.14468
G1 X161.526 Y103.696 E35.16412
G1 X161.58 Y104.155 E35.18717
G0 F3600 X161.399 Y103.974
G1 F1650 X139.328 Y103.974 E36.2883
G0 F3600 X138.632 Y104.705
G1 F1650 X138.632 Y115.281 E36.81594
G0 F3600 X138.007 Y114.638
G1 F1650 X190.09 Y114.638 E39.41437
G0 F3600 X190.09 Y111.972
G1 F1650 X138.001 Y111.972 E42.0131
G0 F3600 X137.996 Y109.306
G1 F1650 X164.522 Y109.306 E43.33649
G0 F3600 X165.292 Y109.796
G1 F1650 X165.292 Y124.183 E44.05426
G0 F3600 X162.626 Y124.183
G1 F1650 X162.626 Y107.327 E44.89521
G0 F3600 X162.214 Y106.64
G1 F1650 X137.588 Y106.64 E46.1238
G0 F3600 X141.298 Y102.146
G1 F1650 X141.298 Y117.641 E46.89685
G0 F3600 X140.993 Y117.304
G1 F1650 X190.09 Y117.304 E49.34631
G0 F3600 X190.09 Y119.97
G1 F1650 X143.412 Y119.97 E51.67509
G0 F3600 X143.964 Y120.627
G1 F1650 X143.964 Y99.68 E52.72014
G0 F3600 X145.037 Y98.642
G1 F1650 X162.771 Y98.642 E53.60489
G0 F3600 X162.626 Y98.856
G1 F1650 X162.626 Y82.005 E54.44559
G0 F3600 X159.96 Y82.005
G1 F1650 X159.96 Y124.183 E56.54986
G0 F3600 X157.294 Y124.183
G1 F1650 X157.294 Y82.005 E58.65413
G0 F3600 X154.628 Y82.005
G1 F1650 X154.628 Y124.183 E60.7584
G0 F3600 X151.962 Y124.183
G1 F1650 X151.962 Y82.005 E62.86267
G0 F3600 X149.633 Y82.646
G1 F1650 X188.358 Y82.646 E64.79466
G0 F3600 X189.286 Y83.505
G1 F1650 X189.286 Y122.692 E66.74971
G0 F3600 X189.325 Y122.636
G1 F1650 X145.892 Y122.636 E68.91659
G0 F3600 X146.63 Y123.539
G1 F1650 X146.63 Y97.101 E70.23559
G0 F3600 X147.524 Y95.976
G1 F1650 X166.181 Y95.976 E71.16639
G0 F3600 X165.292 Y96.396
G1 F1650 X165.292 Y82.005 E71.88436
G0 F3600 X167.958 Y82.005
G1 F1650 X167.958 Y95.506 E72.55793
G0 F3600 X170.624 Y95.608
G1 F1650 X170.624 Y82.005 E73.23658
G0 F3600 X173.29 Y82.005
G1 F1650 X173.29 Y96.75 E73.97222
G0 F3600 X171.81 Y95.976
G1 F1650 X190.09 Y95.976 E74.88421
G0 F3600 X190.09 Y93.31
G1 F1650 X147.91 Y93.31 E76.98858
G0 F3600 X147.91 Y90.644
G1 F1650 X190.09 Y90.644 E79.09295
G0 F3600 X190.09 Y87.978
G1 F1650 X147.91 Y87.978 E81.19731
G0 F3600 X147.949 Y85.312
G1 F1650 X190.051 Y85.312 E83.29779
G0 F3600 X186.62 Y82.022
G1 F1650 X186.62 Y124.155 E85.39982
G0 F3600 X183.954 Y124.184
G1 F1650 X183.954 Y82.005 E87.50413
G0 F3600 X181.288 Y82.005
G1 F1650 X181.288 Y124.184 E89.60845
G0 F3600 X178.622 Y124.184
G1 F1650 X178.622 Y82.005 E91.71277
G0 F3600 X175.956 Y82.005
G1 F1650 X175.956 Y99.895 E92.60531
G0 F3600 X175.231 Y98.642
G1 F1650 X190.09 Y98.642 E93.34663
G0 F3600 X190.09 Y101.308
G1 F1650 X176.444 Y101.308 E94.02743
G0 F3600 X176.612 Y103.974
G1 F1650 X190.09 Y103.974 E94.69985
G0 F3600 X190.09 Y106.64
G1 F1650 X175.787 Y106.64 E95.41343
G0 F3600 X175.956 Y106.303
G1 F1650 X175.956 Y124.184 E96.30551
G0 F3600 X173.29 Y124.184
G1 F1650 X173.29 Y109.442 E97.041
G0 F3600 X173.486 Y109.306
G1 F1650 X190.09 Y109.306 E97.86937
G0 F3600 X170.624 Y110.581
G1 F1650 X170.624 Y124.184 E98.54803
G0 F3600 X167.958 Y124.184
G1 F1650 X167.958 Y110.683 E99.2216
G0 F3600 X161.556 Y101.308
G1 F1650 X142.279 Y101.308 E100.18333
G0 F3600 X149.296 Y82.896
G1 F1650 X149.296 Y124.183 E102.24315
G1 F1500 E95.74315
G0 F3600 X133.967 Y115.15
G0 X132.742 Y114.716
