; G-Code generated by Simplify3D(R) Version 4.1.2
; Nov 10, 2019 at 11:25:28 AM
; Settings Summary
;   processName,Process1
;   applyToModels,CM04
;   profileName,401_35p Tevo Tornado (experimental)
;   profileVersion,2019-10-31 17:04:36
;   baseProfile,Creality CR-10(2)
;   printMaterial,PLA
;   printQuality,Medium
;   printExtruders,
;   extruderName,Primary Extruder
;   extruderToolheadNumber,0
;   extruderDiameter,0.4
;   extruderAutoWidth,0
;   extruderWidth,0.35
;   extrusionMultiplier,0.95
;   extruderUseRetract,1
;   extruderRetractionDistance,3.8
;   extruderExtraRestartDistance,0
;   extruderRetractionZLift,0.3
;   extruderRetractionSpeed,3000
;   extruderUseCoasting,0
;   extruderCoastingDistance,0.2
;   extruderUseWipe,0
;   extruderWipeDistance,4
;   primaryExtruder,0
;   layerHeight,0.15
;   topSolidLayers,4
;   bottomSolidLayers,3
;   perimeterOutlines,3
;   printPerimetersInsideOut,0
;   startPointOption,1
;   startPointOriginX,0
;   startPointOriginY,300
;   sequentialIslands,0
;   spiralVaseMode,0
;   firstLayerHeightPercentage,120
;   firstLayerWidthPercentage,100
;   firstLayerUnderspeed,0.5
;   useRaft,0
;   raftExtruder,0
;   raftTopLayers,3
;   raftBaseLayers,2
;   raftOffset,3
;   raftSeparationDistance,0.14
;   raftTopInfill,100
;   aboveRaftSpeedMultiplier,0.3
;   useSkirt,1
;   skirtExtruder,0
;   skirtLayers,1
;   skirtOutlines,3
;   skirtOffset,2
;   usePrimePillar,0
;   primePillarExtruder,999
;   primePillarWidth,12
;   primePillarLocation,7
;   primePillarSpeedMultiplier,1
;   useOozeShield,0
;   oozeShieldExtruder,999
;   oozeShieldOffset,2
;   oozeShieldOutlines,1
;   oozeShieldSidewallShape,1
;   oozeShieldSidewallAngle,30
;   oozeShieldSpeedMultiplier,1
;   infillExtruder,0
;   internalInfillPattern,Grid
;   externalInfillPattern,Concentric
;   infillPercentage,35
;   outlineOverlapPercentage,15
;   infillExtrusionWidthPercentage,100
;   minInfillLength,5
;   infillLayerInterval,1
;   internalInfillAngles,45,-45
;   overlapInternalInfillAngles,1
;   externalInfillAngles,45,-45
;   generateSupport,0
;   supportExtruder,0
;   supportInfillPercentage,30
;   supportExtraInflation,0
;   supportBaseLayers,0
;   denseSupportExtruder,0
;   denseSupportLayers,0
;   denseSupportInfillPercentage,70
;   supportLayerInterval,1
;   supportHorizontalPartOffset,0.4
;   supportUpperSeparationLayers,1
;   supportLowerSeparationLayers,1
;   supportType,0
;   supportGridSpacing,4.5
;   maxOverhangAngle,45
;   supportAngles,0
;   temperatureName,Primary Extruder,Heated Bed
;   temperatureNumber,0,0
;   temperatureSetpointCount,2,1
;   temperatureSetpointLayers,1,2,1
;   temperatureSetpointTemperatures,215,210,60
;   temperatureStabilizeAtStartup,1,1
;   temperatureHeatedBed,0,1
;   fanLayers,1,2
;   fanSpeeds,0,100
;   blipFanToFullPower,0
;   adjustSpeedForCooling,1
;   minSpeedLayerTime,15
;   minCoolingSpeedSlowdown,50
;   increaseFanForCooling,1
;   minFanLayerTime,25
;   maxCoolingFanSpeed,100
;   increaseFanForBridging,1
;   bridgingFanSpeed,100
;   use5D,1
;   relativeEdistances,0
;   allowEaxisZeroing,1
;   independentExtruderAxes,0
;   includeM10123,0
;   stickySupport,1
;   applyToolheadOffsets,0
;   gcodeXoffset,0
;   gcodeYoffset,0
;   gcodeZoffset,0
;   overrideMachineDefinition,1
;   machineTypeOverride,0
;   strokeXoverride,300
;   strokeYoverride,300
;   strokeZoverride,400
;   originOffsetXoverride,0
;   originOffsetYoverride,0
;   originOffsetZoverride,0
;   homeXdirOverride,-1
;   homeYdirOverride,-1
;   homeZdirOverride,-1
;   flipXoverride,1
;   flipYoverride,-1
;   flipZoverride,1
;   toolheadOffsets,0,0|0,0|0,0|0,0|0,0|0,0
;   overrideFirmwareConfiguration,1
;   firmwareTypeOverride,RepRap (Marlin/Repetier/Sprinter)
;   GPXconfigOverride,r2
;   baudRateOverride,250000
;   overridePrinterModels,1
;   printerModelsOverride
;   startingGcode,;Init 181010,;G28 			; Home all axes,;G1 Z5 F3000 		; Lift,;G92 E0			; Reset extrusion distance,,; // From Cura 181010,; // Update 190823 (GueroLoco),; // Update 191005 Autoleveling,; // Update 192029 Modify Cleaning,; // Start_gcode,M117 *Start Clean*		; Indicate nozzle clean in progress on LCD,;,M104 S[extruder0_temperature] ,M109 S[extruder0_temperature] ,M109 R[extruder0_temperature] ,;,M107			; Turn layer fan off,G21			; Set to metric [change to G20 if you want Imperial],G90			; Force coordinates to be absolute relative to the origin,G28			; Home X/Y/Z axis,G29			; Auto-leveling,;,;G1 X3 Y1 Z15 F9000		; Move safe Z height to shear strings,;G0 X1 Y1 Z0.2 F9000		; Move in 1mm from edge and up [z] 0.2mm,;G92 E0			; Set extruder to [0] zero,;G1 X100 E12 F500		; Extrude 30mm filiment along X axis 100mm long to prime and clean the nozzle,;G92 E0			; Reset extruder to [0] zero end of cleaning run,;G1 E-1 F500			; Retract filiment by 1 mm to reduce string effect,;G1 X180 F4000		; Quick wipe away from the filament line / purge,;,G92 E0			; Set Extruder to 0 ,G1 X0 Y0 F2000		; Move X and Y to 0 with speed 2000 (mm/min),G1 Z0.1 F1000		; Move Z to 0.1,G1 X8.0 F2000		; Move X to 8.0,G1 Y60.0 E4.0 F1000.0		; Prime - Move Y to 60 and Extruder with 4.0,G1 Y100.0 E8.5 F1000.0		; Prime - Move Y to 100 and Extruder with 8.5,G92 E0			; Set extruder to 0,M117 *End Clean*		; Indicate nozzle clean in progress on LCD,G1 X16.0 F3000		; Move X to 16.0,G1 Z5 F3000			; Move Z to 5 - Lift,; ,M117 *Printing...*		; start msg,; // Begin printing with sliced GCode after here,;
;   layerChangeGcode,
;   retractionGcode,
;   toolChangeGcode,
;   endingGcode,;,; init 181010,;,;M107 			; Fan off,;G1 E-1 F300 			; Retract the filament a bit before lifting the nozzle,;M104 S0 			; Turn off extruder,;M140 S0 			; Turn off bed,;G91			; Relative positioning,;G28 X0 Y0 			; Move X/Y to min endstops so the head is out of teh way,;M84 			; Disable motors,;G90 			; Absolute positioning,;M117 Print ready...,,;,; // From Cura 181010,; // End_gcode,G92 E0			; Zero the extruded length,;G1 E-30 F300		; Retract E -30,M106 S0			; Turn off cooling fan,M104 S0			; Turn off temperature,M140 S0		     	; Turn off bed,G91			; Relative positioning,G1 E-1 F300			; Retract the filament a bit before lifting the nozzle to release some of the pressure,G1 Z+20 E-5 X-20 Y-20 F7200	; Move Z up a bit and retract filament even more,G1 X0 Y150 F10000		; Move right min,M107			; Turn off layer fan,M84			; Disable motors,G90			; Absolute positioning,M117 *The-End* 		; End msg,;,
;   exportFileFormat,gcode
;   celebration,0
;   celebrationSong,Star Wars
;   postProcessing,
;   defaultSpeed,1800
;   outlineUnderspeed,0.5
;   solidInfillUnderspeed,0.8
;   supportUnderspeed,0.8
;   rapidXYspeed,6000
;   rapidZspeed,1002
;   minBridgingArea,50
;   bridgingExtraInflation,0.2
;   bridgingExtrusionMultiplier,1
;   bridgingSpeedMultiplier,0.6
;   useFixedBridgingAngle,0
;   fixedBridgingAngle,0
;   applyBridgingToPerimeters,0
;   filamentDiameters,1.75|1.75|1.75|1.75|1.75|1.75
;   filamentPricesPerKg,30|46|46|46|46|46
;   filamentDensities,1.25|1.25|1.25|1.25|1.25|1.25
;   useMinPrintHeight,0
;   minPrintHeight,0
;   useMaxPrintHeight,0
;   maxPrintHeight,9
;   useDiaphragm,0
;   diaphragmLayerInterval,20
;   robustSlicing,1
;   mergeAllIntoSolid,0
;   onlyRetractWhenCrossingOutline,1
;   retractBetweenLayers,1
;   useRetractionMinTravel,1
;   retractionMinTravel,3
;   retractWhileWiping,1
;   onlyWipeOutlines,1
;   avoidCrossingOutline,1
;   maxMovementDetourFactor,3
;   toolChangeRetractionDistance,12
;   toolChangeExtraRestartDistance,-0.5
;   toolChangeRetractionSpeed,600
;   externalThinWallType,1
;   internalThinWallType,1
;   thinWallAllowedOverlapPercentage,15
;   singleExtrusionMinLength,1
;   singleExtrusionMinPrintingWidthPercentage,50
;   singleExtrusionMaxPrintingWidthPercentage,200
;   singleExtrusionEndpointExtension,0.2
;   horizontalSizeCompensation,0
G90
M82
M106 S0
M140 S60
M190 S60
;Init 181010
;G28 			; Home all axes
;G1 Z5 F3000 		; Lift
;G92 E0			; Reset extrusion distance
; // From Cura 181010
; // Update 190823 (GueroLoco)
; // Update 191005 Autoleveling
; // Update 192029 Modify Cleaning
; // Start_gcode
M117 *Start Clean*		; Indicate nozzle clean in progress on LCD
;
M104 S215 
M109 S215 
M109 R215 
;
M107			; Turn layer fan off
G21			; Set to metric [change to G20 if you want Imperial]
G90			; Force coordinates to be absolute relative to the origin
G28			; Home X/Y/Z axis
G29			; Auto-leveling
;
;G1 X3 Y1 Z15 F9000		; Move safe Z height to shear strings
;G0 X1 Y1 Z0.2 F9000		; Move in 1mm from edge and up [z] 0.2mm
;G92 E0			; Set extruder to [0] zero
;G1 X100 E12 F500		; Extrude 30mm filiment along X axis 100mm long to prime and clean the nozzle
;G92 E0			; Reset extruder to [0] zero end of cleaning run
;G1 E-1 F500			; Retract filiment by 1 mm to reduce string effect
;G1 X180 F4000		; Quick wipe away from the filament line / purge
;
G92 E0			; Set Extruder to 0 
G1 X0 Y0 F2000		; Move X and Y to 0 with speed 2000 (mm/min)
G1 Z0.1 F1000		; Move Z to 0.1
G1 X8.0 F2000		; Move X to 8.0
G1 Y60.0 E4.0 F1000.0		; Prime - Move Y to 60 and Extruder with 4.0
G1 Y100.0 E8.5 F1000.0		; Prime - Move Y to 100 and Extruder with 8.5
G92 E0			; Set extruder to 0
M117 *End Clean*		; Indicate nozzle clean in progress on LCD
G1 X16.0 F3000		; Move X to 16.0
G1 Z5 F3000			; Move Z to 5 - Lift
; 
M117 *Printing...*		; start msg
; // Begin printing with sliced GCode after here
;
; process Process1
; layer 1, Z = 0.180
T0
G92 E0.0000
G1 E-3.8000 F3000
; feature skirt
; tool H0.180 W0.350
G1 Z0.300 F1002
G1 X150.812 Y132.354 F6000
G1 Z0.180 F1002
G1 E0.0000 F3000
G92 E0.0000
G1 X150.892 Y132.357 E0.0020 F900
G1 X151.645 Y132.405 E0.0208
G1 X151.796 Y132.362 E0.0247
G1 X153.238 Y132.422 E0.0606
G1 X153.402 Y132.439 E0.0647
G1 X153.802 Y132.502 E0.0748
G1 X155.091 Y132.516 E0.1068
G1 X155.184 Y132.520 E0.1091
G1 X156.046 Y132.585 E0.1307
G1 X156.133 Y132.594 E0.1328
G1 X156.741 Y132.677 E0.1481
G1 X156.884 Y132.647 E0.1517
G1 X158.297 Y132.801 E0.1871
G1 X158.464 Y132.830 E0.1913
G1 X158.839 Y132.916 E0.2009
G1 X160.074 Y133.011 E0.2317
G1 X160.169 Y133.022 E0.2341
G1 X161.001 Y133.142 E0.2550
G1 X161.090 Y133.158 E0.2573
G1 X161.642 Y133.274 E0.2713
G1 X161.784 Y133.254 E0.2749
G1 X163.150 Y133.501 E0.3094
G1 X163.325 Y133.544 E0.3139
G1 X163.657 Y133.649 E0.3226
G1 X164.794 Y133.815 E0.3512
G1 X164.894 Y133.833 E0.3537
G1 X165.677 Y134.005 E0.3736
G1 X165.771 Y134.029 E0.3760
G1 X166.234 Y134.164 E0.3880
G1 X166.368 Y134.154 E0.3914
G1 X167.675 Y134.494 E0.4250
G1 X167.861 Y134.556 E0.4299
G1 X168.136 Y134.670 E0.4373
G1 X169.138 Y134.892 E0.4628
G1 X169.246 Y134.920 E0.4656
G1 X169.965 Y135.139 E0.4843
G1 X170.066 Y135.173 E0.4869
G1 X170.413 Y135.308 E0.4962
G1 X170.536 Y135.307 E0.4993
G1 X171.774 Y135.742 E0.5319
G1 X171.973 Y135.829 E0.5373
G1 X172.181 Y135.940 E0.5432
G1 X173.023 Y136.198 E0.5651
G1 X173.139 Y136.239 E0.5682
G1 X173.786 Y136.500 E0.5855
G1 X173.895 Y136.549 E0.5885
G1 X174.114 Y136.660 E0.5946
G1 X174.221 Y136.666 E0.5973
G1 X175.382 Y137.201 E0.6291
G1 X175.598 Y137.324 E0.6353
G1 X175.732 Y137.417 E0.6393
G1 X176.397 Y137.687 E0.6572
G1 X176.525 Y137.746 E0.6607
G1 X177.095 Y138.046 E0.6767
G1 X177.212 Y138.115 E0.6801
G1 X177.303 Y138.174 E0.6828
G1 X177.393 Y138.187 E0.6851
G1 X178.468 Y138.831 E0.7163
G1 X178.699 Y139.003 E0.7234
G1 X178.762 Y139.060 E0.7255
G1 X179.244 Y139.315 E0.7391
G1 X179.384 Y139.400 E0.7432
G1 X179.877 Y139.737 E0.7580
G1 X179.979 Y139.816 E0.7612
G1 X180.053 Y139.834 E0.7631
G1 X181.028 Y140.599 E0.7940
G1 X181.269 Y140.838 E0.8024
G1 X181.575 Y141.050 E0.8117
G1 X181.725 Y141.168 E0.8164
G1 X182.142 Y141.546 E0.8304
G1 X182.172 Y141.577 E0.8315
G1 X182.293 Y141.627 E0.8348
G1 X184.138 Y143.714 E0.9041
G1 X184.361 Y144.147 E0.9162
G1 X184.545 Y144.332 E0.9227
G1 X184.879 Y144.850 E0.9380
G1 X184.963 Y145.073 E0.9440
G1 X185.013 Y145.142 E0.9461
G1 X185.242 Y145.537 E0.9574
G1 X185.355 Y145.781 E0.9641
G1 X185.524 Y146.263 E0.9769
G1 X185.600 Y146.612 E0.9857
G1 X185.649 Y147.149 E0.9991
G1 X185.639 Y147.490 E1.0077
G1 X185.563 Y148.005 E1.0206
G1 X185.475 Y148.331 E1.0290
G1 X185.278 Y148.820 E1.0421
G1 X185.113 Y149.121 E1.0507
G1 X184.805 Y149.552 E1.0638
G1 X184.575 Y149.804 E1.0723
G1 X184.336 Y150.010 E1.0802
G1 X184.793 Y150.416 E1.0954
G1 X185.183 Y150.975 E1.1124
G1 X185.558 Y151.935 E1.1380
G1 X185.654 Y152.571 E1.1540
G1 X185.591 Y153.429 E1.1754
G1 X185.496 Y153.850 E1.1861
G1 X185.278 Y154.408 E1.2011
G1 X185.032 Y154.819 E1.2130
G1 X184.726 Y155.178 E1.2247
G1 X184.494 Y155.542 E1.2354
G1 X184.216 Y156.140 E1.2518
G1 X183.539 Y156.993 E1.2790
G1 X183.265 Y157.256 E1.2884
G1 X183.091 Y157.495 E1.2958
G1 X182.947 Y157.665 E1.3013
G1 X182.829 Y157.784 E1.3055
G1 X182.808 Y157.883 E1.3080
G1 X181.614 Y158.912 E1.3472
G1 X181.379 Y159.077 E1.3544
G1 X181.311 Y159.115 E1.3563
G1 X180.949 Y159.464 E1.3688
G1 X180.807 Y159.585 E1.3734
G1 X180.428 Y159.866 E1.3852
G1 X180.395 Y159.938 E1.3872
G1 X179.113 Y160.763 E1.4251
G1 X178.893 Y160.879 E1.4313
G1 X178.748 Y160.940 E1.4352
G1 X178.195 Y161.334 E1.4521
G1 X178.063 Y161.418 E1.4560
G1 X177.492 Y161.738 E1.4723
G1 X177.415 Y161.776 E1.4744
G1 X177.377 Y161.831 E1.4761
G1 X176.028 Y162.489 E1.5134
G1 X175.826 Y162.569 E1.5188
G1 X175.601 Y162.639 E1.5247
G1 X174.841 Y163.049 E1.5462
G1 X174.720 Y163.107 E1.5495
G1 X174.061 Y163.385 E1.5673
G1 X173.953 Y163.426 E1.5702
G1 X173.802 Y163.476 E1.5742
G1 X173.742 Y163.538 E1.5763
G1 X172.334 Y164.054 E1.6136
G1 X172.151 Y164.107 E1.6183
G1 X171.847 Y164.175 E1.6261
G1 X170.880 Y164.568 E1.6521
G1 X170.769 Y164.608 E1.6550
G1 X170.024 Y164.842 E1.6745
G1 X169.926 Y164.869 E1.6770
G1 X169.588 Y164.950 E1.6856
G1 X169.504 Y165.016 E1.6883
G1 X168.043 Y165.406 E1.7259
G1 X167.875 Y165.440 E1.7302
G1 X167.500 Y165.494 E1.7396
G1 X166.341 Y165.842 E1.7697
G1 X166.240 Y165.868 E1.7723
G1 X165.414 Y166.052 E1.7934
G1 X165.324 Y166.069 E1.7957
G1 X164.821 Y166.148 E1.8083
G1 X164.713 Y166.214 E1.8115
G1 X163.208 Y166.486 E1.8495
G1 X163.051 Y166.506 E1.8535
G1 X162.617 Y166.536 E1.8643
G1 X161.300 Y166.813 E1.8978
G1 X161.204 Y166.830 E1.9002
G1 X160.312 Y166.955 E1.9226
G1 X160.228 Y166.965 E1.9247
G1 X159.594 Y167.016 E1.9406
G1 X159.466 Y167.078 E1.9441
G1 X157.929 Y167.236 E1.9825
G1 X157.780 Y167.243 E1.9862
G1 X157.306 Y167.243 E1.9980
G1 X155.875 Y167.429 E2.0339
G1 X155.784 Y167.438 E2.0362
G1 X154.848 Y167.499 E2.0596
G1 X154.767 Y167.502 E2.0616
G1 X154.047 Y167.509 E2.0795
G1 X153.903 Y167.562 E2.0833
G1 X152.355 Y167.607 E2.1218
G1 X152.210 Y167.604 E2.1255
G1 X151.718 Y167.569 E2.1377
G1 X150.231 Y167.650 E2.1748
G1 X150.142 Y167.653 E2.1770
G1 X149.188 Y167.646 E2.2007
G1 X149.108 Y167.643 E2.2027
G1 X148.355 Y167.595 E2.2215
G1 X148.204 Y167.638 E2.2254
G1 X146.761 Y167.578 E2.2613
G1 X146.598 Y167.561 E2.2654
G1 X146.198 Y167.498 E2.2755
G1 X144.909 Y167.484 E2.3076
G1 X144.816 Y167.480 E2.3099
G1 X143.954 Y167.415 E2.3314
G1 X143.867 Y167.406 E2.3336
G1 X143.259 Y167.323 E2.3488
G1 X143.116 Y167.353 E2.3525
G1 X141.703 Y167.199 E2.3879
G1 X141.536 Y167.170 E2.3921
G1 X141.161 Y167.084 E2.4016
G1 X139.926 Y166.989 E2.4325
G1 X139.831 Y166.978 E2.4349
G1 X138.999 Y166.858 E2.4558
G1 X138.910 Y166.842 E2.4580
G1 X138.357 Y166.726 E2.4721
G1 X138.216 Y166.746 E2.4756
G1 X136.850 Y166.499 E2.5102
G1 X136.675 Y166.456 E2.5146
G1 X136.343 Y166.351 E2.5233
G1 X135.206 Y166.185 E2.5519
G1 X135.106 Y166.167 E2.5544
G1 X134.323 Y165.995 E2.5744
G1 X134.229 Y165.971 E2.5768
G1 X133.766 Y165.836 E2.5888
G1 X133.632 Y165.846 E2.5921
G1 X132.325 Y165.506 E2.6257
G1 X132.139 Y165.444 E2.6306
G1 X131.864 Y165.330 E2.6380
G1 X130.862 Y165.108 E2.6636
G1 X130.754 Y165.080 E2.6663
G1 X130.035 Y164.861 E2.6850
G1 X129.934 Y164.826 E2.6877
G1 X129.587 Y164.692 E2.6970
G1 X129.464 Y164.693 E2.7000
G1 X128.226 Y164.258 E2.7327
G1 X128.027 Y164.170 E2.7381
G1 X127.819 Y164.060 E2.7439
G1 X126.977 Y163.802 E2.7658
G1 X126.860 Y163.761 E2.7689
G1 X126.214 Y163.500 E2.7863
G1 X126.105 Y163.451 E2.7892
G1 X125.886 Y163.340 E2.7954
