; G-Code generated by Simplify3D(R) Version 4.1.2
;
;
;
;
; Apr 23, 2023 at 11:48:53 AM
; Settings Summary
;   processName,PLA B01
;   applyToModels,ClipPince
;   profileName,PLA_B02_04_25_OS180_05 Tevo Tornado
;   profileVersion,2023-02-13 18:40:51
;   baseProfile,Creality CR-10(2)
;   printMaterial,PLA
;   printQuality,High
;   printExtruders,
;   extruderName,Primary Extruder
;   extruderToolheadNumber,0
;   extruderDiameter,0.4
;   extruderAutoWidth,0
;   extruderWidth,0.35
;   extrusionMultiplier,0.95
;   extruderUseRetract,1
;   extruderRetractionDistance,4
;   extruderExtraRestartDistance,0
;   extruderRetractionZLift,0.3
;   extruderRetractionSpeed,3000
;   extruderUseCoasting,1
;   extruderCoastingDistance,0.2
;   extruderUseWipe,0
;   extruderWipeDistance,5
;   primaryExtruder,0
;   layerHeight,0.12
;   topSolidLayers,6
;   bottomSolidLayers,6
;   perimeterOutlines,4
;   printPerimetersInsideOut,1
;   startPointOption,2
;   startPointOriginX,0
;   startPointOriginY,300
;   sequentialIslands,0
;   spiralVaseMode,0
;   firstLayerHeightPercentage,120
;   firstLayerWidthPercentage,100
;   firstLayerUnderspeed,0.25
;   useRaft,0
;   raftExtruder,0
;   raftTopLayers,3
;   raftBaseLayers,2
;   raftOffset,3
;   raftSeparationDistance,0.14
;   raftTopInfill,100
;   aboveRaftSpeedMultiplier,0.3
;   useSkirt,1
;   skirtExtruder,0
;   skirtLayers,2
;   skirtOutlines,2
;   skirtOffset,3
;   usePrimePillar,0
;   primePillarExtruder,999
;   primePillarWidth,12
;   primePillarLocation,7
;   primePillarSpeedMultiplier,1
;   useOozeShield,0
;   oozeShieldExtruder,999
;   oozeShieldOffset,2
;   oozeShieldOutlines,1
;   oozeShieldSidewallShape,1
;   oozeShieldSidewallAngle,30
;   oozeShieldSpeedMultiplier,1
;   infillExtruder,0
;   internalInfillPattern,Full Honeycomb
;   externalInfillPattern,Rectilinear
;   infillPercentage,25
;   outlineOverlapPercentage,15
;   infillExtrusionWidthPercentage,100
;   minInfillLength,5
;   infillLayerInterval,1
;   internalInfillAngles,0,120,-120
;   overlapInternalInfillAngles,0
;   externalInfillAngles,45,-45
;   generateSupport,0
;   supportExtruder,0
;   supportInfillPercentage,40
;   supportExtraInflation,0
;   supportBaseLayers,0
;   denseSupportExtruder,0
;   denseSupportLayers,0
;   denseSupportInfillPercentage,70
;   supportLayerInterval,1
;   supportHorizontalPartOffset,0.4
;   supportUpperSeparationLayers,1
;   supportLowerSeparationLayers,1
;   supportType,0
;   supportGridSpacing,4.5
;   maxOverhangAngle,45
;   supportAngles,0
;   temperatureName,Primary Extruder,Heated Bed
;   temperatureNumber,0,0
;   temperatureSetpointCount,2,2
;   temperatureSetpointLayers,1,2,1,2
;   temperatureSetpointTemperatures,185,180,10,5
;   temperatureStabilizeAtStartup,1,1
;   temperatureHeatedBed,0,1
;   fanLayers,1,2
;   fanSpeeds,0,100
;   blipFanToFullPower,0
;   adjustSpeedForCooling,1
;   minSpeedLayerTime,15
;   minCoolingSpeedSlowdown,20
;   increaseFanForCooling,1
;   minFanLayerTime,25
;   maxCoolingFanSpeed,100
;   increaseFanForBridging,1
;   bridgingFanSpeed,100
;   use5D,1
;   relativeEdistances,0
;   allowEaxisZeroing,1
;   independentExtruderAxes,0
;   includeM10123,0
;   stickySupport,1
;   applyToolheadOffsets,0
;   gcodeXoffset,0
;   gcodeYoffset,0
;   gcodeZoffset,0
;   overrideMachineDefinition,1
;   machineTypeOverride,0
;   strokeXoverride,300
;   strokeYoverride,300
;   strokeZoverride,400
;   originOffsetXoverride,0
;   originOffsetYoverride,0
;   originOffsetZoverride,0
;   homeXdirOverride,-1
;   homeYdirOverride,-1
;   homeZdirOverride,-1
;   flipXoverride,1
;   flipYoverride,-1
;   flipZoverride,1
;   toolheadOffsets,0,0|0,0|0,0|0,0|0,0|0,0
;   overrideFirmwareConfiguration,1
;   firmwareTypeOverride,RepRap (Marlin/Repetier/Sprinter)
;   GPXconfigOverride,r2
;   baudRateOverride,250000
;   overridePrinterModels,1
;   printerModelsOverride
;   startingGcode,;,; -]H.P.B[- MarshMalloW  ,; $VER: StartScript 1.03 (18.12.2022) MarshMalloW,;,; Begin Startcode,;,M117 *Preheat*	; Preheat,;extruder0_temperature,M104 S[extruder0_temperature],M109 S[extruder0_temperature],;M109 R[extruder0_temperature] ,;,M117 *Auto-leveling*     	; Auto-leveling,M107                   	; Turn layer fan off,G21                    	; Set to metric [change to G20 if you want Imperial],G90                    	; Force coordinates to be absolute relative to the origin,G28                    	; Home X/Y/Z axis,G29                    	; Auto-leveling (BL-Touch),;,M117 *Start Clean*     	; Indicate nozzle clean in progress on LCD,G92 E0                 	; Set Extruder to 0 ,G1 X0 Y0 F2000         	; Move X and Y to 0 with speed 2000 (mm/min),G1 Z0.1 F1000          	; Move Z to   0.1 with speed 1000 (mm/min),G1 X8.0 F2000          	; Move X to   8.0 with speed 2000 (mm/min),G1 Y60.0 E4.0 F1000.0  	; Move Y to  60 and Extruder with 4.0 with speed 1000 (mm/min),G1 Y100.0 E8.5 F1000.0 	; Move Y to 100 and Extruder with 8.5 with speed 1000 (mm/min),G92 E0                 	; Set extruder to 0,G1 X16.0 F3000         	; Move X to 16.0 with speed 3000 (mm/min),G1 Y60.0 F3000         	; Move Y to 60.0 with speed 3000 (mm/min),M117 *End Clean*       	; Indicate nozzle clean in progress on LCD,G1 Z5 F3000            	; Move Z to  5.0 with speed 3000 (mm/min),G1 X20.0 F3000         	; Move X to 20.0 with speed 3000 (mm/min),G1 Y20.0 F3000         	; Move Y to 20.0 with speed 3000 (mm/min),; ,M117 *Printing...*     	; Start printing msg on LCD,;,; End Startcode,;,; Begin printing with sliced GCode after here,;
;   layerChangeGcode,
;   retractionGcode,
;   toolChangeGcode,
;   endingGcode,;,; init 181010,;,;M107 			; Fan off,;G1 E-1 F300 			; Retract the filament a bit before lifting the nozzle,;M104 S0 			; Turn off extruder,;M140 S0 			; Turn off bed,;G91			; Relative positioning,;G28 X0 Y0 			; Move X/Y to min endstops so the head is out of teh way,;M84 			; Disable motors,;G90 			; Absolute positioning,;M117 Print ready...,,;,; // From Cura 181010,; // End_gcode,G92 E0			; Zero the extruded length,;G1 E-30 F300		; Retract E -30,M106 S0			; Turn off cooling fan,M104 S0			; Turn off temperature,M140 S0		     	; Turn off bed,G91			; Relative positioning,G1 E-1 F300			; Retract the filament a bit before lifting the nozzle to release some of the pressure,G1 Z+20 E-5 X-20 Y-20 F7200	; Move Z up a bit and retract filament even more,G1 X0 Y150 F10000		; Move right min,M107			; Turn off layer fan,M84			; Disable motors,G90			; Absolute positioning,M117 *The-End* 		; End msg,;,
;   exportFileFormat,gcode
;   celebration,0
;   celebrationSong,Star Wars
;   postProcessing,D:\S3D_Thumbs\S3D_Thumbs.exe f="[output_filepath]" x=600 y=110 w=953 lw=400 lh=300 sw=32 sh=32 d=Y
;   defaultSpeed,4200
;   outlineUnderspeed,0.5
;   solidInfillUnderspeed,0.8
;   supportUnderspeed,0.8
;   rapidXYspeed,6000
;   rapidZspeed,1002
;   minBridgingArea,50
;   bridgingExtraInflation,0.2
;   bridgingExtrusionMultiplier,1
;   bridgingSpeedMultiplier,0.8
;   useFixedBridgingAngle,0
;   fixedBridgingAngle,0
;   applyBridgingToPerimeters,0
;   filamentDiameters,1.75|1.75|1.75|1.75|1.75|1.75
;   filamentPricesPerKg,30|46|46|46|46|46
;   filamentDensities,1.25|1.25|1.25|1.25|1.25|1.25
;   useMinPrintHeight,0
;   minPrintHeight,0
;   useMaxPrintHeight,0
;   maxPrintHeight,50
;   useDiaphragm,0
;   diaphragmLayerInterval,20
;   robustSlicing,1
;   mergeAllIntoSolid,0
;   onlyRetractWhenCrossingOutline,1
;   retractBetweenLayers,1
;   useRetractionMinTravel,0
;   retractionMinTravel,3
;   retractWhileWiping,1
;   onlyWipeOutlines,1
;   avoidCrossingOutline,0
;   maxMovementDetourFactor,3
;   toolChangeRetractionDistance,12
;   toolChangeExtraRestartDistance,-0.5
;   toolChangeRetractionSpeed,600
;   externalThinWallType,1
;   internalThinWallType,1
;   thinWallAllowedOverlapPercentage,10
;   singleExtrusionMinLength,1
;   singleExtrusionMinPrintingWidthPercentage,50
;   singleExtrusionMaxPrintingWidthPercentage,200
;   singleExtrusionEndpointExtension,0.2
;   horizontalSizeCompensation,0
G90
M82
M106 S0
M140 S10
;
; -]H.P.B[- MarshMalloW  
; $VER: StartScript 1.03 (18.12.2022) MarshMalloW
;
; Begin Startcode
;
M117 *Preheat*	; Preheat
;extruder0_temperature
M104 S185
M109 S185
;M109 R185 
;
M117 *Auto-leveling*     	; Auto-leveling
M107                   	; Turn layer fan off
G21                    	; Set to metric [change to G20 if you want Imperial]
G90                    	; Force coordinates to be absolute relative to the origin
G28                    	; Home X/Y/Z axis
G29                    	; Auto-leveling (BL-Touch)
;
M117 *Start Clean*     	; Indicate nozzle clean in progress on LCD
G92 E0                 	; Set Extruder to 0 
G1 X0 Y0 F2000         	; Move X and Y to 0 with speed 2000 (mm/min)
G1 Z0.1 F1000          	; Move Z to   0.1 with speed 1000 (mm/min)
G1 X8.0 F2000          	; Move X to   8.0 with speed 2000 (mm/min)
G1 Y60.0 E4.0 F1000.0  	; Move Y to  60 and Extruder with 4.0 with speed 1000 (mm/min)
G1 Y100.0 E8.5 F1000.0 	; Move Y to 100 and Extruder with 8.5 with speed 1000 (mm/min)
G92 E0                 	; Set extruder to 0
G1 X16.0 F3000         	; Move X to 16.0 with speed 3000 (mm/min)
G1 Y60.0 F3000         	; Move Y to 60.0 with speed 3000 (mm/min)
M117 *End Clean*       	; Indicate nozzle clean in progress on LCD
G1 Z5 F3000            	; Move Z to  5.0 with speed 3000 (mm/min)
G1 X20.0 F3000         	; Move X to 20.0 with speed 3000 (mm/min)
G1 Y20.0 F3000         	; Move Y to 20.0 with speed 3000 (mm/min)
; 
M117 *Printing...*     	; Start printing msg on LCD
;
; End Startcode
;
; Begin printing with sliced GCode after here
;
; process PLA B01
; layer 1, Z = 0.144
T0
G92 E0.0000
G1 E-4.0000 F3000
; feature skirt
; tool H0.144 W0.350
G1 Z0.300 F1002
G1 X128.035 Y65.792 F6000
G1 Z0.144 F1002
G1 E0.0000 F3000
G92 E0.0000
G1 X128.603 Y64.888 E0.0213 F1050
G1 X128.849 Y64.579 E0.0291
G1 X129.604 Y63.824 E0.0504
G1 X129.914 Y63.577 E0.0583
G1 X130.818 Y63.009 E0.0795
G1 X131.175 Y62.837 E0.0874
G1 X132.183 Y62.484 E0.1087
G1 X132.569 Y62.396 E0.1165
G1 X133.531 Y62.288 E0.1358
G1 X133.729 Y62.277 E0.1398
G1 X161.926 Y62.277 E0.7011
G1 X162.124 Y62.288 E0.7050
G1 X163.087 Y62.396 E0.7243
G1 X163.473 Y62.484 E0.7322
G1 X164.480 Y62.837 E0.7534
G1 X164.837 Y63.009 E0.7613
G1 X165.741 Y63.577 E0.7826
G1 X166.051 Y63.824 E0.7904
G1 X166.806 Y64.579 E0.8117
G1 X167.052 Y64.888 E0.8196
G1 X167.620 Y65.792 E0.8408
G1 X167.792 Y66.149 E0.8487
G1 X168.145 Y67.157 E0.8700
G1 X168.233 Y67.543 E0.8778
G1 X168.341 Y68.505 E0.8971
G1 X168.353 Y68.703 E0.9011
G1 X168.353 Y71.684 E0.9604
G1 X168.341 Y71.882 E0.9644
G1 X168.233 Y72.844 E0.9836
G1 X168.145 Y73.230 E0.9915
G1 X167.792 Y74.238 E1.0128
G1 X167.620 Y74.595 E1.0207
G1 X167.052 Y75.499 E1.0419
G1 X166.806 Y75.808 E1.0498
G1 X166.051 Y76.563 E1.0710
G1 X165.741 Y76.810 E1.0789
G1 X164.837 Y77.378 E1.1002
G1 X164.480 Y77.550 E1.1081
G1 X163.472 Y77.903 E1.1293
G1 X163.086 Y77.991 E1.1372
G1 X162.124 Y78.099 E1.1565
G1 X161.926 Y78.110 E1.1604
G1 X159.346 Y78.110 E1.2118
G1 X158.418 Y77.852 E1.2309
G1 X155.782 Y76.261 E1.2922
G1 X153.616 Y75.326 E1.3392
G1 X151.344 Y74.694 E1.3862
G1 X149.007 Y74.375 E1.4331
G1 X146.648 Y74.375 E1.4801
G1 X144.311 Y74.694 E1.5270
G1 X142.039 Y75.326 E1.5740
G1 X139.873 Y76.261 E1.6209
G1 X139.353 Y76.575 E1.6330
G1 X139.353 Y102.637 E2.1518
G1 X140.039 Y103.001 E2.1673
G1 X140.808 Y103.363 E2.1842
G1 X141.594 Y103.687 E2.2011
G1 X142.394 Y103.972 E2.2180
G1 X143.208 Y104.218 E2.2350
G1 X144.033 Y104.424 E2.2519
G1 X144.866 Y104.589 E2.2688
G1 X145.708 Y104.713 E2.2857
G1 X146.553 Y104.796 E2.3026
G1 X147.402 Y104.837 E2.3196
G1 X148.253 Y104.837 E2.3365
G1 X149.102 Y104.796 E2.3534
G1 X149.947 Y104.713 E2.3703
G1 X150.789 Y104.589 E2.3872
G1 X151.622 Y104.424 E2.4042
G1 X152.447 Y104.218 E2.4211
G1 X153.261 Y103.972 E2.4380
G1 X154.061 Y103.687 E2.4549
G1 X154.847 Y103.363 E2.4718
G1 X155.617 Y103.001 E2.4888
G1 X156.367 Y102.602 E2.5057
G1 X157.097 Y102.167 E2.5226
G1 X158.312 Y101.360 E2.5516
G1 X159.311 Y101.059 E2.5724
G1 X162.109 Y101.064 E2.6281
G1 X162.365 Y101.083 E2.6332
G1 X163.202 Y101.207 E2.6501
G1 X163.456 Y101.264 E2.6552
G1 X163.965 Y101.419 E2.6658
G1 X164.168 Y101.494 E2.6701
G1 X164.789 Y101.769 E2.6837
G1 X165.018 Y101.892 E2.6888
G1 X165.610 Y102.267 E2.7028
G1 X165.819 Y102.422 E2.7080
G1 X166.350 Y102.880 E2.7219
G1 X166.533 Y103.063 E2.7271
G1 X166.991 Y103.594 E2.7410
G1 X167.146 Y103.802 E2.7462
G1 X167.521 Y104.395 E2.7602
G1 X167.643 Y104.624 E2.7653
G1 X167.919 Y105.245 E2.7789
G1 X167.994 Y105.448 E2.7832
G1 X168.142 Y105.936 E2.7933
G1 X168.192 Y106.147 E2.7976
G1 X168.305 Y106.795 E2.8107
G1 X168.329 Y107.010 E2.8150
G1 X168.351 Y107.460 E2.8240
G1 X168.353 Y107.554 E2.8259
G1 X168.338 Y110.805 E2.8906
G1 X168.318 Y111.056 E2.8956
G1 X168.241 Y111.578 E2.9061
G1 X168.196 Y111.790 E2.9104
G1 X168.015 Y112.445 E2.9239
G1 X167.927 Y112.689 E2.9291
G1 X167.652 Y113.310 E2.9426
G1 X167.552 Y113.503 E2.9469
G1 X167.278 Y113.959 E2.9575
G1 X167.129 Y114.172 E2.9627
G1 X166.591 Y114.827 E2.9796
G1 X166.412 Y115.015 E2.9847
G1 X166.018 Y115.372 E2.9953
G1 X165.849 Y115.507 E2.9997
G1 X165.311 Y115.886 E3.0127
G1 X165.127 Y116.000 E3.0170
G1 X164.677 Y116.240 E3.0272
G1 X164.480 Y116.331 E3.0315
G1 X163.846 Y116.575 E3.0451
G1 X163.597 Y116.651 E3.0502
G1 X162.934 Y116.799 E3.0637
G1 X162.721 Y116.834 E3.0680
G1 X162.235 Y116.882 E3.0778
G1 X162.062 Y116.890 E3.0812
G1 X133.763 Y116.894 E3.6445
G1 X133.633 Y116.889 E3.6471
G1 X132.998 Y116.842 E3.6598
G1 X132.742 Y116.804 E3.6650
G1 X132.058 Y116.651 E3.6789
G1 X131.809 Y116.575 E3.6841
G1 X131.155 Y116.323 E3.6980
G1 X130.920 Y116.212 E3.7032
G1 X130.329 Y115.877 E3.7167
G1 X130.148 Y115.759 E3.7211
G1 X129.738 Y115.455 E3.7312
G1 X129.572 Y115.316 E3.7355
G1 X129.080 Y114.847 E3.7490
G1 X128.905 Y114.654 E3.7542
G1 X128.487 Y114.119 E3.7677
G1 X128.365 Y113.941 E3.7720
G1 X128.103 Y113.503 E3.7822
G1 X128.003 Y113.310 E3.7865
G1 X127.736 Y112.709 E3.7996
G1 X127.661 Y112.506 E3.8039
G1 X127.507 Y111.997 E3.8145
G1 X127.450 Y111.743 E3.8197
G1 X127.325 Y110.905 E3.8366
G1 X127.306 Y110.646 E3.8417
G1 X127.303 Y68.703 E4.6767
G1 X127.314 Y68.505 E4.6806
G1 X127.422 Y67.543 E4.6999
G1 X127.510 Y67.157 E4.7078
G1 X127.863 Y66.149 E4.7290
G1 X128.035 Y65.792 E4.7369
G92 E0.0000
G1 E-4.0000 F3000
G1 Z0.444 F1002
G1 X128.341 Y65.962 F6000
G1 Z0.144 F1002
G1 E0.0000 F3000
G92 E0.0000
G1 X128.889 Y65.091 E0.0205 F1050
G1 X129.111 Y64.812 E0.0276
G1 X129.838 Y64.085 E0.0480
G1 X130.117 Y63.863 E0.0551
G1 X130.988 Y63.316 E0.0756
G1 X131.309 Y63.161 E0.0827
G1 X132.280 Y62.821 E0.1032
G1 X132.627 Y62.742 E0.1103
G1 X133.561 Y62.637 E0.1290
G1 X133.738 Y62.627 E0.1325
G1 X161.917 Y62.627 E0.6934
G1 X162.095 Y62.637 E0.6970
G1 X163.028 Y62.742 E0.7157
G1 X163.375 Y62.821 E0.7228
G1 X164.346 Y63.161 E0.7433
G1 X164.667 Y63.315 E0.7504
G1 X165.538 Y63.863 E0.7708
G1 X165.817 Y64.085 E0.7779
G1 X166.544 Y64.812 E0.7984
G1 X166.767 Y65.091 E0.8055
G1 X167.314 Y65.962 E0.8260
G1 X167.468 Y66.283 E0.8331
G1 X167.808 Y67.254 E0.8535
G1 X167.887 Y67.601 E0.8606
G1 X167.993 Y68.535 E0.8793
G1 X168.003 Y68.713 E0.8829
G1 X168.003 Y71.674 E0.9418
G1 X167.993 Y71.852 E0.9454
G1 X167.887 Y72.785 E0.9641
G1 X167.808 Y73.133 E0.9712
G1 X167.468 Y74.104 E0.9916
G1 X167.314 Y74.425 E0.9987
G1 X166.767 Y75.296 E1.0192
G1 X166.544 Y75.575 E1.0263
G1 X165.817 Y76.302 E1.0468
G1 X165.538 Y76.524 E1.0539
G1 X164.668 Y77.071 E1.0744
G1 X164.346 Y77.226 E1.0815
G1 X163.375 Y77.566 E1.1019
G1 X163.028 Y77.645 E1.1090
G1 X162.094 Y77.750 E1.1277
G1 X161.917 Y77.760 E1.1313
G1 X159.394 Y77.760 E1.1815
G1 X158.558 Y77.528 E1.1987
G1 X155.942 Y75.949 E1.2596
G1 X153.733 Y74.996 E1.3075
G1 X151.415 Y74.350 E1.3554
G1 X149.031 Y74.025 E1.4033
G1 X146.624 Y74.025 E1.4512
G1 X144.240 Y74.350 E1.4991
G1 X141.922 Y74.996 E1.5470
G1 X139.713 Y75.949 E1.5949
G1 X139.003 Y76.377 E1.6114
G1 X139.003 Y102.840 E2.1381
G1 X139.116 Y102.907 E2.1408
G1 X139.882 Y103.315 E2.1580
G1 X140.666 Y103.684 E2.1753
