; G-Code generated by Simplify3D(R) Version 4.1.2
;
;
;
;
; Apr 23, 2023 at 5:07:42 PM
; Settings Summary
;   processName,PLA B01
;   applyToModels,ClipPince
;   profileName,PLA_B02_04_25_OS180_05 Tevo Tornado
;   profileVersion,2023-02-13 18:40:51
;   baseProfile,Creality CR-10(2)
;   printMaterial,PLA
;   printQuality,High
;   printExtruders,
;   extruderName,Primary Extruder
;   extruderToolheadNumber,0
;   extruderDiameter,0.4
;   extruderAutoWidth,0
;   extruderWidth,0.35
;   extrusionMultiplier,0.95
;   extruderUseRetract,1
;   extruderRetractionDistance,4
;   extruderExtraRestartDistance,0
;   extruderRetractionZLift,0.3
;   extruderRetractionSpeed,3000
;   extruderUseCoasting,1
;   extruderCoastingDistance,0.2
;   extruderUseWipe,0
;   extruderWipeDistance,5
;   primaryExtruder,0
;   layerHeight,0.12
;   topSolidLayers,6
;   bottomSolidLayers,6
;   perimeterOutlines,4
;   printPerimetersInsideOut,1
;   startPointOption,2
;   startPointOriginX,0
;   startPointOriginY,300
;   sequentialIslands,0
;   spiralVaseMode,0
;   firstLayerHeightPercentage,120
;   firstLayerWidthPercentage,100
;   firstLayerUnderspeed,0.25
;   useRaft,0
;   raftExtruder,0
;   raftTopLayers,3
;   raftBaseLayers,2
;   raftOffset,3
;   raftSeparationDistance,0.14
;   raftTopInfill,100
;   aboveRaftSpeedMultiplier,0.3
;   useSkirt,1
;   skirtExtruder,0
;   skirtLayers,2
;   skirtOutlines,2
;   skirtOffset,3
;   usePrimePillar,0
;   primePillarExtruder,999
;   primePillarWidth,12
;   primePillarLocation,7
;   primePillarSpeedMultiplier,1
;   useOozeShield,0
;   oozeShieldExtruder,999
;   oozeShieldOffset,2
;   oozeShieldOutlines,1
;   oozeShieldSidewallShape,1
;   oozeShieldSidewallAngle,30
;   oozeShieldSpeedMultiplier,1
;   infillExtruder,0
;   internalInfillPattern,Full Honeycomb
;   externalInfillPattern,Rectilinear
;   infillPercentage,25
;   outlineOverlapPercentage,15
;   infillExtrusionWidthPercentage,100
;   minInfillLength,5
;   infillLayerInterval,1
;   internalInfillAngles,0,120,-120
;   overlapInternalInfillAngles,0
;   externalInfillAngles,45,-45
;   generateSupport,0
;   supportExtruder,0
;   supportInfillPercentage,40
;   supportExtraInflation,0
;   supportBaseLayers,0
;   denseSupportExtruder,0
;   denseSupportLayers,0
;   denseSupportInfillPercentage,70
;   supportLayerInterval,1
;   supportHorizontalPartOffset,0.4
;   supportUpperSeparationLayers,1
;   supportLowerSeparationLayers,1
;   supportType,0
;   supportGridSpacing,4.5
;   maxOverhangAngle,45
;   supportAngles,0
;   temperatureName,Primary Extruder,Heated Bed
;   temperatureNumber,0,0
;   temperatureSetpointCount,2,2
;   temperatureSetpointLayers,1,2,1,2
;   temperatureSetpointTemperatures,185,180,10,5
;   temperatureStabilizeAtStartup,1,1
;   temperatureHeatedBed,0,1
;   fanLayers,1,2
;   fanSpeeds,0,100
;   blipFanToFullPower,0
;   adjustSpeedForCooling,1
;   minSpeedLayerTime,15
;   minCoolingSpeedSlowdown,20
;   increaseFanForCooling,1
;   minFanLayerTime,25
;   maxCoolingFanSpeed,100
;   increaseFanForBridging,1
;   bridgingFanSpeed,100
;   use5D,1
;   relativeEdistances,0
;   allowEaxisZeroing,1
;   independentExtruderAxes,0
;   includeM10123,0
;   stickySupport,1
;   applyToolheadOffsets,0
;   gcodeXoffset,0
;   gcodeYoffset,0
;   gcodeZoffset,0
;   overrideMachineDefinition,1
;   machineTypeOverride,0
;   strokeXoverride,300
;   strokeYoverride,300
;   strokeZoverride,400
;   originOffsetXoverride,0
;   originOffsetYoverride,0
;   originOffsetZoverride,0
;   homeXdirOverride,-1
;   homeYdirOverride,-1
;   homeZdirOverride,-1
;   flipXoverride,1
;   flipYoverride,-1
;   flipZoverride,1
;   toolheadOffsets,0,0|0,0|0,0|0,0|0,0|0,0
;   overrideFirmwareConfiguration,1
;   firmwareTypeOverride,RepRap (Marlin/Repetier/Sprinter)
;   GPXconfigOverride,r2
;   baudRateOverride,250000
;   overridePrinterModels,1
;   printerModelsOverride
;   startingGcode,;,; -]H.P.B[- MarshMalloW  ,; $VER: StartScript 1.03 (18.12.2022) MarshMalloW,;,; Begin Startcode,;,M117 *Preheat*	; Preheat,;extruder0_temperature,M104 S[extruder0_temperature],M109 S[extruder0_temperature],;M109 R[extruder0_temperature] ,;,M117 *Auto-leveling*     	; Auto-leveling,M107                   	; Turn layer fan off,G21                    	; Set to metric [change to G20 if you want Imperial],G90                    	; Force coordinates to be absolute relative to the origin,G28                    	; Home X/Y/Z axis,G29                    	; Auto-leveling (BL-Touch),;,M117 *Start Clean*     	; Indicate nozzle clean in progress on LCD,G92 E0                 	; Set Extruder to 0 ,G1 X0 Y0 F2000         	; Move X and Y to 0 with speed 2000 (mm/min),G1 Z0.1 F1000          	; Move Z to   0.1 with speed 1000 (mm/min),G1 X8.0 F2000          	; Move X to   8.0 with speed 2000 (mm/min),G1 Y60.0 E4.0 F1000.0  	; Move Y to  60 and Extruder with 4.0 with speed 1000 (mm/min),G1 Y100.0 E8.5 F1000.0 	; Move Y to 100 and Extruder with 8.5 with speed 1000 (mm/min),G92 E0                 	; Set extruder to 0,G1 X16.0 F3000         	; Move X to 16.0 with speed 3000 (mm/min),G1 Y60.0 F3000         	; Move Y to 60.0 with speed 3000 (mm/min),M117 *End Clean*       	; Indicate nozzle clean in progress on LCD,G1 Z5 F3000            	; Move Z to  5.0 with speed 3000 (mm/min),G1 X20.0 F3000         	; Move X to 20.0 with speed 3000 (mm/min),G1 Y20.0 F3000         	; Move Y to 20.0 with speed 3000 (mm/min),; ,M117 *Printing...*     	; Start printing msg on LCD,;,; End Startcode,;,; Begin printing with sliced GCode after here,;
;   layerChangeGcode,
;   retractionGcode,
;   toolChangeGcode,
;   endingGcode,;,; init 181010,;,;M107 			; Fan off,;G1 E-1 F300 			; Retract the filament a bit before lifting the nozzle,;M104 S0 			; Turn off extruder,;M140 S0 			; Turn off bed,;G91			; Relative positioning,;G28 X0 Y0 			; Move X/Y to min endstops so the head is out of teh way,;M84 			; Disable motors,;G90 			; Absolute positioning,;M117 Print ready...,,;,; // From Cura 181010,; // End_gcode,G92 E0			; Zero the extruded length,;G1 E-30 F300		; Retract E -30,M106 S0			; Turn off cooling fan,M104 S0			; Turn off temperature,M140 S0		     	; Turn off bed,G91			; Relative positioning,G1 E-1 F300			; Retract the filament a bit before lifting the nozzle to release some of the pressure,G1 Z+20 E-5 X-20 Y-20 F7200	; Move Z up a bit and retract filament even more,G1 X0 Y150 F10000		; Move right min,M107			; Turn off layer fan,M84			; Disable motors,G90			; Absolute positioning,M117 *The-End* 		; End msg,;,
;   exportFileFormat,gcode
;   celebration,0
;   celebrationSong,Star Wars
;   postProcessing,D:\S3D_Thumbs\S3D_Thumbs.exe f="[output_filepath]" x=600 y=110 w=953 lw=400 lh=300 sw=32 sh=32 d=Y
;   defaultSpeed,4200
;   outlineUnderspeed,0.5
;   solidInfillUnderspeed,0.8
;   supportUnderspeed,0.8
;   rapidXYspeed,6000
;   rapidZspeed,1002
;   minBridgingArea,50
;   bridgingExtraInflation,0.2
;   bridgingExtrusionMultiplier,1
;   bridgingSpeedMultiplier,0.8
;   useFixedBridgingAngle,0
;   fixedBridgingAngle,0
;   applyBridgingToPerimeters,0
;   filamentDiameters,1.75|1.75|1.75|1.75|1.75|1.75
;   filamentPricesPerKg,30|46|46|46|46|46
;   filamentDensities,1.25|1.25|1.25|1.25|1.25|1.25
;   useMinPrintHeight,0
;   minPrintHeight,0
;   useMaxPrintHeight,0
;   maxPrintHeight,50
;   useDiaphragm,0
;   diaphragmLayerInterval,20
;   robustSlicing,1
;   mergeAllIntoSolid,0
;   onlyRetractWhenCrossingOutline,1
;   retractBetweenLayers,1
;   useRetractionMinTravel,0
;   retractionMinTravel,3
;   retractWhileWiping,1
;   onlyWipeOutlines,1
;   avoidCrossingOutline,0
;   maxMovementDetourFactor,3
;   toolChangeRetractionDistance,12
;   toolChangeExtraRestartDistance,-0.5
;   toolChangeRetractionSpeed,600
;   externalThinWallType,1
;   internalThinWallType,1
;   thinWallAllowedOverlapPercentage,10
;   singleExtrusionMinLength,1
;   singleExtrusionMinPrintingWidthPercentage,50
;   singleExtrusionMaxPrintingWidthPercentage,200
;   singleExtrusionEndpointExtension,0.2
;   horizontalSizeCompensation,0
G90
M82
M106 S0
M140 S10
;
; -]H.P.B[- MarshMalloW  
; $VER: StartScript 1.03 (18.12.2022) MarshMalloW
;
; Begin Startcode
;
M117 *Preheat*	; Preheat
;extruder0_temperature
M104 S185
M109 S185
;M109 R185 
;
M117 *Auto-leveling*     	; Auto-leveling
M107                   	; Turn layer fan off
G21                    	; Set to metric [change to G20 if you want Imperial]
G90                    	; Force coordinates to be absolute relative to the origin
G28                    	; Home X/Y/Z axis
G29                    	; Auto-leveling (BL-Touch)
;
M117 *Start Clean*     	; Indicate nozzle clean in progress on LCD
G92 E0                 	; Set Extruder to 0 
G1 X0 Y0 F2000         	; Move X and Y to 0 with speed 2000 (mm/min)
G1 Z0.1 F1000          	; Move Z to   0.1 with speed 1000 (mm/min)
G1 X8.0 F2000          	; Move X to   8.0 with speed 2000 (mm/min)
G1 Y60.0 E4.0 F1000.0  	; Move Y to  60 and Extruder with 4.0 with speed 1000 (mm/min)
G1 Y100.0 E8.5 F1000.0 	; Move Y to 100 and Extruder with 8.5 with speed 1000 (mm/min)
G92 E0                 	; Set extruder to 0
G1 X16.0 F3000         	; Move X to 16.0 with speed 3000 (mm/min)
G1 Y60.0 F3000         	; Move Y to 60.0 with speed 3000 (mm/min)
M117 *End Clean*       	; Indicate nozzle clean in progress on LCD
G1 Z5 F3000            	; Move Z to  5.0 with speed 3000 (mm/min)
G1 X20.0 F3000         	; Move X to 20.0 with speed 3000 (mm/min)
G1 Y20.0 F3000         	; Move Y to 20.0 with speed 3000 (mm/min)
; 
M117 *Printing...*     	; Start printing msg on LCD
;
; End Startcode
;
; Begin printing with sliced GCode after here
;
; process PLA B01
; layer 1, Z = 0.144
T0
G92 E0.0000
G1 E-4.0000 F3000
; feature skirt
; tool H0.144 W0.350
G1 Z0.300 F1002
G1 X131.565 Y126.650 F6000
G1 Z0.144 F1002
G1 E0.0000 F3000
G92 E0.0000
G1 X131.708 Y126.488 E0.0043 F1050
G1 X132.054 Y126.142 E0.0141
G1 X132.182 Y126.026 E0.0175
G1 X132.224 Y125.991 E0.0186
G1 X132.245 Y125.972 E0.0191
G1 X132.410 Y125.832 E0.0235
G1 X132.487 Y125.776 E0.0253
G1 X132.560 Y125.716 E0.0272
G1 X132.735 Y125.589 E0.0315
G1 X132.759 Y125.574 E0.0321
G1 X132.821 Y125.528 E0.0336
G1 X133.002 Y125.410 E0.0379
G1 X133.149 Y125.327 E0.0413
G1 X133.291 Y125.237 E0.0446
G1 X133.481 Y125.133 E0.0489
G1 X133.550 Y125.100 E0.0505
G1 X133.593 Y125.076 E0.0514
G1 X133.828 Y124.965 E0.0566
G1 X133.873 Y124.947 E0.0576
G1 X133.942 Y124.914 E0.0591
G1 X134.143 Y124.834 E0.0634
G1 X134.304 Y124.781 E0.0668
G1 X134.482 Y124.712 E0.0706
G1 X134.730 Y124.637 E0.0757
G1 X134.760 Y124.630 E0.0764
G1 X134.768 Y124.627 E0.0765
G1 X134.977 Y124.572 E0.0808
G1 X135.478 Y124.473 E0.0910
G1 X135.693 Y124.444 E0.0953
G1 X136.305 Y124.398 E0.1075
G1 X136.435 Y124.394 E0.1101
G1 X163.565 Y124.394 E0.6502
G1 X163.695 Y124.398 E0.6528
G1 X164.329 Y124.445 E0.6654
G1 X164.586 Y124.483 E0.6706
G1 X165.270 Y124.637 E0.6846
G1 X165.518 Y124.712 E0.6897
G1 X166.173 Y124.965 E0.7037
G1 X166.407 Y125.076 E0.7088
G1 X167.036 Y125.432 E0.7232
G1 X167.217 Y125.556 E0.7276
G1 X167.248 Y125.574 E0.7283
G1 X167.526 Y125.781 E0.7352
G1 X167.754 Y125.987 E0.7413
G1 X167.991 Y126.182 E0.7474
G1 X168.236 Y126.427 E0.7543
G1 X168.258 Y126.454 E0.7550
G1 X168.409 Y126.616 E0.7594
G1 X168.853 Y127.186 E0.7738
G1 X168.997 Y127.401 E0.7790
G1 X169.354 Y128.030 E0.7934
G1 X169.480 Y128.306 E0.7994
G1 X169.780 Y129.145 E0.8171
G1 X169.857 Y129.437 E0.8232
G1 X169.984 Y130.166 E0.8379
G1 X170.010 Y130.457 E0.8437
G1 X170.025 Y133.049 E0.8953
G1 X170.021 Y133.190 E0.8981
G1 X170.011 Y133.325 E0.9008
G1 X170.011 Y133.446 E0.9032
G1 X169.985 Y133.748 E0.9092
G1 X169.976 Y133.800 E0.9103
G1 X169.973 Y133.829 E0.9109
G1 X169.935 Y134.086 E0.9160
G1 X169.894 Y134.271 E0.9198
G1 X169.861 Y134.460 E0.9236
G1 X169.798 Y134.712 E0.9288
G1 X169.788 Y134.741 E0.9294
G1 X169.782 Y134.770 E0.9300
G1 X169.706 Y135.018 E0.9352
G1 X169.638 Y135.196 E0.9390
G1 X169.578 Y135.377 E0.9428
G1 X169.479 Y135.617 E0.9479
G1 X169.465 Y135.644 E0.9485
G1 X169.454 Y135.672 E0.9491
G1 X169.343 Y135.907 E0.9543
G1 X169.249 Y136.073 E0.9581
G1 X169.164 Y136.243 E0.9619
G1 X169.030 Y136.466 E0.9671
G1 X169.012 Y136.491 E0.9677
G1 X168.998 Y136.517 E0.9683
G1 X168.853 Y136.733 E0.9734
G1 X168.736 Y136.884 E0.9772
G1 X168.626 Y137.039 E0.9810
G1 X168.461 Y137.240 E0.9862
G1 X168.441 Y137.261 E0.9868
G1 X168.422 Y137.285 E0.9874
G1 X168.248 Y137.478 E0.9926
G1 X168.109 Y137.610 E0.9964
G1 X167.978 Y137.747 E1.0002
G1 X167.786 Y137.922 E1.0053
G1 X167.762 Y137.941 E1.0059
G1 X167.755 Y137.947 E1.0061
G1 X167.590 Y138.086 E1.0104
G1 X167.180 Y138.390 E1.0206
G1 X166.998 Y138.508 E1.0249
G1 X166.407 Y138.843 E1.0384
G1 X166.172 Y138.954 E1.0436
G1 X165.518 Y139.206 E1.0575
G1 X165.270 Y139.282 E1.0627
G1 X164.607 Y139.431 E1.0762
G1 X164.393 Y139.465 E1.0805
G1 X163.908 Y139.513 E1.0902
G1 X163.738 Y139.521 E1.0936
G1 X161.063 Y139.526 E1.1469
G1 X160.203 Y139.308 E1.1645
G1 X158.884 Y138.589 E1.1944
G1 X158.009 Y138.168 E1.2138
G1 X157.115 Y137.791 E1.2331
G1 X156.202 Y137.459 E1.2524
G1 X155.275 Y137.173 E1.2717
G1 X154.333 Y136.933 E1.2911
G1 X153.382 Y136.741 E1.3104
G1 X152.421 Y136.596 E1.3297
G1 X151.455 Y136.499 E1.3491
G1 X150.486 Y136.451 E1.3684
G1 X149.514 Y136.451 E1.3877
G1 X148.545 Y136.499 E1.4071
G1 X147.579 Y136.596 E1.4264
G1 X146.618 Y136.741 E1.4457
G1 X145.667 Y136.933 E1.4650
G1 X144.725 Y137.173 E1.4844
G1 X143.798 Y137.459 E1.5037
G1 X142.885 Y137.791 E1.5230
G1 X142.025 Y138.154 E1.5416
G1 X142.025 Y161.847 E2.0133
G1 X142.885 Y162.209 E2.0318
G1 X143.798 Y162.541 E2.0512
G1 X144.726 Y162.827 E2.0705
G1 X145.667 Y163.067 E2.0898
G1 X146.618 Y163.259 E2.1092
G1 X147.579 Y163.404 E2.1285
G1 X148.545 Y163.501 E2.1478
G1 X149.514 Y163.549 E2.1671
G1 X150.486 Y163.549 E2.1865
G1 X151.455 Y163.501 E2.2058
G1 X152.422 Y163.404 E2.2251
G1 X153.382 Y163.259 E2.2445
G1 X154.333 Y163.067 E2.2638
G1 X155.274 Y162.827 E2.2831
G1 X156.202 Y162.541 E2.3024
G1 X157.115 Y162.209 E2.3218
G1 X158.009 Y161.832 E2.3411
G1 X158.884 Y161.411 E2.3604
G1 X160.203 Y160.692 E2.3903
G1 X161.063 Y160.474 E2.4080
G1 X163.781 Y160.479 E2.4621
G1 X164.038 Y160.498 E2.4672
G1 X164.875 Y160.622 E2.4841
G1 X165.128 Y160.679 E2.4892
G1 X165.637 Y160.834 E2.4998
G1 X165.840 Y160.909 E2.5041
G1 X166.461 Y161.184 E2.5177
G1 X166.691 Y161.307 E2.5228
G1 X167.283 Y161.682 E2.5368
G1 X167.491 Y161.837 E2.5420
G1 X168.022 Y162.294 E2.5559
G1 X168.206 Y162.478 E2.5611
G1 X168.663 Y163.009 E2.5750
G1 X168.818 Y163.217 E2.5802
G1 X169.193 Y163.810 E2.5941
G1 X169.316 Y164.039 E2.5993
G1 X169.591 Y164.660 E2.6128
G1 X169.666 Y164.863 E2.6172
G1 X169.815 Y165.351 E2.6273
G1 X169.865 Y165.562 E2.6316
G1 X169.977 Y166.210 E2.6447
G1 X170.001 Y166.425 E2.6490
G1 X170.023 Y166.876 E2.6580
G1 X170.025 Y166.973 E2.6599
G1 X170.010 Y169.521 E2.7107
G1 X169.991 Y169.770 E2.7156
G1 X169.913 Y170.291 E2.7261
G1 X169.868 Y170.503 E2.7304
G1 X169.693 Y171.137 E2.7435
G1 X169.623 Y171.341 E2.7478
G1 X169.427 Y171.813 E2.7580
G1 X169.332 Y172.008 E2.7623
G1 X168.997 Y172.599 E2.7758
G1 X168.853 Y172.814 E2.7810
G1 X168.435 Y173.350 E2.7945
G1 X168.292 Y173.512 E2.7988
G1 X167.931 Y173.873 E2.8090
G1 X167.768 Y174.017 E2.8133
G1 X167.250 Y174.421 E2.8264
G1 X167.072 Y174.544 E2.8307
G1 X166.615 Y174.817 E2.8413
G1 X166.383 Y174.934 E2.8465
G1 X165.600 Y175.259 E2.8633
G1 X165.354 Y175.340 E2.8685
G1 X164.837 Y175.469 E2.8791
G1 X164.624 Y175.509 E2.8834
G1 X163.971 Y175.590 E2.8965
G1 X163.756 Y175.603 E2.9008
G1 X136.435 Y175.606 E3.4447
G1 X136.305 Y175.602 E3.4472
G1 X135.671 Y175.555 E3.4599
G1 X135.414 Y175.517 E3.4651
G1 X134.730 Y175.363 E3.4790
G1 X134.482 Y175.288 E3.4842
G1 X133.828 Y175.036 E3.4982
G1 X133.593 Y174.924 E3.5033
G1 X132.983 Y174.579 E3.5173
G1 X132.767 Y174.435 E3.5224
G1 X132.232 Y174.017 E3.5360
G1 X132.069 Y173.874 E3.5403
G1 X131.708 Y173.512 E3.5505
G1 X131.564 Y173.350 E3.5548
G1 X131.160 Y172.831 E3.5679
G1 X131.038 Y172.653 E3.5722
G1 X130.775 Y172.215 E3.5823
G1 X130.675 Y172.023 E3.5866
G1 X130.409 Y171.422 E3.5997
