; G-Code generated by Simplify3D(R) Version 4.1.2
;
;
;
;
; Dec 20, 2022 at 11:47:45 PM
; Settings Summary
;   processName,PLA A15
;   applyToModels,BestTeamEverBackPhoto
;   profileName,PLA_B01_04_15_OS180_05 Tevo Tornado
;   profileVersion,2022-12-18 16:11:47
;   baseProfile,Creality CR-10(2)
;   printMaterial,PLA
;   printQuality,High
;   printExtruders,
;   extruderName,Primary Extruder
;   extruderToolheadNumber,0
;   extruderDiameter,0.4
;   extruderAutoWidth,0
;   extruderWidth,0.35
;   extrusionMultiplier,0.95
;   extruderUseRetract,1
;   extruderRetractionDistance,4
;   extruderExtraRestartDistance,0
;   extruderRetractionZLift,0.3
;   extruderRetractionSpeed,3000
;   extruderUseCoasting,1
;   extruderCoastingDistance,0.2
;   extruderUseWipe,0
;   extruderWipeDistance,5
;   primaryExtruder,0
;   layerHeight,0.12
;   topSolidLayers,6
;   bottomSolidLayers,5
;   perimeterOutlines,4
;   printPerimetersInsideOut,1
;   startPointOption,2
;   startPointOriginX,0
;   startPointOriginY,300
;   sequentialIslands,0
;   spiralVaseMode,0
;   firstLayerHeightPercentage,120
;   firstLayerWidthPercentage,100
;   firstLayerUnderspeed,0.25
;   useRaft,0
;   raftExtruder,0
;   raftTopLayers,3
;   raftBaseLayers,2
;   raftOffset,3
;   raftSeparationDistance,0.14
;   raftTopInfill,100
;   aboveRaftSpeedMultiplier,0.3
;   useSkirt,1
;   skirtExtruder,0
;   skirtLayers,2
;   skirtOutlines,2
;   skirtOffset,3
;   usePrimePillar,0
;   primePillarExtruder,999
;   primePillarWidth,12
;   primePillarLocation,7
;   primePillarSpeedMultiplier,1
;   useOozeShield,0
;   oozeShieldExtruder,999
;   oozeShieldOffset,2
;   oozeShieldOutlines,1
;   oozeShieldSidewallShape,1
;   oozeShieldSidewallAngle,30
;   oozeShieldSpeedMultiplier,1
;   infillExtruder,0
;   internalInfillPattern,Full Honeycomb
;   externalInfillPattern,Rectilinear
;   infillPercentage,15
;   outlineOverlapPercentage,15
;   infillExtrusionWidthPercentage,100
;   minInfillLength,5
;   infillLayerInterval,1
;   internalInfillAngles,0,120,-120
;   overlapInternalInfillAngles,0
;   externalInfillAngles,45,-45
;   generateSupport,0
;   supportExtruder,0
;   supportInfillPercentage,40
;   supportExtraInflation,0
;   supportBaseLayers,0
;   denseSupportExtruder,0
;   denseSupportLayers,0
;   denseSupportInfillPercentage,70
;   supportLayerInterval,1
;   supportHorizontalPartOffset,0.4
;   supportUpperSeparationLayers,1
;   supportLowerSeparationLayers,1
;   supportType,0
;   supportGridSpacing,4.5
;   maxOverhangAngle,45
;   supportAngles,0
;   temperatureName,Primary Extruder,Heated Bed
;   temperatureNumber,0,0
;   temperatureSetpointCount,2,2
;   temperatureSetpointLayers,1,2,1,2
;   temperatureSetpointTemperatures,185,180,10,5
;   temperatureStabilizeAtStartup,1,1
;   temperatureHeatedBed,0,1
;   fanLayers,1,2
;   fanSpeeds,0,100
;   blipFanToFullPower,0
;   adjustSpeedForCooling,1
;   minSpeedLayerTime,15
;   minCoolingSpeedSlowdown,20
;   increaseFanForCooling,1
;   minFanLayerTime,25
;   maxCoolingFanSpeed,100
;   increaseFanForBridging,1
;   bridgingFanSpeed,100
;   use5D,1
;   relativeEdistances,0
;   allowEaxisZeroing,1
;   independentExtruderAxes,0
;   includeM10123,0
;   stickySupport,1
;   applyToolheadOffsets,0
;   gcodeXoffset,0
;   gcodeYoffset,0
;   gcodeZoffset,0
;   overrideMachineDefinition,1
;   machineTypeOverride,0
;   strokeXoverride,300
;   strokeYoverride,300
;   strokeZoverride,400
;   originOffsetXoverride,0
;   originOffsetYoverride,0
;   originOffsetZoverride,0
;   homeXdirOverride,-1
;   homeYdirOverride,-1
;   homeZdirOverride,-1
;   flipXoverride,1
;   flipYoverride,-1
;   flipZoverride,1
;   toolheadOffsets,0,0|0,0|0,0|0,0|0,0|0,0
;   overrideFirmwareConfiguration,1
;   firmwareTypeOverride,RepRap (Marlin/Repetier/Sprinter)
;   GPXconfigOverride,r2
;   baudRateOverride,250000
;   overridePrinterModels,1
;   printerModelsOverride
;   startingGcode,;,; -]H.P.B[- MarshMalloW  ,; $VER: StartScript 1.03 (18.12.2022) MarshMalloW,;,; Begin Startcode,;,M117 *Preheat*	; Preheat,;extruder0_temperature,M104 S[extruder0_temperature],M109 S[extruder0_temperature],;M109 R[extruder0_temperature] ,;,M117 *Auto-leveling*     	; Auto-leveling,M107                   	; Turn layer fan off,G21                    	; Set to metric [change to G20 if you want Imperial],G90                    	; Force coordinates to be absolute relative to the origin,G28                    	; Home X/Y/Z axis,G29                    	; Auto-leveling (BL-Touch),;,M117 *Start Clean*     	; Indicate nozzle clean in progress on LCD,G92 E0                 	; Set Extruder to 0 ,G1 X0 Y0 F2000         	; Move X and Y to 0 with speed 2000 (mm/min),G1 Z0.1 F1000          	; Move Z to   0.1 with speed 1000 (mm/min),G1 X8.0 F2000          	; Move X to   8.0 with speed 2000 (mm/min),G1 Y60.0 E4.0 F1000.0  	; Move Y to  60 and Extruder with 4.0 with speed 1000 (mm/min),G1 Y100.0 E8.5 F1000.0 	; Move Y to 100 and Extruder with 8.5 with speed 1000 (mm/min),G92 E0                 	; Set extruder to 0,G1 X16.0 F3000         	; Move X to 16.0 with speed 3000 (mm/min),G1 Y60.0 F3000         	; Move Y to 60.0 with speed 3000 (mm/min),M117 *End Clean*       	; Indicate nozzle clean in progress on LCD,G1 Z5 F3000            	; Move Z to  5.0 with speed 3000 (mm/min),G1 X20.0 F3000         	; Move X to 20.0 with speed 3000 (mm/min),G1 Y20.0 F3000         	; Move Y to 20.0 with speed 3000 (mm/min),; ,M117 *Printing...*     	; Start printing msg on LCD,;,; End Startcode,;,; Begin printing with sliced GCode after here,;
;   layerChangeGcode,
;   retractionGcode,
;   toolChangeGcode,
;   endingGcode,;,; init 181010,;,;M107 			; Fan off,;G1 E-1 F300 			; Retract the filament a bit before lifting the nozzle,;M104 S0 			; Turn off extruder,;M140 S0 			; Turn off bed,;G91			; Relative positioning,;G28 X0 Y0 			; Move X/Y to min endstops so the head is out of teh way,;M84 			; Disable motors,;G90 			; Absolute positioning,;M117 Print ready...,,;,; // From Cura 181010,; // End_gcode,G92 E0			; Zero the extruded length,;G1 E-30 F300		; Retract E -30,M106 S0			; Turn off cooling fan,M104 S0			; Turn off temperature,M140 S0		     	; Turn off bed,G91			; Relative positioning,G1 E-1 F300			; Retract the filament a bit before lifting the nozzle to release some of the pressure,G1 Z+20 E-5 X-20 Y-20 F7200	; Move Z up a bit and retract filament even more,G1 X0 Y150 F10000		; Move right min,M107			; Turn off layer fan,M84			; Disable motors,G90			; Absolute positioning,M117 *The-End* 		; End msg,;,
;   exportFileFormat,gcode
;   celebration,0
;   celebrationSong,Star Wars
;   postProcessing,D:\S3D_Thumbs\S3D_Thumbs.exe f="[output_filepath]" x=600 y=110 w=953 lw=400 lh=300 sw=32 sh=32 d=Y
;   defaultSpeed,4200
;   outlineUnderspeed,0.5
;   solidInfillUnderspeed,0.8
;   supportUnderspeed,0.8
;   rapidXYspeed,6000
;   rapidZspeed,1002
;   minBridgingArea,50
;   bridgingExtraInflation,0.2
;   bridgingExtrusionMultiplier,1
;   bridgingSpeedMultiplier,0.8
;   useFixedBridgingAngle,0
;   fixedBridgingAngle,0
;   applyBridgingToPerimeters,0
;   filamentDiameters,1.75|1.75|1.75|1.75|1.75|1.75
;   filamentPricesPerKg,30|46|46|46|46|46
;   filamentDensities,1.25|1.25|1.25|1.25|1.25|1.25
;   useMinPrintHeight,0
;   minPrintHeight,0
;   useMaxPrintHeight,0
;   maxPrintHeight,50
;   useDiaphragm,0
;   diaphragmLayerInterval,20
;   robustSlicing,1
;   mergeAllIntoSolid,0
;   onlyRetractWhenCrossingOutline,1
;   retractBetweenLayers,1
;   useRetractionMinTravel,0
;   retractionMinTravel,3
;   retractWhileWiping,1
;   onlyWipeOutlines,1
;   avoidCrossingOutline,0
;   maxMovementDetourFactor,3
;   toolChangeRetractionDistance,12
;   toolChangeExtraRestartDistance,-0.5
;   toolChangeRetractionSpeed,600
;   externalThinWallType,1
;   internalThinWallType,1
;   thinWallAllowedOverlapPercentage,10
;   singleExtrusionMinLength,1
;   singleExtrusionMinPrintingWidthPercentage,50
;   singleExtrusionMaxPrintingWidthPercentage,200
;   singleExtrusionEndpointExtension,0.2
;   horizontalSizeCompensation,0
G90
M82
M106 S0
M140 S10
;
; -]H.P.B[- MarshMalloW  
; $VER: StartScript 1.03 (18.12.2022) MarshMalloW
;
; Begin Startcode
;
M117 *Preheat*	; Preheat
;extruder0_temperature
M104 S185
M109 S185
;M109 R185 
;
M117 *Auto-leveling*     	; Auto-leveling
M107                   	; Turn layer fan off
G21                    	; Set to metric [change to G20 if you want Imperial]
G90                    	; Force coordinates to be absolute relative to the origin
G28                    	; Home X/Y/Z axis
G29                    	; Auto-leveling (BL-Touch)
;
M117 *Start Clean*     	; Indicate nozzle clean in progress on LCD
G92 E0                 	; Set Extruder to 0 
G1 X0 Y0 F2000         	; Move X and Y to 0 with speed 2000 (mm/min)
G1 Z0.1 F1000          	; Move Z to   0.1 with speed 1000 (mm/min)
G1 X8.0 F2000          	; Move X to   8.0 with speed 2000 (mm/min)
G1 Y60.0 E4.0 F1000.0  	; Move Y to  60 and Extruder with 4.0 with speed 1000 (mm/min)
G1 Y100.0 E8.5 F1000.0 	; Move Y to 100 and Extruder with 8.5 with speed 1000 (mm/min)
G92 E0                 	; Set extruder to 0
G1 X16.0 F3000         	; Move X to 16.0 with speed 3000 (mm/min)
G1 Y60.0 F3000         	; Move Y to 60.0 with speed 3000 (mm/min)
M117 *End Clean*       	; Indicate nozzle clean in progress on LCD
G1 Z5 F3000            	; Move Z to  5.0 with speed 3000 (mm/min)
G1 X20.0 F3000         	; Move X to 20.0 with speed 3000 (mm/min)
G1 Y20.0 F3000         	; Move Y to 20.0 with speed 3000 (mm/min)
; 
M117 *Printing...*     	; Start printing msg on LCD
;
; End Startcode
;
; Begin printing with sliced GCode after here
;
; process PLA A15
; layer 1, Z = 0.144
T0
G92 E0.0000
G1 E-4.0000 F3000
; feature skirt
; tool H0.144 W0.350
G1 Z0.300 F1002
G1 X124.804 Y124.105 F6000
G1 Z0.144 F1002
G1 E0.0000 F3000
G92 E0.0000
G1 X126.060 Y122.940 E0.0341 F1050
G1 X126.126 Y122.881 E0.0359
G1 X127.439 Y121.780 E0.0700
G1 X127.508 Y121.725 E0.0717
G1 X128.874 Y120.690 E0.1058
G1 X128.945 Y120.639 E0.1076
G1 X130.361 Y119.674 E0.1417
G1 X130.435 Y119.626 E0.1434
G1 X131.897 Y118.733 E0.1776
G1 X131.973 Y118.689 E0.1793
G1 X133.478 Y117.869 E0.2134
G1 X133.556 Y117.829 E0.2152
G1 X135.100 Y117.085 E0.2493
G1 X135.180 Y117.049 E0.2510
G1 X136.759 Y116.384 E0.2851
G1 X136.841 Y116.352 E0.2869
G1 X138.451 Y115.765 E0.3210
G1 X138.535 Y115.737 E0.3228
G1 X140.172 Y115.232 E0.3569
G1 X140.257 Y115.209 E0.3586
G1 X141.918 Y114.786 E0.3927
G1 X142.003 Y114.766 E0.3945
G1 X143.683 Y114.427 E0.4286
G1 X143.769 Y114.411 E0.4303
G1 X145.464 Y114.156 E0.4644
G1 X145.551 Y114.145 E0.4662
G1 X147.256 Y113.974 E0.5003
G1 X147.344 Y113.968 E0.5021
G1 X149.055 Y113.882 E0.5362
G1 X149.143 Y113.880 E0.5379
G1 X150.857 Y113.880 E0.5720
G1 X150.945 Y113.882 E0.5738
G1 X152.656 Y113.968 E0.6079
G1 X152.744 Y113.974 E0.6096
G1 X154.449 Y114.145 E0.6438
G1 X154.536 Y114.156 E0.6455
G1 X156.231 Y114.411 E0.6796
G1 X156.317 Y114.427 E0.6814
G1 X157.997 Y114.766 E0.7155
G1 X158.082 Y114.786 E0.7172
G1 X159.743 Y115.209 E0.7513
G1 X159.828 Y115.232 E0.7531
G1 X161.465 Y115.737 E0.7872
G1 X161.549 Y115.765 E0.7889
G1 X163.159 Y116.352 E0.8231
G1 X163.241 Y116.384 E0.8248
G1 X164.820 Y117.049 E0.8589
G1 X164.900 Y117.085 E0.8607
G1 X166.444 Y117.829 E0.8948
G1 X166.522 Y117.869 E0.8965
G1 X168.027 Y118.689 E0.9306
G1 X168.103 Y118.733 E0.9324
G1 X169.565 Y119.626 E0.9665
G1 X169.639 Y119.674 E0.9683
G1 X171.055 Y120.639 E1.0024
G1 X171.126 Y120.690 E1.0041
G1 X172.492 Y121.725 E1.0382
G1 X172.561 Y121.780 E1.0400
G1 X173.874 Y122.881 E1.0741
G1 X173.940 Y122.940 E1.0758
G1 X175.196 Y124.105 E1.1100
G1 X175.259 Y124.166 E1.1117
G1 X176.455 Y125.393 E1.1458
G1 X176.515 Y125.458 E1.1476
G1 X177.649 Y126.742 E1.1817
G1 X177.705 Y126.810 E1.1834
G1 X178.774 Y128.150 E1.2175
G1 X178.827 Y128.220 E1.2193
G1 X179.827 Y129.611 E1.2534
G1 X179.877 Y129.684 E1.2551
G1 X180.806 Y131.123 E1.2893
G1 X180.852 Y131.198 E1.2910
G1 X181.709 Y132.682 E1.3251
G1 X181.751 Y132.759 E1.3269
G1 X182.533 Y134.284 E1.3610
G1 X182.571 Y134.363 E1.3627
G1 X183.276 Y135.925 E1.3968
G1 X183.310 Y136.006 E1.3986
G1 X183.936 Y137.602 E1.4327
G1 X183.966 Y137.684 E1.4345
G1 X184.512 Y139.309 E1.4686
G1 X184.538 Y139.393 E1.4703
G1 X185.002 Y141.042 E1.5044
G1 X185.024 Y141.127 E1.5062
G1 X185.405 Y142.798 E1.5403
G1 X185.422 Y142.884 E1.5420
G1 X185.720 Y144.572 E1.5761
G1 X185.733 Y144.659 E1.5779
G1 X185.946 Y146.359 E1.6120
G1 X185.955 Y146.446 E1.6138
G1 X186.083 Y148.155 E1.6479
G1 X186.087 Y148.243 E1.6496
G1 X186.130 Y149.956 E1.6837
G1 X186.130 Y150.044 E1.6855
G1 X186.087 Y151.757 E1.7196
G1 X186.083 Y151.845 E1.7213
G1 X185.955 Y153.554 E1.7555
G1 X185.946 Y153.641 E1.7572
G1 X185.733 Y155.341 E1.7913
G1 X185.720 Y155.428 E1.7931
G1 X185.422 Y157.116 E1.8272
G1 X185.405 Y157.202 E1.8289
G1 X185.024 Y158.873 E1.8630
G1 X185.002 Y158.958 E1.8648
G1 X184.538 Y160.607 E1.8989
G1 X184.512 Y160.691 E1.9007
G1 X183.966 Y162.316 E1.9348
G1 X183.936 Y162.398 E1.9365
G1 X183.310 Y163.994 E1.9706
G1 X183.276 Y164.075 E1.9724
G1 X182.571 Y165.637 E2.0065
G1 X182.533 Y165.716 E2.0082
G1 X181.751 Y167.241 E2.0423
G1 X181.709 Y167.318 E2.0441
G1 X180.852 Y168.802 E2.0782
G1 X180.806 Y168.877 E2.0800
G1 X179.877 Y170.316 E2.1141
G1 X179.827 Y170.389 E2.1158
G1 X178.827 Y171.780 E2.1499
G1 X178.774 Y171.850 E2.1517
G1 X177.705 Y173.190 E2.1858
G1 X177.649 Y173.258 E2.1875
G1 X176.515 Y174.542 E2.2217
G1 X176.455 Y174.607 E2.2234
G1 X175.259 Y175.834 E2.2575
G1 X175.196 Y175.895 E2.2593
G1 X173.940 Y177.060 E2.2934
G1 X173.874 Y177.119 E2.2951
G1 X172.561 Y178.220 E2.3292
G1 X172.492 Y178.275 E2.3310
G1 X171.126 Y179.310 E2.3651
G1 X171.055 Y179.361 E2.3668
G1 X169.639 Y180.326 E2.4010
G1 X169.565 Y180.374 E2.4027
G1 X168.103 Y181.267 E2.4368
G1 X168.027 Y181.311 E2.4386
G1 X166.522 Y182.131 E2.4727
G1 X166.444 Y182.171 E2.4744
G1 X164.900 Y182.915 E2.5085
G1 X164.820 Y182.951 E2.5103
G1 X163.241 Y183.616 E2.5444
G1 X163.159 Y183.648 E2.5462
G1 X161.549 Y184.235 E2.5803
G1 X161.465 Y184.263 E2.5820
G1 X159.828 Y184.768 E2.6161
G1 X159.743 Y184.791 E2.6179
G1 X158.082 Y185.214 E2.6520
G1 X157.997 Y185.234 E2.6537
G1 X156.317 Y185.573 E2.6878
G1 X156.231 Y185.589 E2.6896
G1 X154.536 Y185.844 E2.7237
G1 X154.449 Y185.855 E2.7255
G1 X152.744 Y186.026 E2.7596
G1 X152.656 Y186.032 E2.7613
G1 X150.945 Y186.118 E2.7954
G1 X150.857 Y186.120 E2.7972
G1 X149.143 Y186.120 E2.8313
G1 X149.055 Y186.118 E2.8330
G1 X147.344 Y186.032 E2.8672
G1 X147.256 Y186.026 E2.8689
G1 X145.551 Y185.855 E2.9030
G1 X145.464 Y185.844 E2.9048
G1 X143.769 Y185.589 E2.9389
G1 X143.683 Y185.573 E2.9406
G1 X142.003 Y185.234 E2.9747
G1 X141.918 Y185.214 E2.9765
G1 X140.257 Y184.791 E3.0106
G1 X140.172 Y184.768 E3.0124
G1 X138.535 Y184.263 E3.0465
G1 X138.451 Y184.235 E3.0482
G1 X136.841 Y183.648 E3.0823
G1 X136.759 Y183.616 E3.0841
G1 X135.180 Y182.951 E3.1182
G1 X135.100 Y182.915 E3.1199
G1 X133.556 Y182.171 E3.1540
G1 X133.478 Y182.131 E3.1558
G1 X131.973 Y181.311 E3.1899
G1 X131.897 Y181.267 E3.1917
G1 X130.435 Y180.374 E3.2258
G1 X130.361 Y180.326 E3.2275
G1 X128.945 Y179.361 E3.2616
G1 X128.874 Y179.310 E3.2634
G1 X127.508 Y178.275 E3.2975
G1 X127.439 Y178.220 E3.2992
G1 X126.126 Y177.119 E3.3334
G1 X126.060 Y177.060 E3.3351
G1 X124.804 Y175.895 E3.3692
G1 X124.741 Y175.834 E3.3710
G1 X123.545 Y174.607 E3.4051
G1 X123.485 Y174.542 E3.4068
G1 X122.351 Y173.258 E3.4409
G1 X122.295 Y173.190 E3.4427
G1 X121.226 Y171.850 E3.4768
G1 X121.173 Y171.780 E3.4785
G1 X120.173 Y170.389 E3.5127
G1 X120.123 Y170.316 E3.5144
G1 X119.194 Y168.877 E3.5485
G1 X119.148 Y168.802 E3.5503
G1 X118.291 Y167.318 E3.5844
G1 X118.249 Y167.241 E3.5861
G1 X117.467 Y165.716 E3.6202
G1 X117.429 Y165.637 E3.6220
G1 X116.724 Y164.075 E3.6561
G1 X116.690 Y163.994 E3.6579
G1 X116.064 Y162.398 E3.6920
G1 X116.034 Y162.316 E3.6937
G1 X115.488 Y160.691 E3.7278
G1 X115.462 Y160.607 E3.7296
G1 X114.998 Y158.958 E3.7637
G1 X114.976 Y158.873 E3.7654
G1 X114.595 Y157.202 E3.7996
G1 X114.578 Y157.116 E3.8013
G1 X114.280 Y155.428 E3.8354
