; G-Code generated by Simplify3D(R) Version 4.1.2
; Jun 25, 2022 at 1:06:13 PM
; Settings Summary
;   processName,Process1
;   applyToModels,BackPhoto
;   profileName,A11-04-10 Tevo Tornado
;   profileVersion,2022-06-10 08:12:42
;   baseProfile,Creality CR-10(2)
;   printMaterial,PLA
;   printQuality,Medium
;   printExtruders,
;   extruderName,Primary Extruder
;   extruderToolheadNumber,0
;   extruderDiameter,0.4
;   extruderAutoWidth,0
;   extruderWidth,0.35
;   extrusionMultiplier,0.95
;   extruderUseRetract,1
;   extruderRetractionDistance,4
;   extruderExtraRestartDistance,0
;   extruderRetractionZLift,0.1
;   extruderRetractionSpeed,6000
;   extruderUseCoasting,1
;   extruderCoastingDistance,0.6
;   extruderUseWipe,1
;   extruderWipeDistance,5
;   primaryExtruder,0
;   layerHeight,0.15
;   topSolidLayers,5
;   bottomSolidLayers,4
;   perimeterOutlines,3
;   printPerimetersInsideOut,0
;   startPointOption,1
;   startPointOriginX,0
;   startPointOriginY,300
;   sequentialIslands,0
;   spiralVaseMode,0
;   firstLayerHeightPercentage,120
;   firstLayerWidthPercentage,100
;   firstLayerUnderspeed,0.4
;   useRaft,0
;   raftExtruder,0
;   raftTopLayers,3
;   raftBaseLayers,2
;   raftOffset,3
;   raftSeparationDistance,0.14
;   raftTopInfill,100
;   aboveRaftSpeedMultiplier,0.3
;   useSkirt,1
;   skirtExtruder,0
;   skirtLayers,1
;   skirtOutlines,2
;   skirtOffset,3
;   usePrimePillar,0
;   primePillarExtruder,999
;   primePillarWidth,12
;   primePillarLocation,7
;   primePillarSpeedMultiplier,1
;   useOozeShield,0
;   oozeShieldExtruder,999
;   oozeShieldOffset,2
;   oozeShieldOutlines,1
;   oozeShieldSidewallShape,1
;   oozeShieldSidewallAngle,30
;   oozeShieldSpeedMultiplier,1
;   infillExtruder,0
;   internalInfillPattern,Rectilinear
;   externalInfillPattern,Rectilinear
;   infillPercentage,10
;   outlineOverlapPercentage,15
;   infillExtrusionWidthPercentage,100
;   minInfillLength,5
;   infillLayerInterval,1
;   internalInfillAngles,45,-45
;   overlapInternalInfillAngles,0
;   externalInfillAngles,45,-45
;   generateSupport,0
;   supportExtruder,0
;   supportInfillPercentage,30
;   supportExtraInflation,0
;   supportBaseLayers,0
;   denseSupportExtruder,0
;   denseSupportLayers,0
;   denseSupportInfillPercentage,70
;   supportLayerInterval,1
;   supportHorizontalPartOffset,0.4
;   supportUpperSeparationLayers,1
;   supportLowerSeparationLayers,1
;   supportType,0
;   supportGridSpacing,4.5
;   maxOverhangAngle,45
;   supportAngles,0
;   temperatureName,Primary Extruder,Heated Bed
;   temperatureNumber,0,0
;   temperatureSetpointCount,2,2
;   temperatureSetpointLayers,1,2,1,2
;   temperatureSetpointTemperatures,215,210,55,50
;   temperatureStabilizeAtStartup,1,1
;   temperatureHeatedBed,0,1
;   fanLayers,1,2
;   fanSpeeds,0,100
;   blipFanToFullPower,0
;   adjustSpeedForCooling,1
;   minSpeedLayerTime,15
;   minCoolingSpeedSlowdown,20
;   increaseFanForCooling,1
;   minFanLayerTime,25
;   maxCoolingFanSpeed,100
;   increaseFanForBridging,1
;   bridgingFanSpeed,100
;   use5D,1
;   relativeEdistances,0
;   allowEaxisZeroing,1
;   independentExtruderAxes,0
;   includeM10123,0
;   stickySupport,1
;   applyToolheadOffsets,0
;   gcodeXoffset,0
;   gcodeYoffset,0
;   gcodeZoffset,0
;   overrideMachineDefinition,1
;   machineTypeOverride,0
;   strokeXoverride,300
;   strokeYoverride,300
;   strokeZoverride,400
;   originOffsetXoverride,0
;   originOffsetYoverride,0
;   originOffsetZoverride,0
;   homeXdirOverride,-1
;   homeYdirOverride,-1
;   homeZdirOverride,-1
;   flipXoverride,1
;   flipYoverride,-1
;   flipZoverride,1
;   toolheadOffsets,0,0|0,0|0,0|0,0|0,0|0,0
;   overrideFirmwareConfiguration,1
;   firmwareTypeOverride,RepRap (Marlin/Repetier/Sprinter)
;   GPXconfigOverride,r2
;   baudRateOverride,250000
;   overridePrinterModels,1
;   printerModelsOverride
;   startingGcode,;,; -]H.P.B[- MarshMalloW  ,; $VER: StartScript 1.02 (26.12.2019) MarshMalloW,;,; Begin Startcode,;,M117 *Preheat*     	; Preheat,;extruder0_temperature,M104 S[extruder0_temperature]  ,M109 S[extruder0_temperature] ,M109 R[extruder0_temperature] ,;,M117 *Auto-leveling*     	; Auto-leveling,M107                   	; Turn layer fan off,G21                    	; Set to metric [change to G20 if you want Imperial],G90                    	; Force coordinates to be absolute relative to the origin,G28                    	; Home X/Y/Z axis,G29                    	; Auto-leveling (BL-Touch),;,M117 *Start Clean*     	; Indicate nozzle clean in progress on LCD,G92 E0                 	; Set Extruder to 0 ,G1 X0 Y0 F2000         	; Move X and Y to 0 with speed 2000 (mm/min),G1 Z0.1 F1000          	; Move Z to   0.1 with speed 1000 (mm/min),G1 X8.0 F2000          	; Move X to   8.0 with speed 2000 (mm/min),G1 Y60.0 E4.0 F1000.0  	; Move Y to  60 and Extruder with 4.0 with speed 1000 (mm/min),G1 Y100.0 E8.5 F1000.0 	; Move Y to 100 and Extruder with 8.5 with speed 1000 (mm/min),G92 E0                 	; Set extruder to 0,G1 X16.0 F3000         	; Move X to 16.0 with speed 3000 (mm/min),G1 Y60.0 F3000         	; Move Y to 60.0 with speed 3000 (mm/min),M117 *End Clean*       	; Indicate nozzle clean in progress on LCD,G1 Z5 F3000            	; Move Z to  5.0 with speed 3000 (mm/min),G1 X20.0 F3000         	; Move X to 20.0 with speed 3000 (mm/min),G1 Y20.0 F3000         	; Move Y to 20.0 with speed 3000 (mm/min),; ,M117 *Printing...*     	; Start printing msg on LCD,;,; End Startcode,;,; Begin printing with sliced GCode after here,;
;   layerChangeGcode,
;   retractionGcode,
;   toolChangeGcode,
;   endingGcode,;,; init 181010,;,;M107 			; Fan off,;G1 E-1 F300 			; Retract the filament a bit before lifting the nozzle,;M104 S0 			; Turn off extruder,;M140 S0 			; Turn off bed,;G91			; Relative positioning,;G28 X0 Y0 			; Move X/Y to min endstops so the head is out of teh way,;M84 			; Disable motors,;G90 			; Absolute positioning,;M117 Print ready...,,;,; // From Cura 181010,; // End_gcode,G92 E0			; Zero the extruded length,;G1 E-30 F300		; Retract E -30,M106 S0			; Turn off cooling fan,M104 S0			; Turn off temperature,M140 S0		     	; Turn off bed,G91			; Relative positioning,G1 E-1 F300			; Retract the filament a bit before lifting the nozzle to release some of the pressure,G1 Z+20 E-5 X-20 Y-20 F7200	; Move Z up a bit and retract filament even more,G1 X0 Y150 F10000		; Move right min,M107			; Turn off layer fan,M84			; Disable motors,G90			; Absolute positioning,M117 *The-End* 		; End msg,;,
;   exportFileFormat,gcode
;   celebration,0
;   celebrationSong,Star Wars
;   postProcessing,|{REPLACE "; layer " "M117 INDICATOR-Layer"}|{REPLACE ", Z = " "\n; Z="}
;   defaultSpeed,2400
;   outlineUnderspeed,0.6
;   solidInfillUnderspeed,0.8
;   supportUnderspeed,0.8
;   rapidXYspeed,3600
;   rapidZspeed,900
;   minBridgingArea,50
;   bridgingExtraInflation,0.2
;   bridgingExtrusionMultiplier,1
;   bridgingSpeedMultiplier,0.6
;   useFixedBridgingAngle,0
;   fixedBridgingAngle,0
;   applyBridgingToPerimeters,0
;   filamentDiameters,1.75|1.75|1.75|1.75|1.75|1.75
;   filamentPricesPerKg,30|46|46|46|46|46
;   filamentDensities,1.25|1.25|1.25|1.25|1.25|1.25
;   useMinPrintHeight,0
;   minPrintHeight,0
;   useMaxPrintHeight,0
;   maxPrintHeight,50
;   useDiaphragm,0
;   diaphragmLayerInterval,20
;   robustSlicing,1
;   mergeAllIntoSolid,0
;   onlyRetractWhenCrossingOutline,1
;   retractBetweenLayers,1
;   useRetractionMinTravel,0
;   retractionMinTravel,3
;   retractWhileWiping,1
;   onlyWipeOutlines,1
;   avoidCrossingOutline,1
;   maxMovementDetourFactor,3
;   toolChangeRetractionDistance,12
;   toolChangeExtraRestartDistance,-0.5
;   toolChangeRetractionSpeed,600
;   externalThinWallType,1
;   internalThinWallType,1
;   thinWallAllowedOverlapPercentage,20
;   singleExtrusionMinLength,1
;   singleExtrusionMinPrintingWidthPercentage,50
;   singleExtrusionMaxPrintingWidthPercentage,200
;   singleExtrusionEndpointExtension,0.2
;   horizontalSizeCompensation,0
G90
M82
M106 S0
M140 S55
M190 S55
;
; -]H.P.B[- MarshMalloW  
; $VER: StartScript 1.02 (26.12.2019) MarshMalloW
;
; Begin Startcode
;
M117 *Preheat*     	; Preheat
;extruder0_temperature
M104 S215  
M109 S215 
M109 R215 
;
M117 *Auto-leveling*     	; Auto-leveling
M107                   	; Turn layer fan off
G21                    	; Set to metric [change to G20 if you want Imperial]
G90                    	; Force coordinates to be absolute relative to the origin
G28                    	; Home X/Y/Z axis
G29                    	; Auto-leveling (BL-Touch)
;
M117 *Start Clean*     	; Indicate nozzle clean in progress on LCD
G92 E0                 	; Set Extruder to 0 
G1 X0 Y0 F2000         	; Move X and Y to 0 with speed 2000 (mm/min)
G1 Z0.1 F1000          	; Move Z to   0.1 with speed 1000 (mm/min)
G1 X8.0 F2000          	; Move X to   8.0 with speed 2000 (mm/min)
G1 Y60.0 E4.0 F1000.0  	; Move Y to  60 and Extruder with 4.0 with speed 1000 (mm/min)
G1 Y100.0 E8.5 F1000.0 	; Move Y to 100 and Extruder with 8.5 with speed 1000 (mm/min)
G92 E0                 	; Set extruder to 0
G1 X16.0 F3000         	; Move X to 16.0 with speed 3000 (mm/min)
G1 Y60.0 F3000         	; Move Y to 60.0 with speed 3000 (mm/min)
M117 *End Clean*       	; Indicate nozzle clean in progress on LCD
G1 Z5 F3000            	; Move Z to  5.0 with speed 3000 (mm/min)
G1 X20.0 F3000         	; Move X to 20.0 with speed 3000 (mm/min)
G1 Y20.0 F3000         	; Move Y to 20.0 with speed 3000 (mm/min)
; 
M117 *Printing...*     	; Start printing msg on LCD
;
; End Startcode
;
; Begin printing with sliced GCode after here
;
; process Process1
M117 INDICATOR-Layer1
; Z=0.180
T0
G92 E0.0000
G1 E-4.0000 F6000
; feature skirt
; tool H0.180 W0.350
G1 Z0.180 F900
G1 X150.915 Y115.073 F3600
G1 E0.0000 F6000
G92 E0.0000
G1 X152.567 Y115.155 E0.0412 F960
G1 X152.655 Y115.162 E0.0434
G1 X154.301 Y115.327 E0.0845
G1 X154.388 Y115.338 E0.0867
G1 X156.024 Y115.584 E0.1279
G1 X156.110 Y115.599 E0.1300
G1 X157.732 Y115.927 E0.1712
G1 X157.817 Y115.947 E0.1734
G1 X159.421 Y116.355 E0.2146
G1 X159.505 Y116.379 E0.2167
G1 X161.086 Y116.866 E0.2579
G1 X161.169 Y116.894 E0.2601
G1 X162.724 Y117.460 E0.3013
G1 X162.806 Y117.492 E0.3034
G1 X164.330 Y118.135 E0.3446
G1 X164.410 Y118.171 E0.3468
G1 X165.900 Y118.889 E0.3880
G1 X165.979 Y118.929 E0.3901
G1 X167.431 Y119.720 E0.4313
G1 X167.508 Y119.764 E0.4335
G1 X168.919 Y120.626 E0.4747
G1 X168.993 Y120.674 E0.4768
G1 X170.360 Y121.606 E0.5180
G1 X170.431 Y121.657 E0.5202
G1 X171.750 Y122.656 E0.5614
G1 X171.818 Y122.711 E0.5635
G1 X173.086 Y123.774 E0.6047
G1 X173.152 Y123.832 E0.6069
G1 X174.364 Y124.958 E0.6480
G1 X174.427 Y125.019 E0.6502
G1 X175.582 Y126.203 E0.6914
G1 X175.642 Y126.268 E0.6936
G1 X176.737 Y127.508 E0.7347
G1 X176.793 Y127.575 E0.7369
G1 X177.824 Y128.869 E0.7781
G1 X177.878 Y128.939 E0.7803
G1 X178.843 Y130.282 E0.8214
G1 X178.893 Y130.354 E0.8236
G1 X179.790 Y131.744 E0.8648
G1 X179.836 Y131.819 E0.8670
G1 X180.663 Y133.252 E0.9081
G1 X180.705 Y133.329 E0.9103
G1 X181.460 Y134.801 E0.9515
G1 X181.498 Y134.880 E0.9537
G1 X182.178 Y136.388 E0.9948
G1 X182.213 Y136.469 E0.9970
G1 X182.817 Y138.009 E1.0382
G1 X182.847 Y138.091 E1.0404
G1 X183.374 Y139.660 E1.0815
G1 X183.400 Y139.744 E1.0837
G1 X183.848 Y141.336 E1.1249
G1 X183.869 Y141.421 E1.1271
G1 X184.238 Y143.034 E1.1682
G1 X184.255 Y143.120 E1.1704
G1 X184.542 Y144.749 E1.2116
G1 X184.555 Y144.836 E1.2138
G1 X184.761 Y146.477 E1.2549
G1 X184.770 Y146.565 E1.2571
G1 X184.893 Y148.215 E1.2983
G1 X184.898 Y148.302 E1.3005
G1 X184.939 Y149.956 E1.3416
G1 X184.939 Y150.044 E1.3438
G1 X184.898 Y151.698 E1.3850
G1 X184.893 Y151.785 E1.3872
G1 X184.770 Y153.435 E1.4283
G1 X184.761 Y153.523 E1.4305
G1 X184.555 Y155.164 E1.4717
G1 X184.542 Y155.251 E1.4739
G1 X184.255 Y156.880 E1.5150
G1 X184.238 Y156.966 E1.5172
G1 X183.869 Y158.579 E1.5584
G1 X183.848 Y158.664 E1.5606
G1 X183.400 Y160.256 E1.6017
G1 X183.374 Y160.340 E1.6039
G1 X182.847 Y161.909 E1.6451
G1 X182.817 Y161.991 E1.6473
G1 X182.213 Y163.531 E1.6884
G1 X182.178 Y163.612 E1.6906
G1 X181.498 Y165.120 E1.7318
G1 X181.460 Y165.199 E1.7340
G1 X180.705 Y166.671 E1.7751
G1 X180.663 Y166.748 E1.7773
G1 X179.836 Y168.181 E1.8185
G1 X179.790 Y168.256 E1.8207
G1 X178.893 Y169.646 E1.8618
G1 X178.843 Y169.718 E1.8640
G1 X177.878 Y171.061 E1.9052
G1 X177.824 Y171.131 E1.9074
G1 X176.793 Y172.425 E1.9485
G1 X176.737 Y172.492 E1.9507
G1 X175.642 Y173.732 E1.9919
G1 X175.582 Y173.797 E1.9941
G1 X174.427 Y174.981 E2.0352
G1 X174.364 Y175.042 E2.0374
G1 X173.152 Y176.168 E2.0786
G1 X173.086 Y176.226 E2.0808
G1 X171.818 Y177.289 E2.1219
G1 X171.750 Y177.344 E2.1241
G1 X170.431 Y178.343 E2.1653
G1 X170.360 Y178.394 E2.1675
G1 X168.993 Y179.326 E2.2086
G1 X168.919 Y179.374 E2.2108
G1 X167.508 Y180.236 E2.2520
G1 X167.431 Y180.280 E2.2542
G1 X165.979 Y181.071 E2.2953
G1 X165.900 Y181.111 E2.2975
G1 X164.410 Y181.829 E2.3387
G1 X164.330 Y181.865 E2.3409
G1 X162.806 Y182.508 E2.3820
G1 X162.724 Y182.540 E2.3842
G1 X161.169 Y183.106 E2.4254
G1 X161.086 Y183.134 E2.4275
G1 X159.505 Y183.621 E2.4687
G1 X159.421 Y183.645 E2.4709
G1 X157.817 Y184.053 E2.5121
G1 X157.732 Y184.073 E2.5142
G1 X156.110 Y184.401 E2.5554
G1 X156.024 Y184.416 E2.5576
G1 X154.388 Y184.662 E2.5988
G1 X154.301 Y184.673 E2.6009
G1 X152.655 Y184.838 E2.6421
G1 X152.567 Y184.845 E2.6443
G1 X150.915 Y184.927 E2.6855
G1 X150.827 Y184.929 E2.6876
G1 X149.173 Y184.929 E2.7288
G1 X149.085 Y184.927 E2.7310
G1 X147.433 Y184.845 E2.7722
G1 X147.345 Y184.838 E2.7743
G1 X145.699 Y184.673 E2.8155
G1 X145.612 Y184.662 E2.8177
G1 X143.976 Y184.416 E2.8589
G1 X143.890 Y184.401 E2.8610
G1 X142.268 Y184.073 E2.9022
G1 X142.182 Y184.053 E2.9044
G1 X140.579 Y183.645 E2.9455
G1 X140.495 Y183.621 E2.9477
G1 X138.914 Y183.134 E2.9889
G1 X138.831 Y183.106 E2.9911
G1 X137.276 Y182.540 E3.0322
G1 X137.194 Y182.508 E3.0344
G1 X135.670 Y181.865 E3.0756
G1 X135.590 Y181.829 E3.0778
G1 X134.100 Y181.111 E3.1189
G1 X134.021 Y181.071 E3.1211
G1 X132.569 Y180.280 E3.1623
G1 X132.492 Y180.236 E3.1645
G1 X131.081 Y179.374 E3.2056
G1 X131.007 Y179.326 E3.2078
G1 X129.640 Y178.394 E3.2490
G1 X129.569 Y178.343 E3.2512
G1 X128.250 Y177.344 E3.2923
G1 X128.182 Y177.289 E3.2945
G1 X126.914 Y176.226 E3.3357
G1 X126.848 Y176.168 E3.3379
G1 X125.636 Y175.042 E3.3790
G1 X125.573 Y174.981 E3.3812
G1 X124.418 Y173.797 E3.4224
G1 X124.358 Y173.732 E3.4246
G1 X123.263 Y172.492 E3.4657
G1 X123.207 Y172.425 E3.4679
G1 X122.176 Y171.131 E3.5091
G1 X122.122 Y171.061 E3.5113
G1 X121.157 Y169.718 E3.5524
G1 X121.107 Y169.646 E3.5546
G1 X120.210 Y168.256 E3.5958
G1 X120.164 Y168.181 E3.5980
G1 X119.337 Y166.748 E3.6391
G1 X119.295 Y166.671 E3.6413
G1 X118.540 Y165.199 E3.6825
G1 X118.502 Y165.120 E3.6847
G1 X117.822 Y163.612 E3.7258
G1 X117.787 Y163.531 E3.7280
G1 X117.183 Y161.991 E3.7692
G1 X117.153 Y161.909 E3.7714
G1 X116.626 Y160.340 E3.8125
G1 X116.600 Y160.256 E3.8147
G1 X116.152 Y158.664 E3.8559
G1 X116.131 Y158.579 E3.8581
G1 X115.762 Y156.966 E3.8992
G1 X115.745 Y156.880 E3.9014
G1 X115.458 Y155.251 E3.9426
G1 X115.445 Y155.164 E3.9448
G1 X115.239 Y153.523 E3.9859
G1 X115.230 Y153.435 E3.9881
G1 X115.107 Y151.785 E4.0293
G1 X115.102 Y151.698 E4.0315
G1 X115.061 Y150.044 E4.0726
G1 X115.061 Y149.956 E4.0748
G1 X115.102 Y148.302 E4.1160
G1 X115.107 Y148.215 E4.1182
G1 X115.230 Y146.565 E4.1593
G1 X115.239 Y146.477 E4.1615
G1 X115.445 Y144.836 E4.2027
G1 X115.458 Y144.749 E4.2049
G1 X115.745 Y143.120 E4.2460
G1 X115.762 Y143.034 E4.2482
G1 X116.131 Y141.421 E4.2894
G1 X116.152 Y141.336 E4.2916
G1 X116.600 Y139.744 E4.3327
G1 X116.626 Y139.660 E4.3349
G1 X117.153 Y138.091 E4.3761
G1 X117.183 Y138.009 E4.3783
G1 X117.787 Y136.469 E4.4194
G1 X117.822 Y136.388 E4.4216
G1 X118.502 Y134.880 E4.4628
G1 X118.540 Y134.801 E4.4650
G1 X119.295 Y133.329 E4.5061
G1 X119.337 Y133.252 E4.5083
G1 X120.164 Y131.819 E4.5495
G1 X120.210 Y131.744 E4.5517
G1 X121.107 Y130.354 E4.5928
G1 X121.157 Y130.282 E4.5950
G1 X122.122 Y128.939 E4.6362
G1 X122.176 Y128.869 E4.6384
