; G-Code generated by Simplify3D(R) Version 4.1.2
; Oct 7, 2019 at 10:59:47 PM
; Settings Summary
;   processName,Process1
;   applyToModels,TFT32-coperchio-ondulata-griglia
;   profileName,201.01 Tevo Tornado 30% (experimental)
;   profileVersion,2019-10-06 14:33:21
;   baseProfile,Creality CR-10(2)
;   printMaterial,PLA
;   printQuality,Medium
;   printExtruders,
;   extruderName,Primary Extruder
;   extruderToolheadNumber,0
;   extruderDiameter,0.4
;   extruderAutoWidth,0
;   extruderWidth,0.35
;   extrusionMultiplier,0.95
;   extruderUseRetract,1
;   extruderRetractionDistance,6
;   extruderExtraRestartDistance,0
;   extruderRetractionZLift,0.3
;   extruderRetractionSpeed,3000
;   extruderUseCoasting,0
;   extruderCoastingDistance,0.2
;   extruderUseWipe,0
;   extruderWipeDistance,4
;   primaryExtruder,0
;   layerHeight,0.15
;   topSolidLayers,4
;   bottomSolidLayers,3
;   perimeterOutlines,3
;   printPerimetersInsideOut,0
;   startPointOption,3
;   startPointOriginX,0
;   startPointOriginY,300
;   sequentialIslands,0
;   spiralVaseMode,0
;   firstLayerHeightPercentage,120
;   firstLayerWidthPercentage,100
;   firstLayerUnderspeed,0.5
;   useRaft,0
;   raftExtruder,0
;   raftTopLayers,3
;   raftBaseLayers,2
;   raftOffset,3
;   raftSeparationDistance,0.14
;   raftTopInfill,100
;   aboveRaftSpeedMultiplier,0.3
;   useSkirt,1
;   skirtExtruder,0
;   skirtLayers,1
;   skirtOutlines,3
;   skirtOffset,2
;   usePrimePillar,0
;   primePillarExtruder,999
;   primePillarWidth,12
;   primePillarLocation,7
;   primePillarSpeedMultiplier,1
;   useOozeShield,0
;   oozeShieldExtruder,999
;   oozeShieldOffset,2
;   oozeShieldOutlines,1
;   oozeShieldSidewallShape,1
;   oozeShieldSidewallAngle,30
;   oozeShieldSpeedMultiplier,1
;   infillExtruder,0
;   internalInfillPattern,Rectilinear
;   externalInfillPattern,Rectilinear
;   infillPercentage,30
;   outlineOverlapPercentage,15
;   infillExtrusionWidthPercentage,100
;   minInfillLength,5
;   infillLayerInterval,1
;   internalInfillAngles,45,-45
;   overlapInternalInfillAngles,0
;   externalInfillAngles,45,-45
;   generateSupport,0
;   supportExtruder,0
;   supportInfillPercentage,30
;   supportExtraInflation,0
;   supportBaseLayers,0
;   denseSupportExtruder,0
;   denseSupportLayers,0
;   denseSupportInfillPercentage,70
;   supportLayerInterval,1
;   supportHorizontalPartOffset,0.4
;   supportUpperSeparationLayers,1
;   supportLowerSeparationLayers,1
;   supportType,0
;   supportGridSpacing,4.5
;   maxOverhangAngle,45
;   supportAngles,0
;   temperatureName,Primary Extruder,Heated Bed
;   temperatureNumber,0,0
;   temperatureSetpointCount,2,1
;   temperatureSetpointLayers,1,2,1
;   temperatureSetpointTemperatures,210,205,50
;   temperatureStabilizeAtStartup,1,1
;   temperatureHeatedBed,0,1
;   fanLayers,1,2
;   fanSpeeds,0,100
;   blipFanToFullPower,0
;   adjustSpeedForCooling,1
;   minSpeedLayerTime,15
;   minCoolingSpeedSlowdown,50
;   increaseFanForCooling,1
;   minFanLayerTime,25
;   maxCoolingFanSpeed,100
;   increaseFanForBridging,1
;   bridgingFanSpeed,100
;   use5D,1
;   relativeEdistances,0
;   allowEaxisZeroing,1
;   independentExtruderAxes,0
;   includeM10123,0
;   stickySupport,1
;   applyToolheadOffsets,0
;   gcodeXoffset,0
;   gcodeYoffset,0
;   gcodeZoffset,0
;   overrideMachineDefinition,1
;   machineTypeOverride,0
;   strokeXoverride,300
;   strokeYoverride,300
;   strokeZoverride,400
;   originOffsetXoverride,0
;   originOffsetYoverride,0
;   originOffsetZoverride,0
;   homeXdirOverride,-1
;   homeYdirOverride,-1
;   homeZdirOverride,-1
;   flipXoverride,1
;   flipYoverride,-1
;   flipZoverride,1
;   toolheadOffsets,0,0|0,0|0,0|0,0|0,0|0,0
;   overrideFirmwareConfiguration,1
;   firmwareTypeOverride,RepRap (Marlin/Repetier/Sprinter)
;   GPXconfigOverride,r2
;   baudRateOverride,250000
;   overridePrinterModels,1
;   printerModelsOverride
;   startingGcode,;Init 181010,;G28 			; Home all axes,;G1 Z5 F3000 		; Lift,;G92 E0			; Reset extrusion distance,,; // From Cura 181010,; // Update 190823 (GueroLoco),; // Update 191005 Autoleveling,; // Start_gcode,M117 *Start Clean*		; Indicate nozzle clean in progress on LCD,;,M104 S[extruder0_temperature] ,M109 S[extruder0_temperature] ,M109 R[extruder0_temperature] ,;,M107			; Turn layer fan off,G21			; Set to metric [change to G20 if you want Imperial],G90			; Force coordinates to be absolute relative to the origin,G28			; Home X/Y/Z axis,G29			; Auto-leveling,;,;G1 X3 Y1 Z15 F9000		; Move safe Z height to shear strings,;G0 X1 Y1 Z0.2 F9000		; Move in 1mm from edge and up [z] 0.2mm,;G92 E0			; Set extruder to [0] zero,;G1 X100 E12 F500		; Extrude 30mm filiment along X axis 100mm long to prime and clean the nozzle,;G92 E0			; Reset extruder to [0] zero end of cleaning run,;G1 E-1 F500			; Retract filiment by 1 mm to reduce string effect,;G1 X180 F4000		; Quick wipe away from the filament line / purge,;,G92 E0			; Set Extruder to 0 ,G1 X0 Y0 F2000		; Move X and Y to 0 with speed 2000 (mm/min),G1 Z0.1 F1000		; Move Z to 0.1,G1 X8.0 F2000		; Move X to 8.0,G1 Y60.0 E4.0 F1000.0		; Prime - Move Y to 60 and Extruder with 4.0,G1 Y100.0 E8.5 F1000.0		; Prime - Move Y to 100 and Extruder with 8.5,G92 E0			; Set extruder to 0,M117 *End Clean*		; Indicate nozzle clean in progress on LCD,G1 Z5 F3000			; Lift - Move Z to 5,; ,M117 *Printing...*		; start msg,; // Begin printing with sliced GCode after here,;
;   layerChangeGcode,
;   retractionGcode,
;   toolChangeGcode,
;   endingGcode,;,; init 181010,;,;M107 			; Fan off,;G1 E-1 F300 			; Retract the filament a bit before lifting the nozzle,;M104 S0 			; Turn off extruder,;M140 S0 			; Turn off bed,;G91			; Relative positioning,;G28 X0 Y0 			; Move X/Y to min endstops so the head is out of teh way,;M84 			; Disable motors,;G90 			; Absolute positioning,;M117 Print ready...,,;,; // From Cura 181010,; // End_gcode,G92 E0			; Zero the extruded length,G1 E-30 F300			; Retract E -30,M106 S0			; Turn off cooling fan,M104 S0			; Turn off temperature,M140 S0		     	; Turn off bed,G91			; Relative positioning,G1 E-1 F300			; Retract the filament a bit before lifting the nozzle to release some of the pressure,G1 Z+20 E-5 X-20 Y-20 F7200	; Move Z up a bit and retract filament even more,G1 X0 Y150 F10000		; Move right min,M107			; Turn off layer fan,M84			; Disable motors,G90			; Absolute positioning,M117 *The-End* 		; End msg,;,
;   exportFileFormat,gcode
;   celebration,0
;   celebrationSong,Star Wars
;   postProcessing,
;   defaultSpeed,1800
;   outlineUnderspeed,0.5
;   solidInfillUnderspeed,0.8
;   supportUnderspeed,0.8
;   rapidXYspeed,6000
;   rapidZspeed,1002
;   minBridgingArea,50
;   bridgingExtraInflation,0.2
;   bridgingExtrusionMultiplier,1
;   bridgingSpeedMultiplier,0.6
;   useFixedBridgingAngle,0
;   fixedBridgingAngle,0
;   applyBridgingToPerimeters,0
;   filamentDiameters,1.75|1.75|1.75|1.75|1.75|1.75
;   filamentPricesPerKg,30|46|46|46|46|46
;   filamentDensities,1.25|1.25|1.25|1.25|1.25|1.25
;   useMinPrintHeight,0
;   minPrintHeight,0
;   useMaxPrintHeight,0
;   maxPrintHeight,9
;   useDiaphragm,0
;   diaphragmLayerInterval,20
;   robustSlicing,1
;   mergeAllIntoSolid,0
;   onlyRetractWhenCrossingOutline,1
;   retractBetweenLayers,1
;   useRetractionMinTravel,0
;   retractionMinTravel,3
;   retractWhileWiping,0
;   onlyWipeOutlines,1
;   avoidCrossingOutline,0
;   maxMovementDetourFactor,3
;   toolChangeRetractionDistance,12
;   toolChangeExtraRestartDistance,-0.5
;   toolChangeRetractionSpeed,600
;   externalThinWallType,1
;   internalThinWallType,1
;   thinWallAllowedOverlapPercentage,15
;   singleExtrusionMinLength,1
;   singleExtrusionMinPrintingWidthPercentage,50
;   singleExtrusionMaxPrintingWidthPercentage,200
;   singleExtrusionEndpointExtension,0.2
;   horizontalSizeCompensation,0
G90
M82
M106 S0
M140 S50
M190 S50
;Init 181010
;G28 			; Home all axes
;G1 Z5 F3000 		; Lift
;G92 E0			; Reset extrusion distance
; // From Cura 181010
; // Update 190823 (GueroLoco)
; // Update 191005 Autoleveling
; // Start_gcode
M117 *Start Clean*		; Indicate nozzle clean in progress on LCD
;
M104 S210 
M109 S210 
M109 R210 
;
M107			; Turn layer fan off
G21			; Set to metric [change to G20 if you want Imperial]
G90			; Force coordinates to be absolute relative to the origin
G28			; Home X/Y/Z axis
G29			; Auto-leveling
;
;G1 X3 Y1 Z15 F9000		; Move safe Z height to shear strings
;G0 X1 Y1 Z0.2 F9000		; Move in 1mm from edge and up [z] 0.2mm
;G92 E0			; Set extruder to [0] zero
;G1 X100 E12 F500		; Extrude 30mm filiment along X axis 100mm long to prime and clean the nozzle
;G92 E0			; Reset extruder to [0] zero end of cleaning run
;G1 E-1 F500			; Retract filiment by 1 mm to reduce string effect
;G1 X180 F4000		; Quick wipe away from the filament line / purge
;
G92 E0			; Set Extruder to 0 
G1 X0 Y0 F2000		; Move X and Y to 0 with speed 2000 (mm/min)
G1 Z0.1 F1000		; Move Z to 0.1
G1 X8.0 F2000		; Move X to 8.0
G1 Y60.0 E4.0 F1000.0		; Prime - Move Y to 60 and Extruder with 4.0
G1 Y100.0 E8.5 F1000.0		; Prime - Move Y to 100 and Extruder with 8.5
G92 E0			; Set extruder to 0
M117 *End Clean*		; Indicate nozzle clean in progress on LCD
G1 Z5 F3000			; Lift - Move Z to 5
; 
M117 *Printing...*		; start msg
; // Begin printing with sliced GCode after here
;
; process Process1
; layer 1, Z = 0.180
T0
G92 E0.0000
G1 E-6.0000 F3000
; feature skirt
; tool H0.180 W0.350
G1 Z0.300 F1002
G1 X93.433 Y191.263 F6000
G1 Z0.180 F1002
G1 E0.0000 F3000
G92 E0.0000
G1 X93.286 Y191.129 E0.0050 F900
G1 X92.493 Y190.301 E0.0335
G1 X92.395 Y190.187 E0.0372
G1 X92.005 Y189.685 E0.0530
G1 X91.920 Y189.562 E0.0568
G1 X91.329 Y188.610 E0.0847
G1 X91.256 Y188.478 E0.0884
G1 X90.979 Y187.906 E0.1042
G1 X90.921 Y187.768 E0.1079
G1 X90.531 Y186.691 E0.1364
G1 X90.476 Y186.499 E0.1414
G1 X90.234 Y185.353 E0.1706
G1 X90.206 Y185.155 E0.1755
G1 X90.128 Y184.037 E0.2034
G1 X90.125 Y183.937 E0.2059
G1 X90.125 Y116.088 E1.8942
G1 X90.126 Y116.038 E1.8954
G1 X90.146 Y115.453 E1.9100
G1 X90.159 Y115.304 E1.9137
G1 X90.318 Y114.169 E1.9422
G1 X90.359 Y113.973 E1.9472
G1 X90.680 Y112.847 E1.9763
G1 X90.748 Y112.659 E1.9813
G1 X91.222 Y111.588 E2.0104
G1 X91.315 Y111.412 E2.0154
G1 X91.920 Y110.438 E2.0439
G1 X92.005 Y110.315 E2.0477
G1 X92.395 Y109.813 E2.0635
G1 X92.493 Y109.699 E2.0672
G1 X93.268 Y108.889 E2.0951
G1 X93.377 Y108.787 E2.0988
G1 X93.863 Y108.376 E2.1147
G1 X93.982 Y108.285 E2.1184
G1 X94.928 Y107.639 E2.1469
G1 X95.101 Y107.539 E2.1519
G1 X96.128 Y107.030 E2.1804
G1 X96.265 Y106.971 E2.1841
G1 X96.862 Y106.749 E2.1999
G1 X97.004 Y106.704 E2.2037
G1 X98.114 Y106.419 E2.2322
G1 X98.311 Y106.383 E2.2371
G1 X99.450 Y106.254 E2.2657
G1 X99.599 Y106.245 E2.2694
G1 X100.207 Y106.240 E2.2845
G1 X100.301 Y106.243 E2.2869
G1 X103.137 Y106.404 E2.3575
G1 X103.225 Y106.412 E2.3597
G1 X106.044 Y106.746 E2.4304
G1 X106.131 Y106.759 E2.4326
G1 X120.584 Y109.384 E2.7981
G1 X132.308 Y110.795 E3.0919
G1 X144.096 Y111.502 E3.3857
G1 X155.904 Y111.502 E3.6796
G1 X167.692 Y110.795 E3.9734
G1 X179.416 Y109.384 E4.2672
G1 X193.869 Y106.759 E4.6327
G1 X193.956 Y106.746 E4.6350
G1 X196.775 Y106.412 E4.7056
G1 X196.863 Y106.404 E4.7078
G1 X199.699 Y106.243 E4.7785
G1 X199.793 Y106.240 E4.7808
G1 X200.401 Y106.245 E4.7959
G1 X200.550 Y106.254 E4.7996
G1 X201.689 Y106.383 E4.8282
G1 X201.886 Y106.419 E4.8331
G1 X202.996 Y106.704 E4.8617
G1 X203.138 Y106.749 E4.8654
G1 X203.734 Y106.971 E4.8812
G1 X203.872 Y107.030 E4.8849
G1 X204.899 Y107.539 E4.9134
G1 X205.072 Y107.639 E4.9184
G1 X206.018 Y108.285 E4.9469
G1 X206.137 Y108.376 E4.9507
G1 X206.623 Y108.787 E4.9665
G1 X206.732 Y108.889 E4.9702
G1 X207.507 Y109.699 E4.9981
G1 X207.605 Y109.813 E5.0018
G1 X207.995 Y110.315 E5.0176
G1 X208.080 Y110.438 E5.0214
G1 X208.671 Y111.390 E5.0493
G1 X208.744 Y111.522 E5.0530
G1 X209.021 Y112.094 E5.0688
G1 X209.079 Y112.232 E5.0725
G1 X209.469 Y113.309 E5.1011
G1 X209.524 Y113.501 E5.1060
G1 X209.761 Y114.623 E5.1345
G1 X209.784 Y114.771 E5.1383
G1 X209.850 Y115.403 E5.1541
G1 X209.858 Y115.553 E5.1578
G1 X209.858 Y184.472 E6.8727
G1 X209.844 Y184.672 E6.8777
G1 X209.686 Y185.807 E6.9062
G1 X209.657 Y185.954 E6.9099
G1 X209.504 Y186.571 E6.9258
G1 X209.461 Y186.714 E6.9295
G1 X209.079 Y187.768 E6.9574
G1 X209.021 Y187.906 E6.9611
G1 X208.744 Y188.478 E6.9769
G1 X208.671 Y188.610 E6.9807
G1 X208.080 Y189.562 E7.0086
G1 X207.995 Y189.685 E7.0123
G1 X207.605 Y190.187 E7.0281
G1 X207.507 Y190.301 E7.0318
G1 X206.732 Y191.111 E7.0597
G1 X206.623 Y191.213 E7.0635
G1 X206.137 Y191.624 E7.0793
G1 X206.018 Y191.715 E7.0830
G1 X205.092 Y192.347 E7.1109
G1 X204.964 Y192.424 E7.1146
G1 X204.405 Y192.726 E7.1304
G1 X204.269 Y192.790 E7.1342
G1 X203.209 Y193.226 E7.1627
G1 X203.020 Y193.289 E7.1677
G1 X201.886 Y193.581 E7.1968
G1 X201.689 Y193.617 E7.2018
G1 X200.550 Y193.746 E7.2303
G1 X200.401 Y193.755 E7.2340
G1 X199.793 Y193.760 E7.2491
G1 X199.699 Y193.757 E7.2515
G1 X196.863 Y193.596 E7.3222
G1 X196.775 Y193.588 E7.3244
G1 X193.956 Y193.254 E7.3950
G1 X193.869 Y193.241 E7.3972
G1 X179.416 Y190.616 E7.7627
G1 X167.692 Y189.205 E8.0565
G1 X155.904 Y188.498 E8.3504
G1 X144.096 Y188.498 E8.6442
G1 X132.308 Y189.205 E8.9380
G1 X120.584 Y190.616 E9.2319
G1 X106.131 Y193.241 E9.5974
G1 X106.044 Y193.254 E9.5996
G1 X103.225 Y193.588 E9.6702
G1 X103.137 Y193.596 E9.6724
G1 X100.301 Y193.757 E9.7431
G1 X100.207 Y193.760 E9.7454
G1 X99.599 Y193.755 E9.7605
G1 X99.450 Y193.746 E9.7643
G1 X98.311 Y193.617 E9.7928
G1 X98.114 Y193.581 E9.7978
G1 X96.980 Y193.289 E9.8269
G1 X96.791 Y193.226 E9.8319
G1 X95.708 Y192.781 E9.8610
G1 X95.529 Y192.692 E9.8660
G1 X94.518 Y192.101 E9.8951
G1 X94.353 Y191.988 E9.9001
G1 X93.433 Y191.263 E9.9292
G92 E0.0000
G1 E-6.0000 F3000
G1 Z0.480 F1002
G1 X93.660 Y190.996 F6000
G1 Z0.180 F1002
G1 E0.0000 F3000
G92 E0.0000
G1 X93.530 Y190.878 E0.0044 F900
G1 X92.752 Y190.065 E0.0324
G1 X92.666 Y189.966 E0.0356
G1 X92.288 Y189.478 E0.0510
G1 X92.212 Y189.370 E0.0543
G1 X91.631 Y188.433 E0.0817
G1 X91.567 Y188.318 E0.0850
G1 X91.298 Y187.762 E0.1003
G1 X91.247 Y187.641 E0.1036
G1 X90.864 Y186.583 E0.1316
G1 X90.816 Y186.414 E0.1360
G1 X90.579 Y185.292 E0.1645
G1 X90.555 Y185.119 E0.1689
G1 X90.478 Y184.018 E0.1963
G1 X90.475 Y183.931 E0.1985
G1 X90.475 Y116.091 E1.8865
G1 X90.476 Y116.047 E1.8876
G1 X90.496 Y115.474 E1.9019
G1 X90.507 Y115.343 E1.9052
G1 X90.663 Y114.229 E1.9332
G1 X90.699 Y114.057 E1.9375
G1 X91.014 Y112.955 E1.9661
G1 X91.073 Y112.790 E1.9704
G1 X91.537 Y111.741 E1.9990
G1 X91.619 Y111.586 E2.0033
G1 X92.212 Y110.630 E2.0313
G1 X92.288 Y110.522 E2.0346
G1 X92.666 Y110.034 E2.0499
G1 X92.752 Y109.935 E2.0532
G1 X93.515 Y109.138 E2.0807
G1 X93.611 Y109.048 E2.0839
G1 X94.082 Y108.649 E2.0993
G1 X94.186 Y108.569 E2.1026
G1 X95.116 Y107.935 E2.1306
G1 X95.267 Y107.847 E2.1349
G1 X96.275 Y107.348 E2.1629
G1 X96.396 Y107.295 E2.1662
G1 X96.975 Y107.081 E2.1816
G1 X97.100 Y107.041 E2.1848
G1 X98.190 Y106.761 E2.2128
G1 X98.362 Y106.730 E2.2172
G1 X99.480 Y106.603 E2.2452
G1 X99.611 Y106.595 E2.2484
G1 X100.204 Y106.590 E2.2632
G1 X100.287 Y106.592 E2.2653
G1 X103.112 Y106.753 E2.3357
G1 X103.189 Y106.760 E2.3376
G1 X105.997 Y107.093 E2.4080
G1 X106.074 Y107.104 E2.4099
G1 X120.532 Y109.730 E2.7755
G1 X132.277 Y111.144 E3.0699
G1 X144.085 Y111.852 E3.3642
G1 X155.915 Y111.852 E3.6586
G1 X167.723 Y111.144 E3.9529
G1 X179.468 Y109.730 E4.2473
G1 X193.926 Y107.104 E4.6129
G1 X194.003 Y107.093 E4.6149
G1 X196.811 Y106.760 E4.6852
G1 X196.888 Y106.753 E4.6872
G1 X199.713 Y106.592 E4.7576
G1 X199.796 Y106.590 E4.7596
G1 X200.389 Y106.595 E4.7744
G1 X200.520 Y106.603 E4.7776
G1 X201.638 Y106.730 E4.8056
G1 X201.810 Y106.761 E4.8100
G1 X202.900 Y107.041 E4.8380
G1 X203.025 Y107.081 E4.8413
G1 X203.604 Y107.295 E4.8566
G1 X203.725 Y107.348 E4.8599
G1 X204.733 Y107.847 E4.8879
G1 X204.884 Y107.935 E4.8923
G1 X205.814 Y108.569 E4.9202
G1 X205.918 Y108.649 E4.9235
G1 X206.389 Y109.048 E4.9389
G1 X206.485 Y109.138 E4.9422
G1 X207.248 Y109.935 E4.9696
G1 X207.334 Y110.034 E4.9729
G1 X207.712 Y110.522 E4.9882
