; G-Code generated by Simplify3D(R) Version 4.1.2
; Oct 6, 2019 at 7:32:15 PM
; Settings Summary
;   processName,Process1
;   applyToModels,TFT32-coperchio-ondulata-griglia
;   profileName,201.01 Tevo Tornado 30% (experimental)
;   profileVersion,2019-10-06 14:33:21
;   baseProfile,Creality CR-10(2)
;   printMaterial,PLA
;   printQuality,Medium
;   printExtruders,
;   extruderName,Primary Extruder
;   extruderToolheadNumber,0
;   extruderDiameter,0.4
;   extruderAutoWidth,0
;   extruderWidth,0.35
;   extrusionMultiplier,0.95
;   extruderUseRetract,1
;   extruderRetractionDistance,6
;   extruderExtraRestartDistance,0
;   extruderRetractionZLift,0.3
;   extruderRetractionSpeed,3000
;   extruderUseCoasting,0
;   extruderCoastingDistance,0.2
;   extruderUseWipe,0
;   extruderWipeDistance,4
;   primaryExtruder,0
;   layerHeight,0.15
;   topSolidLayers,4
;   bottomSolidLayers,3
;   perimeterOutlines,3
;   printPerimetersInsideOut,0
;   startPointOption,3
;   startPointOriginX,0
;   startPointOriginY,300
;   sequentialIslands,0
;   spiralVaseMode,0
;   firstLayerHeightPercentage,120
;   firstLayerWidthPercentage,100
;   firstLayerUnderspeed,0.5
;   useRaft,0
;   raftExtruder,0
;   raftTopLayers,3
;   raftBaseLayers,2
;   raftOffset,3
;   raftSeparationDistance,0.14
;   raftTopInfill,100
;   aboveRaftSpeedMultiplier,0.3
;   useSkirt,1
;   skirtExtruder,0
;   skirtLayers,1
;   skirtOutlines,3
;   skirtOffset,2
;   usePrimePillar,0
;   primePillarExtruder,999
;   primePillarWidth,12
;   primePillarLocation,7
;   primePillarSpeedMultiplier,1
;   useOozeShield,0
;   oozeShieldExtruder,999
;   oozeShieldOffset,2
;   oozeShieldOutlines,1
;   oozeShieldSidewallShape,1
;   oozeShieldSidewallAngle,30
;   oozeShieldSpeedMultiplier,1
;   infillExtruder,0
;   internalInfillPattern,Rectilinear
;   externalInfillPattern,Rectilinear
;   infillPercentage,30
;   outlineOverlapPercentage,15
;   infillExtrusionWidthPercentage,100
;   minInfillLength,5
;   infillLayerInterval,1
;   internalInfillAngles,45,-45
;   overlapInternalInfillAngles,0
;   externalInfillAngles,45,-45
;   generateSupport,0
;   supportExtruder,0
;   supportInfillPercentage,30
;   supportExtraInflation,0
;   supportBaseLayers,0
;   denseSupportExtruder,0
;   denseSupportLayers,0
;   denseSupportInfillPercentage,70
;   supportLayerInterval,1
;   supportHorizontalPartOffset,0.4
;   supportUpperSeparationLayers,1
;   supportLowerSeparationLayers,1
;   supportType,0
;   supportGridSpacing,4.5
;   maxOverhangAngle,45
;   supportAngles,0
;   temperatureName,Primary Extruder,Heated Bed
;   temperatureNumber,0,0
;   temperatureSetpointCount,2,1
;   temperatureSetpointLayers,1,2,1
;   temperatureSetpointTemperatures,210,205,50
;   temperatureStabilizeAtStartup,1,1
;   temperatureHeatedBed,0,1
;   fanLayers,1,2
;   fanSpeeds,0,100
;   blipFanToFullPower,0
;   adjustSpeedForCooling,1
;   minSpeedLayerTime,15
;   minCoolingSpeedSlowdown,50
;   increaseFanForCooling,1
;   minFanLayerTime,25
;   maxCoolingFanSpeed,100
;   increaseFanForBridging,1
;   bridgingFanSpeed,100
;   use5D,1
;   relativeEdistances,0
;   allowEaxisZeroing,1
;   independentExtruderAxes,0
;   includeM10123,0
;   stickySupport,1
;   applyToolheadOffsets,0
;   gcodeXoffset,0
;   gcodeYoffset,0
;   gcodeZoffset,0
;   overrideMachineDefinition,1
;   machineTypeOverride,0
;   strokeXoverride,300
;   strokeYoverride,300
;   strokeZoverride,400
;   originOffsetXoverride,0
;   originOffsetYoverride,0
;   originOffsetZoverride,0
;   homeXdirOverride,-1
;   homeYdirOverride,-1
;   homeZdirOverride,-1
;   flipXoverride,1
;   flipYoverride,-1
;   flipZoverride,1
;   toolheadOffsets,0,0|0,0|0,0|0,0|0,0|0,0
;   overrideFirmwareConfiguration,1
;   firmwareTypeOverride,RepRap (Marlin/Repetier/Sprinter)
;   GPXconfigOverride,r2
;   baudRateOverride,250000
;   overridePrinterModels,1
;   printerModelsOverride
;   startingGcode,;Init 181010,;G28 			; Home all axes,;G1 Z5 F3000 		; Lift,;G92 E0			; Reset extrusion distance,,; // From Cura 181010,; // Update 190823 (GueroLoco),; // Update 191005 Autoleveling,; // Start_gcode,M117 *Start Clean*		; Indicate nozzle clean in progress on LCD,;,M104 S[extruder0_temperature] ,M109 S[extruder0_temperature] ,M109 R[extruder0_temperature] ,;,M107			; Turn layer fan off,G21			; Set to metric [change to G20 if you want Imperial],G90			; Force coordinates to be absolute relative to the origin,G28			; Home X/Y/Z axis,G29			; Auto-leveling,;,;G1 X3 Y1 Z15 F9000		; Move safe Z height to shear strings,;G0 X1 Y1 Z0.2 F9000		; Move in 1mm from edge and up [z] 0.2mm,;G92 E0			; Set extruder to [0] zero,;G1 X100 E12 F500		; Extrude 30mm filiment along X axis 100mm long to prime and clean the nozzle,;G92 E0			; Reset extruder to [0] zero end of cleaning run,;G1 E-1 F500			; Retract filiment by 1 mm to reduce string effect,;G1 X180 F4000		; Quick wipe away from the filament line / purge,;,G92 E0			; Set Extruder to 0 ,G1 X0 Y0 F2000		; Move X and Y to 0 with speed 2000 (mm/min),G1 Z0.1 F1000		; Move Z to 0.1,G1 X8.0 F2000		; Move X to 8.0,G1 Y60.0 E4.0 F1000.0		; Prime - Move Y to 60 and Extruder with 4.0,G1 Y100.0 E8.5 F1000.0		; Prime - Move Y to 100 and Extruder with 8.5,G92 E0			; Set extruder to 0,M117 *End Clean*		; Indicate nozzle clean in progress on LCD,G1 Z5 F3000			; Lift - Move Z to 5,; ,M117 *Printing...*		; start msg,; // Begin printing with sliced GCode after here,;
;   layerChangeGcode,
;   retractionGcode,
;   toolChangeGcode,
;   endingGcode,;,; init 181010,;,;M107 			; Fan off,;G1 E-1 F300 			; Retract the filament a bit before lifting the nozzle,;M104 S0 			; Turn off extruder,;M140 S0 			; Turn off bed,;G91			; Relative positioning,;G28 X0 Y0 			; Move X/Y to min endstops so the head is out of teh way,;M84 			; Disable motors,;G90 			; Absolute positioning,;M117 Print ready...,,;,; // From Cura 181010,; // End_gcode,G92 E0			; Zero the extruded length,G1 E-30 F300			; Retract E -30,M106 S0			; Turn off cooling fan,M104 S0			; Turn off temperature,M140 S0		     	; Turn off bed,G91			; Relative positioning,G1 E-1 F300			; Retract the filament a bit before lifting the nozzle to release some of the pressure,G1 Z+20 E-5 X-20 Y-20 F7200	; Move Z up a bit and retract filament even more,G1 X0 Y150 F10000		; Move right min,M107			; Turn off layer fan,M84			; Disable motors,G90			; Absolute positioning,M117 *The-End* 		; End msg,;,
;   exportFileFormat,gcode
;   celebration,0
;   celebrationSong,Star Wars
;   postProcessing,
;   defaultSpeed,1800
;   outlineUnderspeed,0.5
;   solidInfillUnderspeed,0.8
;   supportUnderspeed,0.8
;   rapidXYspeed,6000
;   rapidZspeed,1002
;   minBridgingArea,50
;   bridgingExtraInflation,0.2
;   bridgingExtrusionMultiplier,1
;   bridgingSpeedMultiplier,0.6
;   useFixedBridgingAngle,0
;   fixedBridgingAngle,0
;   applyBridgingToPerimeters,0
;   filamentDiameters,1.75|1.75|1.75|1.75|1.75|1.75
;   filamentPricesPerKg,30|46|46|46|46|46
;   filamentDensities,1.25|1.25|1.25|1.25|1.25|1.25
;   useMinPrintHeight,0
;   minPrintHeight,0
;   useMaxPrintHeight,0
;   maxPrintHeight,9
;   useDiaphragm,0
;   diaphragmLayerInterval,20
;   robustSlicing,1
;   mergeAllIntoSolid,0
;   onlyRetractWhenCrossingOutline,1
;   retractBetweenLayers,1
;   useRetractionMinTravel,0
;   retractionMinTravel,3
;   retractWhileWiping,0
;   onlyWipeOutlines,1
;   avoidCrossingOutline,0
;   maxMovementDetourFactor,3
;   toolChangeRetractionDistance,12
;   toolChangeExtraRestartDistance,-0.5
;   toolChangeRetractionSpeed,600
;   externalThinWallType,1
;   internalThinWallType,1
;   thinWallAllowedOverlapPercentage,15
;   singleExtrusionMinLength,1
;   singleExtrusionMinPrintingWidthPercentage,50
;   singleExtrusionMaxPrintingWidthPercentage,200
;   singleExtrusionEndpointExtension,0.2
;   horizontalSizeCompensation,0
G90
M82
M106 S0
M140 S50
M190 S50
;Init 181010
;G28 			; Home all axes
;G1 Z5 F3000 		; Lift
;G92 E0			; Reset extrusion distance
; // From Cura 181010
; // Update 190823 (GueroLoco)
; // Update 191005 Autoleveling
; // Start_gcode
M117 *Start Clean*		; Indicate nozzle clean in progress on LCD
;
M104 S210 
M109 S210 
M109 R210 
;
M107			; Turn layer fan off
G21			; Set to metric [change to G20 if you want Imperial]
G90			; Force coordinates to be absolute relative to the origin
G28			; Home X/Y/Z axis
G29			; Auto-leveling
;
;G1 X3 Y1 Z15 F9000		; Move safe Z height to shear strings
;G0 X1 Y1 Z0.2 F9000		; Move in 1mm from edge and up [z] 0.2mm
;G92 E0			; Set extruder to [0] zero
;G1 X100 E12 F500		; Extrude 30mm filiment along X axis 100mm long to prime and clean the nozzle
;G92 E0			; Reset extruder to [0] zero end of cleaning run
;G1 E-1 F500			; Retract filiment by 1 mm to reduce string effect
;G1 X180 F4000		; Quick wipe away from the filament line / purge
;
G92 E0			; Set Extruder to 0 
G1 X0 Y0 F2000		; Move X and Y to 0 with speed 2000 (mm/min)
G1 Z0.1 F1000		; Move Z to 0.1
G1 X8.0 F2000		; Move X to 8.0
G1 Y60.0 E4.0 F1000.0		; Prime - Move Y to 60 and Extruder with 4.0
G1 Y100.0 E8.5 F1000.0		; Prime - Move Y to 100 and Extruder with 8.5
G92 E0			; Set extruder to 0
M117 *End Clean*		; Indicate nozzle clean in progress on LCD
G1 Z5 F3000			; Lift - Move Z to 5
; 
M117 *Printing...*		; start msg
; // Begin printing with sliced GCode after here
;
; process Process1
; layer 1, Z = 0.180
T0
G92 E0.0000
G1 E-6.0000 F3000
; feature skirt
; tool H0.180 W0.350
G1 Z0.300 F1002
G1 X93.299 Y184.666 F6000
G1 Z0.180 F1002
G1 E0.0000 F3000
G92 E0.0000
G1 X93.011 Y184.398 E0.0098 F900
G1 X92.591 Y183.881 E0.0263
G1 X92.387 Y183.545 E0.0361
G1 X92.122 Y182.935 E0.0527
G1 X92.016 Y182.556 E0.0625
G1 X91.938 Y181.994 E0.0766
G1 X91.925 Y181.798 E0.0815
G1 X91.925 Y118.226 E1.6633
G1 X91.933 Y118.079 E1.6670
G1 X91.981 Y117.607 E1.6788
G1 X92.074 Y117.225 E1.6886
G1 X92.343 Y116.543 E1.7068
G1 X92.536 Y116.200 E1.7166
G1 X92.867 Y115.763 E1.7303
G1 X93.069 Y115.547 E1.7376
G1 X93.445 Y115.219 E1.7500
G1 X93.686 Y115.049 E1.7574
G1 X94.121 Y114.805 E1.7698
G1 X94.391 Y114.687 E1.7771
G1 X94.867 Y114.536 E1.7896
G1 X95.156 Y114.476 E1.7969
G1 X95.579 Y114.433 E1.8075
G1 X95.726 Y114.425 E1.8111
G1 X204.298 Y114.425 E4.5127
G1 X204.494 Y114.438 E4.5176
G1 X205.056 Y114.516 E4.5317
G1 X205.435 Y114.622 E4.5415
G1 X206.045 Y114.887 E4.5581
G1 X206.381 Y115.091 E4.5678
G1 X206.898 Y115.511 E4.5844
G1 X207.166 Y115.799 E4.5942
G1 X207.536 Y116.323 E4.6101
G1 X207.699 Y116.625 E4.6187
G1 X207.901 Y117.136 E4.6324
G1 X207.988 Y117.468 E4.6409
G1 X208.062 Y118.006 E4.6544
G1 X208.075 Y118.202 E4.6593
G1 X208.075 Y181.798 E6.2418
G1 X208.062 Y181.994 E6.2466
G1 X207.988 Y182.532 E6.2601
G1 X207.901 Y182.864 E6.2687
G1 X207.699 Y183.375 E6.2823
G1 X207.536 Y183.677 E6.2909
G1 X207.166 Y184.201 E6.3069
G1 X206.898 Y184.489 E6.3167
G1 X206.381 Y184.909 E6.3332
G1 X206.045 Y185.113 E6.3430
G1 X205.435 Y185.378 E6.3596
G1 X205.056 Y185.484 E6.3693
G1 X204.494 Y185.562 E6.3835
G1 X204.298 Y185.575 E6.3883
G1 X95.702 Y185.575 E9.0905
G1 X95.506 Y185.562 E9.0954
G1 X94.968 Y185.488 E9.1089
G1 X94.636 Y185.401 E9.1175
G1 X94.125 Y185.199 E9.1311
G1 X93.822 Y185.036 E9.1397
G1 X93.299 Y184.666 E9.1556
G92 E0.0000
G1 E-6.0000 F3000
G1 Z0.480 F1002
G1 X93.520 Y184.394 F6000
G1 Z0.180 F1002
G1 E0.0000 F3000
G92 E0.0000
G1 X93.268 Y184.158 E0.0086 F900
G1 X92.878 Y183.679 E0.0240
G1 X92.698 Y183.384 E0.0326
G1 X92.452 Y182.817 E0.0479
G1 X92.359 Y182.485 E0.0565
G1 X92.287 Y181.958 E0.0697
G1 X92.275 Y181.786 E0.0740
G1 X92.275 Y118.235 E1.6554
G1 X92.282 Y118.106 E1.6586
G1 X92.327 Y117.667 E1.6696
G1 X92.409 Y117.331 E1.6782
G1 X92.660 Y116.693 E1.6952
G1 X92.829 Y116.392 E1.7038
G1 X93.135 Y115.989 E1.7164
G1 X93.312 Y115.799 E1.7229
G1 X93.661 Y115.495 E1.7344
G1 X93.873 Y115.346 E1.7408
G1 X94.277 Y115.118 E1.7524
G1 X94.514 Y115.015 E1.7588
G1 X94.956 Y114.875 E1.7703
G1 X95.210 Y114.822 E1.7768
G1 X95.606 Y114.782 E1.7867
G1 X95.735 Y114.775 E1.7899
G1 X204.286 Y114.775 E4.4910
G1 X204.458 Y114.787 E4.4953
G1 X204.985 Y114.859 E4.5085
G1 X205.317 Y114.952 E4.5171
G1 X205.884 Y115.198 E4.5324
G1 X206.179 Y115.378 E4.5410
G1 X206.658 Y115.768 E4.5564
G1 X206.894 Y116.020 E4.5650
G1 X207.238 Y116.507 E4.5798
G1 X207.381 Y116.773 E4.5874
G1 X207.567 Y117.245 E4.6000
G1 X207.644 Y117.537 E4.6075
G1 X207.713 Y118.042 E4.6202
G1 X207.725 Y118.214 E4.6245
G1 X207.725 Y181.786 E6.2063
G1 X207.713 Y181.958 E6.2106
G1 X207.644 Y182.463 E6.2233
G1 X207.567 Y182.755 E6.2308
G1 X207.381 Y183.227 E6.2434
G1 X207.238 Y183.493 E6.2509
G1 X206.894 Y183.980 E6.2658
G1 X206.658 Y184.232 E6.2744
G1 X206.179 Y184.622 E6.2897
G1 X205.884 Y184.802 E6.2983
G1 X205.317 Y185.048 E6.3137
G1 X204.985 Y185.141 E6.3223
G1 X204.458 Y185.213 E6.3355
G1 X204.286 Y185.225 E6.3398
G1 X95.714 Y185.225 E9.0414
G1 X95.542 Y185.213 E9.0457
G1 X95.037 Y185.144 E9.0584
G1 X94.745 Y185.067 E9.0659
G1 X94.273 Y184.881 E9.0785
G1 X94.007 Y184.738 E9.0860
G1 X93.520 Y184.394 E9.1008
G92 E0.0000
G1 E-6.0000 F3000
G1 Z0.480 F1002
G1 X93.742 Y184.122 F6000
G1 Z0.180 F1002
G1 E0.0000 F3000
G92 E0.0000
G1 X93.524 Y183.919 E0.0074 F900
G1 X93.165 Y183.477 E0.0216
G1 X93.010 Y183.223 E0.0290
G1 X92.783 Y182.700 E0.0432
G1 X92.703 Y182.413 E0.0506
G1 X92.635 Y181.923 E0.0629
G1 X92.625 Y181.774 E0.0666
G1 X92.625 Y118.244 E1.6474
G1 X92.631 Y118.133 E1.6502
G1 X92.673 Y117.726 E1.6603
G1 X92.743 Y117.437 E1.6677
G1 X92.977 Y116.844 E1.6836
G1 X93.123 Y116.585 E1.6910
G1 X93.404 Y116.214 E1.7026
G1 X93.556 Y116.051 E1.7081
G1 X93.878 Y115.770 E1.7188
G1 X94.060 Y115.642 E1.7243
G1 X94.433 Y115.432 E1.7350
G1 X94.637 Y115.343 E1.7405
G1 X95.045 Y115.214 E1.7511
G1 X95.263 Y115.169 E1.7567
G1 X95.633 Y115.131 E1.7659
G1 X95.744 Y115.125 E1.7687
G1 X204.274 Y115.125 E4.4692
G1 X204.423 Y115.135 E4.4729
G1 X204.913 Y115.203 E4.4853
G1 X205.200 Y115.283 E4.4927
G1 X205.722 Y115.510 E4.5068
G1 X205.977 Y115.664 E4.5142
G1 X206.419 Y116.024 E4.5284
G1 X206.622 Y116.242 E4.5358
G1 X206.940 Y116.692 E4.5496
G1 X207.064 Y116.921 E4.5560
G1 X207.234 Y117.353 E4.5676
G1 X207.300 Y117.605 E4.5741
G1 X207.365 Y118.077 E4.5859
G1 X207.375 Y118.226 E4.5896
G1 X207.375 Y181.774 E6.1709
G1 X207.365 Y181.923 E6.1746
G1 X207.300 Y182.395 E6.1865
G1 X207.234 Y182.647 E6.1929
G1 X207.064 Y183.079 E6.2045
G1 X206.940 Y183.308 E6.2110
G1 X206.622 Y183.758 E6.2247
G1 X206.419 Y183.976 E6.2321
G1 X205.977 Y184.336 E6.2463
G1 X205.723 Y184.490 E6.2537
G1 X205.200 Y184.717 E6.2679
G1 X204.913 Y184.797 E6.2753
G1 X204.423 Y184.865 E6.2876
G1 X204.274 Y184.875 E6.2913
G1 X95.726 Y184.875 E8.9923
G1 X95.577 Y184.865 E8.9960
G1 X95.105 Y184.800 E9.0078
G1 X94.853 Y184.734 E9.0143
G1 X94.421 Y184.564 E9.0259
G1 X94.192 Y184.440 E9.0323
G1 X93.742 Y184.122 E9.0461
G92 E0.0000
G1 E-6.0000 F3000
; feature outer perimeter
G1 Z0.480 F1002
G1 X95.238 Y182.302 F6000
G1 Z0.180 F1002
G1 E0.0000 F3000
G92 E0.0000
G1 X95.097 Y182.128 E0.0056 F450
G1 X95.007 Y181.922 E0.0112
G1 X94.975 Y181.688 E0.0170
G1 X94.975 Y118.309 E1.5941
G1 X94.993 Y118.132 E1.5985
G1 X95.045 Y117.969 E1.6028
G1 X95.094 Y117.874 E1.6054
G1 X95.198 Y117.738 E1.6097
G1 X95.325 Y117.627 E1.6139
G1 X95.472 Y117.544 E1.6181
G1 X95.632 Y117.493 E1.6223
G1 X95.809 Y117.475 E1.6267
G1 X204.188 Y117.475 E4.3235
G1 X204.422 Y117.507 E4.3293
G1 X204.628 Y117.597 E4.3349
G1 X204.802 Y117.738 E4.3405
G1 X204.933 Y117.924 E4.3462
G1 X204.992 Y118.075 E4.3502
G1 X205.025 Y118.312 E4.3562
G1 X205.025 Y181.688 E5.9331
G1 X204.992 Y181.925 E5.9391
G1 X204.933 Y182.076 E5.9431
G1 X204.802 Y182.262 E5.9488
G1 X204.628 Y182.403 E5.9544
G1 X204.422 Y182.493 E5.9599
G1 X204.188 Y182.525 E5.9658
G1 X95.812 Y182.525 E8.6625
G1 X95.575 Y182.492 E8.6685
G1 X95.424 Y182.433 E8.6725
G1 X95.238 Y182.302 E8.6782
; feature inner perimeter
G1 X95.479 Y182.044 F6000
G92 E0.0000
G1 X95.398 Y181.944 E0.0032 F675
G1 X95.347 Y181.827 E0.0064
G1 X95.325 Y181.664 E0.0105
G1 X95.325 Y118.327 E1.5865
G1 X95.338 Y118.204 E1.5895
G1 X95.370 Y118.103 E1.5922
G1 X95.391 Y118.062 E1.5933
G1 X95.455 Y117.978 E1.5960
G1 X95.528 Y117.914 E1.5984
