; G-Code generated by Simplify3D(R) Version 4.0.1
; Dec 16, 2018 at 11:00:37 AM
; Settings Summary
;   processName,Tevo Tornado
;   applyToModels,Capac_Extruder_SENZOR_Filament_Tevo_Tornado_v5_with_cable_management,Capac_Extruder_SENZOR_Filament_Tevo_Tornado_v5
;   profileName,008 Tevo Tornado (experimental) 06-04
;   profileVersion,2018-12-06 16:04:13
;   baseProfile,Creality CR-10(2)
;   printMaterial,PLA
;   printQuality,Medium
;   printExtruders,
;   extruderName,Primary Extruder
;   extruderToolheadNumber,0
;   extruderDiameter,0.4
;   extruderAutoWidth,0
;   extruderWidth,0.4
;   extrusionMultiplier,1
;   extruderUseRetract,1
;   extruderRetractionDistance,6.5
;   extruderExtraRestartDistance,0
;   extruderRetractionZLift,0
;   extruderRetractionSpeed,1800
;   extruderUseCoasting,0
;   extruderCoastingDistance,0.2
;   extruderUseWipe,0
;   extruderWipeDistance,4
;   primaryExtruder,0
;   layerHeight,0.2
;   topSolidLayers,5
;   bottomSolidLayers,4
;   perimeterOutlines,3
;   printPerimetersInsideOut,1
;   startPointOption,2
;   startPointOriginX,0
;   startPointOriginY,500
;   sequentialIslands,0
;   spiralVaseMode,0
;   firstLayerHeightPercentage,150
;   firstLayerWidthPercentage,100
;   firstLayerUnderspeed,0.25
;   useRaft,0
;   raftExtruder,0
;   raftTopLayers,3
;   raftBaseLayers,2
;   raftOffset,3
;   raftSeparationDistance,0.14
;   raftTopInfill,100
;   aboveRaftSpeedMultiplier,0.3
;   useSkirt,1
;   skirtExtruder,0
;   skirtLayers,1
;   skirtOutlines,4
;   skirtOffset,0
;   usePrimePillar,0
;   primePillarExtruder,999
;   primePillarWidth,12
;   primePillarLocation,7
;   primePillarSpeedMultiplier,1
;   useOozeShield,0
;   oozeShieldExtruder,999
;   oozeShieldOffset,2
;   oozeShieldOutlines,1
;   oozeShieldSidewallShape,1
;   oozeShieldSidewallAngle,30
;   oozeShieldSpeedMultiplier,1
;   infillExtruder,0
;   internalInfillPattern,Rectilinear
;   externalInfillPattern,Rectilinear
;   infillPercentage,50
;   outlineOverlapPercentage,30
;   infillExtrusionWidthPercentage,125
;   minInfillLength,5
;   infillLayerInterval,1
;   internalInfillAngles,45,-45
;   overlapInternalInfillAngles,0
;   externalInfillAngles,45,-45
;   generateSupport,0
;   supportExtruder,0
;   supportInfillPercentage,30
;   supportExtraInflation,0
;   supportBaseLayers,0
;   denseSupportExtruder,0
;   denseSupportLayers,0
;   denseSupportInfillPercentage,70
;   supportLayerInterval,1
;   supportHorizontalPartOffset,0.4
;   supportUpperSeparationLayers,1
;   supportLowerSeparationLayers,1
;   supportType,0
;   supportGridSpacing,4.5
;   maxOverhangAngle,45
;   supportAngles,0
;   temperatureName,Primary Extruder,Heated Bed
;   temperatureNumber,0,0
;   temperatureSetpointCount,4,2
;   temperatureSetpointLayers,1,2,3,4,1,2
;   temperatureSetpointTemperatures,210,205,200,195,65,60
;   temperatureStabilizeAtStartup,1,1
;   temperatureHeatedBed,0,1
;   temperatureRelayBetweenLayers,0,0
;   temperatureRelayBetweenLoops,0,0
;   fanLayers,1,2,3
;   fanSpeeds,0,75,100
;   blipFanToFullPower,1
;   adjustSpeedForCooling,1
;   minSpeedLayerTime,15
;   minCoolingSpeedSlowdown,50
;   increaseFanForCooling,0
;   minFanLayerTime,45
;   maxCoolingFanSpeed,100
;   increaseFanForBridging,1
;   bridgingFanSpeed,100
;   use5D,1
;   relativeEdistances,0
;   allowEaxisZeroing,1
;   independentExtruderAxes,0
;   includeM10123,0
;   stickySupport,1
;   applyToolheadOffsets,0
;   gcodeXoffset,0
;   gcodeYoffset,0
;   gcodeZoffset,0
;   overrideMachineDefinition,1
;   machineTypeOverride,0
;   strokeXoverride,300
;   strokeYoverride,300
;   strokeZoverride,400
;   originOffsetXoverride,0
;   originOffsetYoverride,0
;   originOffsetZoverride,0
;   homeXdirOverride,-1
;   homeYdirOverride,-1
;   homeZdirOverride,-1
;   flipXoverride,1
;   flipYoverride,-1
;   flipZoverride,1
;   toolheadOffsets,0,0|0,0|0,0|0,0|0,0|0,0
;   overrideFirmwareConfiguration,0
;   firmwareTypeOverride,RepRap (Marlin/Repetier/Sprinter)
;   GPXconfigOverride,r2
;   baudRateOverride,250000
;   overridePrinterModels,1
;   printerModelsOverride
;   startingGcode,;Init 181010,;G28 ; home all axes,;G1 Z5 F3000 ; lift,;G92 E0 ; reset extrusion distance,,;From Cura 181010,; start_gcode,M117 Start Clean	; Indicate nozzle clean in progress on LCD,;,M104 S[extruder0_temperature] ,M109 S[extruder0_temperature] ,M109 R[extruder0_temperature] ,;,M107		; Turn layer fan off,G21		; Set to metric [change to G20 if you want Imperial],G90	 	; Force coordinates to be absolute relative to the origin,G28		; Home X/Y/Z axis,;,G1 X3 Y1 Z15 F9000	; Move safe Z height to shear strings,G0 X1 Y1 Z0.2 F9000	; Move in 1mm from edge and up [z] 0.2mm,G92 E0		; Set extruder to [0] zero,G1 X100 E12 F500	; Extrude 30mm filiment along X axis 100mm long to prime and clean the nozzle,G92 E0		; Reset extruder to [0] zero end of cleaning run,G1 E-1 F500		; Retract filiment by 1 mm to reduce string effect,G1 X180 F4000		; quick wipe away from the filament line / purge,M117 End Clean		; Indicate nozzle clean in progress on LCD,;,M117 Printing...		; start msg,; Begin printing with sliced GCode after here,;
;   layerChangeGcode,
;   retractionGcode,
;   toolChangeGcode,
;   endingGcode,;,; init 181010,;,;M107 ; Fan off,;G1 E-1 F300 ; Retract the filament a bit before lifting the nozzle,;M104 S0 ; turn off extruder,;M140 S0 ; turn off bed,;G91 ; Relative positioning,;G28 X0 Y0 ; Move X/Y to min endstops so the head is out of teh way,;M84 ; disable motors,;G90 ; Absolute positioning,;M117 Print ready...,,;,;From Cura 181010,;,; end_gcode,G92 E0		; zero the extruded length,G1 E-5 F9000		; retract,M104 S0		; turn off temperature,M140 S0		; turn off bed,G91		; relative positioning,G1 E-1 F300		; retract the filament a bit before lifting the nozzle to release some of the pressure,G1 Z+20 E-5 X-20 Y-20 F7200	; move Z up a bit and retract filament even more,G1 X320 Y150 F10000	; move right mid,M107		; turn off layer fan,M84		; disable motors,G90		; absolute positioning,M117 IMPRESSION TERMINEE	; end msg,;,;EOF
;   exportFileFormat,gcode
;   celebration,0
;   celebrationSong,Star Wars
;   postProcessing,
;   defaultSpeed,4200
;   outlineUnderspeed,0.5
;   solidInfillUnderspeed,0.8
;   supportUnderspeed,0.8
;   rapidXYspeed,6000
;   rapidZspeed,1002
;   minBridgingArea,50
;   bridgingExtraInflation,0
;   bridgingExtrusionMultiplier,0.85
;   bridgingSpeedMultiplier,1.05
;   useFixedBridgingAngle,0
;   fixedBridgingAngle,0
;   applyBridgingToPerimeters,0
;   filamentDiameters,1.75|1.75|1.75|1.75|1.75|1.75
;   filamentPricesPerKg,30|46|46|46|46|46
;   filamentDensities,1.25|1.25|1.25|1.25|1.25|1.25
;   useMinPrintHeight,0
;   minPrintHeight,0
;   useMaxPrintHeight,0
;   maxPrintHeight,9
;   useDiaphragm,0
;   diaphragmLayerInterval,20
;   robustSlicing,1
;   mergeAllIntoSolid,0
;   onlyRetractWhenCrossingOutline,1
;   retractBetweenLayers,1
;   useRetractionMinTravel,1
;   retractionMinTravel,3
;   retractWhileWiping,1
;   onlyWipeOutlines,1
;   avoidCrossingOutline,1
;   maxMovementDetourFactor,3
;   toolChangeRetractionDistance,12
;   toolChangeExtraRestartDistance,-0.5
;   toolChangeRetractionSpeed,600
;   externalThinWallType,0
;   internalThinWallType,2
;   thinWallAllowedOverlapPercentage,15
;   singleExtrusionMinLength,1
;   singleExtrusionMinPrintingWidthPercentage,50
;   singleExtrusionMaxPrintingWidthPercentage,200
;   singleExtrusionEndpointExtension,0.2
;   horizontalSizeCompensation,0
G90
M82
M106 S255
G4 P500
M106 S0
M140 S65
M190 S65
;Init 181010
;G28 ; home all axes
;G1 Z5 F3000 ; lift
;G92 E0 ; reset extrusion distance
;From Cura 181010
; start_gcode
M117 Start Clean	; Indicate nozzle clean in progress on LCD
;
M104 S210 
M109 S210 
M109 R210 
;
M107		; Turn layer fan off
G21		; Set to metric [change to G20 if you want Imperial]
G90	 	; Force coordinates to be absolute relative to the origin
G28		; Home X/Y/Z axis
;
G1 X3 Y1 Z15 F9000	; Move safe Z height to shear strings
G0 X1 Y1 Z0.2 F9000	; Move in 1mm from edge and up [z] 0.2mm
G92 E0		; Set extruder to [0] zero
G1 X100 E12 F500	; Extrude 30mm filiment along X axis 100mm long to prime and clean the nozzle
G92 E0		; Reset extruder to [0] zero end of cleaning run
G1 E-1 F500		; Retract filiment by 1 mm to reduce string effect
G1 X180 F4000		; quick wipe away from the filament line / purge
M117 End Clean		; Indicate nozzle clean in progress on LCD
;
M117 Printing...		; start msg
; Begin printing with sliced GCode after here
;
G92 E0
G1 E-6.5000 F1800
G1 Z0.300 F1002
; process Tevo Tornado
; layer 1, Z = 0.300
T0
; tool H0.300 W0.400
; skirt
G1 X107.327 Y124.697 F6000
G1 E0.0000 F540
G92 E0
G1 X108.863 Y123.518 E0.0966 F1050
G1 X109.022 Y123.426 E0.1058
G1 X110.811 Y122.685 E0.2024
G1 X110.988 Y122.638 E0.2115
G1 X112.863 Y122.391 E0.3059
G1 X112.954 Y122.385 E0.3104
G1 X126.908 Y122.385 E1.0066
G1 X128.261 Y122.207 E1.0747
G1 X129.436 Y121.720 E1.1381
G1 X130.485 Y120.915 E1.2041
G1 X131.494 Y119.774 E1.2801
G1 X131.593 Y119.682 E1.2868
G1 X133.110 Y118.518 E1.3822
G1 X133.269 Y118.426 E1.3914
G1 X135.058 Y117.685 E1.4880
G1 X135.235 Y117.638 E1.4972
G1 X137.110 Y117.391 E1.5915
G1 X137.201 Y117.385 E1.5961
G1 X142.046 Y117.385 E1.8378
G1 X142.137 Y117.391 E1.8423
G1 X144.012 Y117.638 E1.9367
G1 X144.189 Y117.685 E1.9458
G1 X145.978 Y118.426 E2.0424
G1 X146.137 Y118.518 E2.0516
G1 X147.673 Y119.697 E2.1482
G1 X147.803 Y119.827 E2.1574
G1 X148.982 Y121.363 E2.2540
G1 X149.074 Y121.522 E2.2631
G1 X149.804 Y123.284 E2.3583
G1 X149.841 Y123.403 E2.3645
G1 X150.069 Y124.448 E2.4178
G1 X150.478 Y125.436 E2.4712
G1 X151.094 Y126.238 E2.5217
G1 X151.896 Y126.854 E2.5721
G1 X152.830 Y127.241 E2.6225
G1 X153.924 Y127.385 E2.6776
G1 X158.912 Y127.385 E2.9265
G1 X159.787 Y127.274 E2.9705
G1 X159.883 Y127.269 E2.9753
G1 X162.670 Y127.304 E3.1143
G1 X162.752 Y127.294 E3.1184
G1 X162.778 Y127.287 E3.1198
G1 X162.803 Y127.135 E3.1275
G1 X162.769 Y124.383 E3.2648
G1 X162.774 Y124.287 E3.2696
G1 X162.875 Y123.486 E3.3099
G1 X162.792 Y122.691 E3.3498
G1 X162.788 Y122.614 E3.3536
G1 X162.802 Y119.214 E3.5232
G1 X162.764 Y119.037 E3.5323
G1 X162.806 Y118.606 E3.5539
G1 X163.000 Y118.150 E3.5786
G1 X163.150 Y117.928 E3.5919
G1 X163.428 Y117.650 E3.6116
G1 X163.650 Y117.500 E3.6249
G1 X164.106 Y117.306 E3.6496
G1 X164.537 Y117.264 E3.6712
G1 X164.717 Y117.302 E3.6804
G1 X167.283 Y117.302 E3.8084
G1 X167.463 Y117.264 E3.8176
G1 X167.894 Y117.306 E3.8392
G1 X168.350 Y117.500 E3.8640
G1 X168.572 Y117.650 E3.8773
G1 X168.850 Y117.928 E3.8969
G1 X169.000 Y118.150 E3.9103
G1 X169.194 Y118.606 E3.9350
G1 X169.236 Y119.037 E3.9566
G1 X169.198 Y119.214 E3.9657
G1 X169.235 Y127.071 E4.3576
G1 X169.246 Y127.254 E4.3668
G1 X169.426 Y127.265 E4.3758
G1 X187.574 Y127.265 E5.2812
G1 X187.754 Y127.254 E5.2902
G1 X187.765 Y127.071 E5.2993
G1 X187.803 Y119.656 E5.6693
G1 X187.809 Y119.564 E5.6738
G1 X187.887 Y118.994 E5.7026
G1 X188.042 Y118.639 E5.7219
G1 X188.441 Y118.151 E5.7533
G1 X188.606 Y118.004 E5.7644
G1 X189.015 Y117.743 E5.7886
G1 X189.250 Y117.647 E5.8012
G1 X189.776 Y117.536 E5.8281
G1 X189.829 Y117.527 E5.8307
G1 X190.856 Y117.392 E5.8824
G1 X190.935 Y117.386 E5.8864
G1 X193.479 Y117.339 E6.0133
G1 X193.714 Y117.375 E6.0252
G1 X194.197 Y117.535 E6.0505
G1 X194.476 Y117.707 E6.0669
G1 X194.793 Y118.024 E6.0893
G1 X194.965 Y118.303 E6.1056
G1 X195.123 Y118.781 E6.1308
G1 X195.159 Y119.005 E6.1421
G1 X195.115 Y130.651 E6.7231
G1 X195.109 Y130.740 E6.7275
G1 X194.862 Y132.613 E6.8218
G1 X194.815 Y132.790 E6.8309
G1 X194.074 Y134.579 E6.9275
G1 X193.982 Y134.738 E6.9367
G1 X192.803 Y136.274 E7.0333
G1 X192.673 Y136.404 E7.0425
G1 X191.148 Y137.575 E7.1384
G1 X191.015 Y137.655 E7.1461
G1 X189.551 Y138.331 E7.2266
G1 X187.814 Y139.433 E7.3292
G1 X186.461 Y140.874 E7.4278
G1 X185.467 Y142.665 E7.5300
G1 X185.043 Y143.535 E7.5783
G1 X184.969 Y143.654 E7.5853
G1 X183.803 Y145.173 E7.6809
G1 X183.673 Y145.303 E7.6900
G1 X182.137 Y146.482 E7.7866
G1 X181.978 Y146.574 E7.7958
G1 X180.189 Y147.315 E7.8924
G1 X180.012 Y147.362 E7.9016
G1 X178.137 Y147.609 E7.9959
G1 X178.046 Y147.615 E8.0004
G1 X114.954 Y147.615 E11.1481
G1 X114.863 Y147.609 E11.1527
G1 X112.471 Y147.294 E11.2731
G1 X112.293 Y147.247 E11.2822
G1 X110.022 Y146.306 E11.4049
G1 X109.863 Y146.214 E11.4140
G1 X107.912 Y144.717 E11.5367
G1 X107.783 Y144.588 E11.5458
G1 X106.286 Y142.637 E11.6685
G1 X106.194 Y142.478 E11.6777
G1 X105.253 Y140.207 E11.8003
G1 X105.206 Y140.029 E11.8095
G1 X104.891 Y137.637 E11.9299
G1 X104.885 Y137.546 E11.9344
G1 X104.885 Y130.454 E12.2882
G1 X104.891 Y130.363 E12.2928
G1 X105.138 Y128.488 E12.3871
G1 X105.185 Y128.311 E12.3963
G1 X105.926 Y126.522 E12.4929
G1 X106.018 Y126.363 E12.5021
G1 X107.197 Y124.827 E12.5987
G1 X107.327 Y124.697 E12.6078
G92 E0
G1 E-6.5000 F1800
G1 X108.391 Y125.891 F6000
G1 X107.502 Y127.051 F6000
G1 X109.730 Y156.986 F6000
G1 E0.0000 F1800
G92 E0
G1 X109.821 Y156.981 E0.0045 F1050
G1 X126.774 Y156.981 E0.8503
G1 X128.022 Y156.815 E0.9131
G1 X129.100 Y156.369 E0.9713
G1 X130.053 Y155.637 E1.0313
G1 X130.442 Y155.180 E1.0613
G1 X130.812 Y154.636 E1.0941
G1 X130.835 Y154.605 E1.0960
G1 X131.557 Y153.662 E1.1552
G1 X131.687 Y153.532 E1.1644
G1 X132.686 Y152.765 E1.2273
G1 X132.845 Y152.673 E1.2364
G1 X134.009 Y152.191 E1.2993
G1 X134.187 Y152.143 E1.3085
G1 X135.390 Y151.986 E1.3690
G1 X135.481 Y151.981 E1.3735
G1 X144.905 Y151.981 E1.8437
G1 X144.984 Y151.985 E1.8477
G1 X146.427 Y152.148 E1.9201
G1 X147.070 Y152.681 E1.9618
G1 X147.097 Y152.767 E1.9663
G1 X147.537 Y153.043 E1.9922
G1 X147.591 Y153.080 E1.9955
G1 X148.476 Y153.760 E2.0511
G1 X148.606 Y153.890 E2.0603
G1 X149.321 Y154.822 E2.1189
G1 X149.413 Y154.981 E2.1281
G1 X149.863 Y156.066 E2.1867
G1 X149.910 Y156.243 E2.1958
G1 X150.239 Y158.740 E2.3215
G1 X150.717 Y159.895 E2.3839
G1 X151.479 Y160.887 E2.4462
G1 X152.471 Y161.649 E2.5086
G1 X153.626 Y162.127 E2.5710
G1 X154.958 Y162.302 E2.6380
G1 X157.774 Y162.302 E2.7785
G1 X159.106 Y162.127 E2.8456
G1 X160.261 Y161.649 E2.9079
G1 X161.253 Y160.887 E2.9703
G1 X162.015 Y159.895 E3.0327
G1 X162.493 Y158.740 E3.0951
G1 X162.668 Y157.408 E3.1621
G1 X162.668 Y154.217 E3.3213
G1 X162.630 Y154.037 E3.3305
G1 X162.672 Y153.606 E3.3521
G1 X162.866 Y153.150 E3.3768
G1 X163.016 Y152.928 E3.3902
G1 X163.294 Y152.650 E3.4098
G1 X163.516 Y152.500 E3.4232
G1 X163.972 Y152.306 E3.4479
G1 X164.403 Y152.264 E3.4695
G1 X164.583 Y152.302 E3.4787
G1 X167.149 Y152.302 E3.6067
G1 X167.329 Y152.264 E3.6159
G1 X167.760 Y152.306 E3.6375
G1 X168.215 Y152.500 E3.6622
G1 X168.438 Y152.650 E3.6756
G1 X168.716 Y152.928 E3.6952
G1 X168.866 Y153.150 E3.7086
G1 X169.060 Y153.606 E3.7333
G1 X169.102 Y154.037 E3.7549
G1 X169.064 Y154.217 E3.7641
G1 X169.064 Y157.408 E3.9233
G1 X169.239 Y158.740 E3.9903
G1 X169.717 Y159.895 E4.0527
G1 X170.479 Y160.887 E4.1151
G1 X171.471 Y161.649 E4.1774
G1 X172.626 Y162.127 E4.2398
G1 X173.958 Y162.302 E4.3068
G1 X182.774 Y162.302 E4.7467
G1 X184.106 Y162.127 E4.8137
G1 X185.261 Y161.649 E4.8761
G1 X186.253 Y160.887 E4.9385
G1 X187.015 Y159.895 E5.0009
G1 X187.493 Y158.740 E5.0633
G1 X187.668 Y157.408 E5.1303
G1 X187.668 Y154.496 E5.2756
G1 X187.700 Y154.286 E5.2862
G1 X187.916 Y153.596 E5.3222
G1 X188.139 Y153.262 E5.3423
G1 X188.663 Y152.823 E5.3764
G1 X188.884 Y152.697 E5.3891
G1 X189.490 Y152.486 E5.4211
G1 X189.630 Y152.453 E5.4282
G1 X190.726 Y152.309 E5.4834
G1 X190.812 Y152.303 E5.4877
G1 X193.566 Y152.282 E5.6251
G1 X193.854 Y152.341 E5.6398
G1 X194.223 Y152.502 E5.6599
G1 X194.441 Y152.650 E5.6730
G1 X194.716 Y152.925 E5.6924
G1 X194.864 Y153.143 E5.7055
G1 X195.024 Y153.510 E5.7255
G1 X195.083 Y153.793 E5.7400
G1 X195.063 Y167.597 E6.4286
G1 X195.057 Y167.688 E6.4332
G1 X194.910 Y168.807 E6.4895
G1 X194.863 Y168.984 E6.4986
G1 X194.413 Y170.069 E6.5572
G1 X194.321 Y170.228 E6.5664
G1 X193.606 Y171.160 E6.6250
G1 X193.476 Y171.290 E6.6342
G1 X192.544 Y172.005 E6.6928
G1 X192.385 Y172.097 E6.7019
G1 X191.316 Y172.540 E6.7597
G1 X191.174 Y172.582 E6.7671
G1 X189.659 Y172.859 E6.8439
G1 X188.471 Y173.351 E6.9081
G1 X187.479 Y174.113 E6.9705
