; G-Code generated by Simplify3D(R) Version 4.1.2
;
;
;
;
; Nov 9, 2022 at 12:28:09 PM
; Settings Summary
;   processName,PLA A14 04
;   applyToModels,UltimatePotionBottleBase
;   profileName,PLA_A14_04_15_200 Tevo Tornado
;   profileVersion,2022-11-07 18:14:29
;   baseProfile,Creality CR-10(2)
;   printMaterial,PLA
;   printQuality,Medium
;   printExtruders,
;   extruderName,Primary Extruder
;   extruderToolheadNumber,0
;   extruderDiameter,0.4
;   extruderAutoWidth,0
;   extruderWidth,0.35
;   extrusionMultiplier,0.95
;   extruderUseRetract,1
;   extruderRetractionDistance,4
;   extruderExtraRestartDistance,0
;   extruderRetractionZLift,0.3
;   extruderRetractionSpeed,3600
;   extruderUseCoasting,0
;   extruderCoastingDistance,0.5
;   extruderUseWipe,0
;   extruderWipeDistance,5
;   primaryExtruder,0
;   layerHeight,0.15
;   topSolidLayers,4
;   bottomSolidLayers,3
;   perimeterOutlines,3
;   printPerimetersInsideOut,0
;   startPointOption,2
;   startPointOriginX,0
;   startPointOriginY,300
;   sequentialIslands,0
;   spiralVaseMode,0
;   firstLayerHeightPercentage,120
;   firstLayerWidthPercentage,100
;   firstLayerUnderspeed,0.5
;   useRaft,0
;   raftExtruder,0
;   raftTopLayers,3
;   raftBaseLayers,2
;   raftOffset,3
;   raftSeparationDistance,0.14
;   raftTopInfill,100
;   aboveRaftSpeedMultiplier,0.3
;   useSkirt,1
;   skirtExtruder,0
;   skirtLayers,1
;   skirtOutlines,2
;   skirtOffset,3
;   usePrimePillar,0
;   primePillarExtruder,999
;   primePillarWidth,12
;   primePillarLocation,7
;   primePillarSpeedMultiplier,1
;   useOozeShield,0
;   oozeShieldExtruder,999
;   oozeShieldOffset,2
;   oozeShieldOutlines,1
;   oozeShieldSidewallShape,1
;   oozeShieldSidewallAngle,30
;   oozeShieldSpeedMultiplier,1
;   infillExtruder,0
;   internalInfillPattern,Rectilinear
;   externalInfillPattern,Rectilinear
;   infillPercentage,15
;   outlineOverlapPercentage,15
;   infillExtrusionWidthPercentage,100
;   minInfillLength,5
;   infillLayerInterval,1
;   internalInfillAngles,45,-45
;   overlapInternalInfillAngles,0
;   externalInfillAngles,45,-45
;   generateSupport,0
;   supportExtruder,0
;   supportInfillPercentage,30
;   supportExtraInflation,0
;   supportBaseLayers,0
;   denseSupportExtruder,0
;   denseSupportLayers,0
;   denseSupportInfillPercentage,70
;   supportLayerInterval,1
;   supportHorizontalPartOffset,0.4
;   supportUpperSeparationLayers,1
;   supportLowerSeparationLayers,1
;   supportType,0
;   supportGridSpacing,4.5
;   maxOverhangAngle,45
;   supportAngles,0
;   temperatureName,Primary Extruder,Heated Bed
;   temperatureNumber,0,0
;   temperatureSetpointCount,2,2
;   temperatureSetpointLayers,1,2,1,2
;   temperatureSetpointTemperatures,205,200,55,50
;   temperatureStabilizeAtStartup,1,1
;   temperatureHeatedBed,0,1
;   fanLayers,1,2
;   fanSpeeds,0,100
;   blipFanToFullPower,0
;   adjustSpeedForCooling,1
;   minSpeedLayerTime,15
;   minCoolingSpeedSlowdown,20
;   increaseFanForCooling,1
;   minFanLayerTime,25
;   maxCoolingFanSpeed,100
;   increaseFanForBridging,1
;   bridgingFanSpeed,100
;   use5D,1
;   relativeEdistances,0
;   allowEaxisZeroing,1
;   independentExtruderAxes,0
;   includeM10123,0
;   stickySupport,1
;   applyToolheadOffsets,0
;   gcodeXoffset,0
;   gcodeYoffset,0
;   gcodeZoffset,0
;   overrideMachineDefinition,1
;   machineTypeOverride,0
;   strokeXoverride,300
;   strokeYoverride,300
;   strokeZoverride,400
;   originOffsetXoverride,0
;   originOffsetYoverride,0
;   originOffsetZoverride,0
;   homeXdirOverride,-1
;   homeYdirOverride,-1
;   homeZdirOverride,-1
;   flipXoverride,1
;   flipYoverride,-1
;   flipZoverride,1
;   toolheadOffsets,0,0|0,0|0,0|0,0|0,0|0,0
;   overrideFirmwareConfiguration,1
;   firmwareTypeOverride,RepRap (Marlin/Repetier/Sprinter)
;   GPXconfigOverride,r2
;   baudRateOverride,250000
;   overridePrinterModels,1
;   printerModelsOverride
;   startingGcode,;,; -]H.P.B[- MarshMalloW  ,; $VER: StartScript 1.02 (26.12.2019) MarshMalloW,;,; Begin Startcode,;,M117 *Preheat*     	; Preheat,;extruder0_temperature,M104 S[extruder0_temperature]  ,M109 S[extruder0_temperature] ,M109 R[extruder0_temperature] ,;,M117 *Auto-leveling*     	; Auto-leveling,M107                   	; Turn layer fan off,G21                    	; Set to metric [change to G20 if you want Imperial],G90                    	; Force coordinates to be absolute relative to the origin,G28                    	; Home X/Y/Z axis,G29                    	; Auto-leveling (BL-Touch),;,M117 *Start Clean*     	; Indicate nozzle clean in progress on LCD,G92 E0                 	; Set Extruder to 0 ,G1 X0 Y0 F2000         	; Move X and Y to 0 with speed 2000 (mm/min),G1 Z0.1 F1000          	; Move Z to   0.1 with speed 1000 (mm/min),G1 X8.0 F2000          	; Move X to   8.0 with speed 2000 (mm/min),G1 Y60.0 E4.0 F1000.0  	; Move Y to  60 and Extruder with 4.0 with speed 1000 (mm/min),G1 Y100.0 E8.5 F1000.0 	; Move Y to 100 and Extruder with 8.5 with speed 1000 (mm/min),G92 E0                 	; Set extruder to 0,G1 X16.0 F3000         	; Move X to 16.0 with speed 3000 (mm/min),G1 Y60.0 F3000         	; Move Y to 60.0 with speed 3000 (mm/min),M117 *End Clean*       	; Indicate nozzle clean in progress on LCD,G1 Z5 F3000            	; Move Z to  5.0 with speed 3000 (mm/min),G1 X20.0 F3000         	; Move X to 20.0 with speed 3000 (mm/min),G1 Y20.0 F3000         	; Move Y to 20.0 with speed 3000 (mm/min),; ,M117 *Printing...*     	; Start printing msg on LCD,;,; End Startcode,;,; Begin printing with sliced GCode after here,;
;   layerChangeGcode,
;   retractionGcode,
;   toolChangeGcode,
;   endingGcode,;,; init 181010,;,;M107 			; Fan off,;G1 E-1 F300 			; Retract the filament a bit before lifting the nozzle,;M104 S0 			; Turn off extruder,;M140 S0 			; Turn off bed,;G91			; Relative positioning,;G28 X0 Y0 			; Move X/Y to min endstops so the head is out of teh way,;M84 			; Disable motors,;G90 			; Absolute positioning,;M117 Print ready...,,;,; // From Cura 181010,; // End_gcode,G92 E0			; Zero the extruded length,;G1 E-30 F300		; Retract E -30,M106 S0			; Turn off cooling fan,M104 S0			; Turn off temperature,M140 S0		     	; Turn off bed,G91			; Relative positioning,G1 E-1 F300			; Retract the filament a bit before lifting the nozzle to release some of the pressure,G1 Z+20 E-5 X-20 Y-20 F7200	; Move Z up a bit and retract filament even more,G1 X0 Y150 F10000		; Move right min,M107			; Turn off layer fan,M84			; Disable motors,G90			; Absolute positioning,M117 *The-End* 		; End msg,;,
;   exportFileFormat,gcode
;   celebration,0
;   celebrationSong,Star Wars
;   postProcessing,D:\S3D_Thumbs\S3D_Thumbs.exe f="[output_filepath]" x=600 y=110 w=953 lw=400 lh=300 sw=32 sh=32 d=Y
;   defaultSpeed,2100
;   outlineUnderspeed,0.5
;   solidInfillUnderspeed,0.8
;   supportUnderspeed,0.8
;   rapidXYspeed,6000
;   rapidZspeed,1002
;   minBridgingArea,50
;   bridgingExtraInflation,0.2
;   bridgingExtrusionMultiplier,1
;   bridgingSpeedMultiplier,0.8
;   useFixedBridgingAngle,0
;   fixedBridgingAngle,0
;   applyBridgingToPerimeters,0
;   filamentDiameters,1.75|1.75|1.75|1.75|1.75|1.75
;   filamentPricesPerKg,30|46|46|46|46|46
;   filamentDensities,1.25|1.25|1.25|1.25|1.25|1.25
;   useMinPrintHeight,0
;   minPrintHeight,0
;   useMaxPrintHeight,0
;   maxPrintHeight,50
;   useDiaphragm,0
;   diaphragmLayerInterval,20
;   robustSlicing,1
;   mergeAllIntoSolid,0
;   onlyRetractWhenCrossingOutline,1
;   retractBetweenLayers,1
;   useRetractionMinTravel,0
;   retractionMinTravel,3
;   retractWhileWiping,0
;   onlyWipeOutlines,1
;   avoidCrossingOutline,0
;   maxMovementDetourFactor,3
;   toolChangeRetractionDistance,12
;   toolChangeExtraRestartDistance,-0.5
;   toolChangeRetractionSpeed,600
;   externalThinWallType,0
;   internalThinWallType,1
;   thinWallAllowedOverlapPercentage,10
;   singleExtrusionMinLength,1
;   singleExtrusionMinPrintingWidthPercentage,50
;   singleExtrusionMaxPrintingWidthPercentage,200
;   singleExtrusionEndpointExtension,0.2
;   horizontalSizeCompensation,0
G90
M82
M106 S0
M140 S55
M190 S55
;
; -]H.P.B[- MarshMalloW  
; $VER: StartScript 1.02 (26.12.2019) MarshMalloW
;
; Begin Startcode
;
M117 *Preheat*     	; Preheat
;extruder0_temperature
M104 S205  
M109 S205 
M109 R205 
;
M117 *Auto-leveling*     	; Auto-leveling
M107                   	; Turn layer fan off
G21                    	; Set to metric [change to G20 if you want Imperial]
G90                    	; Force coordinates to be absolute relative to the origin
G28                    	; Home X/Y/Z axis
G29                    	; Auto-leveling (BL-Touch)
;
M117 *Start Clean*     	; Indicate nozzle clean in progress on LCD
G92 E0                 	; Set Extruder to 0 
G1 X0 Y0 F2000         	; Move X and Y to 0 with speed 2000 (mm/min)
G1 Z0.1 F1000          	; Move Z to   0.1 with speed 1000 (mm/min)
G1 X8.0 F2000          	; Move X to   8.0 with speed 2000 (mm/min)
G1 Y60.0 E4.0 F1000.0  	; Move Y to  60 and Extruder with 4.0 with speed 1000 (mm/min)
G1 Y100.0 E8.5 F1000.0 	; Move Y to 100 and Extruder with 8.5 with speed 1000 (mm/min)
G92 E0                 	; Set extruder to 0
G1 X16.0 F3000         	; Move X to 16.0 with speed 3000 (mm/min)
G1 Y60.0 F3000         	; Move Y to 60.0 with speed 3000 (mm/min)
M117 *End Clean*       	; Indicate nozzle clean in progress on LCD
G1 Z5 F3000            	; Move Z to  5.0 with speed 3000 (mm/min)
G1 X20.0 F3000         	; Move X to 20.0 with speed 3000 (mm/min)
G1 Y20.0 F3000         	; Move Y to 20.0 with speed 3000 (mm/min)
; 
M117 *Printing...*     	; Start printing msg on LCD
;
; End Startcode
;
; Begin printing with sliced GCode after here
;
; process PLA A14 04
; layer 1, Z = 0.180
M117 INDICATOR-Layer1
M117 DASHBOARD_LAYER_INDICATOR 1
T0
G92 E0.0000
G1 E-4.0000 F3600
; feature skirt
; tool H0.180 W0.350
G1 Z0.300 F1002
G1 X131.557 Y132.152 F6000
G1 Z0.180 F1002
G1 E0.0000 F3600
G92 E0.0000
G1 X131.618 Y132.088 E0.0022 F1050
G1 X132.243 Y131.469 E0.0241
G1 X132.307 Y131.408 E0.0263
G1 X133.447 Y130.386 E0.0644
G1 X133.514 Y130.329 E0.0666
G1 X134.187 Y129.784 E0.0881
G1 X134.235 Y129.747 E0.0896
G1 X134.888 Y129.255 E0.1100
G1 X134.959 Y129.204 E0.1121
G1 X136.236 Y128.337 E0.1506
G1 X136.336 Y128.274 E0.1535
G1 X137.763 Y127.439 E0.1946
G1 X137.867 Y127.383 E0.1976
G1 X139.250 Y126.695 E0.2360
G1 X139.330 Y126.657 E0.2382
G1 X140.136 Y126.305 E0.2601
G1 X140.218 Y126.272 E0.2623
G1 X141.650 Y125.731 E0.3004
G1 X141.733 Y125.702 E0.3026
G1 X142.571 Y125.433 E0.3245
G1 X142.656 Y125.408 E0.3267
G1 X144.134 Y125.014 E0.3647
G1 X144.221 Y124.993 E0.3670
G1 X145.080 Y124.810 E0.3888
G1 X145.168 Y124.794 E0.3910
G1 X146.678 Y124.551 E0.4291
G1 X146.766 Y124.539 E0.4313
G1 X147.640 Y124.443 E0.4532
G1 X147.729 Y124.435 E0.4554
G1 X149.271 Y124.345 E0.4938
G1 X149.389 Y124.342 E0.4968
G1 X151.042 Y124.355 E0.5379
G1 X151.160 Y124.360 E0.5409
G1 X152.700 Y124.477 E0.5793
G1 X152.789 Y124.486 E0.5815
G1 X153.661 Y124.597 E0.6034
G1 X153.749 Y124.610 E0.6056
G1 X155.255 Y124.878 E0.6437
G1 X155.342 Y124.896 E0.6459
G1 X156.199 Y125.094 E0.6678
G1 X156.285 Y125.116 E0.6700
G1 X157.756 Y125.535 E0.7080
G1 X157.841 Y125.561 E0.7102
G1 X158.674 Y125.844 E0.7321
G1 X158.757 Y125.875 E0.7343
G1 X160.179 Y126.439 E0.7724
G1 X160.261 Y126.474 E0.7746
G1 X161.060 Y126.840 E0.7965
G1 X161.140 Y126.878 E0.7987
G1 X162.498 Y127.583 E0.8368
G1 X162.576 Y127.626 E0.8390
G1 X163.335 Y128.070 E0.8609
G1 X163.410 Y128.117 E0.8631
G1 X164.690 Y128.955 E0.9011
G1 X164.763 Y129.005 E0.9033
G1 X165.474 Y129.523 E0.9252
G1 X165.544 Y129.577 E0.9274
G1 X166.734 Y130.540 E0.9655
G1 X166.801 Y130.597 E0.9677
G1 X167.456 Y131.184 E0.9896
G1 X167.521 Y131.245 E0.9918
G1 X168.606 Y132.322 E1.0298
G1 X168.666 Y132.385 E1.0320
G1 X169.218 Y132.988 E1.0524
G1 X169.259 Y133.034 E1.0539
G1 X169.820 Y133.693 E1.0754
G1 X169.876 Y133.762 E1.0776
G1 X170.808 Y134.975 E1.1157
G1 X170.860 Y135.047 E1.1179
G1 X171.360 Y135.770 E1.1398
G1 X171.409 Y135.845 E1.1420
G1 X172.214 Y137.145 E1.1801
G1 X172.259 Y137.222 E1.1823
G1 X172.684 Y137.992 E1.2041
G1 X172.725 Y138.071 E1.2064
G1 X173.395 Y139.446 E1.2444
G1 X173.432 Y139.527 E1.2466
G1 X173.777 Y140.335 E1.2685
G1 X173.810 Y140.418 E1.2707
G1 X174.338 Y141.854 E1.3088
G1 X174.367 Y141.938 E1.3110
G1 X174.629 Y142.777 E1.3329
G1 X174.653 Y142.863 E1.3351
G1 X175.038 Y144.359 E1.3735
G1 X175.064 Y144.474 E1.3765
G1 X175.367 Y146.099 E1.4176
G1 X175.385 Y146.216 E1.4205
G1 X175.567 Y147.750 E1.4590
G1 X175.575 Y147.838 E1.4612
G1 X175.634 Y148.715 E1.4831
G1 X175.637 Y148.804 E1.4853
G1 X175.663 Y150.334 E1.5233
G1 X175.662 Y150.423 E1.5256
G1 X175.633 Y151.301 E1.5474
G1 X175.628 Y151.390 E1.5496
G1 X175.499 Y152.915 E1.5877
G1 X175.490 Y153.003 E1.5899
G1 X175.372 Y153.874 E1.6118
G1 X175.358 Y153.962 E1.6140
G1 X175.077 Y155.466 E1.6521
G1 X175.058 Y155.553 E1.6543
G1 X174.853 Y156.408 E1.6762
G1 X174.830 Y156.494 E1.6784
G1 X174.399 Y157.962 E1.7164
G1 X174.372 Y158.046 E1.7187
G1 X174.082 Y158.876 E1.7405
G1 X174.051 Y158.959 E1.7427
G1 X173.475 Y160.376 E1.7808
G1 X173.440 Y160.455 E1.7830
G1 X173.095 Y161.197 E1.8033
G1 X173.068 Y161.252 E1.8048
G1 X172.676 Y162.023 E1.8264
G1 X172.633 Y162.101 E1.8286
G1 X171.872 Y163.428 E1.8666
G1 X171.826 Y163.504 E1.8689
G1 X171.351 Y164.244 E1.8907
G1 X171.301 Y164.317 E1.8929
G1 X170.410 Y165.561 E1.9310
G1 X170.356 Y165.632 E1.9332
G1 X169.809 Y166.320 E1.9551
G1 X169.752 Y166.388 E1.9573
G1 X168.731 Y167.547 E1.9957
G1 X168.649 Y167.633 E1.9987
G1 X167.476 Y168.797 E2.0398
G1 X167.389 Y168.877 E2.0428
G1 X166.222 Y169.889 E2.0812
G1 X166.153 Y169.945 E2.0834
G1 X165.460 Y170.487 E2.1053
G1 X165.389 Y170.540 E2.1075
G1 X164.138 Y171.420 E2.1456
G1 X164.064 Y171.470 E2.1478
G1 X163.320 Y171.939 E2.1696
G1 X163.244 Y171.984 E2.1719
G1 X161.911 Y172.734 E2.2099
G1 X161.832 Y172.776 E2.2121
G1 X161.045 Y173.168 E2.2340
G1 X160.965 Y173.205 E2.2362
G1 X159.562 Y173.817 E2.2743
G1 X159.480 Y173.851 E2.2765
G1 X158.658 Y174.162 E2.2984
G1 X158.574 Y174.191 E2.3006
G1 X157.117 Y174.659 E2.3387
G1 X157.032 Y174.684 E2.3409
G1 X156.182 Y174.910 E2.3627
G1 X156.096 Y174.931 E2.3650
G1 X154.600 Y175.250 E2.4030
G1 X154.512 Y175.266 E2.4052
G1 X153.644 Y175.406 E2.4271
G1 X153.556 Y175.418 E2.4293
G1 X152.035 Y175.585 E2.4674
G1 X151.947 Y175.592 E2.4696
G1 X151.069 Y175.644 E2.4915
G1 X150.980 Y175.647 E2.4937
G1 X149.451 Y175.659 E2.5318
G1 X149.362 Y175.658 E2.5340
G1 X148.483 Y175.621 E2.5559
G1 X148.395 Y175.615 E2.5581
G1 X146.857 Y175.473 E2.5965
G1 X146.739 Y175.458 E2.5994
G1 X145.108 Y175.195 E2.6406
G1 X144.991 Y175.172 E2.6435
G1 X143.486 Y174.825 E2.6819
G1 X143.400 Y174.803 E2.6842
G1 X142.554 Y174.562 E2.7060
G1 X142.470 Y174.536 E2.7082
G1 X141.021 Y174.043 E2.7463
G1 X140.938 Y174.013 E2.7485
G1 X140.121 Y173.688 E2.7704
G1 X140.039 Y173.653 E2.7726
G1 X138.647 Y173.018 E2.8107
G1 X138.567 Y172.979 E2.8129
G1 X137.787 Y172.574 E2.8348
G1 X137.709 Y172.531 E2.8370
G1 X136.388 Y171.759 E2.8750
G1 X136.313 Y171.712 E2.8773
G1 X135.577 Y171.230 E2.8991
G1 X135.504 Y171.180 E2.9013
G1 X134.268 Y170.278 E2.9394
G1 X134.198 Y170.224 E2.9416
G1 X133.514 Y169.671 E2.9635
G1 X133.447 Y169.614 E2.9657
G1 X132.307 Y168.592 E3.0038
G1 X132.243 Y168.531 E3.0060
G1 X131.618 Y167.912 E3.0279
G1 X131.557 Y167.848 E3.0301
G1 X130.526 Y166.718 E3.0682
G1 X130.468 Y166.650 E3.0704
G1 X129.918 Y165.982 E3.0919
G1 X129.880 Y165.935 E3.0934
G1 X129.382 Y165.286 E3.1138
G1 X129.331 Y165.215 E3.1159
G1 X128.462 Y163.957 E3.1540
G1 X128.413 Y163.883 E3.1562
G1 X127.950 Y163.136 E3.1781
G1 X127.905 Y163.059 E3.1803
G1 X127.166 Y161.719 E3.2183
G1 X127.126 Y161.640 E3.2206
G1 X126.740 Y160.850 E3.2424
G1 X126.703 Y160.769 E3.2446
G1 X126.103 Y159.362 E3.2827
G1 X126.070 Y159.279 E3.2849
G1 X125.767 Y158.454 E3.3068
G1 X125.738 Y158.370 E3.3090
G1 X125.283 Y156.911 E3.3471
G1 X125.259 Y156.827 E3.3492
G1 X125.050 Y156.022 E3.3699
G1 X125.030 Y155.935 E3.3721
G1 X124.713 Y154.391 E3.4114
G1 X124.697 Y154.304 E3.4136
G1 X124.571 Y153.480 E3.4343
