; G-Code generated by Simplify3D(R) Version 4.0.1
; Dec 19, 2018 at 1:23:34 PM
; Settings Summary
;   processName,Tevo Tornado 001
;   applyToModels,Circular_fan_duct_-_Tevo_Tornado_-_Final
;   profileName,008 Tevo Tornado (experimental) 06-04
;   profileVersion,2018-12-16 11:00:31
;   baseProfile,Creality CR-10(2)
;   printMaterial,PLA
;   printQuality,Medium
;   printExtruders,
;   extruderName,Primary Extruder
;   extruderToolheadNumber,0
;   extruderDiameter,0.4
;   extruderAutoWidth,0
;   extruderWidth,0.4
;   extrusionMultiplier,1
;   extruderUseRetract,1
;   extruderRetractionDistance,6.5
;   extruderExtraRestartDistance,0
;   extruderRetractionZLift,0
;   extruderRetractionSpeed,1800
;   extruderUseCoasting,0
;   extruderCoastingDistance,0.2
;   extruderUseWipe,0
;   extruderWipeDistance,4
;   primaryExtruder,0
;   layerHeight,0.2
;   topSolidLayers,5
;   bottomSolidLayers,4
;   perimeterOutlines,3
;   printPerimetersInsideOut,1
;   startPointOption,2
;   startPointOriginX,0
;   startPointOriginY,500
;   sequentialIslands,0
;   spiralVaseMode,0
;   firstLayerHeightPercentage,150
;   firstLayerWidthPercentage,100
;   firstLayerUnderspeed,0.25
;   useRaft,0
;   raftExtruder,0
;   raftTopLayers,3
;   raftBaseLayers,2
;   raftOffset,3
;   raftSeparationDistance,0.14
;   raftTopInfill,100
;   aboveRaftSpeedMultiplier,0.3
;   useSkirt,1
;   skirtExtruder,0
;   skirtLayers,1
;   skirtOutlines,4
;   skirtOffset,0
;   usePrimePillar,0
;   primePillarExtruder,999
;   primePillarWidth,12
;   primePillarLocation,7
;   primePillarSpeedMultiplier,1
;   useOozeShield,0
;   oozeShieldExtruder,999
;   oozeShieldOffset,2
;   oozeShieldOutlines,1
;   oozeShieldSidewallShape,1
;   oozeShieldSidewallAngle,30
;   oozeShieldSpeedMultiplier,1
;   infillExtruder,0
;   internalInfillPattern,Rectilinear
;   externalInfillPattern,Rectilinear
;   infillPercentage,40
;   outlineOverlapPercentage,30
;   infillExtrusionWidthPercentage,125
;   minInfillLength,5
;   infillLayerInterval,1
;   internalInfillAngles,45,-45
;   overlapInternalInfillAngles,0
;   externalInfillAngles,45,-45
;   generateSupport,0
;   supportExtruder,0
;   supportInfillPercentage,30
;   supportExtraInflation,0
;   supportBaseLayers,0
;   denseSupportExtruder,0
;   denseSupportLayers,0
;   denseSupportInfillPercentage,70
;   supportLayerInterval,1
;   supportHorizontalPartOffset,0.4
;   supportUpperSeparationLayers,1
;   supportLowerSeparationLayers,1
;   supportType,0
;   supportGridSpacing,4.5
;   maxOverhangAngle,45
;   supportAngles,0
;   temperatureName,Primary Extruder,Heated Bed
;   temperatureNumber,0,0
;   temperatureSetpointCount,4,2
;   temperatureSetpointLayers,1,2,3,4,1,2
;   temperatureSetpointTemperatures,210,205,200,195,65,60
;   temperatureStabilizeAtStartup,1,1
;   temperatureHeatedBed,0,1
;   temperatureRelayBetweenLayers,0,0
;   temperatureRelayBetweenLoops,0,0
;   fanLayers,1,2
;   fanSpeeds,0,100
;   blipFanToFullPower,1
;   adjustSpeedForCooling,1
;   minSpeedLayerTime,15
;   minCoolingSpeedSlowdown,50
;   increaseFanForCooling,0
;   minFanLayerTime,45
;   maxCoolingFanSpeed,100
;   increaseFanForBridging,1
;   bridgingFanSpeed,100
;   use5D,1
;   relativeEdistances,0
;   allowEaxisZeroing,1
;   independentExtruderAxes,0
;   includeM10123,0
;   stickySupport,1
;   applyToolheadOffsets,0
;   gcodeXoffset,0
;   gcodeYoffset,0
;   gcodeZoffset,0
;   overrideMachineDefinition,1
;   machineTypeOverride,0
;   strokeXoverride,300
;   strokeYoverride,300
;   strokeZoverride,400
;   originOffsetXoverride,0
;   originOffsetYoverride,0
;   originOffsetZoverride,0
;   homeXdirOverride,-1
;   homeYdirOverride,-1
;   homeZdirOverride,-1
;   flipXoverride,1
;   flipYoverride,-1
;   flipZoverride,1
;   toolheadOffsets,0,0|0,0|0,0|0,0|0,0|0,0
;   overrideFirmwareConfiguration,0
;   firmwareTypeOverride,RepRap (Marlin/Repetier/Sprinter)
;   GPXconfigOverride,r2
;   baudRateOverride,250000
;   overridePrinterModels,1
;   printerModelsOverride
;   startingGcode,;Init 181010,;G28 ; home all axes,;G1 Z5 F3000 ; lift,;G92 E0 ; reset extrusion distance,;From Cura 181010,; start_gcode,M117 Start Clean	; Indicate nozzle clean in progress on LCD,;,M104 S[extruder0_temperature] ,M109 S[extruder0_temperature] ,M109 R[extruder0_temperature] ,;,M107		; Turn layer fan off,G21		; Set to metric [change to G20 if you want Imperial],G90	 	; Force coordinates to be absolute relative to the origin,G28		; Home X/Y/Z axis,;,G1 X3 Y1 Z15 F9000	; Move safe Z height to shear strings,G0 X1 Y1 Z0.2 F9000	; Move in 1mm from edge and up [z] 0.2mm,G92 E0		; Set extruder to [0] zero,G1 X100 E12 F500	; Extrude 30mm filiment along X axis 100mm long to prime and clean the nozzle,G92 E0		; Reset extruder to [0] zero end of cleaning run,G1 E-1 F500		; Retract filiment by 1 mm to reduce string effect,G1 X180 F4000		; quick wipe away from the filament line / purge,M117 End Clean		; Indicate nozzle clean in progress on LCD,;,M117 IMPRESSION...	; start msg,; Begin printing with sliced GCode after here,;
;   layerChangeGcode,
;   retractionGcode,
;   toolChangeGcode,
;   endingGcode,;,; init 181010,;,;M107 ; Fan off,;G1 E-1 F300 ; Retract the filament a bit before lifting the nozzle,;M104 S0 ; turn off extruder,;M140 S0 ; turn off bed,;G91 ; Relative positioning,;G28 X0 Y0 ; Move X/Y to min endstops so the head is out of teh way,;M84 ; disable motors,;G90 ; Absolute positioning,;M117 Print ready...,,;,;From Cura 181010,;,; end_gcode,G92 E0		; zero the extruded length,G1 E-5 F9000		; retract,M104 S0		; turn off temperature,M140 S0		; turn off bed,G91		; relative positioning,G1 E-1 F300		; retract the filament a bit before lifting the nozzle to release some of the pressure,G1 Z+20 E-5 X-20 Y-20 F7200	; move Z up a bit and retract filament even more,G1 X320 Y150 F10000	; move right mid,M107		; turn off layer fan,M84		; disable motors,G90		; absolute positioning,M117 IMPRESSION TERMINEE	; end msg,;,;EOF
;   exportFileFormat,gcode
;   celebration,0
;   celebrationSong,Star Wars
;   postProcessing,
;   defaultSpeed,4200
;   outlineUnderspeed,0.5
;   solidInfillUnderspeed,0.8
;   supportUnderspeed,0.8
;   rapidXYspeed,6000
;   rapidZspeed,1002
;   minBridgingArea,50
;   bridgingExtraInflation,0
;   bridgingExtrusionMultiplier,0.85
;   bridgingSpeedMultiplier,1.05
;   useFixedBridgingAngle,0
;   fixedBridgingAngle,0
;   applyBridgingToPerimeters,0
;   filamentDiameters,1.75|1.75|1.75|1.75|1.75|1.75
;   filamentPricesPerKg,30|46|46|46|46|46
;   filamentDensities,1.25|1.25|1.25|1.25|1.25|1.25
;   useMinPrintHeight,0
;   minPrintHeight,0
;   useMaxPrintHeight,0
;   maxPrintHeight,9
;   useDiaphragm,0
;   diaphragmLayerInterval,20
;   robustSlicing,1
;   mergeAllIntoSolid,0
;   onlyRetractWhenCrossingOutline,1
;   retractBetweenLayers,1
;   useRetractionMinTravel,1
;   retractionMinTravel,3
;   retractWhileWiping,1
;   onlyWipeOutlines,1
;   avoidCrossingOutline,1
;   maxMovementDetourFactor,3
;   toolChangeRetractionDistance,12
;   toolChangeExtraRestartDistance,-0.5
;   toolChangeRetractionSpeed,600
;   externalThinWallType,0
;   internalThinWallType,2
;   thinWallAllowedOverlapPercentage,15
;   singleExtrusionMinLength,1
;   singleExtrusionMinPrintingWidthPercentage,50
;   singleExtrusionMaxPrintingWidthPercentage,200
;   singleExtrusionEndpointExtension,0.2
;   horizontalSizeCompensation,0
G90
M82
M106 S255
G4 P500
M106 S0
M140 S65
M190 S65
;Init 181010
;G28 ; home all axes
;G1 Z5 F3000 ; lift
;G92 E0 ; reset extrusion distance
;From Cura 181010
; start_gcode
M117 Start Clean	; Indicate nozzle clean in progress on LCD
;
M104 S210 
M109 S210 
M109 R210 
;
M107		; Turn layer fan off
G21		; Set to metric [change to G20 if you want Imperial]
G90	 	; Force coordinates to be absolute relative to the origin
G28		; Home X/Y/Z axis
;
G1 X3 Y1 Z15 F9000	; Move safe Z height to shear strings
G0 X1 Y1 Z0.2 F9000	; Move in 1mm from edge and up [z] 0.2mm
G92 E0		; Set extruder to [0] zero
G1 X100 E12 F500	; Extrude 30mm filiment along X axis 100mm long to prime and clean the nozzle
G92 E0		; Reset extruder to [0] zero end of cleaning run
G1 E-1 F500		; Retract filiment by 1 mm to reduce string effect
G1 X180 F4000		; quick wipe away from the filament line / purge
M117 End Clean		; Indicate nozzle clean in progress on LCD
;
M117 IMPRESSION...	; start msg
; Begin printing with sliced GCode after here
;
G92 E0
G1 E-6.5000 F1800
G1 Z0.300 F1002
; process Tevo Tornado 001
; layer 1, Z = 0.300
T0
; tool H0.300 W0.400
; skirt
G1 X124.495 Y130.084 F6000
G1 E0.0000 F540
G92 E0
G1 X131.535 Y130.084 E0.3512 F1050
G1 X131.535 Y127.904 E0.4600
G1 X132.355 Y127.084 E0.5179
G1 X170.515 Y127.084 E2.4217
G1 X171.335 Y127.904 E2.4795
G1 X171.335 Y139.369 E3.0515
G1 X171.553 Y139.587 E3.0669
G1 X171.553 Y144.057 E3.2899
G1 X171.376 Y144.234 E3.3024
G1 X171.335 Y144.505 E3.3160
G1 X171.335 Y149.084 E3.5445
G1 X171.515 Y149.084 E3.5535
G1 X172.335 Y149.904 E3.6113
G1 X172.335 Y153.064 E3.7690
G1 X171.515 Y153.884 E3.8268
G1 X171.335 Y153.884 E3.8358
G1 X171.335 Y161.064 E4.1940
G1 X170.515 Y161.884 E4.2519
G1 X134.333 Y161.884 E6.0570
G1 X134.340 Y172.095 E6.5664
G1 X133.520 Y172.916 E6.6243
G1 X124.495 Y172.916 E7.0746
G1 X123.674 Y172.096 E7.1325
G1 X123.674 Y130.904 E9.1876
G1 X124.495 Y130.084 E9.2454
G92 E0
G1 E-6.5000 F1800
G1 X133.131 Y128.680 F6000
G1 X133.131 Y131.823 F6000
G1 X171.702 Y139.587 F6000
G1 E0.0000 F1800
G92 E0
G1 X172.522 Y138.767 E0.0579 F1050
G1 X177.645 Y138.767 E0.3134
G1 X178.465 Y139.587 E0.3713
G1 X178.465 Y141.147 E0.4491
G1 X177.791 Y141.821 E0.4967
G1 X178.465 Y142.495 E0.5442
G1 X178.465 Y144.057 E0.6222
G1 X177.645 Y144.877 E0.6800
G1 X172.522 Y144.877 E0.9356
G1 X171.702 Y144.057 E0.9935
G1 X171.702 Y142.495 E1.0714
G1 X172.376 Y141.821 E1.1189
G1 X171.702 Y141.147 E1.1665
G1 X171.702 Y139.587 E1.2443
G1 X172.102 Y139.753 F6000
G92 E0
G1 X172.688 Y139.167 E0.0413 F1050
G1 X177.479 Y139.167 E0.2804
G1 X178.065 Y139.753 E0.3217
G1 X178.065 Y140.981 E0.3830
G1 X177.479 Y141.567 E0.4243
G1 X172.688 Y141.567 E0.6634
G1 X172.102 Y140.981 E0.7047
G1 X172.102 Y139.753 E0.7660
G1 X171.153 Y139.753 F6000
G92 E0
G1 X171.153 Y143.891 E0.2065 F1050
G1 X171.000 Y144.044 E0.2172
G1 X170.935 Y144.475 E0.2390
G1 X170.935 Y149.484 E0.4889
G1 X171.349 Y149.484 E0.5096
G1 X171.935 Y150.070 E0.5509
G1 X171.935 Y152.898 E0.6920
G1 X171.349 Y153.484 E0.7333
G1 X170.935 Y153.484 E0.7540
G1 X170.935 Y160.898 E1.1239
G1 X170.349 Y161.484 E1.1652
G1 X133.933 Y161.484 E2.9820
G1 X133.940 Y171.930 E3.5032
G1 X133.354 Y172.516 E3.5445
G1 X124.660 Y172.516 E3.9783
G1 X124.074 Y171.930 E4.0196
G1 X124.074 Y131.070 E6.0582
G1 X124.660 Y130.484 E6.0995
G1 X131.935 Y130.484 E6.4624
G1 X131.935 Y128.070 E6.5829
G1 X132.521 Y127.484 E6.6242
G1 X170.349 Y127.484 E8.5115
G1 X170.935 Y128.070 E8.5528
G1 X170.935 Y139.433 E9.1197
G1 X170.964 Y139.565 E9.1264
G1 X171.153 Y139.753 E9.1397
G1 X172.688 Y142.075 F6000
G92 E0
G1 X177.479 Y142.075 E0.2390 F1050
G1 X178.065 Y142.661 E0.2804
G1 X178.065 Y143.891 E0.3418
G1 X177.479 Y144.477 E0.3831
G1 X172.688 Y144.477 E0.6221
G1 X172.102 Y143.891 E0.6635
G1 X172.102 Y142.661 E0.7249
G1 X172.688 Y142.075 E0.7662
G1 X172.853 Y142.475 F6000
G92 E0
G1 X177.314 Y142.475 E0.2225 F1050
G1 X177.665 Y142.826 E0.2473
G1 X177.665 Y143.726 E0.2922
G1 X177.314 Y144.077 E0.3170
G1 X172.853 Y144.077 E0.5395
G1 X172.502 Y143.726 E0.5643
G1 X172.502 Y142.826 E0.6091
G1 X172.853 Y142.475 E0.6339
G1 X172.853 Y141.167 F6000
G92 E0
G1 X172.502 Y140.816 E0.0248 F1050
G1 X172.502 Y139.918 E0.0696
G1 X172.853 Y139.567 E0.0944
G1 X177.314 Y139.567 E0.3169
G1 X177.665 Y139.918 E0.3417
G1 X177.665 Y140.816 E0.3864
G1 X177.314 Y141.167 E0.4112
G1 X172.853 Y141.167 E0.6337
G1 X170.753 Y139.918 F6000
G92 E0
G1 X170.753 Y143.726 E0.1899 F1050
G1 X170.624 Y143.854 E0.1990
G1 X170.535 Y144.445 E0.2288
G1 X170.535 Y149.884 E0.5002
G1 X171.184 Y149.884 E0.5325
G1 X171.535 Y150.235 E0.5573
G1 X171.535 Y152.733 E0.6819
G1 X171.184 Y153.084 E0.7067
G1 X170.535 Y153.084 E0.7391
G1 X170.535 Y160.733 E1.1206
G1 X170.184 Y161.084 E1.1454
G1 X133.532 Y161.084 E2.9740
G1 X133.540 Y171.764 E3.5068
G1 X133.189 Y172.116 E3.5316
G1 X124.826 Y172.116 E3.9488
G1 X124.474 Y171.765 E3.9736
G1 X124.474 Y131.235 E5.9956
G1 X124.826 Y130.884 E6.0204
G1 X132.335 Y130.884 E6.3951
G1 X132.335 Y128.235 E6.5272
G1 X132.686 Y127.884 E6.5520
G1 X170.184 Y127.884 E8.4227
G1 X170.535 Y128.235 E8.4475
G1 X170.535 Y139.476 E9.0084
G1 X170.599 Y139.765 E9.0231
G1 X170.753 Y139.918 E9.0339
G1 X170.353 Y140.084 F6000
G92 E0
G1 X170.353 Y143.560 E0.1734 F1050
G1 X170.248 Y143.664 E0.1808
G1 X170.135 Y144.415 E0.2186
G1 X170.135 Y150.284 E0.5115
G1 X171.018 Y150.284 E0.5555
G1 X171.135 Y150.401 E0.5638
G1 X171.135 Y152.567 E0.6718
G1 X171.018 Y152.684 E0.6801
G1 X170.135 Y152.684 E0.7241
G1 X170.135 Y160.567 E1.1174
G1 X170.018 Y160.684 E1.1257
G1 X133.132 Y160.684 E2.9659
G1 X133.140 Y171.599 E3.5104
G1 X133.023 Y171.716 E3.5187
G1 X124.992 Y171.716 E3.9194
G1 X124.874 Y171.599 E3.9277
G1 X124.874 Y131.401 E5.9331
G1 X124.992 Y131.284 E5.9414
G1 X132.735 Y131.284 E6.3277
G1 X132.735 Y128.401 E6.4715
G1 X132.852 Y128.284 E6.4798
G1 X170.018 Y128.284 E8.3340
G1 X170.135 Y128.401 E8.3423
G1 X170.135 Y139.520 E8.8970
G1 X170.234 Y139.967 E8.9198
G1 X170.353 Y140.084 E8.9281
G1 X172.902 Y140.084 F6000
G92 E0
G1 X173.019 Y139.967 E0.0083 F1050
G1 X177.148 Y139.967 E0.2142
G1 X177.265 Y140.084 E0.2225
G1 X177.265 Y140.650 E0.2507
G1 X177.148 Y140.767 E0.2590
G1 X173.019 Y140.767 E0.4650
G1 X172.902 Y140.650 E0.4733
G1 X172.902 Y140.084 E0.5015
G1 X173.019 Y142.875 F6000
G92 E0
G1 X177.148 Y142.875 E0.2060 F1050
G1 X177.265 Y142.992 E0.2142
G1 X177.265 Y143.560 E0.2426
G1 X177.148 Y143.677 E0.2508
G1 X173.019 Y143.677 E0.4568
G1 X172.902 Y143.560 E0.4651
G1 X172.902 Y142.992 E0.4934
G1 X173.019 Y142.875 E0.5017
; outer perimeter
G1 X173.298 Y143.271 F6000
G1 X173.302 Y143.275 F6000
G92 E0
G1 X176.865 Y143.275 E0.1778 F525
G1 X176.865 Y143.277 E0.1779
G1 X173.302 Y143.277 E0.3556
G1 X173.302 Y143.275 E0.3557
G1 X173.302 Y140.367 F6000
G92 E0
G1 X176.865 Y140.367 E0.1778 F525
G1 X173.302 Y140.367 E0.3555
G92 E0
G1 E-6.5000 F1800
; inner perimeter
G1 X168.935 Y129.484 F6000
G1 E0.0000 F1800
G92 E0
G1 X168.935 Y159.484 E1.4967 F788
G1 X133.935 Y159.484 E3.2429
G1 X133.935 Y129.484 E4.7396
G1 X168.935 Y129.484 E6.4857
G1 X169.335 Y129.084 F6000
G92 E0
G1 X169.335 Y151.084 E1.0976 F788
G1 X170.335 Y151.084 E1.1475
G1 X170.335 Y151.884 E1.1874
G1 X169.335 Y151.884 E1.2373
G1 X169.335 Y159.884 E1.6364
G1 X133.535 Y159.884 E3.4225
G1 X133.535 Y129.084 E4.9591
G1 X169.335 Y129.084 E6.7452
; outer perimeter
G1 X169.735 Y128.684 F6000
G92 E0
G1 X169.735 Y150.684 E1.0976 F525
G1 X170.735 Y150.684 E1.1475
G1 X170.735 Y152.284 E1.2273
G1 X169.735 Y152.284 E1.2772
G1 X169.735 Y160.284 E1.6763
G1 X133.135 Y160.284 E3.5023
G1 X133.135 Y128.684 E5.0788
G1 X169.735 Y128.684 E6.9048
; inner perimeter
G1 X160.911 Y139.350 F6000
G92 E0
G1 X158.573 Y137.258 E0.1565 F788
G1 X155.654 Y135.928 E0.3165
G1 X152.435 Y135.472 E0.4788
G1 X149.216 Y135.928 E0.6410
G1 X146.297 Y137.258 E0.8010
G1 X143.959 Y139.350 E0.9575
G1 X142.444 Y142.012 E1.1104
G1 X141.916 Y144.984 E1.2609
G1 X142.444 Y147.956 E1.4115
G1 X143.959 Y150.618 E1.5643
G1 X146.297 Y152.710 E1.7208
G1 X149.216 Y154.040 E1.8809
G1 X152.435 Y154.496 E2.0431
G1 X155.654 Y154.040 E2.2053
G1 X158.573 Y152.710 E2.3653
G1 X160.911 Y150.618 E2.5218
G1 X162.426 Y147.956 E2.6747
G1 X162.954 Y144.984 E2.8253
G1 X162.426 Y142.012 E2.9758
G1 X160.911 Y139.350 E3.1287
G1 X160.596 Y139.604 F6000
G92 E0
G1 X158.352 Y137.597 E0.1502 F788
G1 X155.541 Y136.316 E0.3043
G1 X152.435 Y135.876 E0.4608
G1 X149.329 Y136.316 E0.6173
G1 X146.518 Y137.597 E0.7714
G1 X144.274 Y139.604 E0.9216
G1 X142.825 Y142.150 E1.0678
G1 X142.323 Y144.984 E1.2114
G1 X142.825 Y147.818 E1.3550
G1 X144.274 Y150.364 E1.5011
G1 X146.518 Y152.371 E1.6513
G1 X149.329 Y153.652 E1.8054
G1 X152.435 Y154.092 E1.9619
G1 X155.541 Y153.652 E2.1184
G1 X158.352 Y152.371 E2.2726
