; G-Code generated by Simplify3D(R) Version 4.0.1
; Dec 14, 2018 at 3:11:10 PM
; Settings Summary
;   processName,Tevo Tornado 01
;   applyToModels,Z-Axis_bar__wire_guard_2020_profile_Remix
;   profileName,007 Tevo Tornado (experimental) 06-03 (modified)
;   profileVersion,2018-12-12 22:23:31
;   baseProfile,Creality CR-10(2)
;   printMaterial,PLA
;   printQuality,Medium
;   printExtruders,
;   extruderName,Primary Extruder
;   extruderToolheadNumber,0
;   extruderDiameter,0.4
;   extruderAutoWidth,0
;   extruderWidth,0.4
;   extrusionMultiplier,1
;   extruderUseRetract,1
;   extruderRetractionDistance,6.5
;   extruderExtraRestartDistance,0
;   extruderRetractionZLift,0
;   extruderRetractionSpeed,1800
;   extruderUseCoasting,0
;   extruderCoastingDistance,0.2
;   extruderUseWipe,0
;   extruderWipeDistance,4
;   primaryExtruder,0
;   layerHeight,0.2
;   topSolidLayers,5
;   bottomSolidLayers,4
;   perimeterOutlines,3
;   printPerimetersInsideOut,1
;   startPointOption,2
;   startPointOriginX,0
;   startPointOriginY,500
;   sequentialIslands,0
;   spiralVaseMode,0
;   firstLayerHeightPercentage,90
;   firstLayerWidthPercentage,110
;   firstLayerUnderspeed,0.25
;   useRaft,0
;   raftExtruder,0
;   raftTopLayers,3
;   raftBaseLayers,2
;   raftOffset,3
;   raftSeparationDistance,0.14
;   raftTopInfill,100
;   aboveRaftSpeedMultiplier,0.3
;   useSkirt,1
;   skirtExtruder,0
;   skirtLayers,1
;   skirtOutlines,3
;   skirtOffset,0
;   usePrimePillar,0
;   primePillarExtruder,999
;   primePillarWidth,12
;   primePillarLocation,7
;   primePillarSpeedMultiplier,1
;   useOozeShield,0
;   oozeShieldExtruder,999
;   oozeShieldOffset,2
;   oozeShieldOutlines,1
;   oozeShieldSidewallShape,1
;   oozeShieldSidewallAngle,30
;   oozeShieldSpeedMultiplier,1
;   infillExtruder,0
;   internalInfillPattern,Rectilinear
;   externalInfillPattern,Rectilinear
;   infillPercentage,70
;   outlineOverlapPercentage,30
;   infillExtrusionWidthPercentage,125
;   minInfillLength,5
;   infillLayerInterval,1
;   internalInfillAngles,45,-45
;   overlapInternalInfillAngles,0
;   externalInfillAngles,45,-45
;   generateSupport,0
;   supportExtruder,0
;   supportInfillPercentage,30
;   supportExtraInflation,0
;   supportBaseLayers,0
;   denseSupportExtruder,0
;   denseSupportLayers,0
;   denseSupportInfillPercentage,70
;   supportLayerInterval,1
;   supportHorizontalPartOffset,0.4
;   supportUpperSeparationLayers,1
;   supportLowerSeparationLayers,1
;   supportType,0
;   supportGridSpacing,4.5
;   maxOverhangAngle,45
;   supportAngles,0
;   temperatureName,Primary Extruder,Heated Bed
;   temperatureNumber,0,0
;   temperatureSetpointCount,3,2
;   temperatureSetpointLayers,1,2,3,1,2
;   temperatureSetpointTemperatures,210,200,190,65,60
;   temperatureStabilizeAtStartup,1,1
;   temperatureHeatedBed,0,1
;   temperatureRelayBetweenLayers,0,0
;   temperatureRelayBetweenLoops,0,0
;   fanLayers,1,2
;   fanSpeeds,0,100
;   blipFanToFullPower,1
;   adjustSpeedForCooling,1
;   minSpeedLayerTime,15
;   minCoolingSpeedSlowdown,50
;   increaseFanForCooling,0
;   minFanLayerTime,45
;   maxCoolingFanSpeed,100
;   increaseFanForBridging,1
;   bridgingFanSpeed,100
;   use5D,1
;   relativeEdistances,0
;   allowEaxisZeroing,1
;   independentExtruderAxes,0
;   includeM10123,0
;   stickySupport,1
;   applyToolheadOffsets,0
;   gcodeXoffset,0
;   gcodeYoffset,0
;   gcodeZoffset,0
;   overrideMachineDefinition,1
;   machineTypeOverride,0
;   strokeXoverride,300
;   strokeYoverride,300
;   strokeZoverride,400
;   originOffsetXoverride,0
;   originOffsetYoverride,0
;   originOffsetZoverride,0
;   homeXdirOverride,-1
;   homeYdirOverride,-1
;   homeZdirOverride,-1
;   flipXoverride,1
;   flipYoverride,-1
;   flipZoverride,1
;   toolheadOffsets,0,0|0,0|0,0|0,0|0,0|0,0
;   overrideFirmwareConfiguration,0
;   firmwareTypeOverride,RepRap (Marlin/Repetier/Sprinter)
;   GPXconfigOverride,r2
;   baudRateOverride,250000
;   overridePrinterModels,1
;   printerModelsOverride
;   startingGcode,;Init 181010,;G28 ; home all axes,;G1 Z5 F3000 ; lift,;G92 E0 ; reset extrusion distance,,;From Cura 181010,; start_gcode,M117 Start Clean	; Indicate nozzle clean in progress on LCD,;,M104 S[extruder0_temperature] ,M109 S[extruder0_temperature] ,M109 R[extruder0_temperature] ,;,M107		; Turn layer fan off,G21		; Set to metric [change to G20 if you want Imperial],G90	 	; Force coordinates to be absolute relative to the origin,G28		; Home X/Y/Z axis,;,G1 X3 Y1 Z15 F9000	; Move safe Z height to shear strings,G0 X1 Y1 Z0.2 F9000	; Move in 1mm from edge and up [z] 0.2mm,G92 E0		; Set extruder to [0] zero,G1 X100 E12 F500	; Extrude 30mm filiment along X axis 100mm long to prime and clean the nozzle,G92 E0		; Reset extruder to [0] zero end of cleaning run,G1 E-1 F500		; Retract filiment by 1 mm to reduce string effect,G1 X180 F4000		; quick wipe away from the filament line / purge,M117 End Clean		; Indicate nozzle clean in progress on LCD,;,M117 PRINTING...	; Start msg,; Begin printing with sliced GCode after here,;
;   layerChangeGcode,
;   retractionGcode,
;   toolChangeGcode,
;   endingGcode,;,; init 181010,;,;M107 ; Fan off,;G1 E-1 F300 ; Retract the filament a bit before lifting the nozzle,;M104 S0 ; turn off extruder,;M140 S0 ; turn off bed,;G91 ; Relative positioning,;G28 X0 Y0 ; Move X/Y to min endstops so the head is out of teh way,;M84 ; disable motors,;G90 ; Absolute positioning,;M117 Print ready...,,;,;From Cura 181010,;,; end_gcode,G92 E0		; zero the extruded length,G1 E-5 F9000		; retract,M104 S0		; turn off temperature,M140 S0		; turn off bed,G91		; relative positioning,G1 E-1 F300		; retract the filament a bit before lifting the nozzle to release some of the pressure,G1 Z+20 E-5 X-20 Y-20 F7200	; move Z up a bit and retract filament even more,G1 X320 Y150 F10000	; move right mid,M107		; turn off layer fan,M84		; disable motors,G90		; absolute positioning,M117 IMPRESSION TERMINEE	; end msg,;,;EOF
;   exportFileFormat,gcode
;   celebration,0
;   celebrationSong,Star Wars
;   postProcessing,
;   defaultSpeed,4200
;   outlineUnderspeed,0.5
;   solidInfillUnderspeed,0.8
;   supportUnderspeed,0.8
;   rapidXYspeed,6000
;   rapidZspeed,1002
;   minBridgingArea,50
;   bridgingExtraInflation,0
;   bridgingExtrusionMultiplier,0.85
;   bridgingSpeedMultiplier,1.05
;   useFixedBridgingAngle,0
;   fixedBridgingAngle,0
;   applyBridgingToPerimeters,0
;   filamentDiameters,1.75|1.75|1.75|1.75|1.75|1.75
;   filamentPricesPerKg,30|46|46|46|46|46
;   filamentDensities,1.25|1.25|1.25|1.25|1.25|1.25
;   useMinPrintHeight,0
;   minPrintHeight,0
;   useMaxPrintHeight,0
;   maxPrintHeight,9
;   useDiaphragm,0
;   diaphragmLayerInterval,20
;   robustSlicing,1
;   mergeAllIntoSolid,0
;   onlyRetractWhenCrossingOutline,1
;   retractBetweenLayers,1
;   useRetractionMinTravel,1
;   retractionMinTravel,3
;   retractWhileWiping,1
;   onlyWipeOutlines,1
;   avoidCrossingOutline,1
;   maxMovementDetourFactor,3
;   toolChangeRetractionDistance,12
;   toolChangeExtraRestartDistance,-0.5
;   toolChangeRetractionSpeed,600
;   externalThinWallType,0
;   internalThinWallType,2
;   thinWallAllowedOverlapPercentage,15
;   singleExtrusionMinLength,1
;   singleExtrusionMinPrintingWidthPercentage,50
;   singleExtrusionMaxPrintingWidthPercentage,200
;   singleExtrusionEndpointExtension,0.2
;   horizontalSizeCompensation,0
G90
M82
M106 S255
G4 P500
M106 S0
M140 S65
M190 S65
;Init 181010
;G28 ; home all axes
;G1 Z5 F3000 ; lift
;G92 E0 ; reset extrusion distance
;From Cura 181010
; start_gcode
M117 Start Clean	; Indicate nozzle clean in progress on LCD
;
M104 S210 
M109 S210 
M109 R210 
;
M107		; Turn layer fan off
G21		; Set to metric [change to G20 if you want Imperial]
G90	 	; Force coordinates to be absolute relative to the origin
G28		; Home X/Y/Z axis
;
G1 X3 Y1 Z15 F9000	; Move safe Z height to shear strings
G0 X1 Y1 Z0.2 F9000	; Move in 1mm from edge and up [z] 0.2mm
G92 E0		; Set extruder to [0] zero
G1 X100 E12 F500	; Extrude 30mm filiment along X axis 100mm long to prime and clean the nozzle
G92 E0		; Reset extruder to [0] zero end of cleaning run
G1 E-1 F500		; Retract filiment by 1 mm to reduce string effect
G1 X180 F4000		; quick wipe away from the filament line / purge
M117 End Clean		; Indicate nozzle clean in progress on LCD
;
M117 PRINTING...	; Start msg
; Begin printing with sliced GCode after here
;
G92 E0
G1 E-6.5000 F1800
G1 Z0.180 F1002
; process Tevo Tornado 01
; layer 1, Z = 0.180
T0
; tool H0.200 W0.440
; skirt
G1 X97.388 Y127.938 F6000
G1 E0.0000 F540
G92 E0
G1 X106.881 Y127.939 E0.3473 F1050
G1 X107.035 Y127.963 E0.3530
G1 X194.616 Y156.103 E3.7186
G1 X195.493 Y156.198 E3.7509
G1 X195.556 Y156.210 E3.7532
G1 X196.877 Y156.530 E3.8030
G1 X196.987 Y156.571 E3.8072
G1 X199.338 Y157.772 E3.9038
G1 X199.435 Y157.837 E3.9081
G1 X200.500 Y158.743 E3.9592
G1 X200.593 Y158.848 E3.9644
G1 X202.417 Y161.595 E4.0850
G1 X202.490 Y161.767 E4.0919
G1 X203.191 Y164.999 E4.2129
G1 X203.201 Y165.147 E4.2183
G1 X203.028 Y167.243 E4.2952
G1 X202.323 Y167.783 E4.3277
G1 X199.396 Y167.241 E4.4366
G1 X198.929 Y166.640 E4.4645
G1 X199.038 Y165.005 E4.5244
G1 X198.975 Y164.385 E4.5472
G1 X198.551 Y163.061 E4.5981
G1 X198.234 Y162.505 E4.6215
G1 X197.845 Y161.983 E4.6453
G1 X196.803 Y161.063 E4.6962
G1 X196.245 Y160.746 E4.7197
G1 X195.624 Y160.488 E4.7443
G1 X194.972 Y160.325 E4.7689
G1 X194.290 Y160.239 E4.7940
G1 X193.879 Y160.236 E4.8091
G1 X192.950 Y160.355 E4.8433
G1 X192.537 Y160.466 E4.8590
G1 X192.140 Y160.611 E4.8744
G1 X191.350 Y161.029 E4.9071
G1 X190.281 Y161.947 E4.9587
G1 X190.040 Y162.244 E4.9727
G1 X189.672 Y162.828 E4.9979
G1 X189.388 Y163.429 E5.0222
G1 X189.134 Y164.319 E5.0561
G1 X189.075 Y164.720 E5.0709
G1 X189.058 Y165.406 E5.0960
G1 X189.121 Y166.053 E5.1198
G1 X189.535 Y167.378 E5.1706
G1 X189.853 Y167.944 E5.1944
G1 X190.254 Y168.491 E5.2192
G1 X190.855 Y169.133 E5.2514
G1 X190.846 Y169.936 E5.2807
G1 X188.758 Y172.070 E5.3900
G1 X187.893 Y172.052 E5.4216
G1 X186.990 Y171.051 E5.4710
G1 X186.960 Y171.015 E5.4727
G1 X186.402 Y170.265 E5.5069
G1 X186.366 Y170.209 E5.5093
G1 X185.759 Y169.116 E5.5550
G1 X185.728 Y169.050 E5.5577
G1 X185.284 Y167.873 E5.6038
G1 X185.261 Y167.793 E5.6068
G1 X184.962 Y166.279 E5.6633
G1 X184.953 Y166.213 E5.6657
G1 X184.943 Y166.059 E5.6713
G1 X106.699 Y149.939 E8.5941
G1 X97.388 Y149.939 E8.9348
G1 X96.802 Y149.353 E8.9651
G1 X96.802 Y128.524 E9.7271
G1 X97.388 Y127.938 E9.7574
G1 X97.553 Y128.338 F6000
G92 E0
G1 X106.850 Y128.339 E0.3401 F1050
G1 X106.942 Y128.354 E0.3435
G1 X194.532 Y156.496 E3.7095
G1 X195.436 Y156.595 E3.7427
G1 X195.475 Y156.601 E3.7442
G1 X196.760 Y156.914 E3.7926
G1 X196.826 Y156.938 E3.7951
G1 X199.135 Y158.118 E3.8900
G1 X199.193 Y158.156 E3.8926
G1 X200.219 Y159.029 E3.9418
G1 X200.275 Y159.092 E3.9449
G1 X202.063 Y161.785 E4.0632
G1 X202.107 Y161.888 E4.0673
G1 X202.794 Y165.055 E4.1858
G1 X202.799 Y165.143 E4.1891
G1 X202.644 Y167.033 E4.2584
G1 X202.221 Y167.357 E4.2779
G1 X199.618 Y166.876 E4.3748
G1 X199.338 Y166.515 E4.3915
G1 X199.440 Y164.998 E4.4471
G1 X199.368 Y164.303 E4.4727
G1 X198.920 Y162.899 E4.5266
G1 X198.569 Y162.285 E4.5525
G1 X198.141 Y161.711 E4.5787
G1 X197.037 Y160.736 E4.6326
G1 X196.422 Y160.386 E4.6585
G1 X195.750 Y160.107 E4.6850
G1 X195.045 Y159.931 E4.7116
G1 X194.317 Y159.839 E4.7385
G1 X193.855 Y159.835 E4.7554
G1 X192.872 Y159.962 E4.7917
G1 X192.416 Y160.085 E4.8089
G1 X191.977 Y160.245 E4.8260
G1 X191.124 Y160.697 E4.8614
G1 X189.994 Y161.667 E4.9158
G1 X189.715 Y162.010 E4.9320
G1 X189.320 Y162.636 E4.9591
G1 X189.012 Y163.288 E4.9855
G1 X188.742 Y164.235 E5.0215
G1 X188.676 Y164.686 E5.0382
G1 X188.658 Y165.420 E5.0650
G1 X188.726 Y166.133 E5.0912
G1 X189.166 Y167.538 E5.1451
G1 X189.517 Y168.161 E5.1713
G1 X189.946 Y168.746 E5.1978
G1 X190.454 Y169.289 E5.2250
G1 X190.448 Y169.771 E5.2426
G1 X188.593 Y171.667 E5.3397
G1 X188.074 Y171.656 E5.3587
G1 X187.293 Y170.790 E5.4014
G1 X187.275 Y170.768 E5.4024
G1 X186.731 Y170.037 E5.4357
G1 X186.709 Y170.003 E5.4372
G1 X186.116 Y168.935 E5.4819
G1 X186.097 Y168.895 E5.4835
G1 X185.664 Y167.747 E5.5284
G1 X185.651 Y167.699 E5.5302
G1 X185.357 Y166.214 E5.5856
G1 X185.351 Y166.175 E5.5871
G1 X185.324 Y165.729 E5.6034
G1 X106.740 Y149.538 E8.5389
G1 X97.553 Y149.538 E8.8750
G1 X97.202 Y149.187 E8.8931
G1 X97.202 Y128.690 E9.6430
G1 X97.553 Y128.338 E9.6612
G1 X97.719 Y128.738 F6000
G92 E0
G1 X106.819 Y128.739 E0.3329 F1050
G1 X106.849 Y128.744 E0.3341
G1 X194.449 Y156.889 E3.7003
G1 X195.380 Y156.991 E3.7346
G1 X195.393 Y156.993 E3.7351
G1 X196.643 Y157.297 E3.7821
G1 X196.665 Y157.305 E3.7830
G1 X198.932 Y158.463 E3.8762
G1 X198.952 Y158.476 E3.8770
G1 X199.939 Y159.316 E3.9244
G1 X199.957 Y159.337 E3.9255
G1 X201.709 Y161.975 E4.0413
G1 X201.724 Y162.009 E4.0427
G1 X202.396 Y165.111 E4.1588
G1 X202.398 Y165.140 E4.1599
G1 X202.260 Y166.823 E4.2217
G1 X202.119 Y166.931 E4.2282
G1 X199.841 Y166.510 E4.3129
G1 X199.747 Y166.390 E4.3185
G1 X199.841 Y164.991 E4.3698
G1 X199.762 Y164.221 E4.3981
G1 X199.288 Y162.738 E4.4551
G1 X198.904 Y162.066 E4.4834
G1 X198.437 Y161.439 E4.5120
G1 X197.271 Y160.408 E4.5689
G1 X196.598 Y160.026 E4.5973
G1 X195.876 Y159.726 E4.6258
G1 X195.119 Y159.537 E4.6544
G1 X194.343 Y159.440 E4.6830
G1 X193.831 Y159.435 E4.7017
G1 X192.794 Y159.569 E4.7400
G1 X192.295 Y159.703 E4.7589
G1 X191.814 Y159.879 E4.7776
G1 X190.897 Y160.364 E4.8156
G1 X189.706 Y161.387 E4.8730
G1 X189.389 Y161.777 E4.8914
G1 X188.969 Y162.443 E4.9202
G1 X188.637 Y163.146 E4.9487
G1 X188.350 Y164.151 E4.9869
G1 X188.277 Y164.652 E5.0054
G1 X188.257 Y165.434 E5.0341
G1 X188.332 Y166.213 E5.0627
G1 X188.797 Y167.698 E5.1196
G1 X189.180 Y168.378 E5.1482
G1 X189.637 Y169.002 E5.1765
G1 X190.052 Y169.445 E5.1987
G1 X190.050 Y169.606 E5.2046
G1 X188.428 Y171.263 E5.2894
G1 X188.255 Y171.260 E5.2957
G1 X187.596 Y170.529 E5.3317
G1 X187.590 Y170.522 E5.3321
G1 X187.060 Y169.809 E5.3646
G1 X187.052 Y169.798 E5.3651
G1 X186.473 Y168.754 E5.4088
G1 X186.466 Y168.740 E5.4093
G1 X186.044 Y167.621 E5.4531
G1 X186.040 Y167.605 E5.4537
G1 X185.752 Y166.149 E5.5080
G1 X185.750 Y166.136 E5.5085
G1 X185.704 Y165.399 E5.5355
G1 X106.781 Y149.138 E8.4836
G1 X97.719 Y149.138 E8.8151
G1 X97.602 Y149.021 E8.8212
G1 X97.602 Y128.856 E9.5590
G1 X97.719 Y128.738 E9.5650
; inner perimeter
G1 X98.018 Y129.154 F6000
G1 X98.097 Y129.154 F6000
G1 X98.902 Y130.039 F6000
G92 E0
G1 X106.631 Y130.039 E0.2828 F788
G1 X193.327 Y157.894 E3.6144
G1 X193.300 Y158.193 E3.6253
G1 X192.541 Y158.291 E3.6533
G1 X191.903 Y158.462 E3.6775
G1 X191.284 Y158.688 E3.7016
G1 X190.160 Y159.283 E3.7481
G1 X188.771 Y160.477 E3.8151
G1 X188.331 Y161.017 E3.8406
G1 X187.827 Y161.816 E3.8752
G1 X187.416 Y162.687 E3.9104
G1 X187.076 Y163.878 E3.9557
G1 X187.008 Y164.341 E3.9729
G1 X106.913 Y147.839 E6.9648
G1 X98.902 Y147.839 E7.2579
G1 X98.902 Y130.039 E7.9091
G1 X98.462 Y129.599 F6000
G92 E0
G1 X106.700 Y129.599 E0.3014 F788
G1 X194.269 Y157.735 E3.6665
G1 X195.238 Y157.841 E3.7022
G1 X196.353 Y158.111 E3.7442
G1 X198.462 Y159.189 E3.8308
G1 X199.300 Y159.902 E3.8711
G1 X200.914 Y162.332 E3.9778
G1 X201.532 Y165.182 E4.0845
G1 X201.470 Y165.937 E4.1122
G1 X200.650 Y165.785 E4.1427
G1 X200.704 Y164.976 E4.1724
G1 X200.608 Y164.044 E4.2067
G1 X200.080 Y162.390 E4.2702
G1 X199.625 Y161.594 E4.3037
G1 X199.073 Y160.853 E4.3375
G1 X197.773 Y159.705 E4.4010
G1 X196.976 Y159.252 E4.4345
G1 X196.147 Y158.908 E4.4674
G1 X195.278 Y158.690 E4.5002
G1 X194.401 Y158.580 E4.5325
G1 X193.779 Y158.575 E4.5552
G1 X192.627 Y158.723 E4.5977
G1 X192.036 Y158.882 E4.6201
G1 X191.463 Y159.091 E4.6424
G1 X190.410 Y159.649 E4.6861
G1 X189.087 Y160.785 E4.7498
G1 X188.689 Y161.274 E4.7729
G1 X188.214 Y162.028 E4.8055
G1 X187.829 Y162.842 E4.8385
G1 X187.507 Y163.970 E4.8814
G1 X187.418 Y164.580 E4.9039
G1 X187.396 Y165.465 E4.9363
G1 X187.485 Y166.384 E4.9701
G1 X188.003 Y168.041 E5.0336
G1 X188.456 Y168.844 E5.0673
G1 X188.942 Y169.509 E5.0975
G1 X188.355 Y170.109 E5.1282
G1 X187.780 Y169.336 E5.1634
G1 X187.251 Y168.385 E5.2032
