; G-Code generated by Simplify3D(R) Version 4.1.2
;
;
;
;
; Dec 1, 2022 at 7:11:06 PM
; Settings Summary
;   processName,PLA A15
;   applyToModels,Withing Steel HR Sport Support
;   profileName,PLA_A15_04_05_210 Tevo Tornado
;   profileVersion,2022-12-01 19:10:01
;   baseProfile,Creality CR-10(2)
;   printMaterial,PLA
;   printQuality,High
;   printExtruders,
;   extruderName,Primary Extruder
;   extruderToolheadNumber,0
;   extruderDiameter,0.4
;   extruderAutoWidth,0
;   extruderWidth,0.35
;   extrusionMultiplier,0.95
;   extruderUseRetract,1
;   extruderRetractionDistance,4
;   extruderExtraRestartDistance,0
;   extruderRetractionZLift,0.3
;   extruderRetractionSpeed,3000
;   extruderUseCoasting,1
;   extruderCoastingDistance,0.2
;   extruderUseWipe,0
;   extruderWipeDistance,5
;   primaryExtruder,0
;   layerHeight,0.12
;   topSolidLayers,6
;   bottomSolidLayers,5
;   perimeterOutlines,4
;   printPerimetersInsideOut,1
;   startPointOption,2
;   startPointOriginX,0
;   startPointOriginY,300
;   sequentialIslands,0
;   spiralVaseMode,0
;   firstLayerHeightPercentage,120
;   firstLayerWidthPercentage,100
;   firstLayerUnderspeed,0.25
;   useRaft,0
;   raftExtruder,0
;   raftTopLayers,3
;   raftBaseLayers,2
;   raftOffset,3
;   raftSeparationDistance,0.14
;   raftTopInfill,100
;   aboveRaftSpeedMultiplier,0.3
;   useSkirt,1
;   skirtExtruder,0
;   skirtLayers,2
;   skirtOutlines,2
;   skirtOffset,3
;   usePrimePillar,0
;   primePillarExtruder,999
;   primePillarWidth,12
;   primePillarLocation,7
;   primePillarSpeedMultiplier,1
;   useOozeShield,0
;   oozeShieldExtruder,999
;   oozeShieldOffset,2
;   oozeShieldOutlines,1
;   oozeShieldSidewallShape,1
;   oozeShieldSidewallAngle,30
;   oozeShieldSpeedMultiplier,1
;   infillExtruder,0
;   internalInfillPattern,Full Honeycomb
;   externalInfillPattern,Rectilinear
;   infillPercentage,5
;   outlineOverlapPercentage,15
;   infillExtrusionWidthPercentage,100
;   minInfillLength,5
;   infillLayerInterval,1
;   internalInfillAngles,0,120,-120
;   overlapInternalInfillAngles,0
;   externalInfillAngles,45,-45
;   generateSupport,0
;   supportExtruder,0
;   supportInfillPercentage,40
;   supportExtraInflation,0
;   supportBaseLayers,0
;   denseSupportExtruder,0
;   denseSupportLayers,0
;   denseSupportInfillPercentage,70
;   supportLayerInterval,1
;   supportHorizontalPartOffset,0.4
;   supportUpperSeparationLayers,1
;   supportLowerSeparationLayers,1
;   supportType,0
;   supportGridSpacing,4.5
;   maxOverhangAngle,45
;   supportAngles,0
;   temperatureName,Primary Extruder,Heated Bed
;   temperatureNumber,0,0
;   temperatureSetpointCount,2,2
;   temperatureSetpointLayers,1,2,1,2
;   temperatureSetpointTemperatures,215,210,55,50
;   temperatureStabilizeAtStartup,1,1
;   temperatureHeatedBed,0,1
;   fanLayers,1,2
;   fanSpeeds,0,100
;   blipFanToFullPower,0
;   adjustSpeedForCooling,1
;   minSpeedLayerTime,15
;   minCoolingSpeedSlowdown,20
;   increaseFanForCooling,1
;   minFanLayerTime,25
;   maxCoolingFanSpeed,100
;   increaseFanForBridging,1
;   bridgingFanSpeed,100
;   use5D,1
;   relativeEdistances,0
;   allowEaxisZeroing,1
;   independentExtruderAxes,0
;   includeM10123,0
;   stickySupport,1
;   applyToolheadOffsets,0
;   gcodeXoffset,0
;   gcodeYoffset,0
;   gcodeZoffset,0
;   overrideMachineDefinition,1
;   machineTypeOverride,0
;   strokeXoverride,300
;   strokeYoverride,300
;   strokeZoverride,400
;   originOffsetXoverride,0
;   originOffsetYoverride,0
;   originOffsetZoverride,0
;   homeXdirOverride,-1
;   homeYdirOverride,-1
;   homeZdirOverride,-1
;   flipXoverride,1
;   flipYoverride,-1
;   flipZoverride,1
;   toolheadOffsets,0,0|0,0|0,0|0,0|0,0|0,0
;   overrideFirmwareConfiguration,1
;   firmwareTypeOverride,RepRap (Marlin/Repetier/Sprinter)
;   GPXconfigOverride,r2
;   baudRateOverride,250000
;   overridePrinterModels,1
;   printerModelsOverride
;   startingGcode,;,; -]H.P.B[- MarshMalloW  ,; $VER: StartScript 1.02 (26.12.2019) MarshMalloW,;,; Begin Startcode,;,M117 *Preheat*     	; Preheat,;extruder0_temperature,M104 S[extruder0_temperature]  ,M109 S[extruder0_temperature] ,M109 R[extruder0_temperature] ,;,M117 *Auto-leveling*     	; Auto-leveling,M107                   	; Turn layer fan off,G21                    	; Set to metric [change to G20 if you want Imperial],G90                    	; Force coordinates to be absolute relative to the origin,G28                    	; Home X/Y/Z axis,G29                    	; Auto-leveling (BL-Touch),;,M117 *Start Clean*     	; Indicate nozzle clean in progress on LCD,G92 E0                 	; Set Extruder to 0 ,G1 X0 Y0 F2000         	; Move X and Y to 0 with speed 2000 (mm/min),G1 Z0.1 F1000          	; Move Z to   0.1 with speed 1000 (mm/min),G1 X8.0 F2000          	; Move X to   8.0 with speed 2000 (mm/min),G1 Y60.0 E4.0 F1000.0  	; Move Y to  60 and Extruder with 4.0 with speed 1000 (mm/min),G1 Y100.0 E8.5 F1000.0 	; Move Y to 100 and Extruder with 8.5 with speed 1000 (mm/min),G92 E0                 	; Set extruder to 0,G1 X16.0 F3000         	; Move X to 16.0 with speed 3000 (mm/min),G1 Y60.0 F3000         	; Move Y to 60.0 with speed 3000 (mm/min),M117 *End Clean*       	; Indicate nozzle clean in progress on LCD,G1 Z5 F3000            	; Move Z to  5.0 with speed 3000 (mm/min),G1 X20.0 F3000         	; Move X to 20.0 with speed 3000 (mm/min),G1 Y20.0 F3000         	; Move Y to 20.0 with speed 3000 (mm/min),; ,M117 *Printing...*     	; Start printing msg on LCD,;,; End Startcode,;,; Begin printing with sliced GCode after here,;
;   layerChangeGcode,
;   retractionGcode,
;   toolChangeGcode,
;   endingGcode,;,; init 181010,;,;M107 			; Fan off,;G1 E-1 F300 			; Retract the filament a bit before lifting the nozzle,;M104 S0 			; Turn off extruder,;M140 S0 			; Turn off bed,;G91			; Relative positioning,;G28 X0 Y0 			; Move X/Y to min endstops so the head is out of teh way,;M84 			; Disable motors,;G90 			; Absolute positioning,;M117 Print ready...,,;,; // From Cura 181010,; // End_gcode,G92 E0			; Zero the extruded length,;G1 E-30 F300		; Retract E -30,M106 S0			; Turn off cooling fan,M104 S0			; Turn off temperature,M140 S0		     	; Turn off bed,G91			; Relative positioning,G1 E-1 F300			; Retract the filament a bit before lifting the nozzle to release some of the pressure,G1 Z+20 E-5 X-20 Y-20 F7200	; Move Z up a bit and retract filament even more,G1 X0 Y150 F10000		; Move right min,M107			; Turn off layer fan,M84			; Disable motors,G90			; Absolute positioning,M117 *The-End* 		; End msg,;,
;   exportFileFormat,gcode
;   celebration,0
;   celebrationSong,Star Wars
;   postProcessing,D:\S3D_Thumbs\S3D_Thumbs.exe f="[output_filepath]" x=600 y=110 w=953 lw=400 lh=300 sw=32 sh=32 d=Y
;   defaultSpeed,4200
;   outlineUnderspeed,0.5
;   solidInfillUnderspeed,0.8
;   supportUnderspeed,0.8
;   rapidXYspeed,6000
;   rapidZspeed,1002
;   minBridgingArea,50
;   bridgingExtraInflation,0.2
;   bridgingExtrusionMultiplier,1
;   bridgingSpeedMultiplier,0.8
;   useFixedBridgingAngle,0
;   fixedBridgingAngle,0
;   applyBridgingToPerimeters,0
;   filamentDiameters,1.75|1.75|1.75|1.75|1.75|1.75
;   filamentPricesPerKg,30|46|46|46|46|46
;   filamentDensities,1.25|1.25|1.25|1.25|1.25|1.25
;   useMinPrintHeight,0
;   minPrintHeight,0
;   useMaxPrintHeight,0
;   maxPrintHeight,50
;   useDiaphragm,0
;   diaphragmLayerInterval,20
;   robustSlicing,1
;   mergeAllIntoSolid,0
;   onlyRetractWhenCrossingOutline,1
;   retractBetweenLayers,1
;   useRetractionMinTravel,0
;   retractionMinTravel,3
;   retractWhileWiping,1
;   onlyWipeOutlines,1
;   avoidCrossingOutline,0
;   maxMovementDetourFactor,3
;   toolChangeRetractionDistance,12
;   toolChangeExtraRestartDistance,-0.5
;   toolChangeRetractionSpeed,600
;   externalThinWallType,1
;   internalThinWallType,1
;   thinWallAllowedOverlapPercentage,10
;   singleExtrusionMinLength,1
;   singleExtrusionMinPrintingWidthPercentage,50
;   singleExtrusionMaxPrintingWidthPercentage,200
;   singleExtrusionEndpointExtension,0.2
;   horizontalSizeCompensation,0
G90
M82
M106 S0
M140 S55
M190 S55
;
; -]H.P.B[- MarshMalloW  
; $VER: StartScript 1.02 (26.12.2019) MarshMalloW
;
; Begin Startcode
;
M117 *Preheat*     	; Preheat
;extruder0_temperature
M104 S215  
M109 S215 
M109 R215 
;
M117 *Auto-leveling*     	; Auto-leveling
M107                   	; Turn layer fan off
G21                    	; Set to metric [change to G20 if you want Imperial]
G90                    	; Force coordinates to be absolute relative to the origin
G28                    	; Home X/Y/Z axis
G29                    	; Auto-leveling (BL-Touch)
;
M117 *Start Clean*     	; Indicate nozzle clean in progress on LCD
G92 E0                 	; Set Extruder to 0 
G1 X0 Y0 F2000         	; Move X and Y to 0 with speed 2000 (mm/min)
G1 Z0.1 F1000          	; Move Z to   0.1 with speed 1000 (mm/min)
G1 X8.0 F2000          	; Move X to   8.0 with speed 2000 (mm/min)
G1 Y60.0 E4.0 F1000.0  	; Move Y to  60 and Extruder with 4.0 with speed 1000 (mm/min)
G1 Y100.0 E8.5 F1000.0 	; Move Y to 100 and Extruder with 8.5 with speed 1000 (mm/min)
G92 E0                 	; Set extruder to 0
G1 X16.0 F3000         	; Move X to 16.0 with speed 3000 (mm/min)
G1 Y60.0 F3000         	; Move Y to 60.0 with speed 3000 (mm/min)
M117 *End Clean*       	; Indicate nozzle clean in progress on LCD
G1 Z5 F3000            	; Move Z to  5.0 with speed 3000 (mm/min)
G1 X20.0 F3000         	; Move X to 20.0 with speed 3000 (mm/min)
G1 Y20.0 F3000         	; Move Y to 20.0 with speed 3000 (mm/min)
; 
M117 *Printing...*     	; Start printing msg on LCD
;
; End Startcode
;
; Begin printing with sliced GCode after here
;
; process PLA A15
; layer 1, Z = 0.144
M117 INDICATOR-Layer1
M117 DASHBOARD_LAYER_INDICATOR 1
T0
G92 E0.0000
G1 E-4.0000 F3000
; feature skirt
; tool H0.144 W0.350
G1 Z0.300 F1002
G1 X111.044 Y121.516 F6000
G1 Z0.144 F1002
G1 E0.0000 F3000
G92 E0.0000
G1 X162.526 Y121.516 E1.0248 F1050
G1 X162.570 Y121.517 E1.0257
G1 X163.880 Y121.549 E1.0518
G1 X163.968 Y121.554 E1.0535
G1 X165.297 Y121.653 E1.0800
G1 X165.384 Y121.662 E1.0818
G1 X166.706 Y121.828 E1.1083
G1 X166.793 Y121.841 E1.1101
G1 X168.105 Y122.072 E1.1366
G1 X168.192 Y122.090 E1.1383
G1 X169.491 Y122.386 E1.1649
G1 X169.576 Y122.408 E1.1666
G1 X170.858 Y122.769 E1.1931
G1 X170.942 Y122.795 E1.1949
G1 X172.205 Y123.219 E1.2214
G1 X172.288 Y123.249 E1.2232
G1 X173.528 Y123.736 E1.2497
G1 X173.609 Y123.770 E1.2514
G1 X174.824 Y124.318 E1.2779
G1 X174.903 Y124.356 E1.2797
G1 X176.088 Y124.964 E1.3062
G1 X176.166 Y125.006 E1.3080
G1 X177.319 Y125.672 E1.3345
G1 X177.394 Y125.718 E1.3362
G1 X178.514 Y126.441 E1.3628
G1 X178.586 Y126.490 E1.3645
G1 X179.668 Y127.268 E1.3910
G1 X179.738 Y127.321 E1.3928
G1 X180.780 Y128.152 E1.4193
G1 X180.847 Y128.208 E1.4211
G1 X181.846 Y129.090 E1.4476
G1 X181.911 Y129.150 E1.4493
G1 X182.864 Y130.080 E1.4759
G1 X182.926 Y130.143 E1.4776
G1 X183.832 Y131.120 E1.5041
G1 X183.890 Y131.186 E1.5059
G1 X184.747 Y132.206 E1.5324
G1 X184.801 Y132.275 E1.5341
G1 X185.606 Y133.337 E1.5607
G1 X185.657 Y133.408 E1.5624
G1 X186.408 Y134.509 E1.5889
G1 X186.455 Y134.583 E1.5907
G1 X187.150 Y135.720 E1.6172
G1 X187.194 Y135.796 E1.6190
G1 X187.831 Y136.966 E1.6455
G1 X187.871 Y137.044 E1.6472
G1 X188.450 Y138.245 E1.6738
G1 X188.486 Y138.325 E1.6755
G1 X189.003 Y139.553 E1.7020
G1 X189.035 Y139.635 E1.7038
G1 X189.491 Y140.887 E1.7303
G1 X189.519 Y140.970 E1.7321
G1 X189.912 Y142.243 E1.7586
G1 X189.936 Y142.328 E1.7603
G1 X190.264 Y143.619 E1.7868
G1 X190.284 Y143.705 E1.7886
G1 X190.548 Y145.011 E1.8151
G1 X190.563 Y145.097 E1.8169
G1 X190.762 Y146.415 E1.8434
G1 X190.773 Y146.502 E1.8451
G1 X190.905 Y147.828 E1.8717
G1 X190.912 Y147.915 E1.8734
G1 X190.978 Y149.246 E1.8999
G1 X190.981 Y149.334 E1.9017
G1 X190.981 Y150.666 E1.9282
G1 X190.978 Y150.754 E1.9300
G1 X190.912 Y152.085 E1.9565
G1 X190.905 Y152.172 E1.9582
G1 X190.773 Y153.498 E1.9848
G1 X190.762 Y153.585 E1.9865
G1 X190.563 Y154.903 E2.0130
G1 X190.548 Y154.989 E2.0148
G1 X190.284 Y156.295 E2.0413
G1 X190.264 Y156.381 E2.0430
G1 X189.936 Y157.672 E2.0696
G1 X189.912 Y157.757 E2.0713
G1 X189.519 Y159.030 E2.0978
G1 X189.491 Y159.113 E2.0996
G1 X189.035 Y160.365 E2.1261
G1 X189.003 Y160.447 E2.1279
G1 X188.486 Y161.675 E2.1544
G1 X188.450 Y161.755 E2.1561
G1 X187.871 Y162.956 E2.1827
G1 X187.831 Y163.034 E2.1844
G1 X187.194 Y164.204 E2.2109
G1 X187.150 Y164.280 E2.2127
G1 X186.456 Y165.417 E2.2392
G1 X186.408 Y165.491 E2.2410
G1 X185.657 Y166.592 E2.2675
G1 X185.606 Y166.663 E2.2692
G1 X184.801 Y167.725 E2.2957
G1 X184.747 Y167.794 E2.2975
G1 X183.890 Y168.814 E2.3240
G1 X183.832 Y168.880 E2.3258
G1 X182.926 Y169.857 E2.3523
G1 X182.864 Y169.920 E2.3540
G1 X181.911 Y170.850 E2.3806
G1 X181.846 Y170.910 E2.3823
G1 X180.847 Y171.792 E2.4088
G1 X180.780 Y171.848 E2.4106
G1 X179.738 Y172.679 E2.4371
G1 X179.668 Y172.732 E2.4389
G1 X178.586 Y173.510 E2.4654
G1 X178.514 Y173.559 E2.4671
G1 X177.394 Y174.282 E2.4937
G1 X177.319 Y174.328 E2.4954
G1 X176.166 Y174.994 E2.5219
G1 X176.088 Y175.036 E2.5237
G1 X174.903 Y175.644 E2.5502
G1 X174.824 Y175.682 E2.5519
G1 X173.609 Y176.230 E2.5785
G1 X173.528 Y176.264 E2.5802
G1 X172.288 Y176.751 E2.6067
G1 X172.205 Y176.781 E2.6085
G1 X170.942 Y177.205 E2.6350
G1 X170.858 Y177.231 E2.6368
G1 X169.576 Y177.592 E2.6633
G1 X169.490 Y177.614 E2.6650
G1 X168.192 Y177.910 E2.6916
G1 X168.105 Y177.928 E2.6933
G1 X166.793 Y178.159 E2.7198
G1 X166.706 Y178.172 E2.7216
G1 X165.384 Y178.338 E2.7481
G1 X165.297 Y178.347 E2.7499
G1 X163.968 Y178.446 E2.7764
G1 X163.880 Y178.451 E2.7781
G1 X162.570 Y178.483 E2.8042
G1 X162.526 Y178.484 E2.8051
G1 X111.044 Y178.484 E3.8299
G1 X108.979 Y176.419 E3.8880
G1 X108.979 Y123.581 E4.9398
G1 X111.044 Y121.516 E4.9980
G92 E0.0000
G1 E-4.0000 F3000
G1 Z0.444 F1002
G1 X111.189 Y121.866 F6000
G1 Z0.144 F1002
G1 E0.0000 F3000
G92 E0.0000
G1 X162.524 Y121.866 E1.0219 F1050
G1 X162.564 Y121.867 E1.0227
G1 X163.867 Y121.899 E1.0486
G1 X163.946 Y121.903 E1.0502
G1 X165.266 Y122.002 E1.0766
G1 X165.345 Y122.010 E1.0781
G1 X166.658 Y122.174 E1.1045
G1 X166.737 Y122.186 E1.1061
G1 X168.040 Y122.416 E1.1324
G1 X168.118 Y122.432 E1.1340
G1 X169.408 Y122.726 E1.1603
G1 X169.485 Y122.746 E1.1619
G1 X170.759 Y123.104 E1.1882
G1 X170.835 Y123.128 E1.1898
G1 X172.090 Y123.549 E1.2162
G1 X172.164 Y123.576 E1.2178
G1 X173.396 Y124.060 E1.2441
G1 X173.469 Y124.091 E1.2457
G1 X174.676 Y124.635 E1.2720
G1 X174.747 Y124.669 E1.2736
G1 X175.925 Y125.273 E1.2999
G1 X175.994 Y125.311 E1.3015
G1 X177.141 Y125.973 E1.3279
G1 X177.208 Y126.014 E1.3294
G1 X178.320 Y126.732 E1.3558
G1 X178.386 Y126.777 E1.3574
G1 X179.460 Y127.550 E1.3837
G1 X179.523 Y127.597 E1.3853
G1 X180.558 Y128.423 E1.4116
G1 X180.619 Y128.474 E1.4132
G1 X181.611 Y129.349 E1.4396
G1 X181.669 Y129.403 E1.4411
G1 X182.617 Y130.328 E1.4675
G1 X182.672 Y130.384 E1.4691
G1 X183.572 Y131.355 E1.4954
G1 X183.625 Y131.414 E1.4970
G1 X184.476 Y132.428 E1.5233
G1 X184.525 Y132.490 E1.5249
G1 X185.324 Y133.545 E1.5513
G1 X185.371 Y133.609 E1.5528
G1 X186.116 Y134.703 E1.5792
G1 X186.159 Y134.769 E1.5808
G1 X186.849 Y135.899 E1.6071
G1 X186.889 Y135.967 E1.6087
G1 X187.522 Y137.130 E1.6350
G1 X187.558 Y137.200 E1.6366
G1 X188.132 Y138.393 E1.6630
G1 X188.165 Y138.465 E1.6645
G1 X188.679 Y139.685 E1.6909
G1 X188.708 Y139.758 E1.6925
G1 X189.161 Y141.002 E1.7188
G1 X189.186 Y141.077 E1.7204
G1 X189.576 Y142.342 E1.7467
G1 X189.598 Y142.418 E1.7483
G1 X189.924 Y143.701 E1.7747
G1 X189.942 Y143.778 E1.7762
G1 X190.204 Y145.076 E1.8026
G1 X190.218 Y145.154 E1.8042
G1 X190.415 Y146.462 E1.8305
G1 X190.425 Y146.541 E1.8321
G1 X190.557 Y147.858 E1.8584
G1 X190.563 Y147.937 E1.8600
G1 X190.629 Y149.259 E1.8864
G1 X190.631 Y149.338 E1.8879
G1 X190.631 Y150.662 E1.9143
G1 X190.629 Y150.741 E1.9159
G1 X190.563 Y152.063 E1.9422
G1 X190.557 Y152.142 E1.9438
G1 X190.425 Y153.459 E1.9701
G1 X190.415 Y153.538 E1.9717
G1 X190.218 Y154.846 E1.9981
G1 X190.204 Y154.924 E1.9996
G1 X189.942 Y156.222 E2.0260
G1 X189.924 Y156.299 E2.0276
