; G-Code generated by Simplify3D(R) Version 4.1.2
;
;
;
;
; Feb 17, 2023 at 11:33:41 PM
; Settings Summary
;   processName,PLA B 02
;   applyToModels,Support5five4CapsulesNespresso_Test01
;   profileName,PLA_B02_04_15_OS180_05 Tevo Tornado
;   profileVersion,2023-02-12 10:27:10
;   baseProfile,Creality CR-10(2)
;   printMaterial,PLA
;   printQuality,High
;   printExtruders,
;   extruderName,Primary Extruder
;   extruderToolheadNumber,0
;   extruderDiameter,0.4
;   extruderAutoWidth,0
;   extruderWidth,0.35
;   extrusionMultiplier,0.95
;   extruderUseRetract,1
;   extruderRetractionDistance,4
;   extruderExtraRestartDistance,0
;   extruderRetractionZLift,0.3
;   extruderRetractionSpeed,3000
;   extruderUseCoasting,1
;   extruderCoastingDistance,0.2
;   extruderUseWipe,0
;   extruderWipeDistance,5
;   primaryExtruder,0
;   layerHeight,0.12
;   topSolidLayers,6
;   bottomSolidLayers,5
;   perimeterOutlines,4
;   printPerimetersInsideOut,1
;   startPointOption,2
;   startPointOriginX,0
;   startPointOriginY,300
;   sequentialIslands,0
;   spiralVaseMode,0
;   firstLayerHeightPercentage,120
;   firstLayerWidthPercentage,100
;   firstLayerUnderspeed,0.25
;   useRaft,0
;   raftExtruder,0
;   raftTopLayers,3
;   raftBaseLayers,2
;   raftOffset,3
;   raftSeparationDistance,0.14
;   raftTopInfill,100
;   aboveRaftSpeedMultiplier,0.3
;   useSkirt,1
;   skirtExtruder,0
;   skirtLayers,2
;   skirtOutlines,2
;   skirtOffset,3
;   usePrimePillar,0
;   primePillarExtruder,999
;   primePillarWidth,12
;   primePillarLocation,7
;   primePillarSpeedMultiplier,1
;   useOozeShield,0
;   oozeShieldExtruder,999
;   oozeShieldOffset,2
;   oozeShieldOutlines,1
;   oozeShieldSidewallShape,1
;   oozeShieldSidewallAngle,30
;   oozeShieldSpeedMultiplier,1
;   infillExtruder,0
;   internalInfillPattern,Fast Honeycomb
;   externalInfillPattern,Rectilinear
;   infillPercentage,15
;   outlineOverlapPercentage,15
;   infillExtrusionWidthPercentage,100
;   minInfillLength,5
;   infillLayerInterval,1
;   internalInfillAngles,0
;   overlapInternalInfillAngles,0
;   externalInfillAngles,45,-45
;   generateSupport,0
;   supportExtruder,0
;   supportInfillPercentage,40
;   supportExtraInflation,0
;   supportBaseLayers,0
;   denseSupportExtruder,0
;   denseSupportLayers,0
;   denseSupportInfillPercentage,70
;   supportLayerInterval,1
;   supportHorizontalPartOffset,0.4
;   supportUpperSeparationLayers,1
;   supportLowerSeparationLayers,1
;   supportType,0
;   supportGridSpacing,4.5
;   maxOverhangAngle,45
;   supportAngles,0
;   temperatureName,Primary Extruder,Heated Bed
;   temperatureNumber,0,0
;   temperatureSetpointCount,2,2
;   temperatureSetpointLayers,1,2,1,2
;   temperatureSetpointTemperatures,185,180,10,5
;   temperatureStabilizeAtStartup,1,1
;   temperatureHeatedBed,0,1
;   fanLayers,1,2
;   fanSpeeds,0,100
;   blipFanToFullPower,0
;   adjustSpeedForCooling,1
;   minSpeedLayerTime,15
;   minCoolingSpeedSlowdown,20
;   increaseFanForCooling,1
;   minFanLayerTime,25
;   maxCoolingFanSpeed,100
;   increaseFanForBridging,1
;   bridgingFanSpeed,100
;   use5D,1
;   relativeEdistances,0
;   allowEaxisZeroing,1
;   independentExtruderAxes,0
;   includeM10123,0
;   stickySupport,1
;   applyToolheadOffsets,0
;   gcodeXoffset,0
;   gcodeYoffset,0
;   gcodeZoffset,0
;   overrideMachineDefinition,1
;   machineTypeOverride,0
;   strokeXoverride,300
;   strokeYoverride,300
;   strokeZoverride,400
;   originOffsetXoverride,0
;   originOffsetYoverride,0
;   originOffsetZoverride,0
;   homeXdirOverride,-1
;   homeYdirOverride,-1
;   homeZdirOverride,-1
;   flipXoverride,1
;   flipYoverride,-1
;   flipZoverride,1
;   toolheadOffsets,0,0|0,0|0,0|0,0|0,0|0,0
;   overrideFirmwareConfiguration,1
;   firmwareTypeOverride,RepRap (Marlin/Repetier/Sprinter)
;   GPXconfigOverride,r2
;   baudRateOverride,250000
;   overridePrinterModels,1
;   printerModelsOverride
;   startingGcode,;,; -]H.P.B[- MarshMalloW  ,; $VER: StartScript 1.03 (18.12.2022) MarshMalloW,;,; Begin Startcode,;,M117 *Preheat*	; Preheat,;extruder0_temperature,M104 S[extruder0_temperature],M109 S[extruder0_temperature],;M109 R[extruder0_temperature] ,;,M117 *Auto-leveling*     	; Auto-leveling,M107                   	; Turn layer fan off,G21                    	; Set to metric [change to G20 if you want Imperial],G90                    	; Force coordinates to be absolute relative to the origin,G28                    	; Home X/Y/Z axis,G29                    	; Auto-leveling (BL-Touch),;,M117 *Start Clean*     	; Indicate nozzle clean in progress on LCD,G92 E0                 	; Set Extruder to 0 ,G1 X0 Y0 F2000         	; Move X and Y to 0 with speed 2000 (mm/min),G1 Z0.1 F1000          	; Move Z to   0.1 with speed 1000 (mm/min),G1 X8.0 F2000          	; Move X to   8.0 with speed 2000 (mm/min),G1 Y60.0 E4.0 F1000.0  	; Move Y to  60 and Extruder with 4.0 with speed 1000 (mm/min),G1 Y100.0 E8.5 F1000.0 	; Move Y to 100 and Extruder with 8.5 with speed 1000 (mm/min),G92 E0                 	; Set extruder to 0,G1 X16.0 F3000         	; Move X to 16.0 with speed 3000 (mm/min),G1 Y60.0 F3000         	; Move Y to 60.0 with speed 3000 (mm/min),M117 *End Clean*       	; Indicate nozzle clean in progress on LCD,G1 Z5 F3000            	; Move Z to  5.0 with speed 3000 (mm/min),G1 X20.0 F3000         	; Move X to 20.0 with speed 3000 (mm/min),G1 Y20.0 F3000         	; Move Y to 20.0 with speed 3000 (mm/min),; ,M117 *Printing...*     	; Start printing msg on LCD,;,; End Startcode,;,; Begin printing with sliced GCode after here,;
;   layerChangeGcode,
;   retractionGcode,
;   toolChangeGcode,
;   endingGcode,;,; init 181010,;,;M107 			; Fan off,;G1 E-1 F300 			; Retract the filament a bit before lifting the nozzle,;M104 S0 			; Turn off extruder,;M140 S0 			; Turn off bed,;G91			; Relative positioning,;G28 X0 Y0 			; Move X/Y to min endstops so the head is out of teh way,;M84 			; Disable motors,;G90 			; Absolute positioning,;M117 Print ready...,,;,; // From Cura 181010,; // End_gcode,G92 E0			; Zero the extruded length,;G1 E-30 F300		; Retract E -30,M106 S0			; Turn off cooling fan,M104 S0			; Turn off temperature,M140 S0		     	; Turn off bed,G91			; Relative positioning,G1 E-1 F300			; Retract the filament a bit before lifting the nozzle to release some of the pressure,G1 Z+20 E-5 X-20 Y-20 F7200	; Move Z up a bit and retract filament even more,G1 X0 Y150 F10000		; Move right min,M107			; Turn off layer fan,M84			; Disable motors,G90			; Absolute positioning,M117 *The-End* 		; End msg,;,
;   exportFileFormat,gcode
;   celebration,0
;   celebrationSong,Star Wars
;   postProcessing,D:\S3D_Thumbs\S3D_Thumbs.exe f="[output_filepath]" x=600 y=110 w=953 lw=400 lh=300 sw=32 sh=32 d=Y
;   defaultSpeed,4200
;   outlineUnderspeed,0.5
;   solidInfillUnderspeed,0.8
;   supportUnderspeed,0.8
;   rapidXYspeed,6000
;   rapidZspeed,1002
;   minBridgingArea,50
;   bridgingExtraInflation,0.2
;   bridgingExtrusionMultiplier,1
;   bridgingSpeedMultiplier,0.8
;   useFixedBridgingAngle,0
;   fixedBridgingAngle,0
;   applyBridgingToPerimeters,0
;   filamentDiameters,1.75|1.75|1.75|1.75|1.75|1.75
;   filamentPricesPerKg,30|46|46|46|46|46
;   filamentDensities,1.25|1.25|1.25|1.25|1.25|1.25
;   useMinPrintHeight,0
;   minPrintHeight,0
;   useMaxPrintHeight,0
;   maxPrintHeight,50
;   useDiaphragm,0
;   diaphragmLayerInterval,20
;   robustSlicing,1
;   mergeAllIntoSolid,0
;   onlyRetractWhenCrossingOutline,1
;   retractBetweenLayers,1
;   useRetractionMinTravel,0
;   retractionMinTravel,3
;   retractWhileWiping,1
;   onlyWipeOutlines,1
;   avoidCrossingOutline,0
;   maxMovementDetourFactor,3
;   toolChangeRetractionDistance,12
;   toolChangeExtraRestartDistance,-0.5
;   toolChangeRetractionSpeed,600
;   externalThinWallType,1
;   internalThinWallType,1
;   thinWallAllowedOverlapPercentage,10
;   singleExtrusionMinLength,1
;   singleExtrusionMinPrintingWidthPercentage,50
;   singleExtrusionMaxPrintingWidthPercentage,200
;   singleExtrusionEndpointExtension,0.2
;   horizontalSizeCompensation,0
G90
M82
M106 S0
M140 S10
;
; -]H.P.B[- MarshMalloW  
; $VER: StartScript 1.03 (18.12.2022) MarshMalloW
;
; Begin Startcode
;
M117 *Preheat*	; Preheat
;extruder0_temperature
M104 S185
M109 S185
;M109 R185 
;
M117 *Auto-leveling*     	; Auto-leveling
M107                   	; Turn layer fan off
G21                    	; Set to metric [change to G20 if you want Imperial]
G90                    	; Force coordinates to be absolute relative to the origin
G28                    	; Home X/Y/Z axis
G29                    	; Auto-leveling (BL-Touch)
;
M117 *Start Clean*     	; Indicate nozzle clean in progress on LCD
G92 E0                 	; Set Extruder to 0 
G1 X0 Y0 F2000         	; Move X and Y to 0 with speed 2000 (mm/min)
G1 Z0.1 F1000          	; Move Z to   0.1 with speed 1000 (mm/min)
G1 X8.0 F2000          	; Move X to   8.0 with speed 2000 (mm/min)
G1 Y60.0 E4.0 F1000.0  	; Move Y to  60 and Extruder with 4.0 with speed 1000 (mm/min)
G1 Y100.0 E8.5 F1000.0 	; Move Y to 100 and Extruder with 8.5 with speed 1000 (mm/min)
G92 E0                 	; Set extruder to 0
G1 X16.0 F3000         	; Move X to 16.0 with speed 3000 (mm/min)
G1 Y60.0 F3000         	; Move Y to 60.0 with speed 3000 (mm/min)
M117 *End Clean*       	; Indicate nozzle clean in progress on LCD
G1 Z5 F3000            	; Move Z to  5.0 with speed 3000 (mm/min)
G1 X20.0 F3000         	; Move X to 20.0 with speed 3000 (mm/min)
G1 Y20.0 F3000         	; Move Y to 20.0 with speed 3000 (mm/min)
; 
M117 *Printing...*     	; Start printing msg on LCD
;
; End Startcode
;
; Begin printing with sliced GCode after here
;
; process PLA B 02
; layer 1, Z = 0.144
T0
G92 E0.0000
G1 E-4.0000 F3000
; feature skirt
; tool H0.144 W0.350
G1 Z0.300 F1002
G1 X130.837 Y119.540 F6000
G1 Z0.144 F1002
G1 E0.0000 F3000
G92 E0.0000
G1 X132.902 Y117.475 E0.0581 F1050
G1 X176.346 Y117.475 E0.9229
G1 X178.410 Y119.540 E0.9811
G1 X178.410 Y180.460 E2.1937
G1 X176.346 Y182.525 E2.2519
G1 X132.902 Y182.525 E3.1167
G1 X130.837 Y180.460 E3.1748
G1 X130.837 Y170.062 E3.3818
G1 X133.412 Y167.947 E3.4481
G1 X135.928 Y168.445 E3.4992
G1 X136.278 Y168.470 E3.5062
G1 X136.629 Y168.460 E3.5131
G1 X137.300 Y168.356 E3.5267
G1 X137.596 Y168.272 E3.5328
G1 X138.180 Y168.024 E3.5454
G1 X138.722 Y167.691 E3.5581
G1 X138.961 Y167.499 E3.5642
G1 X139.435 Y167.012 E3.5777
G1 X139.620 Y166.767 E3.5838
G1 X139.959 Y166.178 E3.5973
G1 X140.095 Y165.855 E3.6043
G1 X140.198 Y165.520 E3.6113
G1 X140.308 Y164.894 E3.6239
G1 X140.323 Y164.303 E3.6357
G1 X140.244 Y163.672 E3.6484
G1 X140.157 Y163.332 E3.6553
G1 X140.023 Y162.961 E3.6632
G1 X139.852 Y162.605 E3.6711
G1 X139.646 Y162.268 E3.6789
G1 X139.408 Y161.953 E3.6868
G1 X139.140 Y161.663 E3.6947
G1 X138.845 Y161.401 E3.7025
G1 X138.524 Y161.169 E3.7104
G1 X138.183 Y160.971 E3.7182
G1 X137.823 Y160.808 E3.7261
G1 X137.449 Y160.681 E3.7340
G1 X137.065 Y160.592 E3.7418
G1 X136.673 Y160.542 E3.7497
G1 X136.278 Y160.530 E3.7575
G1 X135.928 Y160.555 E3.7645
G1 X133.412 Y161.053 E3.8156
G1 X130.837 Y158.938 E3.8819
G1 X130.837 Y146.161 E4.1362
G1 X130.661 Y146.141 E4.1398
G1 X130.447 Y146.103 E4.1441
G1 X129.194 Y145.798 E4.1698
G1 X128.986 Y145.734 E4.1741
G1 X128.134 Y145.411 E4.1922
G1 X127.975 Y145.342 E4.1957
G1 X127.159 Y144.937 E4.2138
G1 X126.970 Y144.828 E4.2182
G1 X125.876 Y144.105 E4.2443
G1 X125.670 Y143.946 E4.2495
G1 X124.694 Y143.069 E4.2756
G1 X124.542 Y142.914 E4.2799
G1 X123.930 Y142.210 E4.2985
G1 X123.798 Y142.037 E4.3028
G1 X123.078 Y140.967 E4.3285
G1 X122.968 Y140.780 E4.3328
G1 X122.557 Y139.967 E4.3509
G1 X122.486 Y139.808 E4.3544
G1 X122.164 Y138.979 E4.3721
G1 X122.109 Y138.814 E4.3755
G1 X121.865 Y137.937 E4.3937
G1 X121.820 Y137.724 E4.3980
G1 X121.630 Y136.448 E4.4237
G1 X121.611 Y136.232 E4.4280
G1 X121.588 Y135.299 E4.4466
G1 X121.596 Y135.082 E4.4509
G1 X121.723 Y133.799 E4.4766
G1 X121.758 Y133.584 E4.4809
G1 X121.958 Y132.695 E4.4990
G1 X122.005 Y132.528 E4.5025
G1 X122.285 Y131.684 E4.5202
G1 X122.348 Y131.522 E4.5237
G1 X122.710 Y130.710 E4.5414
G1 X122.789 Y130.555 E4.5448
G1 X123.240 Y129.763 E4.5630
G1 X123.359 Y129.581 E4.5673
G1 X124.144 Y128.531 E4.5934
G1 X124.315 Y128.334 E4.5986
G1 X125.246 Y127.410 E4.6247
G1 X125.410 Y127.267 E4.6290
G1 X126.130 Y126.710 E4.6472
G1 X126.273 Y126.610 E4.6506
G1 X127.027 Y126.138 E4.6683
G1 X127.178 Y126.054 E4.6718
G1 X127.994 Y125.649 E4.6899
G1 X128.195 Y125.564 E4.6942
G1 X129.412 Y125.137 E4.7199
G1 X129.621 Y125.078 E4.7242
G1 X130.532 Y124.880 E4.7428
G1 X130.747 Y124.847 E4.7471
G1 X130.837 Y124.839 E4.7489
G1 X130.837 Y119.540 E4.8544
G92 E0.0000
G1 E-4.0000 F3000
G1 Z0.444 F1002
G1 X131.187 Y119.685 F6000
G1 Z0.144 F1002
G1 E0.0000 F3000
G92 E0.0000
G1 X133.047 Y117.825 E0.0524 F1050
G1 X176.201 Y117.825 E0.9114
G1 X178.060 Y119.685 E0.9637
G1 X178.060 Y180.315 E2.1707
G1 X176.201 Y182.175 E2.2230
G1 X133.047 Y182.175 E3.0820
G1 X131.187 Y180.315 E3.1344
G1 X131.187 Y170.228 E3.3352
G1 X133.506 Y168.323 E3.3949
G1 X135.882 Y168.792 E3.4431
G1 X136.271 Y168.820 E3.4509
G1 X136.661 Y168.809 E3.4587
G1 X137.375 Y168.699 E3.4731
G1 X137.712 Y168.603 E3.4800
G1 X138.341 Y168.336 E3.4936
G1 X138.923 Y167.978 E3.5072
G1 X139.197 Y167.759 E3.5142
G1 X139.701 Y167.241 E3.5286
G1 X139.912 Y166.961 E3.5356
G1 X140.273 Y166.334 E3.5500
G1 X140.424 Y165.975 E3.5577
G1 X140.539 Y165.602 E3.5655
G1 X140.657 Y164.929 E3.5791
G1 X140.673 Y164.285 E3.5919
G1 X140.588 Y163.607 E3.6055
G1 X140.492 Y163.229 E3.6133
G1 X140.346 Y162.825 E3.6218
G1 X140.160 Y162.438 E3.6304
G1 X139.936 Y162.071 E3.6390
G1 X139.677 Y161.728 E3.6475
G1 X139.385 Y161.412 E3.6561
G1 X139.064 Y161.127 E3.6646
G1 X138.715 Y160.876 E3.6732
G1 X138.344 Y160.660 E3.6817
G1 X137.952 Y160.482 E3.6903
G1 X137.545 Y160.344 E3.6988
G1 X137.127 Y160.247 E3.7074
G1 X136.700 Y160.192 E3.7160
G1 X136.271 Y160.180 E3.7245
G1 X135.882 Y160.208 E3.7323
G1 X133.506 Y160.677 E3.7805
G1 X131.187 Y158.772 E3.8402
G1 X131.187 Y145.850 E4.0975
G1 X130.712 Y145.795 E4.1070
G1 X130.519 Y145.760 E4.1109
G1 X129.287 Y145.461 E4.1361
G1 X129.100 Y145.403 E4.1400
G1 X128.266 Y145.087 E4.1578
G1 X128.123 Y145.024 E4.1609
G1 X127.324 Y144.628 E4.1786
G1 X127.154 Y144.530 E4.1825
G1 X126.080 Y143.820 E4.2082
G1 X125.894 Y143.677 E4.2128
G1 X124.936 Y142.816 E4.2385
G1 X124.799 Y142.676 E4.2424
G1 X124.201 Y141.989 E4.2605
G1 X124.082 Y141.833 E4.2644
G1 X123.374 Y140.781 E4.2896
G1 X123.275 Y140.612 E4.2935
G1 X122.873 Y139.817 E4.3113
G1 X122.809 Y139.674 E4.3144
G1 X122.494 Y138.861 E4.3318
G1 X122.444 Y138.712 E4.3349
G1 X122.205 Y137.853 E4.3526
G1 X122.164 Y137.662 E4.3565
G1 X121.977 Y136.407 E4.3818
G1 X121.960 Y136.212 E4.3857
G1 X121.938 Y135.301 E4.4038
G1 X121.945 Y135.106 E4.4077
G1 X122.070 Y133.844 E4.4329
G1 X122.102 Y133.651 E4.4368
G1 X122.298 Y132.781 E4.4546
G1 X122.340 Y132.630 E4.4577
G1 X122.615 Y131.803 E4.4751
G1 X122.671 Y131.657 E4.4782
G1 X123.026 Y130.860 E4.4955
G1 X123.097 Y130.720 E4.4987
G1 X123.539 Y129.946 E4.5164
G1 X123.646 Y129.782 E4.5203
G1 X124.416 Y128.750 E4.5459
G1 X124.571 Y128.573 E4.5506
G1 X125.485 Y127.666 E4.5762
G1 X125.632 Y127.537 E4.5801
G1 X126.337 Y126.992 E4.5979
G1 X126.466 Y126.902 E4.6010
G1 X127.205 Y126.440 E4.6184
G1 X127.342 Y126.363 E4.6215
G1 X128.140 Y125.967 E4.6392
G1 X128.321 Y125.891 E4.6431
G1 X129.517 Y125.471 E4.6684
G1 X129.706 Y125.418 E4.6723
G1 X130.596 Y125.225 E4.6904
G1 X130.790 Y125.195 E4.6943
G1 X131.187 Y125.159 E4.7023
G1 X131.187 Y119.685 E4.8112
G92 E0.0000
G1 E-4.0000 F3000
; feature inner perimeter
G1 Z0.444 F1002
G1 X135.587 Y122.225 F6000
G1 Z0.144 F1002
G1 E0.0000 F3000
G92 E0.0000
G1 X173.660 Y122.225 E0.7579 F788
G1 X173.660 Y177.775 E1.8637
G1 X135.587 Y177.775 E2.6216
G1 X135.587 Y173.183 E2.7130
G1 X136.177 Y173.225 E2.7248
G1 X137.045 Y173.200 E2.7420
G1 X137.891 Y173.091 E2.7590
G1 X138.346 Y172.997 E2.7683
G1 X139.166 Y172.764 E2.7852
G1 X139.959 Y172.450 E2.8022
G1 X140.377 Y172.248 E2.8115
G1 X141.101 Y171.827 E2.8281
G1 X141.484 Y171.564 E2.8374
