; G-Code generated by Simplify3D(R) Version 4.1.2
;
;
;
;
; Feb 18, 2023 at 9:50:27 AM
; Settings Summary
;   processName,Process1
;   applyToModels,Support5five4CapsulesNespresso_Test02
;   profileName,PLA_B01_04_10_OS180_05 Tevo Tornado
;   profileVersion,2023-02-17 23:32:59
;   baseProfile,Creality CR-10(2)
;   printMaterial,PLA
;   printQuality,High
;   printExtruders,
;   extruderName,Primary Extruder
;   extruderToolheadNumber,0
;   extruderDiameter,0.4
;   extruderAutoWidth,0
;   extruderWidth,0.35
;   extrusionMultiplier,0.95
;   extruderUseRetract,1
;   extruderRetractionDistance,4
;   extruderExtraRestartDistance,0
;   extruderRetractionZLift,0.3
;   extruderRetractionSpeed,3000
;   extruderUseCoasting,1
;   extruderCoastingDistance,0.2
;   extruderUseWipe,0
;   extruderWipeDistance,5
;   primaryExtruder,0
;   layerHeight,0.12
;   topSolidLayers,6
;   bottomSolidLayers,6
;   perimeterOutlines,4
;   printPerimetersInsideOut,1
;   startPointOption,2
;   startPointOriginX,0
;   startPointOriginY,300
;   sequentialIslands,0
;   spiralVaseMode,0
;   firstLayerHeightPercentage,120
;   firstLayerWidthPercentage,100
;   firstLayerUnderspeed,0.25
;   useRaft,0
;   raftExtruder,0
;   raftTopLayers,3
;   raftBaseLayers,2
;   raftOffset,3
;   raftSeparationDistance,0.14
;   raftTopInfill,100
;   aboveRaftSpeedMultiplier,0.3
;   useSkirt,1
;   skirtExtruder,0
;   skirtLayers,2
;   skirtOutlines,2
;   skirtOffset,3
;   usePrimePillar,0
;   primePillarExtruder,999
;   primePillarWidth,12
;   primePillarLocation,7
;   primePillarSpeedMultiplier,1
;   useOozeShield,0
;   oozeShieldExtruder,999
;   oozeShieldOffset,2
;   oozeShieldOutlines,1
;   oozeShieldSidewallShape,1
;   oozeShieldSidewallAngle,30
;   oozeShieldSpeedMultiplier,1
;   infillExtruder,0
;   internalInfillPattern,Fast Honeycomb
;   externalInfillPattern,Rectilinear
;   infillPercentage,10
;   outlineOverlapPercentage,15
;   infillExtrusionWidthPercentage,100
;   minInfillLength,5
;   infillLayerInterval,1
;   internalInfillAngles,0
;   overlapInternalInfillAngles,0
;   externalInfillAngles,45,-45
;   generateSupport,0
;   supportExtruder,0
;   supportInfillPercentage,40
;   supportExtraInflation,0
;   supportBaseLayers,0
;   denseSupportExtruder,0
;   denseSupportLayers,0
;   denseSupportInfillPercentage,70
;   supportLayerInterval,1
;   supportHorizontalPartOffset,0.4
;   supportUpperSeparationLayers,1
;   supportLowerSeparationLayers,1
;   supportType,0
;   supportGridSpacing,4.5
;   maxOverhangAngle,45
;   supportAngles,0
;   temperatureName,Primary Extruder,Heated Bed
;   temperatureNumber,0,0
;   temperatureSetpointCount,2,2
;   temperatureSetpointLayers,1,2,1,2
;   temperatureSetpointTemperatures,185,180,10,5
;   temperatureStabilizeAtStartup,1,1
;   temperatureHeatedBed,0,1
;   fanLayers,1,2
;   fanSpeeds,0,100
;   blipFanToFullPower,0
;   adjustSpeedForCooling,1
;   minSpeedLayerTime,15
;   minCoolingSpeedSlowdown,20
;   increaseFanForCooling,1
;   minFanLayerTime,25
;   maxCoolingFanSpeed,100
;   increaseFanForBridging,1
;   bridgingFanSpeed,100
;   use5D,1
;   relativeEdistances,0
;   allowEaxisZeroing,1
;   independentExtruderAxes,0
;   includeM10123,0
;   stickySupport,1
;   applyToolheadOffsets,0
;   gcodeXoffset,0
;   gcodeYoffset,0
;   gcodeZoffset,0
;   overrideMachineDefinition,1
;   machineTypeOverride,0
;   strokeXoverride,300
;   strokeYoverride,300
;   strokeZoverride,400
;   originOffsetXoverride,0
;   originOffsetYoverride,0
;   originOffsetZoverride,0
;   homeXdirOverride,-1
;   homeYdirOverride,-1
;   homeZdirOverride,-1
;   flipXoverride,1
;   flipYoverride,-1
;   flipZoverride,1
;   toolheadOffsets,0,0|0,0|0,0|0,0|0,0|0,0
;   overrideFirmwareConfiguration,1
;   firmwareTypeOverride,RepRap (Marlin/Repetier/Sprinter)
;   GPXconfigOverride,r2
;   baudRateOverride,250000
;   overridePrinterModels,1
;   printerModelsOverride
;   startingGcode,;,; -]H.P.B[- MarshMalloW  ,; $VER: StartScript 1.03 (18.12.2022) MarshMalloW,;,; Begin Startcode,;,M117 *Preheat*	; Preheat,;extruder0_temperature,M104 S[extruder0_temperature],M109 S[extruder0_temperature],;M109 R[extruder0_temperature] ,;,M117 *Auto-leveling*     	; Auto-leveling,M107                   	; Turn layer fan off,G21                    	; Set to metric [change to G20 if you want Imperial],G90                    	; Force coordinates to be absolute relative to the origin,G28                    	; Home X/Y/Z axis,G29                    	; Auto-leveling (BL-Touch),;,M117 *Start Clean*     	; Indicate nozzle clean in progress on LCD,G92 E0                 	; Set Extruder to 0 ,G1 X0 Y0 F2000         	; Move X and Y to 0 with speed 2000 (mm/min),G1 Z0.1 F1000          	; Move Z to   0.1 with speed 1000 (mm/min),G1 X8.0 F2000          	; Move X to   8.0 with speed 2000 (mm/min),G1 Y60.0 E4.0 F1000.0  	; Move Y to  60 and Extruder with 4.0 with speed 1000 (mm/min),G1 Y100.0 E8.5 F1000.0 	; Move Y to 100 and Extruder with 8.5 with speed 1000 (mm/min),G92 E0                 	; Set extruder to 0,G1 X16.0 F3000         	; Move X to 16.0 with speed 3000 (mm/min),G1 Y60.0 F3000         	; Move Y to 60.0 with speed 3000 (mm/min),M117 *End Clean*       	; Indicate nozzle clean in progress on LCD,G1 Z5 F3000            	; Move Z to  5.0 with speed 3000 (mm/min),G1 X20.0 F3000         	; Move X to 20.0 with speed 3000 (mm/min),G1 Y20.0 F3000         	; Move Y to 20.0 with speed 3000 (mm/min),; ,M117 *Printing...*     	; Start printing msg on LCD,;,; End Startcode,;,; Begin printing with sliced GCode after here,;
;   layerChangeGcode,
;   retractionGcode,
;   toolChangeGcode,
;   endingGcode,;,; init 181010,;,;M107 			; Fan off,;G1 E-1 F300 			; Retract the filament a bit before lifting the nozzle,;M104 S0 			; Turn off extruder,;M140 S0 			; Turn off bed,;G91			; Relative positioning,;G28 X0 Y0 			; Move X/Y to min endstops so the head is out of teh way,;M84 			; Disable motors,;G90 			; Absolute positioning,;M117 Print ready...,,;,; // From Cura 181010,; // End_gcode,G92 E0			; Zero the extruded length,;G1 E-30 F300		; Retract E -30,M106 S0			; Turn off cooling fan,M104 S0			; Turn off temperature,M140 S0		     	; Turn off bed,G91			; Relative positioning,G1 E-1 F300			; Retract the filament a bit before lifting the nozzle to release some of the pressure,G1 Z+20 E-5 X-20 Y-20 F7200	; Move Z up a bit and retract filament even more,G1 X0 Y150 F10000		; Move right min,M107			; Turn off layer fan,M84			; Disable motors,G90			; Absolute positioning,M117 *The-End* 		; End msg,;,
;   exportFileFormat,gcode
;   celebration,0
;   celebrationSong,Star Wars
;   postProcessing,D:\S3D_Thumbs\S3D_Thumbs.exe f="[output_filepath]" x=600 y=110 w=953 lw=400 lh=300 sw=32 sh=32 d=Y
;   defaultSpeed,4200
;   outlineUnderspeed,0.5
;   solidInfillUnderspeed,0.8
;   supportUnderspeed,0.8
;   rapidXYspeed,6000
;   rapidZspeed,1002
;   minBridgingArea,50
;   bridgingExtraInflation,0.2
;   bridgingExtrusionMultiplier,1
;   bridgingSpeedMultiplier,0.8
;   useFixedBridgingAngle,0
;   fixedBridgingAngle,0
;   applyBridgingToPerimeters,0
;   filamentDiameters,1.75|1.75|1.75|1.75|1.75|1.75
;   filamentPricesPerKg,30|46|46|46|46|46
;   filamentDensities,1.25|1.25|1.25|1.25|1.25|1.25
;   useMinPrintHeight,0
;   minPrintHeight,0
;   useMaxPrintHeight,0
;   maxPrintHeight,50
;   useDiaphragm,0
;   diaphragmLayerInterval,20
;   robustSlicing,1
;   mergeAllIntoSolid,0
;   onlyRetractWhenCrossingOutline,1
;   retractBetweenLayers,1
;   useRetractionMinTravel,0
;   retractionMinTravel,3
;   retractWhileWiping,1
;   onlyWipeOutlines,1
;   avoidCrossingOutline,0
;   maxMovementDetourFactor,3
;   toolChangeRetractionDistance,12
;   toolChangeExtraRestartDistance,-0.5
;   toolChangeRetractionSpeed,600
;   externalThinWallType,1
;   internalThinWallType,1
;   thinWallAllowedOverlapPercentage,10
;   singleExtrusionMinLength,1
;   singleExtrusionMinPrintingWidthPercentage,50
;   singleExtrusionMaxPrintingWidthPercentage,200
;   singleExtrusionEndpointExtension,0.2
;   horizontalSizeCompensation,0
G90
M82
M106 S0
M140 S10
;
; -]H.P.B[- MarshMalloW  
; $VER: StartScript 1.03 (18.12.2022) MarshMalloW
;
; Begin Startcode
;
M117 *Preheat*	; Preheat
;extruder0_temperature
M104 S185
M109 S185
;M109 R185 
;
M117 *Auto-leveling*     	; Auto-leveling
M107                   	; Turn layer fan off
G21                    	; Set to metric [change to G20 if you want Imperial]
G90                    	; Force coordinates to be absolute relative to the origin
G28                    	; Home X/Y/Z axis
G29                    	; Auto-leveling (BL-Touch)
;
M117 *Start Clean*     	; Indicate nozzle clean in progress on LCD
G92 E0                 	; Set Extruder to 0 
G1 X0 Y0 F2000         	; Move X and Y to 0 with speed 2000 (mm/min)
G1 Z0.1 F1000          	; Move Z to   0.1 with speed 1000 (mm/min)
G1 X8.0 F2000          	; Move X to   8.0 with speed 2000 (mm/min)
G1 Y60.0 E4.0 F1000.0  	; Move Y to  60 and Extruder with 4.0 with speed 1000 (mm/min)
G1 Y100.0 E8.5 F1000.0 	; Move Y to 100 and Extruder with 8.5 with speed 1000 (mm/min)
G92 E0                 	; Set extruder to 0
G1 X16.0 F3000         	; Move X to 16.0 with speed 3000 (mm/min)
G1 Y60.0 F3000         	; Move Y to 60.0 with speed 3000 (mm/min)
M117 *End Clean*       	; Indicate nozzle clean in progress on LCD
G1 Z5 F3000            	; Move Z to  5.0 with speed 3000 (mm/min)
G1 X20.0 F3000         	; Move X to 20.0 with speed 3000 (mm/min)
G1 Y20.0 F3000         	; Move Y to 20.0 with speed 3000 (mm/min)
; 
M117 *Printing...*     	; Start printing msg on LCD
;
; End Startcode
;
; Begin printing with sliced GCode after here
;
; process Process1
; layer 1, Z = 0.144
T0
G92 E0.0000
G1 E-4.0000 F3000
; feature skirt
; tool H0.144 W0.350
G1 Z0.300 F1002
G1 X106.876 Y74.377 F6000
G1 Z0.144 F1002
G1 E0.0000 F3000
G92 E0.0000
G1 X107.439 Y73.661 E0.0181 F1050
G1 X107.553 Y73.530 E0.0216
G1 X108.184 Y72.873 E0.0397
G1 X108.344 Y72.726 E0.0441
G1 X109.344 Y71.912 E0.0697
G1 X109.521 Y71.785 E0.0741
G1 X110.312 Y71.290 E0.0926
G1 X110.503 Y71.187 E0.0970
G1 X111.672 Y70.642 E0.1226
G1 X111.874 Y70.563 E0.1270
G1 X112.741 Y70.282 E0.1451
G1 X112.909 Y70.237 E0.1485
G1 X113.778 Y70.048 E0.1662
G1 X113.949 Y70.020 E0.1697
G1 X114.104 Y70.002 E0.1728
G1 X114.104 Y64.703 E0.2783
G1 X116.169 Y62.639 E0.3364
G1 X186.334 Y62.639 E1.7331
G1 X188.399 Y64.703 E1.7913
G1 X188.399 Y125.624 E3.0039
G1 X186.334 Y127.689 E3.0621
G1 X116.169 Y127.689 E4.4588
G1 X114.104 Y125.624 E4.5169
G1 X114.104 Y115.226 E4.7239
G1 X116.679 Y113.111 E4.7902
G1 X119.152 Y113.600 E4.8404
G1 X119.786 Y113.629 E4.8531
G1 X120.092 Y113.605 E4.8592
G1 X120.715 Y113.477 E4.8718
G1 X121.311 Y113.258 E4.8845
G1 X121.584 Y113.117 E4.8906
G1 X122.144 Y112.734 E4.9041
G1 X122.374 Y112.530 E4.9102
G1 X122.823 Y112.020 E4.9237
G1 X123.020 Y111.730 E4.9307
G1 X123.187 Y111.421 E4.9377
G1 X123.435 Y110.789 E4.9512
G1 X123.510 Y110.491 E4.9573
G1 X123.595 Y109.817 E4.9709
G1 X123.595 Y109.510 E4.9770
G1 X123.510 Y108.836 E4.9905
G1 X123.424 Y108.496 E4.9975
G1 X123.289 Y108.125 E5.0053
G1 X123.118 Y107.769 E5.0132
G1 X122.913 Y107.431 E5.0211
G1 X122.675 Y107.116 E5.0289
G1 X122.407 Y106.826 E5.0368
G1 X122.111 Y106.564 E5.0446
G1 X121.791 Y106.333 E5.0525
G1 X121.450 Y106.135 E5.0604
G1 X121.090 Y105.971 E5.0682
G1 X120.716 Y105.845 E5.0761
G1 X120.374 Y105.765 E5.0831
G1 X119.698 Y105.695 E5.0966
G1 X119.348 Y105.703 E5.1036
G1 X118.956 Y105.750 E5.1114
G1 X116.747 Y106.245 E5.1565
G1 X114.104 Y104.128 E5.2239
G1 X114.104 Y91.325 E5.4788
G1 X113.949 Y91.307 E5.4819
G1 X113.778 Y91.279 E5.4853
G1 X112.888 Y91.085 E5.5035
G1 X112.678 Y91.026 E5.5078
G1 X111.441 Y90.592 E5.5339
G1 X111.202 Y90.488 E5.5391
G1 X110.042 Y89.876 E5.5652
G1 X109.856 Y89.763 E5.5695
G1 X109.091 Y89.230 E5.5881
G1 X108.920 Y89.095 E5.5924
G1 X107.961 Y88.233 E5.6181
G1 X107.809 Y88.078 E5.6224
G1 X107.211 Y87.390 E5.6405
G1 X107.104 Y87.253 E5.6440
G1 X106.589 Y86.528 E5.6617
G1 X106.496 Y86.381 E5.6652
G1 X106.045 Y85.590 E5.6833
G1 X105.949 Y85.395 E5.6876
G1 X105.453 Y84.204 E5.7133
G1 X105.382 Y83.999 E5.7176
G1 X105.138 Y83.121 E5.7358
G1 X105.099 Y82.952 E5.7392
G1 X104.943 Y82.054 E5.7574
G1 X104.919 Y81.838 E5.7617
G1 X104.855 Y80.550 E5.7874
G1 X104.858 Y80.333 E5.7917
G1 X104.925 Y79.424 E5.8098
G1 X104.947 Y79.251 E5.8133
G1 X105.099 Y78.376 E5.8310
G1 X105.138 Y78.206 E5.8344
G1 X105.382 Y77.328 E5.8526
G1 X105.453 Y77.123 E5.8569
G1 X105.957 Y75.912 E5.8830
G1 X106.075 Y75.679 E5.8882
G1 X106.753 Y74.556 E5.9143
G1 X106.876 Y74.377 E5.9186
G92 E0.0000
G1 E-4.0000 F3000
G1 Z0.444 F1002
G1 X107.158 Y74.585 F6000
G1 Z0.144 F1002
G1 E0.0000 F3000
G92 E0.0000
G1 X107.709 Y73.884 E0.0177 F1050
G1 X107.812 Y73.766 E0.0209
G1 X108.429 Y73.123 E0.0386
G1 X108.573 Y72.990 E0.0425
G1 X109.557 Y72.190 E0.0678
G1 X109.716 Y72.076 E0.0717
G1 X110.488 Y71.593 E0.0898
G1 X110.660 Y71.499 E0.0937
G1 X111.810 Y70.964 E0.1189
G1 X111.992 Y70.892 E0.1228
G1 X112.840 Y70.618 E0.1406
G1 X112.992 Y70.577 E0.1437
G1 X113.844 Y70.392 E0.1610
G1 X113.998 Y70.367 E0.1642
G1 X114.454 Y70.314 E0.1733
G1 X114.454 Y64.848 E0.2821
G1 X116.314 Y62.989 E0.3345
G1 X186.189 Y62.989 E1.7254
G1 X188.049 Y64.848 E1.7778
G1 X188.049 Y125.479 E2.9847
G1 X186.189 Y127.339 E3.0370
G1 X116.314 Y127.339 E4.4280
G1 X114.454 Y125.479 E4.4803
G1 X114.454 Y115.391 E4.6811
G1 X116.773 Y113.486 E4.7409
G1 X119.109 Y113.948 E4.7883
G1 X119.792 Y113.980 E4.8019
G1 X120.141 Y113.952 E4.8089
G1 X120.811 Y113.815 E4.8225
G1 X121.452 Y113.579 E4.8361
G1 X121.764 Y113.419 E4.8430
G1 X122.360 Y113.010 E4.8574
G1 X122.622 Y112.778 E4.8644
G1 X123.100 Y112.235 E4.8788
G1 X123.319 Y111.912 E4.8866
G1 X123.505 Y111.569 E4.8943
G1 X123.769 Y110.896 E4.9087
G1 X123.855 Y110.556 E4.9157
G1 X123.945 Y109.839 E4.9301
G1 X123.945 Y109.488 E4.9371
G1 X123.855 Y108.771 E4.9515
G1 X123.759 Y108.393 E4.9592
G1 X123.612 Y107.989 E4.9678
G1 X123.426 Y107.601 E4.9763
G1 X123.203 Y107.234 E4.9849
G1 X122.944 Y106.892 E4.9935
G1 X122.652 Y106.576 E5.0020
G1 X122.330 Y106.291 E5.0106
G1 X121.982 Y106.039 E5.0191
G1 X121.610 Y105.823 E5.0277
G1 X121.219 Y105.646 E5.0362
G1 X120.812 Y105.508 E5.0448
G1 X120.432 Y105.420 E5.0525
G1 X119.713 Y105.345 E5.0669
G1 X119.323 Y105.353 E5.0747
G1 X118.896 Y105.405 E5.0833
G1 X116.834 Y105.867 E5.1253
G1 X114.454 Y103.960 E5.1860
G1 X114.454 Y91.013 E5.4437
G1 X113.998 Y90.961 E5.4529
G1 X113.844 Y90.935 E5.4560
G1 X112.973 Y90.746 E5.4737
G1 X112.784 Y90.692 E5.4776
G1 X111.569 Y90.266 E5.5033
G1 X111.353 Y90.172 E5.5080
G1 X110.214 Y89.572 E5.5336
G1 X110.047 Y89.470 E5.5375
G1 X109.300 Y88.949 E5.5556
G1 X109.146 Y88.827 E5.5595
G1 X108.203 Y87.980 E5.5848
G1 X108.066 Y87.840 E5.5887
G1 X107.481 Y87.167 E5.6064
G1 X107.384 Y87.044 E5.6095
G1 X106.880 Y86.333 E5.6269
G1 X106.796 Y86.201 E5.6300
G1 X106.354 Y85.426 E5.6477
G1 X106.268 Y85.250 E5.6516
G1 X105.780 Y84.080 E5.6769
G1 X105.716 Y83.895 E5.6808
G1 X105.477 Y83.036 E5.6985
G1 X105.443 Y82.883 E5.7017
G1 X105.289 Y82.005 E5.7194
G1 X105.268 Y81.810 E5.7233
G1 X105.205 Y80.543 E5.7485
G1 X105.208 Y80.348 E5.7524
G1 X105.274 Y79.459 E5.7702
G1 X105.293 Y79.303 E5.7733
G1 X105.443 Y78.444 E5.7907
G1 X105.477 Y78.291 E5.7938
G1 X105.716 Y77.433 E5.8115
G1 X105.780 Y77.247 E5.8154
G1 X106.275 Y76.059 E5.8411
G1 X106.382 Y75.849 E5.8457
G1 X107.047 Y74.746 E5.8714
G1 X107.158 Y74.585 E5.8753
G92 E0.0000
G1 E-4.0000 F3000
; feature inner perimeter
G1 Z0.444 F1002
G1 X110.706 Y77.191 F6000
G1 Z0.144 F1002
G1 E0.0000 F3000
G92 E0.0000
G1 X111.082 Y76.712 E0.0121 F788
G1 X111.504 Y76.273 E0.0243
G1 X111.703 Y76.094 E0.0296
G1 X112.185 Y75.722 E0.0417
G1 X112.689 Y75.406 E0.0535
G1 X113.234 Y75.136 E0.0657
G1 X113.482 Y75.035 E0.0710
G1 X114.062 Y74.848 E0.0831
G1 X114.642 Y74.721 E0.0949
G1 X115.233 Y74.653 E0.1068
G1 X115.842 Y74.643 E0.1189
G1 X116.108 Y74.658 E0.1242
G1 X116.712 Y74.738 E0.1363
G1 X118.854 Y75.240 E0.1801
G1 X118.854 Y67.389 E0.3364
G1 X183.649 Y67.389 E1.6262
G1 X183.649 Y122.939 E2.7320
G1 X118.854 Y122.939 E4.0218
