; G-Code generated by Simplify3D(R) Version 4.1.2
; Mar 25, 2020 at 1:07:11 PM
; Settings Summary
;   processName,Process1
;   applyToModels,fijacion_laminas_finas_Visera_3.5.2
;   profileName,A03-04-50 Tevo Tornado (experimental)
;   profileVersion,2020-02-13 20:53:17
;   baseProfile,Creality CR-10(2)
;   printMaterial,PLA
;   printQuality,Medium
;   printExtruders,
;   extruderName,Primary Extruder
;   extruderToolheadNumber,0
;   extruderDiameter,0.4
;   extruderAutoWidth,0
;   extruderWidth,0.35
;   extrusionMultiplier,0.95
;   extruderUseRetract,1
;   extruderRetractionDistance,4
;   extruderExtraRestartDistance,0
;   extruderRetractionZLift,0.3
;   extruderRetractionSpeed,3000
;   extruderUseCoasting,0
;   extruderCoastingDistance,0.2
;   extruderUseWipe,0
;   extruderWipeDistance,4
;   primaryExtruder,0
;   layerHeight,0.15
;   topSolidLayers,4
;   bottomSolidLayers,3
;   perimeterOutlines,3
;   printPerimetersInsideOut,0
;   startPointOption,1
;   startPointOriginX,0
;   startPointOriginY,300
;   sequentialIslands,0
;   spiralVaseMode,0
;   firstLayerHeightPercentage,120
;   firstLayerWidthPercentage,100
;   firstLayerUnderspeed,0.5
;   useRaft,0
;   raftExtruder,0
;   raftTopLayers,3
;   raftBaseLayers,2
;   raftOffset,3
;   raftSeparationDistance,0.14
;   raftTopInfill,100
;   aboveRaftSpeedMultiplier,0.3
;   useSkirt,1
;   skirtExtruder,0
;   skirtLayers,1
;   skirtOutlines,3
;   skirtOffset,2
;   usePrimePillar,0
;   primePillarExtruder,999
;   primePillarWidth,12
;   primePillarLocation,7
;   primePillarSpeedMultiplier,1
;   useOozeShield,0
;   oozeShieldExtruder,999
;   oozeShieldOffset,2
;   oozeShieldOutlines,1
;   oozeShieldSidewallShape,1
;   oozeShieldSidewallAngle,30
;   oozeShieldSpeedMultiplier,1
;   infillExtruder,0
;   internalInfillPattern,Rectilinear
;   externalInfillPattern,Rectilinear
;   infillPercentage,50
;   outlineOverlapPercentage,15
;   infillExtrusionWidthPercentage,100
;   minInfillLength,5
;   infillLayerInterval,1
;   internalInfillAngles,45,-45
;   overlapInternalInfillAngles,0
;   externalInfillAngles,45,-45
;   generateSupport,0
;   supportExtruder,0
;   supportInfillPercentage,30
;   supportExtraInflation,0
;   supportBaseLayers,0
;   denseSupportExtruder,0
;   denseSupportLayers,0
;   denseSupportInfillPercentage,70
;   supportLayerInterval,1
;   supportHorizontalPartOffset,0.4
;   supportUpperSeparationLayers,1
;   supportLowerSeparationLayers,1
;   supportType,0
;   supportGridSpacing,4.5
;   maxOverhangAngle,45
;   supportAngles,0
;   temperatureName,Primary Extruder,Heated Bed
;   temperatureNumber,0,0
;   temperatureSetpointCount,1,1
;   temperatureSetpointLayers,1,1
;   temperatureSetpointTemperatures,215,55
;   temperatureStabilizeAtStartup,1,1
;   temperatureHeatedBed,0,1
;   fanLayers,1,2
;   fanSpeeds,0,100
;   blipFanToFullPower,0
;   adjustSpeedForCooling,1
;   minSpeedLayerTime,15
;   minCoolingSpeedSlowdown,50
;   increaseFanForCooling,1
;   minFanLayerTime,25
;   maxCoolingFanSpeed,100
;   increaseFanForBridging,1
;   bridgingFanSpeed,100
;   use5D,1
;   relativeEdistances,0
;   allowEaxisZeroing,1
;   independentExtruderAxes,0
;   includeM10123,0
;   stickySupport,1
;   applyToolheadOffsets,0
;   gcodeXoffset,0
;   gcodeYoffset,0
;   gcodeZoffset,0
;   overrideMachineDefinition,1
;   machineTypeOverride,0
;   strokeXoverride,300
;   strokeYoverride,300
;   strokeZoverride,400
;   originOffsetXoverride,0
;   originOffsetYoverride,0
;   originOffsetZoverride,0
;   homeXdirOverride,-1
;   homeYdirOverride,-1
;   homeZdirOverride,-1
;   flipXoverride,1
;   flipYoverride,-1
;   flipZoverride,1
;   toolheadOffsets,0,0|0,0|0,0|0,0|0,0|0,0
;   overrideFirmwareConfiguration,1
;   firmwareTypeOverride,RepRap (Marlin/Repetier/Sprinter)
;   GPXconfigOverride,r2
;   baudRateOverride,250000
;   overridePrinterModels,1
;   printerModelsOverride
;   startingGcode,;,; -]H.P.B[- MarshMalloW  ,; $VER: StartScript 1.02 (26.12.2019) MarshMalloW,;,; Begin Startcode,;,M117 *Preheat*     	; Preheat,;extruder0_temperature,M104 S[extruder0_temperature]  ,M109 S[extruder0_temperature] ,M109 R[extruder0_temperature] ,;,M117 *Auto-leveling*     	; Auto-leveling,M107                   	; Turn layer fan off,G21                    	; Set to metric [change to G20 if you want Imperial],G90                    	; Force coordinates to be absolute relative to the origin,G28                    	; Home X/Y/Z axis,G29                    	; Auto-leveling (BL-Touch),;,M117 *Start Clean*     	; Indicate nozzle clean in progress on LCD,G92 E0                 	; Set Extruder to 0 ,G1 X0 Y0 F2000         	; Move X and Y to 0 with speed 2000 (mm/min),G1 Z0.1 F1000          	; Move Z to   0.1 with speed 1000 (mm/min),G1 X8.0 F2000          	; Move X to   8.0 with speed 2000 (mm/min),G1 Y60.0 E4.0 F1000.0  	; Move Y to  60 and Extruder with 4.0 with speed 1000 (mm/min),G1 Y100.0 E8.5 F1000.0 	; Move Y to 100 and Extruder with 8.5 with speed 1000 (mm/min),G92 E0                 	; Set extruder to 0,G1 X16.0 F3000         	; Move X to 16.0 with speed 3000 (mm/min),G1 Y60.0 F3000         	; Move Y to 60.0 with speed 3000 (mm/min),M117 *End Clean*       	; Indicate nozzle clean in progress on LCD,G1 Z5 F3000            	; Move Z to  5.0 with speed 3000 (mm/min),G1 X20.0 F3000         	; Move X to 20.0 with speed 3000 (mm/min),; ,M117 *Printing...*     	; Start printing msg on LCD,;,; End Startcode,;,; Begin printing with sliced GCode after here,;
;   layerChangeGcode,
;   retractionGcode,
;   toolChangeGcode,
;   endingGcode,;,; init 181010,;,;M107 			; Fan off,;G1 E-1 F300 			; Retract the filament a bit before lifting the nozzle,;M104 S0 			; Turn off extruder,;M140 S0 			; Turn off bed,;G91			; Relative positioning,;G28 X0 Y0 			; Move X/Y to min endstops so the head is out of teh way,;M84 			; Disable motors,;G90 			; Absolute positioning,;M117 Print ready...,,;,; // From Cura 181010,; // End_gcode,G92 E0			; Zero the extruded length,;G1 E-30 F300		; Retract E -30,M106 S0			; Turn off cooling fan,M104 S0			; Turn off temperature,M140 S0		     	; Turn off bed,G91			; Relative positioning,G1 E-1 F300			; Retract the filament a bit before lifting the nozzle to release some of the pressure,G1 Z+20 E-5 X-20 Y-20 F7200	; Move Z up a bit and retract filament even more,G1 X0 Y150 F10000		; Move right min,M107			; Turn off layer fan,M84			; Disable motors,G90			; Absolute positioning,M117 *The-End* 		; End msg,;,
;   exportFileFormat,gcode
;   celebration,0
;   celebrationSong,Star Wars
;   postProcessing,
;   defaultSpeed,1800
;   outlineUnderspeed,0.5
;   solidInfillUnderspeed,0.8
;   supportUnderspeed,0.8
;   rapidXYspeed,6000
;   rapidZspeed,1002
;   minBridgingArea,50
;   bridgingExtraInflation,0.2
;   bridgingExtrusionMultiplier,1
;   bridgingSpeedMultiplier,0.6
;   useFixedBridgingAngle,0
;   fixedBridgingAngle,0
;   applyBridgingToPerimeters,0
;   filamentDiameters,1.75|1.75|1.75|1.75|1.75|1.75
;   filamentPricesPerKg,30|46|46|46|46|46
;   filamentDensities,1.25|1.25|1.25|1.25|1.25|1.25
;   useMinPrintHeight,0
;   minPrintHeight,0
;   useMaxPrintHeight,0
;   maxPrintHeight,9
;   useDiaphragm,0
;   diaphragmLayerInterval,20
;   robustSlicing,1
;   mergeAllIntoSolid,0
;   onlyRetractWhenCrossingOutline,1
;   retractBetweenLayers,1
;   useRetractionMinTravel,0
;   retractionMinTravel,3
;   retractWhileWiping,0
;   onlyWipeOutlines,1
;   avoidCrossingOutline,0
;   maxMovementDetourFactor,3
;   toolChangeRetractionDistance,12
;   toolChangeExtraRestartDistance,-0.5
;   toolChangeRetractionSpeed,600
;   externalThinWallType,1
;   internalThinWallType,1
;   thinWallAllowedOverlapPercentage,10
;   singleExtrusionMinLength,1
;   singleExtrusionMinPrintingWidthPercentage,50
;   singleExtrusionMaxPrintingWidthPercentage,200
;   singleExtrusionEndpointExtension,0.2
;   horizontalSizeCompensation,0
G90
M82
M106 S0
M140 S55
M190 S55
;
; -]H.P.B[- MarshMalloW  
; $VER: StartScript 1.02 (26.12.2019) MarshMalloW
;
; Begin Startcode
;
M117 *Preheat*     	; Preheat
;extruder0_temperature
M104 S215  
M109 S215 
M109 R215 
;
M117 *Auto-leveling*     	; Auto-leveling
M107                   	; Turn layer fan off
G21                    	; Set to metric [change to G20 if you want Imperial]
G90                    	; Force coordinates to be absolute relative to the origin
G28                    	; Home X/Y/Z axis
G29                    	; Auto-leveling (BL-Touch)
;
M117 *Start Clean*     	; Indicate nozzle clean in progress on LCD
G92 E0                 	; Set Extruder to 0 
G1 X0 Y0 F2000         	; Move X and Y to 0 with speed 2000 (mm/min)
G1 Z0.1 F1000          	; Move Z to   0.1 with speed 1000 (mm/min)
G1 X8.0 F2000          	; Move X to   8.0 with speed 2000 (mm/min)
G1 Y60.0 E4.0 F1000.0  	; Move Y to  60 and Extruder with 4.0 with speed 1000 (mm/min)
G1 Y100.0 E8.5 F1000.0 	; Move Y to 100 and Extruder with 8.5 with speed 1000 (mm/min)
G92 E0                 	; Set extruder to 0
G1 X16.0 F3000         	; Move X to 16.0 with speed 3000 (mm/min)
G1 Y60.0 F3000         	; Move Y to 60.0 with speed 3000 (mm/min)
M117 *End Clean*       	; Indicate nozzle clean in progress on LCD
G1 Z5 F3000            	; Move Z to  5.0 with speed 3000 (mm/min)
G1 X20.0 F3000         	; Move X to 20.0 with speed 3000 (mm/min)
; 
M117 *Printing...*     	; Start printing msg on LCD
;
; End Startcode
;
; Begin printing with sliced GCode after here
;
; process Process1
; layer 1, Z = 0.180
T0
G92 E0.0000
G1 E-4.0000 F3000
; feature skirt
; tool H0.180 W0.350
G1 Z0.300 F1002
G1 X248.998 Y63.492 F6000
G1 Z0.180 F1002
G1 E0.0000 F3000
G92 E0.0000
G1 X249.111 Y63.496 E0.0028 F900
G1 X249.644 Y63.538 E0.0161
G1 X249.867 Y63.574 E0.0217
G1 X250.544 Y63.736 E0.0391
G1 X250.759 Y63.806 E0.0447
G1 X251.403 Y64.073 E0.0620
G1 X251.604 Y64.175 E0.0676
G1 X252.198 Y64.539 E0.0850
G1 X252.381 Y64.672 E0.0906
G1 X252.911 Y65.125 E0.1079
G1 X253.070 Y65.284 E0.1135
G1 X253.523 Y65.814 E0.1309
G1 X253.656 Y65.997 E0.1365
G1 X254.020 Y66.591 E0.1538
G1 X254.122 Y66.792 E0.1595
G1 X254.389 Y67.436 E0.1768
G1 X254.459 Y67.651 E0.1824
G1 X254.621 Y68.328 E0.1998
G1 X254.657 Y68.551 E0.2054
G1 X254.707 Y69.189 E0.2213
G1 X254.711 Y69.302 E0.2241
G1 X254.711 Y77.550 E0.4293
G1 X253.027 Y79.234 E0.4886
G1 X60.645 Y79.234 E5.2756
G1 X58.961 Y77.550 E5.3348
G1 X58.961 Y69.302 E5.5401
G1 X58.966 Y69.189 E5.5429
G1 X59.016 Y68.551 E5.5588
G1 X59.051 Y68.328 E5.5644
G1 X59.214 Y67.651 E5.5818
G1 X59.284 Y67.436 E5.5874
G1 X59.550 Y66.792 E5.6047
G1 X59.653 Y66.591 E5.6103
G1 X60.017 Y65.997 E5.6277
G1 X60.150 Y65.814 E5.6333
G1 X60.602 Y65.284 E5.6506
G1 X60.762 Y65.125 E5.6562
G1 X61.292 Y64.672 E5.6736
G1 X61.474 Y64.539 E5.6792
G1 X62.068 Y64.175 E5.6965
G1 X62.270 Y64.073 E5.7022
G1 X62.913 Y63.806 E5.7195
G1 X63.128 Y63.736 E5.7251
G1 X63.806 Y63.574 E5.7424
G1 X64.029 Y63.538 E5.7481
G1 X64.667 Y63.488 E5.7640
G1 X64.780 Y63.484 E5.7668
G1 X248.998 Y63.492 E10.3507
G92 E0.0000
G1 E-4.0000 F3000
G1 Z0.480 F1002
G1 X59.315 Y69.210 F6000
G1 Z0.180 F1002
G1 E0.0000 F3000
G92 E0.0000
G1 X59.364 Y68.592 E0.0154 F900
G1 X59.395 Y68.396 E0.0204
G1 X59.551 Y67.746 E0.0370
G1 X59.612 Y67.557 E0.0419
G1 X59.868 Y66.939 E0.0586
G1 X59.958 Y66.762 E0.0635
G1 X60.308 Y66.192 E0.0802
G1 X60.425 Y66.031 E0.0851
G1 X60.859 Y65.522 E0.1018
G1 X61.000 Y65.382 E0.1067
G1 X61.508 Y64.947 E0.1234
G1 X61.669 Y64.831 E0.1283
G1 X62.240 Y64.481 E0.1449
G1 X62.416 Y64.391 E0.1499
G1 X63.035 Y64.135 E0.1665
G1 X63.223 Y64.073 E0.1715
G1 X63.874 Y63.917 E0.1881
G1 X64.070 Y63.886 E0.1931
G1 X64.688 Y63.838 E0.2085
G1 X64.787 Y63.834 E0.2109
G1 X248.992 Y63.842 E4.7945
G1 X249.091 Y63.846 E4.7969
G1 X249.603 Y63.886 E4.8097
G1 X249.798 Y63.917 E4.8146
G1 X250.449 Y64.073 E4.8313
G1 X250.638 Y64.135 E4.8362
G1 X251.256 Y64.391 E4.8529
G1 X251.433 Y64.481 E4.8578
G1 X252.003 Y64.831 E4.8745
G1 X252.164 Y64.947 E4.8794
G1 X252.673 Y65.382 E4.8961
G1 X252.813 Y65.522 E4.9010
G1 X253.248 Y66.031 E4.9176
G1 X253.364 Y66.192 E4.9226
G1 X253.714 Y66.762 E4.9392
G1 X253.804 Y66.939 E4.9442
G1 X254.060 Y67.557 E4.9608
G1 X254.121 Y67.746 E4.9658
G1 X254.278 Y68.397 E4.9824
G1 X254.309 Y68.592 E4.9873
G1 X254.357 Y69.210 E5.0028
G1 X254.361 Y69.309 E5.0052
G1 X254.361 Y77.405 E5.2067
G1 X252.882 Y78.884 E5.2587
G1 X60.790 Y78.884 E10.0385
G1 X59.311 Y77.405 E10.0905
G1 X59.311 Y69.309 E10.2920
G1 X59.315 Y69.210 E10.2944
G92 E0.0000
G1 E-4.0000 F3000
G1 Z0.480 F1002
G1 X251.947 Y65.222 F6000
G1 Z0.180 F1002
G1 E0.0000 F3000
G92 E0.0000
G1 X252.435 Y65.639 E0.0160 F900
G1 X252.556 Y65.760 E0.0202
G1 X252.973 Y66.248 E0.0362
G1 X253.073 Y66.386 E0.0404
G1 X253.408 Y66.933 E0.0564
G1 X253.486 Y67.085 E0.0607
G1 X253.732 Y67.678 E0.0766
G1 X253.784 Y67.841 E0.0809
G1 X253.934 Y68.465 E0.0968
G1 X253.961 Y68.634 E0.1011
G1 X254.008 Y69.231 E0.1160
G1 X254.011 Y69.316 E0.1181
G1 X254.011 Y77.260 E0.3158
G1 X252.737 Y78.534 E0.3606
G1 X60.935 Y78.534 E5.1332
G1 X59.661 Y77.260 E5.1780
G1 X59.661 Y69.316 E5.3757
G1 X59.665 Y69.231 E5.3778
G1 X59.712 Y68.634 E5.3927
G1 X59.738 Y68.465 E5.3969
G1 X59.888 Y67.841 E5.4129
G1 X59.941 Y67.678 E5.4172
G1 X60.186 Y67.085 E5.4331
G1 X60.264 Y66.933 E5.4374
G1 X60.599 Y66.386 E5.4534
G1 X60.700 Y66.248 E5.4576
G1 X61.117 Y65.760 E5.4736
G1 X61.237 Y65.639 E5.4778
G1 X61.725 Y65.222 E5.4938
G1 X61.864 Y65.122 E5.4980
G1 X62.411 Y64.787 E5.5140
G1 X62.563 Y64.709 E5.5183
G1 X63.156 Y64.463 E5.5342
G1 X63.318 Y64.411 E5.5385
G1 X63.942 Y64.261 E5.5544
G1 X64.111 Y64.234 E5.5587
G1 X64.708 Y64.187 E5.5736
G1 X64.794 Y64.184 E5.5757
G1 X248.985 Y64.192 E10.1589
G1 X249.070 Y64.195 E10.1610
G1 X249.561 Y64.234 E10.1733
G1 X249.730 Y64.261 E10.1776
G1 X250.354 Y64.411 E10.1935
G1 X250.517 Y64.463 E10.1978
G1 X251.110 Y64.709 E10.2137
G1 X251.262 Y64.787 E10.2180
G1 X251.809 Y65.122 E10.2340
G1 X251.947 Y65.222 E10.2382
G92 E0.0000
G1 E-4.0000 F3000
; feature outer perimeter
G1 Z0.480 F1002
G1 X63.176 Y67.074 F6000
G1 Z0.180 F1002
G1 E0.0000 F3000
G92 E0.0000
G1 X63.554 Y66.842 E0.0110 F450
G1 X63.963 Y66.673 E0.0221
G1 X64.394 Y66.569 E0.0331
G1 X64.843 Y66.534 E0.0443
G1 X248.935 Y66.542 E4.6250
G1 X249.278 Y66.569 E4.6336
G1 X249.709 Y66.673 E4.6446
G1 X250.119 Y66.842 E4.6556
G1 X250.496 Y67.074 E4.6666
G1 X250.833 Y67.362 E4.6777
G1 X251.121 Y67.699 E4.6887
G1 X251.353 Y68.076 E4.6997
G1 X251.522 Y68.486 E4.7108
G1 X251.626 Y68.917 E4.7218
G1 X251.661 Y69.366 E4.7330
G1 X251.661 Y76.184 E4.9026
G1 X62.011 Y76.184 E9.6216
G1 X62.011 Y69.366 E9.7913
G1 X62.047 Y68.917 E9.8025
G1 X62.150 Y68.486 E9.8135
G1 X62.320 Y68.077 E9.8246
G1 X62.551 Y67.699 E9.8356
G1 X62.839 Y67.362 E9.8466
G1 X63.176 Y67.074 E9.8576
; feature inner perimeter
G1 X63.382 Y67.358 F6000
G92 E0.0000
G1 X63.713 Y67.155 E0.0097 F675
G1 X64.072 Y67.006 E0.0193
G1 X64.449 Y66.916 E0.0290
G1 X64.857 Y66.884 E0.0391
G1 X248.921 Y66.892 E4.6192
G1 X249.223 Y66.916 E4.6267
G1 X249.601 Y67.006 E4.6364
G1 X249.959 Y67.155 E4.6460
G1 X250.290 Y67.358 E4.6557
G1 X250.585 Y67.610 E4.6653
G1 X250.837 Y67.905 E4.6750
G1 X251.040 Y68.236 E4.6847
G1 X251.189 Y68.594 E4.6943
G1 X251.279 Y68.972 E4.7040
G1 X251.311 Y69.379 E4.7141
G1 X251.311 Y75.834 E4.8747
G1 X62.361 Y75.834 E9.5763
G1 X62.361 Y69.379 E9.7369
G1 X62.393 Y68.972 E9.7471
G1 X62.484 Y68.594 E9.7568
G1 X62.632 Y68.236 E9.7664
G1 X62.835 Y67.905 E9.7761
G1 X63.087 Y67.610 E9.7857
G1 X63.382 Y67.358 E9.7954
G1 X63.589 Y67.642 F6000
G92 E0.0000
G1 X63.873 Y67.468 E0.0083 F675
G1 X64.180 Y67.340 E0.0166
G1 X64.504 Y67.263 E0.0249
G1 X64.871 Y67.234 E0.0340
G1 X248.907 Y67.242 E4.6133
G1 X249.168 Y67.263 E4.6199
G1 X249.492 Y67.340 E4.6281
G1 X249.800 Y67.468 E4.6364
G1 X250.084 Y67.642 E4.6447
G1 X250.337 Y67.858 E4.6530
G1 X250.553 Y68.111 E4.6613
G1 X250.727 Y68.395 E4.6696
G1 X250.855 Y68.703 E4.6779
G1 X250.932 Y69.027 E4.6861
G1 X250.961 Y69.393 E4.6953
G1 X250.961 Y75.484 E4.8468
G1 X62.711 Y75.484 E9.5310
G1 X62.711 Y69.393 E9.6826
G1 X62.740 Y69.027 E9.6917
G1 X62.818 Y68.703 E9.7000
G1 X62.945 Y68.395 E9.7083
G1 X63.119 Y68.111 E9.7166
