; G-Code generated by Simplify3D(R) Version 4.1.2
;
;
;
;
; Nov 23, 2022 at 10:03:48 PM
; Settings Summary
;   processName,PLA A15
;   applyToModels,Support TP-Link C210-Base
;   profileName,PLA_A15_04_25_210 Tevo Tornado
;   profileVersion,2022-11-23 18:53:41
;   baseProfile,Creality CR-10(2)
;   printMaterial,PLA
;   printQuality,High
;   printExtruders,
;   extruderName,Primary Extruder
;   extruderToolheadNumber,0
;   extruderDiameter,0.4
;   extruderAutoWidth,0
;   extruderWidth,0.35
;   extrusionMultiplier,0.95
;   extruderUseRetract,1
;   extruderRetractionDistance,4
;   extruderExtraRestartDistance,0
;   extruderRetractionZLift,0.3
;   extruderRetractionSpeed,3000
;   extruderUseCoasting,1
;   extruderCoastingDistance,0.2
;   extruderUseWipe,0
;   extruderWipeDistance,5
;   primaryExtruder,0
;   layerHeight,0.12
;   topSolidLayers,6
;   bottomSolidLayers,5
;   perimeterOutlines,4
;   printPerimetersInsideOut,1
;   startPointOption,2
;   startPointOriginX,0
;   startPointOriginY,300
;   sequentialIslands,0
;   spiralVaseMode,0
;   firstLayerHeightPercentage,120
;   firstLayerWidthPercentage,100
;   firstLayerUnderspeed,0.25
;   useRaft,0
;   raftExtruder,0
;   raftTopLayers,3
;   raftBaseLayers,2
;   raftOffset,3
;   raftSeparationDistance,0.14
;   raftTopInfill,100
;   aboveRaftSpeedMultiplier,0.3
;   useSkirt,1
;   skirtExtruder,0
;   skirtLayers,2
;   skirtOutlines,2
;   skirtOffset,3
;   usePrimePillar,0
;   primePillarExtruder,999
;   primePillarWidth,12
;   primePillarLocation,7
;   primePillarSpeedMultiplier,1
;   useOozeShield,0
;   oozeShieldExtruder,999
;   oozeShieldOffset,2
;   oozeShieldOutlines,1
;   oozeShieldSidewallShape,1
;   oozeShieldSidewallAngle,30
;   oozeShieldSpeedMultiplier,1
;   infillExtruder,0
;   internalInfillPattern,Full Honeycomb
;   externalInfillPattern,Rectilinear
;   infillPercentage,25
;   outlineOverlapPercentage,15
;   infillExtrusionWidthPercentage,100
;   minInfillLength,5
;   infillLayerInterval,1
;   internalInfillAngles,0,120,-120
;   overlapInternalInfillAngles,0
;   externalInfillAngles,45,-45
;   generateSupport,0
;   supportExtruder,0
;   supportInfillPercentage,40
;   supportExtraInflation,0
;   supportBaseLayers,0
;   denseSupportExtruder,0
;   denseSupportLayers,0
;   denseSupportInfillPercentage,70
;   supportLayerInterval,1
;   supportHorizontalPartOffset,0.4
;   supportUpperSeparationLayers,1
;   supportLowerSeparationLayers,1
;   supportType,0
;   supportGridSpacing,4.5
;   maxOverhangAngle,45
;   supportAngles,0
;   temperatureName,Primary Extruder,Heated Bed
;   temperatureNumber,0,0
;   temperatureSetpointCount,2,2
;   temperatureSetpointLayers,1,2,1,2
;   temperatureSetpointTemperatures,215,210,55,50
;   temperatureStabilizeAtStartup,1,1
;   temperatureHeatedBed,0,1
;   fanLayers,1,2
;   fanSpeeds,0,100
;   blipFanToFullPower,0
;   adjustSpeedForCooling,1
;   minSpeedLayerTime,15
;   minCoolingSpeedSlowdown,20
;   increaseFanForCooling,1
;   minFanLayerTime,25
;   maxCoolingFanSpeed,100
;   increaseFanForBridging,1
;   bridgingFanSpeed,100
;   use5D,1
;   relativeEdistances,0
;   allowEaxisZeroing,1
;   independentExtruderAxes,0
;   includeM10123,0
;   stickySupport,1
;   applyToolheadOffsets,0
;   gcodeXoffset,0
;   gcodeYoffset,0
;   gcodeZoffset,0
;   overrideMachineDefinition,1
;   machineTypeOverride,0
;   strokeXoverride,300
;   strokeYoverride,300
;   strokeZoverride,400
;   originOffsetXoverride,0
;   originOffsetYoverride,0
;   originOffsetZoverride,0
;   homeXdirOverride,-1
;   homeYdirOverride,-1
;   homeZdirOverride,-1
;   flipXoverride,1
;   flipYoverride,-1
;   flipZoverride,1
;   toolheadOffsets,0,0|0,0|0,0|0,0|0,0|0,0
;   overrideFirmwareConfiguration,1
;   firmwareTypeOverride,RepRap (Marlin/Repetier/Sprinter)
;   GPXconfigOverride,r2
;   baudRateOverride,250000
;   overridePrinterModels,1
;   printerModelsOverride
;   startingGcode,;,; -]H.P.B[- MarshMalloW  ,; $VER: StartScript 1.02 (26.12.2019) MarshMalloW,;,; Begin Startcode,;,M117 *Preheat*     	; Preheat,;extruder0_temperature,M104 S[extruder0_temperature]  ,M109 S[extruder0_temperature] ,M109 R[extruder0_temperature] ,;,M117 *Auto-leveling*     	; Auto-leveling,M107                   	; Turn layer fan off,G21                    	; Set to metric [change to G20 if you want Imperial],G90                    	; Force coordinates to be absolute relative to the origin,G28                    	; Home X/Y/Z axis,G29                    	; Auto-leveling (BL-Touch),;,M117 *Start Clean*     	; Indicate nozzle clean in progress on LCD,G92 E0                 	; Set Extruder to 0 ,G1 X0 Y0 F2000         	; Move X and Y to 0 with speed 2000 (mm/min),G1 Z0.1 F1000          	; Move Z to   0.1 with speed 1000 (mm/min),G1 X8.0 F2000          	; Move X to   8.0 with speed 2000 (mm/min),G1 Y60.0 E4.0 F1000.0  	; Move Y to  60 and Extruder with 4.0 with speed 1000 (mm/min),G1 Y100.0 E8.5 F1000.0 	; Move Y to 100 and Extruder with 8.5 with speed 1000 (mm/min),G92 E0                 	; Set extruder to 0,G1 X16.0 F3000         	; Move X to 16.0 with speed 3000 (mm/min),G1 Y60.0 F3000         	; Move Y to 60.0 with speed 3000 (mm/min),M117 *End Clean*       	; Indicate nozzle clean in progress on LCD,G1 Z5 F3000            	; Move Z to  5.0 with speed 3000 (mm/min),G1 X20.0 F3000         	; Move X to 20.0 with speed 3000 (mm/min),G1 Y20.0 F3000         	; Move Y to 20.0 with speed 3000 (mm/min),; ,M117 *Printing...*     	; Start printing msg on LCD,;,; End Startcode,;,; Begin printing with sliced GCode after here,;
;   layerChangeGcode,
;   retractionGcode,
;   toolChangeGcode,
;   endingGcode,;,; init 181010,;,;M107 			; Fan off,;G1 E-1 F300 			; Retract the filament a bit before lifting the nozzle,;M104 S0 			; Turn off extruder,;M140 S0 			; Turn off bed,;G91			; Relative positioning,;G28 X0 Y0 			; Move X/Y to min endstops so the head is out of teh way,;M84 			; Disable motors,;G90 			; Absolute positioning,;M117 Print ready...,,;,; // From Cura 181010,; // End_gcode,G92 E0			; Zero the extruded length,;G1 E-30 F300		; Retract E -30,M106 S0			; Turn off cooling fan,M104 S0			; Turn off temperature,M140 S0		     	; Turn off bed,G91			; Relative positioning,G1 E-1 F300			; Retract the filament a bit before lifting the nozzle to release some of the pressure,G1 Z+20 E-5 X-20 Y-20 F7200	; Move Z up a bit and retract filament even more,G1 X0 Y150 F10000		; Move right min,M107			; Turn off layer fan,M84			; Disable motors,G90			; Absolute positioning,M117 *The-End* 		; End msg,;,
;   exportFileFormat,gcode
;   celebration,0
;   celebrationSong,Star Wars
;   postProcessing,D:\S3D_Thumbs\S3D_Thumbs.exe f="[output_filepath]" x=600 y=110 w=953 lw=400 lh=300 sw=32 sh=32 d=Y
;   defaultSpeed,4200
;   outlineUnderspeed,0.5
;   solidInfillUnderspeed,0.8
;   supportUnderspeed,0.8
;   rapidXYspeed,6000
;   rapidZspeed,1002
;   minBridgingArea,50
;   bridgingExtraInflation,0.2
;   bridgingExtrusionMultiplier,1
;   bridgingSpeedMultiplier,0.8
;   useFixedBridgingAngle,0
;   fixedBridgingAngle,0
;   applyBridgingToPerimeters,0
;   filamentDiameters,1.75|1.75|1.75|1.75|1.75|1.75
;   filamentPricesPerKg,30|46|46|46|46|46
;   filamentDensities,1.25|1.25|1.25|1.25|1.25|1.25
;   useMinPrintHeight,0
;   minPrintHeight,0
;   useMaxPrintHeight,0
;   maxPrintHeight,50
;   useDiaphragm,0
;   diaphragmLayerInterval,20
;   robustSlicing,1
;   mergeAllIntoSolid,0
;   onlyRetractWhenCrossingOutline,1
;   retractBetweenLayers,1
;   useRetractionMinTravel,0
;   retractionMinTravel,3
;   retractWhileWiping,1
;   onlyWipeOutlines,1
;   avoidCrossingOutline,0
;   maxMovementDetourFactor,3
;   toolChangeRetractionDistance,12
;   toolChangeExtraRestartDistance,-0.5
;   toolChangeRetractionSpeed,600
;   externalThinWallType,1
;   internalThinWallType,1
;   thinWallAllowedOverlapPercentage,10
;   singleExtrusionMinLength,1
;   singleExtrusionMinPrintingWidthPercentage,50
;   singleExtrusionMaxPrintingWidthPercentage,200
;   singleExtrusionEndpointExtension,0.2
;   horizontalSizeCompensation,0
G90
M82
M106 S0
M140 S55
M190 S55
;
; -]H.P.B[- MarshMalloW  
; $VER: StartScript 1.02 (26.12.2019) MarshMalloW
;
; Begin Startcode
;
M117 *Preheat*     	; Preheat
;extruder0_temperature
M104 S215  
M109 S215 
M109 R215 
;
M117 *Auto-leveling*     	; Auto-leveling
M107                   	; Turn layer fan off
G21                    	; Set to metric [change to G20 if you want Imperial]
G90                    	; Force coordinates to be absolute relative to the origin
G28                    	; Home X/Y/Z axis
G29                    	; Auto-leveling (BL-Touch)
;
M117 *Start Clean*     	; Indicate nozzle clean in progress on LCD
G92 E0                 	; Set Extruder to 0 
G1 X0 Y0 F2000         	; Move X and Y to 0 with speed 2000 (mm/min)
G1 Z0.1 F1000          	; Move Z to   0.1 with speed 1000 (mm/min)
G1 X8.0 F2000          	; Move X to   8.0 with speed 2000 (mm/min)
G1 Y60.0 E4.0 F1000.0  	; Move Y to  60 and Extruder with 4.0 with speed 1000 (mm/min)
G1 Y100.0 E8.5 F1000.0 	; Move Y to 100 and Extruder with 8.5 with speed 1000 (mm/min)
G92 E0                 	; Set extruder to 0
G1 X16.0 F3000         	; Move X to 16.0 with speed 3000 (mm/min)
G1 Y60.0 F3000         	; Move Y to 60.0 with speed 3000 (mm/min)
M117 *End Clean*       	; Indicate nozzle clean in progress on LCD
G1 Z5 F3000            	; Move Z to  5.0 with speed 3000 (mm/min)
G1 X20.0 F3000         	; Move X to 20.0 with speed 3000 (mm/min)
G1 Y20.0 F3000         	; Move Y to 20.0 with speed 3000 (mm/min)
; 
M117 *Printing...*     	; Start printing msg on LCD
;
; End Startcode
;
; Begin printing with sliced GCode after here
;
; process PLA A15
; layer 1, Z = 0.144
M117 INDICATOR-Layer1
M117 DASHBOARD_LAYER_INDICATOR 1
T0
G92 E0.0000
G1 E-4.0000 F3000
; feature skirt
; tool H0.144 W0.350
G1 Z0.300 F1002
G1 X128.020 Y127.402 F6000
G1 Z0.144 F1002
G1 E0.0000 F3000
G92 E0.0000
G1 X129.107 Y126.392 E0.0295 F1050
G1 X129.173 Y126.334 E0.0313
G1 X130.310 Y125.380 E0.0608
G1 X130.379 Y125.325 E0.0626
G1 X131.562 Y124.429 E0.0921
G1 X131.633 Y124.378 E0.0939
G1 X132.859 Y123.542 E0.1234
G1 X132.933 Y123.494 E0.1252
G1 X134.199 Y122.721 E0.1547
G1 X134.276 Y122.677 E0.1565
G1 X135.579 Y121.967 E0.1860
G1 X135.657 Y121.927 E0.1877
G1 X136.994 Y121.283 E0.2173
G1 X137.074 Y121.247 E0.2190
G1 X138.442 Y120.670 E0.2486
G1 X138.524 Y120.638 E0.2503
G1 X139.918 Y120.131 E0.2799
G1 X140.001 Y120.103 E0.2816
G1 X141.419 Y119.665 E0.3112
G1 X141.504 Y119.641 E0.3129
G1 X142.942 Y119.275 E0.3424
G1 X143.028 Y119.256 E0.3442
G1 X144.482 Y118.962 E0.3737
G1 X144.569 Y118.946 E0.3755
G1 X146.036 Y118.725 E0.4050
G1 X146.124 Y118.714 E0.4068
G1 X147.600 Y118.566 E0.4363
G1 X147.688 Y118.560 E0.4381
G1 X149.170 Y118.486 E0.4676
G1 X149.258 Y118.484 E0.4694
G1 X150.742 Y118.484 E0.4989
G1 X150.830 Y118.486 E0.5007
G1 X152.312 Y118.560 E0.5302
G1 X152.400 Y118.566 E0.5319
G1 X153.876 Y118.714 E0.5615
G1 X153.964 Y118.725 E0.5632
G1 X155.431 Y118.946 E0.5928
G1 X155.518 Y118.962 E0.5945
G1 X156.972 Y119.256 E0.6241
G1 X157.058 Y119.275 E0.6258
G1 X158.496 Y119.641 E0.6554
G1 X158.581 Y119.665 E0.6571
G1 X159.999 Y120.103 E0.6866
G1 X160.082 Y120.131 E0.6884
G1 X161.476 Y120.638 E0.7179
G1 X161.558 Y120.670 E0.7197
G1 X162.926 Y121.247 E0.7492
G1 X163.006 Y121.283 E0.7510
G1 X164.343 Y121.927 E0.7805
G1 X164.421 Y121.967 E0.7823
G1 X165.724 Y122.677 E0.8118
G1 X165.801 Y122.721 E0.8136
G1 X167.067 Y123.494 E0.8431
G1 X167.141 Y123.542 E0.8448
G1 X168.367 Y124.378 E0.8744
G1 X168.438 Y124.429 E0.8761
G1 X169.621 Y125.325 E0.9057
G1 X169.690 Y125.380 E0.9074
G1 X170.827 Y126.334 E0.9370
G1 X170.893 Y126.392 E0.9387
G1 X171.980 Y127.402 E0.9683
G1 X172.043 Y127.463 E0.9700
G1 X173.080 Y128.525 E0.9996
G1 X173.139 Y128.590 E1.0013
G1 X174.121 Y129.702 E1.0308
G1 X174.178 Y129.770 E1.0326
G1 X175.103 Y130.930 E1.0621
G1 X175.156 Y131.000 E1.0639
G1 X176.022 Y132.205 E1.0934
G1 X176.072 Y132.278 E1.0952
G1 X176.877 Y133.524 E1.1247
G1 X176.923 Y133.599 E1.1265
G1 X177.665 Y134.884 E1.1560
G1 X177.707 Y134.962 E1.1578
G1 X178.384 Y136.282 E1.1873
G1 X178.422 Y136.361 E1.1890
G1 X179.032 Y137.714 E1.2186
G1 X179.067 Y137.795 E1.2203
G1 X179.609 Y139.177 E1.2499
G1 X179.639 Y139.259 E1.2516
G1 X180.111 Y140.666 E1.2812
G1 X180.137 Y140.750 E1.2829
G1 X180.539 Y142.178 E1.3125
G1 X180.561 Y142.264 E1.3142
G1 X180.891 Y143.710 E1.3438
G1 X180.909 Y143.797 E1.3455
G1 X181.166 Y145.258 E1.3750
G1 X181.179 Y145.345 E1.3768
G1 X181.364 Y146.817 E1.4063
G1 X181.373 Y146.905 E1.4081
G1 X181.484 Y148.385 E1.4376
G1 X181.488 Y148.472 E1.4394
G1 X181.525 Y149.956 E1.4689
G1 X181.525 Y150.044 E1.4707
G1 X181.488 Y151.528 E1.5002
G1 X181.484 Y151.615 E1.5020
G1 X181.373 Y153.095 E1.5315
G1 X181.364 Y153.183 E1.5332
G1 X181.179 Y154.655 E1.5628
G1 X181.166 Y154.742 E1.5645
G1 X180.909 Y156.203 E1.5941
G1 X180.891 Y156.290 E1.5958
G1 X180.561 Y157.736 E1.6254
G1 X180.539 Y157.822 E1.6271
G1 X180.137 Y159.250 E1.6567
G1 X180.111 Y159.334 E1.6584
G1 X179.639 Y160.741 E1.6879
G1 X179.609 Y160.823 E1.6897
G1 X179.067 Y162.205 E1.7192
G1 X179.032 Y162.286 E1.7210
G1 X178.422 Y163.639 E1.7505
G1 X178.384 Y163.718 E1.7523
G1 X177.707 Y165.038 E1.7818
G1 X177.665 Y165.116 E1.7836
G1 X176.923 Y166.401 E1.8131
G1 X176.877 Y166.476 E1.8149
G1 X176.072 Y167.722 E1.8444
G1 X176.022 Y167.795 E1.8462
G1 X175.156 Y169.000 E1.8757
G1 X175.103 Y169.070 E1.8774
G1 X174.178 Y170.230 E1.9070
G1 X174.121 Y170.298 E1.9087
G1 X173.139 Y171.410 E1.9383
G1 X173.080 Y171.475 E1.9400
G1 X172.043 Y172.537 E1.9696
G1 X171.980 Y172.598 E1.9713
G1 X170.893 Y173.608 E2.0009
G1 X170.827 Y173.666 E2.0026
G1 X169.690 Y174.620 E2.0321
G1 X169.621 Y174.675 E2.0339
G1 X168.438 Y175.571 E2.0634
G1 X168.367 Y175.622 E2.0652
G1 X167.141 Y176.458 E2.0947
G1 X167.067 Y176.506 E2.0965
G1 X165.801 Y177.279 E2.1260
G1 X165.724 Y177.323 E2.1278
G1 X164.421 Y178.033 E2.1573
G1 X164.343 Y178.073 E2.1591
G1 X163.006 Y178.717 E2.1886
G1 X162.926 Y178.753 E2.1903
G1 X161.558 Y179.330 E2.2199
G1 X161.476 Y179.362 E2.2216
G1 X160.082 Y179.869 E2.2512
G1 X159.999 Y179.897 E2.2529
G1 X158.581 Y180.335 E2.2825
G1 X158.496 Y180.359 E2.2842
G1 X157.058 Y180.725 E2.3138
G1 X156.972 Y180.744 E2.3155
G1 X155.518 Y181.038 E2.3451
G1 X155.431 Y181.054 E2.3468
G1 X153.964 Y181.275 E2.3763
G1 X153.876 Y181.286 E2.3781
G1 X152.400 Y181.434 E2.4076
G1 X152.312 Y181.440 E2.4094
G1 X150.830 Y181.514 E2.4389
G1 X150.742 Y181.516 E2.4407
G1 X149.258 Y181.516 E2.4702
G1 X149.170 Y181.514 E2.4720
G1 X147.688 Y181.440 E2.5015
G1 X147.600 Y181.434 E2.5033
G1 X146.124 Y181.286 E2.5328
G1 X146.036 Y181.275 E2.5345
G1 X144.569 Y181.054 E2.5641
G1 X144.482 Y181.038 E2.5658
G1 X143.028 Y180.744 E2.5954
G1 X142.942 Y180.725 E2.5971
G1 X141.504 Y180.359 E2.6267
G1 X141.419 Y180.335 E2.6284
G1 X140.001 Y179.897 E2.6580
G1 X139.918 Y179.869 E2.6597
G1 X138.524 Y179.362 E2.6892
G1 X138.442 Y179.330 E2.6910
G1 X137.074 Y178.753 E2.7205
G1 X136.994 Y178.717 E2.7223
G1 X135.657 Y178.073 E2.7518
G1 X135.579 Y178.033 E2.7536
G1 X134.276 Y177.323 E2.7831
G1 X134.199 Y177.279 E2.7849
G1 X132.933 Y176.506 E2.8144
G1 X132.859 Y176.458 E2.8162
G1 X131.633 Y175.622 E2.8457
G1 X131.562 Y175.571 E2.8475
G1 X130.379 Y174.675 E2.8770
G1 X130.310 Y174.620 E2.8787
G1 X129.173 Y173.666 E2.9083
G1 X129.107 Y173.608 E2.9100
G1 X128.020 Y172.598 E2.9396
G1 X127.957 Y172.537 E2.9413
G1 X126.920 Y171.475 E2.9709
G1 X126.861 Y171.410 E2.9726
G1 X125.879 Y170.298 E3.0022
G1 X125.822 Y170.230 E3.0039
G1 X124.897 Y169.070 E3.0334
G1 X124.844 Y169.000 E3.0352
G1 X123.978 Y167.795 E3.0647
G1 X123.928 Y167.722 E3.0665
G1 X123.123 Y166.476 E3.0960
G1 X123.077 Y166.401 E3.0978
G1 X122.335 Y165.116 E3.1273
G1 X122.293 Y165.038 E3.1291
G1 X121.616 Y163.718 E3.1586
G1 X121.578 Y163.639 E3.1604
G1 X120.968 Y162.286 E3.1899
G1 X120.933 Y162.205 E3.1916
G1 X120.391 Y160.823 E3.2212
G1 X120.361 Y160.741 E3.2229
G1 X119.889 Y159.334 E3.2525
G1 X119.863 Y159.250 E3.2542
G1 X119.461 Y157.822 E3.2838
G1 X119.439 Y157.736 E3.2855
