; G-Code generated by Simplify3D(R) Version 4.1.2
;
;
;
;
; Nov 21, 2022 at 11:44:12 PM
; Settings Summary
;   processName,PLA A15
;   applyToModels,Support TP-Link C210-Base,Support TP-Link C210-Tourillon,Support TP-Link C210-Tourillon(2)
;   profileName,PLA_A15_04_10_210 Tevo Tornado
;   profileVersion,2022-11-21 23:42:00
;   baseProfile,Creality CR-10(2)
;   printMaterial,PLA
;   printQuality,Medium
;   printExtruders,
;   extruderName,Primary Extruder
;   extruderToolheadNumber,0
;   extruderDiameter,0.4
;   extruderAutoWidth,0
;   extruderWidth,0.35
;   extrusionMultiplier,0.95
;   extruderUseRetract,1
;   extruderRetractionDistance,4
;   extruderExtraRestartDistance,0
;   extruderRetractionZLift,0.3
;   extruderRetractionSpeed,3000
;   extruderUseCoasting,1
;   extruderCoastingDistance,0.2
;   extruderUseWipe,0
;   extruderWipeDistance,5
;   primaryExtruder,0
;   layerHeight,0.15
;   topSolidLayers,5
;   bottomSolidLayers,5
;   perimeterOutlines,3
;   printPerimetersInsideOut,1
;   startPointOption,2
;   startPointOriginX,0
;   startPointOriginY,300
;   sequentialIslands,0
;   spiralVaseMode,0
;   firstLayerHeightPercentage,120
;   firstLayerWidthPercentage,100
;   firstLayerUnderspeed,0.25
;   useRaft,0
;   raftExtruder,0
;   raftTopLayers,3
;   raftBaseLayers,2
;   raftOffset,3
;   raftSeparationDistance,0.14
;   raftTopInfill,100
;   aboveRaftSpeedMultiplier,0.3
;   useSkirt,1
;   skirtExtruder,0
;   skirtLayers,1
;   skirtOutlines,2
;   skirtOffset,3
;   usePrimePillar,0
;   primePillarExtruder,999
;   primePillarWidth,12
;   primePillarLocation,7
;   primePillarSpeedMultiplier,1
;   useOozeShield,0
;   oozeShieldExtruder,999
;   oozeShieldOffset,2
;   oozeShieldOutlines,1
;   oozeShieldSidewallShape,1
;   oozeShieldSidewallAngle,30
;   oozeShieldSpeedMultiplier,1
;   infillExtruder,0
;   internalInfillPattern,Rectilinear
;   externalInfillPattern,Rectilinear
;   infillPercentage,10
;   outlineOverlapPercentage,15
;   infillExtrusionWidthPercentage,100
;   minInfillLength,5
;   infillLayerInterval,1
;   internalInfillAngles,45,-45
;   overlapInternalInfillAngles,0
;   externalInfillAngles,45,-45
;   generateSupport,0
;   supportExtruder,0
;   supportInfillPercentage,30
;   supportExtraInflation,0
;   supportBaseLayers,0
;   denseSupportExtruder,0
;   denseSupportLayers,0
;   denseSupportInfillPercentage,70
;   supportLayerInterval,1
;   supportHorizontalPartOffset,0.4
;   supportUpperSeparationLayers,1
;   supportLowerSeparationLayers,1
;   supportType,0
;   supportGridSpacing,4.5
;   maxOverhangAngle,45
;   supportAngles,0
;   temperatureName,Primary Extruder,Heated Bed
;   temperatureNumber,0,0
;   temperatureSetpointCount,2,2
;   temperatureSetpointLayers,1,2,1,2
;   temperatureSetpointTemperatures,215,210,55,50
;   temperatureStabilizeAtStartup,1,1
;   temperatureHeatedBed,0,1
;   fanLayers,1,2
;   fanSpeeds,0,100
;   blipFanToFullPower,0
;   adjustSpeedForCooling,1
;   minSpeedLayerTime,15
;   minCoolingSpeedSlowdown,20
;   increaseFanForCooling,1
;   minFanLayerTime,25
;   maxCoolingFanSpeed,100
;   increaseFanForBridging,1
;   bridgingFanSpeed,100
;   use5D,1
;   relativeEdistances,0
;   allowEaxisZeroing,1
;   independentExtruderAxes,0
;   includeM10123,0
;   stickySupport,1
;   applyToolheadOffsets,0
;   gcodeXoffset,0
;   gcodeYoffset,0
;   gcodeZoffset,0
;   overrideMachineDefinition,1
;   machineTypeOverride,0
;   strokeXoverride,300
;   strokeYoverride,300
;   strokeZoverride,400
;   originOffsetXoverride,0
;   originOffsetYoverride,0
;   originOffsetZoverride,0
;   homeXdirOverride,-1
;   homeYdirOverride,-1
;   homeZdirOverride,-1
;   flipXoverride,1
;   flipYoverride,-1
;   flipZoverride,1
;   toolheadOffsets,0,0|0,0|0,0|0,0|0,0|0,0
;   overrideFirmwareConfiguration,1
;   firmwareTypeOverride,RepRap (Marlin/Repetier/Sprinter)
;   GPXconfigOverride,r2
;   baudRateOverride,250000
;   overridePrinterModels,1
;   printerModelsOverride
;   startingGcode,;,; -]H.P.B[- MarshMalloW  ,; $VER: StartScript 1.02 (26.12.2019) MarshMalloW,;,; Begin Startcode,;,M117 *Preheat*     	; Preheat,;extruder0_temperature,M104 S[extruder0_temperature]  ,M109 S[extruder0_temperature] ,M109 R[extruder0_temperature] ,;,M117 *Auto-leveling*     	; Auto-leveling,M107                   	; Turn layer fan off,G21                    	; Set to metric [change to G20 if you want Imperial],G90                    	; Force coordinates to be absolute relative to the origin,G28                    	; Home X/Y/Z axis,G29                    	; Auto-leveling (BL-Touch),;,M117 *Start Clean*     	; Indicate nozzle clean in progress on LCD,G92 E0                 	; Set Extruder to 0 ,G1 X0 Y0 F2000         	; Move X and Y to 0 with speed 2000 (mm/min),G1 Z0.1 F1000          	; Move Z to   0.1 with speed 1000 (mm/min),G1 X8.0 F2000          	; Move X to   8.0 with speed 2000 (mm/min),G1 Y60.0 E4.0 F1000.0  	; Move Y to  60 and Extruder with 4.0 with speed 1000 (mm/min),G1 Y100.0 E8.5 F1000.0 	; Move Y to 100 and Extruder with 8.5 with speed 1000 (mm/min),G92 E0                 	; Set extruder to 0,G1 X16.0 F3000         	; Move X to 16.0 with speed 3000 (mm/min),G1 Y60.0 F3000         	; Move Y to 60.0 with speed 3000 (mm/min),M117 *End Clean*       	; Indicate nozzle clean in progress on LCD,G1 Z5 F3000            	; Move Z to  5.0 with speed 3000 (mm/min),G1 X20.0 F3000         	; Move X to 20.0 with speed 3000 (mm/min),G1 Y20.0 F3000         	; Move Y to 20.0 with speed 3000 (mm/min),; ,M117 *Printing...*     	; Start printing msg on LCD,;,; End Startcode,;,; Begin printing with sliced GCode after here,;
;   layerChangeGcode,
;   retractionGcode,
;   toolChangeGcode,
;   endingGcode,;,; init 181010,;,;M107 			; Fan off,;G1 E-1 F300 			; Retract the filament a bit before lifting the nozzle,;M104 S0 			; Turn off extruder,;M140 S0 			; Turn off bed,;G91			; Relative positioning,;G28 X0 Y0 			; Move X/Y to min endstops so the head is out of teh way,;M84 			; Disable motors,;G90 			; Absolute positioning,;M117 Print ready...,,;,; // From Cura 181010,; // End_gcode,G92 E0			; Zero the extruded length,;G1 E-30 F300		; Retract E -30,M106 S0			; Turn off cooling fan,M104 S0			; Turn off temperature,M140 S0		     	; Turn off bed,G91			; Relative positioning,G1 E-1 F300			; Retract the filament a bit before lifting the nozzle to release some of the pressure,G1 Z+20 E-5 X-20 Y-20 F7200	; Move Z up a bit and retract filament even more,G1 X0 Y150 F10000		; Move right min,M107			; Turn off layer fan,M84			; Disable motors,G90			; Absolute positioning,M117 *The-End* 		; End msg,;,
;   exportFileFormat,gcode
;   celebration,0
;   celebrationSong,Star Wars
;   postProcessing,D:\S3D_Thumbs\S3D_Thumbs.exe f="[output_filepath]" x=600 y=110 w=953 lw=400 lh=300 sw=32 sh=32 d=Y
;   defaultSpeed,4800
;   outlineUnderspeed,0.5
;   solidInfillUnderspeed,0.8
;   supportUnderspeed,0.8
;   rapidXYspeed,3600
;   rapidZspeed,1002
;   minBridgingArea,50
;   bridgingExtraInflation,0.2
;   bridgingExtrusionMultiplier,1
;   bridgingSpeedMultiplier,0.8
;   useFixedBridgingAngle,0
;   fixedBridgingAngle,0
;   applyBridgingToPerimeters,0
;   filamentDiameters,1.75|1.75|1.75|1.75|1.75|1.75
;   filamentPricesPerKg,30|46|46|46|46|46
;   filamentDensities,1.25|1.25|1.25|1.25|1.25|1.25
;   useMinPrintHeight,0
;   minPrintHeight,0
;   useMaxPrintHeight,0
;   maxPrintHeight,50
;   useDiaphragm,0
;   diaphragmLayerInterval,20
;   robustSlicing,1
;   mergeAllIntoSolid,0
;   onlyRetractWhenCrossingOutline,1
;   retractBetweenLayers,1
;   useRetractionMinTravel,0
;   retractionMinTravel,3
;   retractWhileWiping,1
;   onlyWipeOutlines,1
;   avoidCrossingOutline,0
;   maxMovementDetourFactor,3
;   toolChangeRetractionDistance,12
;   toolChangeExtraRestartDistance,-0.5
;   toolChangeRetractionSpeed,600
;   externalThinWallType,1
;   internalThinWallType,1
;   thinWallAllowedOverlapPercentage,10
;   singleExtrusionMinLength,1
;   singleExtrusionMinPrintingWidthPercentage,50
;   singleExtrusionMaxPrintingWidthPercentage,200
;   singleExtrusionEndpointExtension,0.2
;   horizontalSizeCompensation,0
G90
M82
M106 S0
M140 S55
M190 S55
;
; -]H.P.B[- MarshMalloW  
; $VER: StartScript 1.02 (26.12.2019) MarshMalloW
;
; Begin Startcode
;
M117 *Preheat*     	; Preheat
;extruder0_temperature
M104 S215  
M109 S215 
M109 R215 
;
M117 *Auto-leveling*     	; Auto-leveling
M107                   	; Turn layer fan off
G21                    	; Set to metric [change to G20 if you want Imperial]
G90                    	; Force coordinates to be absolute relative to the origin
G28                    	; Home X/Y/Z axis
G29                    	; Auto-leveling (BL-Touch)
;
M117 *Start Clean*     	; Indicate nozzle clean in progress on LCD
G92 E0                 	; Set Extruder to 0 
G1 X0 Y0 F2000         	; Move X and Y to 0 with speed 2000 (mm/min)
G1 Z0.1 F1000          	; Move Z to   0.1 with speed 1000 (mm/min)
G1 X8.0 F2000          	; Move X to   8.0 with speed 2000 (mm/min)
G1 Y60.0 E4.0 F1000.0  	; Move Y to  60 and Extruder with 4.0 with speed 1000 (mm/min)
G1 Y100.0 E8.5 F1000.0 	; Move Y to 100 and Extruder with 8.5 with speed 1000 (mm/min)
G92 E0                 	; Set extruder to 0
G1 X16.0 F3000         	; Move X to 16.0 with speed 3000 (mm/min)
G1 Y60.0 F3000         	; Move Y to 60.0 with speed 3000 (mm/min)
M117 *End Clean*       	; Indicate nozzle clean in progress on LCD
G1 Z5 F3000            	; Move Z to  5.0 with speed 3000 (mm/min)
G1 X20.0 F3000         	; Move X to 20.0 with speed 3000 (mm/min)
G1 Y20.0 F3000         	; Move Y to 20.0 with speed 3000 (mm/min)
; 
M117 *Printing...*     	; Start printing msg on LCD
;
; End Startcode
;
; Begin printing with sliced GCode after here
;
; process PLA A15
; layer 1, Z = 0.180
M117 INDICATOR-Layer1
M117 DASHBOARD_LAYER_INDICATOR 1
T0
G92 E0.0000
G1 E-4.0000 F3000
; feature skirt
; tool H0.180 W0.350
G1 Z0.300 F1002
G1 X118.535 Y127.402 F3600
G1 Z0.180 F1002
G1 E0.0000 F3000
G92 E0.0000
G1 X119.623 Y126.392 E0.0369 F1200
G1 X119.689 Y126.334 E0.0391
G1 X120.825 Y125.380 E0.0760
G1 X120.894 Y125.325 E0.0782
G1 X122.077 Y124.429 E0.1152
G1 X122.148 Y124.378 E0.1173
G1 X123.375 Y123.542 E0.1543
G1 X123.448 Y123.494 E0.1565
G1 X124.715 Y122.721 E0.1934
G1 X124.791 Y122.677 E0.1956
G1 X126.094 Y121.967 E0.2325
G1 X126.172 Y121.927 E0.2347
G1 X127.509 Y121.283 E0.2716
G1 X127.589 Y121.247 E0.2738
G1 X128.957 Y120.670 E0.3107
G1 X129.039 Y120.638 E0.3129
G1 X130.433 Y120.131 E0.3498
G1 X130.517 Y120.103 E0.3520
G1 X131.935 Y119.665 E0.3889
G1 X132.019 Y119.641 E0.3911
G1 X133.457 Y119.275 E0.4281
G1 X133.543 Y119.256 E0.4302
G1 X134.998 Y118.962 E0.4672
G1 X135.084 Y118.946 E0.4694
G1 X136.552 Y118.725 E0.5063
G1 X136.639 Y118.714 E0.5085
G1 X138.115 Y118.566 E0.5454
G1 X138.203 Y118.560 E0.5476
G1 X139.685 Y118.486 E0.5845
G1 X139.773 Y118.484 E0.5867
G1 X141.257 Y118.484 E0.6236
G1 X141.345 Y118.486 E0.6258
G1 X142.827 Y118.560 E0.6627
G1 X142.915 Y118.566 E0.6649
G1 X144.392 Y118.714 E0.7019
G1 X144.479 Y118.725 E0.7040
G1 X145.946 Y118.946 E0.7410
G1 X146.033 Y118.962 E0.7432
G1 X147.487 Y119.256 E0.7801
G1 X147.573 Y119.275 E0.7823
G1 X149.011 Y119.641 E0.8192
G1 X149.096 Y119.665 E0.8214
G1 X150.514 Y120.103 E0.8583
G1 X150.597 Y120.131 E0.8605
G1 X151.992 Y120.638 E0.8974
G1 X152.073 Y120.670 E0.8996
G1 X153.441 Y121.247 E0.9365
G1 X153.521 Y121.283 E0.9387
G1 X154.858 Y121.927 E0.9756
G1 X154.936 Y121.967 E0.9778
G1 X156.240 Y122.677 E1.0148
G1 X156.316 Y122.721 E1.0169
G1 X157.582 Y123.494 E1.0539
G1 X157.656 Y123.542 E1.0561
G1 X158.882 Y124.378 E1.0930
G1 X158.953 Y124.429 E1.0952
G1 X160.136 Y125.325 E1.1321
G1 X160.205 Y125.380 E1.1343
G1 X161.342 Y126.334 E1.1712
G1 X161.408 Y126.392 E1.1734
G1 X162.496 Y127.402 E1.2103
G1 X162.559 Y127.463 E1.2125
G1 X163.595 Y128.525 E1.2494
G1 X163.655 Y128.590 E1.2516
G1 X164.637 Y129.702 E1.2886
G1 X164.693 Y129.770 E1.2907
G1 X165.618 Y130.930 E1.3277
G1 X165.671 Y131.000 E1.3299
G1 X166.538 Y132.205 E1.3668
G1 X166.587 Y132.278 E1.3690
G1 X167.392 Y133.524 E1.4059
G1 X167.438 Y133.599 E1.4081
G1 X168.180 Y134.884 E1.4450
G1 X168.222 Y134.962 E1.4472
G1 X168.899 Y136.282 E1.4841
G1 X168.937 Y136.361 E1.4863
G1 X169.548 Y137.714 E1.5232
G1 X169.582 Y137.795 E1.5254
G1 X170.124 Y139.177 E1.5623
G1 X170.154 Y139.259 E1.5645
G1 X170.627 Y140.666 E1.6015
G1 X170.653 Y140.750 E1.6036
G1 X171.055 Y142.178 E1.6406
G1 X171.076 Y142.264 E1.6428
G1 X171.406 Y143.710 E1.6797
G1 X171.424 Y143.797 E1.6819
G1 X171.682 Y145.258 E1.7188
G1 X171.695 Y145.345 E1.7210
G1 X171.879 Y146.817 E1.7579
G1 X171.888 Y146.905 E1.7601
G1 X171.999 Y148.385 E1.7970
G1 X172.003 Y148.473 E1.7992
G1 X172.040 Y149.956 E1.8361
G1 X172.040 Y150.044 E1.8383
G1 X172.003 Y151.527 E1.8753
G1 X171.999 Y151.615 E1.8774
G1 X171.888 Y153.095 E1.9144
G1 X171.879 Y153.183 E1.9166
G1 X171.695 Y154.655 E1.9535
G1 X171.682 Y154.742 E1.9557
G1 X171.424 Y156.203 E1.9926
G1 X171.406 Y156.290 E1.9948
G1 X171.076 Y157.736 E2.0317
G1 X171.055 Y157.822 E2.0339
G1 X170.653 Y159.250 E2.0708
G1 X170.627 Y159.334 E2.0730
G1 X170.154 Y160.741 E2.1099
G1 X170.124 Y160.823 E2.1121
G1 X169.582 Y162.205 E2.1490
G1 X169.548 Y162.286 E2.1512
G1 X168.937 Y163.639 E2.1882
G1 X168.899 Y163.718 E2.1903
G1 X168.222 Y165.038 E2.2273
G1 X168.180 Y165.116 E2.2295
G1 X167.438 Y166.401 E2.2664
G1 X167.392 Y166.476 E2.2686
G1 X166.587 Y167.722 E2.3055
G1 X166.538 Y167.795 E2.3077
G1 X165.671 Y169.000 E2.3446
G1 X165.618 Y169.070 E2.3468
G1 X164.693 Y170.230 E2.3837
G1 X164.637 Y170.298 E2.3859
G1 X163.655 Y171.410 E2.4228
G1 X163.595 Y171.475 E2.4250
G1 X162.559 Y172.537 E2.4620
G1 X162.496 Y172.598 E2.4641
G1 X161.408 Y173.608 E2.5011
G1 X161.342 Y173.666 E2.5033
G1 X160.205 Y174.620 E2.5402
G1 X160.136 Y174.675 E2.5424
G1 X158.953 Y175.571 E2.5793
G1 X158.882 Y175.622 E2.5815
G1 X157.656 Y176.458 E2.6184
G1 X157.582 Y176.506 E2.6206
G1 X156.316 Y177.279 E2.6575
G1 X156.240 Y177.323 E2.6597
G1 X154.936 Y178.033 E2.6966
G1 X154.858 Y178.073 E2.6988
G1 X153.521 Y178.717 E2.7357
G1 X153.441 Y178.753 E2.7379
G1 X152.073 Y179.330 E2.7749
G1 X151.992 Y179.362 E2.7770
G1 X150.597 Y179.869 E2.8140
G1 X150.514 Y179.897 E2.8162
G1 X149.096 Y180.335 E2.8531
G1 X149.011 Y180.359 E2.8553
G1 X147.573 Y180.725 E2.8922
G1 X147.487 Y180.744 E2.8944
G1 X146.033 Y181.038 E2.9313
G1 X145.946 Y181.054 E2.9335
G1 X144.479 Y181.275 E2.9704
G1 X144.392 Y181.286 E2.9726
G1 X142.915 Y181.434 E3.0095
G1 X142.827 Y181.440 E3.0117
G1 X141.345 Y181.514 E3.0487
G1 X141.257 Y181.516 E3.0508
G1 X139.773 Y181.516 E3.0878
G1 X139.685 Y181.514 E3.0900
G1 X138.203 Y181.440 E3.1269
G1 X138.115 Y181.434 E3.1291
G1 X136.639 Y181.286 E3.1660
G1 X136.552 Y181.275 E3.1682
G1 X135.084 Y181.054 E3.2051
G1 X134.998 Y181.038 E3.2073
G1 X133.543 Y180.744 E3.2442
G1 X133.457 Y180.725 E3.2464
G1 X132.019 Y180.359 E3.2833
G1 X131.935 Y180.335 E3.2855
G1 X130.517 Y179.897 E3.3224
G1 X130.433 Y179.869 E3.3246
G1 X129.039 Y179.362 E3.3616
G1 X128.957 Y179.330 E3.3637
G1 X127.589 Y178.753 E3.4007
G1 X127.509 Y178.717 E3.4029
G1 X126.172 Y178.073 E3.4398
G1 X126.094 Y178.033 E3.4420
G1 X124.791 Y177.323 E3.4789
G1 X124.715 Y177.279 E3.4811
G1 X123.448 Y176.506 E3.5180
G1 X123.374 Y176.458 E3.5202
G1 X122.148 Y175.622 E3.5571
G1 X122.077 Y175.571 E3.5593
G1 X120.894 Y174.675 E3.5962
G1 X120.825 Y174.620 E3.5984
G1 X119.689 Y173.666 E3.6354
G1 X119.623 Y173.608 E3.6375
G1 X118.535 Y172.598 E3.6745
G1 X118.472 Y172.537 E3.6767
G1 X117.436 Y171.475 E3.7136
G1 X117.376 Y171.410 E3.7158
G1 X116.394 Y170.298 E3.7527
G1 X116.337 Y170.230 E3.7549
G1 X115.412 Y169.070 E3.7918
G1 X115.359 Y169.000 E3.7940
G1 X114.493 Y167.795 E3.8309
G1 X114.443 Y167.722 E3.8331
G1 X113.638 Y166.476 E3.8700
G1 X113.592 Y166.401 E3.8722
G1 X112.850 Y165.116 E3.9091
G1 X112.808 Y165.038 E3.9113
G1 X112.131 Y163.718 E3.9483
G1 X112.093 Y163.639 E3.9504
G1 X111.483 Y162.286 E3.9874
G1 X111.449 Y162.205 E3.9896
G1 X110.906 Y160.824 E4.0265
G1 X110.876 Y160.741 E4.0287
G1 X110.404 Y159.334 E4.0656
G1 X110.378 Y159.250 E4.0678
