; G-Code generated by Simplify3D(R) Version 4.1.2
; Apr 9, 2020 at 5:39:33 PM
; Settings Summary
;   processName,Process1
;   applyToModels,Courbe_1x120_Pente_35deg
;   profileName,A03-04-15s Tevo Tornado
;   profileVersion,2020-04-01 17:30:42
;   baseProfile,Creality CR-10(2)
;   printMaterial,PLA
;   printQuality,Medium
;   printExtruders,
;   extruderName,Primary Extruder
;   extruderToolheadNumber,0
;   extruderDiameter,0.4
;   extruderAutoWidth,0
;   extruderWidth,0.35
;   extrusionMultiplier,0.95
;   extruderUseRetract,1
;   extruderRetractionDistance,4
;   extruderExtraRestartDistance,0
;   extruderRetractionZLift,0.3
;   extruderRetractionSpeed,3000
;   extruderUseCoasting,0
;   extruderCoastingDistance,0.2
;   extruderUseWipe,0
;   extruderWipeDistance,4
;   primaryExtruder,0
;   layerHeight,0.15
;   topSolidLayers,4
;   bottomSolidLayers,3
;   perimeterOutlines,3
;   printPerimetersInsideOut,0
;   startPointOption,1
;   startPointOriginX,0
;   startPointOriginY,300
;   sequentialIslands,0
;   spiralVaseMode,0
;   firstLayerHeightPercentage,120
;   firstLayerWidthPercentage,100
;   firstLayerUnderspeed,0.5
;   useRaft,0
;   raftExtruder,0
;   raftTopLayers,3
;   raftBaseLayers,2
;   raftOffset,3
;   raftSeparationDistance,0.14
;   raftTopInfill,100
;   aboveRaftSpeedMultiplier,0.3
;   useSkirt,1
;   skirtExtruder,0
;   skirtLayers,1
;   skirtOutlines,3
;   skirtOffset,2
;   usePrimePillar,0
;   primePillarExtruder,999
;   primePillarWidth,12
;   primePillarLocation,7
;   primePillarSpeedMultiplier,1
;   useOozeShield,0
;   oozeShieldExtruder,999
;   oozeShieldOffset,2
;   oozeShieldOutlines,1
;   oozeShieldSidewallShape,1
;   oozeShieldSidewallAngle,30
;   oozeShieldSpeedMultiplier,1
;   infillExtruder,0
;   internalInfillPattern,Rectilinear
;   externalInfillPattern,Rectilinear
;   infillPercentage,15
;   outlineOverlapPercentage,15
;   infillExtrusionWidthPercentage,100
;   minInfillLength,5
;   infillLayerInterval,1
;   internalInfillAngles,45,-45
;   overlapInternalInfillAngles,0
;   externalInfillAngles,45,-45
;   generateSupport,1
;   supportExtruder,0
;   supportInfillPercentage,30
;   supportExtraInflation,0
;   supportBaseLayers,0
;   denseSupportExtruder,0
;   denseSupportLayers,0
;   denseSupportInfillPercentage,70
;   supportLayerInterval,1
;   supportHorizontalPartOffset,0.4
;   supportUpperSeparationLayers,1
;   supportLowerSeparationLayers,1
;   supportType,0
;   supportGridSpacing,4.5
;   maxOverhangAngle,45
;   supportAngles,0
;   temperatureName,Primary Extruder,Heated Bed
;   temperatureNumber,0,0
;   temperatureSetpointCount,1,1
;   temperatureSetpointLayers,1,1
;   temperatureSetpointTemperatures,215,55
;   temperatureStabilizeAtStartup,1,1
;   temperatureHeatedBed,0,1
;   fanLayers,1,2
;   fanSpeeds,0,100
;   blipFanToFullPower,0
;   adjustSpeedForCooling,1
;   minSpeedLayerTime,15
;   minCoolingSpeedSlowdown,50
;   increaseFanForCooling,1
;   minFanLayerTime,25
;   maxCoolingFanSpeed,100
;   increaseFanForBridging,1
;   bridgingFanSpeed,100
;   use5D,1
;   relativeEdistances,0
;   allowEaxisZeroing,1
;   independentExtruderAxes,0
;   includeM10123,0
;   stickySupport,1
;   applyToolheadOffsets,0
;   gcodeXoffset,0
;   gcodeYoffset,0
;   gcodeZoffset,0
;   overrideMachineDefinition,1
;   machineTypeOverride,0
;   strokeXoverride,300
;   strokeYoverride,300
;   strokeZoverride,400
;   originOffsetXoverride,0
;   originOffsetYoverride,0
;   originOffsetZoverride,0
;   homeXdirOverride,-1
;   homeYdirOverride,-1
;   homeZdirOverride,-1
;   flipXoverride,1
;   flipYoverride,-1
;   flipZoverride,1
;   toolheadOffsets,0,0|0,0|0,0|0,0|0,0|0,0
;   overrideFirmwareConfiguration,1
;   firmwareTypeOverride,RepRap (Marlin/Repetier/Sprinter)
;   GPXconfigOverride,r2
;   baudRateOverride,250000
;   overridePrinterModels,1
;   printerModelsOverride
;   startingGcode,;,; -]H.P.B[- MarshMalloW  ,; $VER: StartScript 1.02 (26.12.2019) MarshMalloW,;,; Begin Startcode,;,M117 *Preheat*     	; Preheat,;extruder0_temperature,M104 S[extruder0_temperature]  ,M109 S[extruder0_temperature] ,M109 R[extruder0_temperature] ,;,M117 *Auto-leveling*     	; Auto-leveling,M107                   	; Turn layer fan off,G21                    	; Set to metric [change to G20 if you want Imperial],G90                    	; Force coordinates to be absolute relative to the origin,G28                    	; Home X/Y/Z axis,G29                    	; Auto-leveling (BL-Touch),;,M117 *Start Clean*     	; Indicate nozzle clean in progress on LCD,G92 E0                 	; Set Extruder to 0 ,G1 X0 Y0 F2000         	; Move X and Y to 0 with speed 2000 (mm/min),G1 Z0.1 F1000          	; Move Z to   0.1 with speed 1000 (mm/min),G1 X8.0 F2000          	; Move X to   8.0 with speed 2000 (mm/min),G1 Y60.0 E4.0 F1000.0  	; Move Y to  60 and Extruder with 4.0 with speed 1000 (mm/min),G1 Y100.0 E8.5 F1000.0 	; Move Y to 100 and Extruder with 8.5 with speed 1000 (mm/min),G92 E0                 	; Set extruder to 0,G1 X16.0 F3000         	; Move X to 16.0 with speed 3000 (mm/min),G1 Y60.0 F3000         	; Move Y to 60.0 with speed 3000 (mm/min),M117 *End Clean*       	; Indicate nozzle clean in progress on LCD,G1 Z5 F3000            	; Move Z to  5.0 with speed 3000 (mm/min),G1 X20.0 F3000         	; Move X to 20.0 with speed 3000 (mm/min),G1 Y20.0 F3000         	; Move Y to 20.0 with speed 3000 (mm/min),; ,M117 *Printing...*     	; Start printing msg on LCD,;,; End Startcode,;,; Begin printing with sliced GCode after here,;
;   layerChangeGcode,
;   retractionGcode,
;   toolChangeGcode,
;   endingGcode,;,; init 181010,;,;M107 			; Fan off,;G1 E-1 F300 			; Retract the filament a bit before lifting the nozzle,;M104 S0 			; Turn off extruder,;M140 S0 			; Turn off bed,;G91			; Relative positioning,;G28 X0 Y0 			; Move X/Y to min endstops so the head is out of teh way,;M84 			; Disable motors,;G90 			; Absolute positioning,;M117 Print ready...,,;,; // From Cura 181010,; // End_gcode,G92 E0			; Zero the extruded length,;G1 E-30 F300		; Retract E -30,M106 S0			; Turn off cooling fan,M104 S0			; Turn off temperature,M140 S0		     	; Turn off bed,G91			; Relative positioning,G1 E-1 F300			; Retract the filament a bit before lifting the nozzle to release some of the pressure,G1 Z+20 E-5 X-20 Y-20 F7200	; Move Z up a bit and retract filament even more,G1 X0 Y150 F10000		; Move right min,M107			; Turn off layer fan,M84			; Disable motors,G90			; Absolute positioning,M117 *The-End* 		; End msg,;,
;   exportFileFormat,gcode
;   celebration,0
;   celebrationSong,Star Wars
;   postProcessing,
;   defaultSpeed,1800
;   outlineUnderspeed,0.5
;   solidInfillUnderspeed,0.8
;   supportUnderspeed,0.8
;   rapidXYspeed,6000
;   rapidZspeed,1002
;   minBridgingArea,50
;   bridgingExtraInflation,0.2
;   bridgingExtrusionMultiplier,1
;   bridgingSpeedMultiplier,0.6
;   useFixedBridgingAngle,0
;   fixedBridgingAngle,0
;   applyBridgingToPerimeters,0
;   filamentDiameters,1.75|1.75|1.75|1.75|1.75|1.75
;   filamentPricesPerKg,30|46|46|46|46|46
;   filamentDensities,1.25|1.25|1.25|1.25|1.25|1.25
;   useMinPrintHeight,0
;   minPrintHeight,0
;   useMaxPrintHeight,0
;   maxPrintHeight,9
;   useDiaphragm,0
;   diaphragmLayerInterval,20
;   robustSlicing,1
;   mergeAllIntoSolid,0
;   onlyRetractWhenCrossingOutline,1
;   retractBetweenLayers,1
;   useRetractionMinTravel,0
;   retractionMinTravel,3
;   retractWhileWiping,0
;   onlyWipeOutlines,1
;   avoidCrossingOutline,0
;   maxMovementDetourFactor,3
;   toolChangeRetractionDistance,12
;   toolChangeExtraRestartDistance,-0.5
;   toolChangeRetractionSpeed,600
;   externalThinWallType,1
;   internalThinWallType,1
;   thinWallAllowedOverlapPercentage,10
;   singleExtrusionMinLength,1
;   singleExtrusionMinPrintingWidthPercentage,50
;   singleExtrusionMaxPrintingWidthPercentage,200
;   singleExtrusionEndpointExtension,0.2
;   horizontalSizeCompensation,0
G90
M82
M106 S0
M140 S55
M190 S55
;
; -]H.P.B[- MarshMalloW  
; $VER: StartScript 1.02 (26.12.2019) MarshMalloW
;
; Begin Startcode
;
M117 *Preheat*     	; Preheat
;extruder0_temperature
M104 S215  
M109 S215 
M109 R215 
;
M117 *Auto-leveling*     	; Auto-leveling
M107                   	; Turn layer fan off
G21                    	; Set to metric [change to G20 if you want Imperial]
G90                    	; Force coordinates to be absolute relative to the origin
G28                    	; Home X/Y/Z axis
G29                    	; Auto-leveling (BL-Touch)
;
M117 *Start Clean*     	; Indicate nozzle clean in progress on LCD
G92 E0                 	; Set Extruder to 0 
G1 X0 Y0 F2000         	; Move X and Y to 0 with speed 2000 (mm/min)
G1 Z0.1 F1000          	; Move Z to   0.1 with speed 1000 (mm/min)
G1 X8.0 F2000          	; Move X to   8.0 with speed 2000 (mm/min)
G1 Y60.0 E4.0 F1000.0  	; Move Y to  60 and Extruder with 4.0 with speed 1000 (mm/min)
G1 Y100.0 E8.5 F1000.0 	; Move Y to 100 and Extruder with 8.5 with speed 1000 (mm/min)
G92 E0                 	; Set extruder to 0
G1 X16.0 F3000         	; Move X to 16.0 with speed 3000 (mm/min)
G1 Y60.0 F3000         	; Move Y to 60.0 with speed 3000 (mm/min)
M117 *End Clean*       	; Indicate nozzle clean in progress on LCD
G1 Z5 F3000            	; Move Z to  5.0 with speed 3000 (mm/min)
G1 X20.0 F3000         	; Move X to 20.0 with speed 3000 (mm/min)
G1 Y20.0 F3000         	; Move Y to 20.0 with speed 3000 (mm/min)
; 
M117 *Printing...*     	; Start printing msg on LCD
;
; End Startcode
;
; Begin printing with sliced GCode after here
;
; process Process1
; layer 1, Z = 0.180
T0
G92 E0.0000
G1 E-4.0000 F3000
; feature skirt
; tool H0.180 W0.350
G1 Z0.300 F1002
G1 X138.413 Y92.479 F6000
G1 Z0.180 F1002
G1 E0.0000 F3000
G92 E0.0000
G1 X138.413 Y94.941 E0.0613 F900
G1 X138.585 Y94.985 E0.0657
G1 X138.630 Y94.997 E0.0669
G1 X140.457 Y95.522 E0.1142
G1 X141.679 Y95.780 E0.1452
G1 X143.051 Y95.937 E0.1796
G1 X146.628 Y96.098 E0.2687
G1 X146.693 Y96.103 E0.2703
G1 X150.020 Y96.405 E0.3534
G1 X151.355 Y99.603 E0.4397
G1 X147.488 Y104.295 E0.5910
G1 X150.228 Y104.295 E0.6592
G1 X151.068 Y105.134 E0.6887
G1 X151.907 Y104.295 E0.7182
G1 X159.228 Y104.295 E0.9004
G1 X160.913 Y105.979 E0.9597
G1 X160.913 Y117.801 E1.2538
G1 X159.228 Y119.485 E1.3131
G1 X157.734 Y119.485 E1.3503
G1 X157.224 Y120.477 E1.3780
G1 X156.685 Y121.717 E1.4117
G1 X156.354 Y122.695 E1.4374
G1 X155.717 Y125.194 E1.5015
G1 X155.704 Y125.244 E1.5028
G1 X155.442 Y126.134 E1.5259
G1 X155.418 Y126.210 E1.5279
G1 X155.084 Y127.150 E1.5527
G1 X156.413 Y128.479 E1.5995
G1 X156.413 Y135.801 E1.7817
G1 X154.728 Y137.485 E1.8409
G1 X147.407 Y137.485 E2.0231
G1 X145.723 Y135.801 E2.0824
G1 X145.723 Y132.985 E2.1524
G1 X138.407 Y132.985 E2.3345
G1 X136.723 Y131.301 E2.3937
G1 X136.723 Y119.479 E2.6879
G1 X138.407 Y117.795 E2.7472
G1 X142.758 Y117.795 E2.8554
G1 X142.934 Y117.541 E2.8631
G1 X142.994 Y117.460 E2.8656
G1 X144.526 Y115.545 E2.9267
G1 X144.919 Y114.985 E2.9437
G1 X142.907 Y114.985 E2.9938
G1 X142.068 Y114.146 E3.0233
G1 X141.228 Y114.985 E3.0528
G1 X133.907 Y114.985 E3.2350
G1 X132.223 Y113.301 E3.2943
G1 X132.223 Y110.485 E3.3643
G1 X124.907 Y110.485 E3.5464
G1 X123.223 Y108.801 E3.6056
G1 X123.223 Y101.479 E3.7878
G1 X124.062 Y100.640 E3.8174
G1 X123.223 Y99.801 E3.8469
G1 X123.223 Y92.479 E4.0291
G1 X124.907 Y90.795 E4.0883
G1 X136.728 Y90.795 E4.3825
G1 X138.413 Y92.479 E4.4417
G92 E0.0000
G1 E-4.0000 F3000
G1 Z0.480 F1002
G1 X146.073 Y135.656 F6000
G1 Z0.180 F1002
G1 E0.0000 F3000
G92 E0.0000
G1 X146.073 Y132.146 E0.0873 F900
G1 X145.583 Y132.635 E0.1045
G1 X138.552 Y132.635 E0.2795
G1 X137.073 Y131.156 E0.3316
G1 X137.073 Y119.624 E0.6185
G1 X138.552 Y118.145 E0.6706
G1 X142.942 Y118.145 E0.7798
G1 X143.219 Y117.745 E0.7919
G1 X143.271 Y117.674 E0.7941
G1 X144.806 Y115.755 E0.8552
G1 X145.593 Y114.635 E0.8893
G1 X143.052 Y114.635 E0.9525
G1 X142.068 Y113.651 E0.9872
G1 X141.083 Y114.635 E1.0218
G1 X134.052 Y114.635 E1.1968
G1 X132.573 Y113.156 E1.2488
G1 X132.573 Y110.135 E1.3240
G1 X125.052 Y110.135 E1.5111
G1 X123.573 Y108.656 E1.5632
G1 X123.573 Y101.624 E1.7382
G1 X124.557 Y100.640 E1.7728
G1 X123.573 Y99.656 E1.8074
G1 X123.573 Y92.624 E1.9824
G1 X125.052 Y91.145 E2.0344
G1 X136.583 Y91.145 E2.3214
G1 X138.063 Y92.624 E2.3734
G1 X138.063 Y95.214 E2.4379
G1 X138.497 Y95.324 E2.4490
G1 X138.536 Y95.334 E2.4500
G1 X140.372 Y95.861 E2.4976
G1 X141.622 Y96.125 E2.5294
G1 X143.024 Y96.286 E2.5645
G1 X146.608 Y96.448 E2.6537
G1 X146.666 Y96.452 E2.6552
G1 X149.778 Y96.734 E2.7329
G1 X150.951 Y99.543 E2.8087
G1 X146.746 Y104.645 E2.9732
G1 X150.083 Y104.645 E3.0562
G1 X151.068 Y105.629 E3.0909
G1 X152.052 Y104.645 E3.1255
G1 X159.083 Y104.645 E3.3005
G1 X160.563 Y106.124 E3.3525
G1 X160.563 Y117.656 E3.6395
G1 X159.083 Y119.135 E3.6915
G1 X157.520 Y119.135 E3.7304
G1 X156.908 Y120.327 E3.7638
G1 X156.358 Y121.591 E3.7980
G1 X156.018 Y122.595 E3.8244
G1 X155.379 Y125.105 E3.8889
G1 X155.367 Y125.148 E3.8900
G1 X155.108 Y126.031 E3.9129
G1 X155.086 Y126.098 E3.9146
G1 X154.680 Y127.242 E3.9448
G1 X156.063 Y128.624 E3.9935
G1 X156.063 Y135.656 E4.1685
G1 X154.583 Y137.135 E4.2205
G1 X147.552 Y137.135 E4.3955
G1 X146.073 Y135.656 E4.4475
G92 E0.0000
G1 E-4.0000 F3000
G1 Z0.480 F1002
G1 X146.004 Y104.995 F6000
G1 Z0.180 F1002
G1 E0.0000 F3000
G92 E0.0000
G1 X149.938 Y104.995 E0.0979 F900
G1 X151.068 Y106.124 E0.1376
G1 X152.197 Y104.995 E0.1774
G1 X158.938 Y104.995 E0.3451
G1 X160.213 Y106.269 E0.3900
G1 X160.213 Y117.511 E0.6697
G1 X158.938 Y118.785 E0.7145
G1 X157.306 Y118.785 E0.7551
G1 X156.592 Y120.177 E0.7941
G1 X156.031 Y121.465 E0.8290
G1 X155.682 Y122.496 E0.8561
G1 X155.040 Y125.015 E0.9208
G1 X155.030 Y125.053 E0.9218
G1 X154.774 Y125.927 E0.9445
G1 X154.755 Y125.985 E0.9460
G1 X154.219 Y127.495 E0.9858
G1 X154.438 Y127.495 E0.9913
G1 X155.713 Y128.769 E1.0361
G1 X155.713 Y135.511 E1.2039
G1 X154.438 Y136.785 E1.2487
G1 X147.697 Y136.785 E1.4165
G1 X146.423 Y135.511 E1.4613
G1 X146.423 Y131.301 E1.5661
G1 X145.438 Y132.285 E1.6007
G1 X138.697 Y132.285 E1.7684
G1 X137.423 Y131.011 E1.8133
G1 X137.423 Y119.769 E2.0930
G1 X138.697 Y118.495 E2.1378
G1 X143.126 Y118.495 E2.2480
G1 X143.503 Y117.949 E2.2646
G1 X143.548 Y117.888 E2.2665
G1 X145.086 Y115.965 E2.3277
G1 X146.091 Y114.535 E2.3712
G1 X146.488 Y114.285 E2.3829
G1 X143.197 Y114.285 E2.4648
G1 X142.068 Y113.156 E2.5045
G1 X140.938 Y114.285 E2.5443
G1 X134.197 Y114.285 E2.7120
G1 X132.923 Y113.011 E2.7569
G1 X132.923 Y109.785 E2.8371
G1 X125.197 Y109.785 E3.0294
G1 X123.923 Y108.511 E3.0742
G1 X123.923 Y101.769 E3.2420
G1 X125.052 Y100.640 E3.2817
G1 X123.923 Y99.511 E3.3214
G1 X123.923 Y92.769 E3.4892
G1 X125.197 Y91.495 E3.5340
G1 X136.438 Y91.495 E3.8137
G1 X137.713 Y92.769 E3.8586
G1 X137.713 Y95.487 E3.9262
G1 X138.408 Y95.662 E3.9440
G1 X138.443 Y95.671 E3.9449
G1 X140.288 Y96.201 E3.9927
G1 X141.566 Y96.471 E4.0252
G1 X142.996 Y96.635 E4.0610
G1 X146.588 Y96.797 E4.1505
G1 X146.638 Y96.800 E4.1517
G1 X149.537 Y97.064 E4.2242
G1 X150.546 Y99.483 E4.2894
G1 X146.004 Y104.995 E4.4671
G92 E0.0000
G1 E-4.0000 F3000
; feature outer perimeter
G1 Z0.480 F1002
G1 X136.555 Y106.750 F6000
G1 Z0.180 F1002
G1 E0.0000 F3000
G92 E0.0000
G1 X136.131 Y106.667 E0.0108 F450
G1 X134.671 Y106.283 E0.0483
G1 X133.893 Y106.138 E0.0680
G1 X133.893 Y97.200 E0.2904
G1 X134.490 Y97.264 E0.3054
G1 X135.361 Y97.389 E0.3273
G1 X136.589 Y97.627 E0.3584
G1 X137.814 Y97.936 E0.3898
G1 X139.717 Y98.482 E0.4391
G1 X140.334 Y98.631 E0.4549
G1 X141.188 Y98.793 E0.4765
G1 X142.015 Y98.906 E0.4973
G1 X142.809 Y98.979 E0.5171
G1 X143.541 Y99.024 E0.5354
G1 X146.456 Y99.144 E0.6080
G1 X147.206 Y99.197 E0.6267
G1 X147.693 Y99.250 E0.6389
G1 X141.921 Y106.253 E0.8647
G1 X141.518 Y106.276 E0.8747
G1 X140.890 Y106.337 E0.8904
G1 X140.066 Y106.452 E0.9111
G1 X138.653 Y106.680 E0.9467
G1 X137.906 Y106.772 E0.9655
G1 X137.278 Y106.802 E0.9811
G1 X136.853 Y106.785 E0.9917
G1 X136.555 Y106.750 E0.9991
; feature inner perimeter
G1 X136.609 Y106.404 F6000
G92 E0.0000
G1 X136.209 Y106.325 E0.0101 F675
G1 X134.747 Y105.941 E0.0478
