; G-Code generated by Simplify3D(R) Version 4.1.2
; Apr 9, 2020 at 5:38:22 PM
; Settings Summary
;   processName,Process1
;   applyToModels,Courbe_1x120_Pente_00deg
;   profileName,A03-04-15s Tevo Tornado
;   profileVersion,2020-04-01 17:30:42
;   baseProfile,Creality CR-10(2)
;   printMaterial,PLA
;   printQuality,Medium
;   printExtruders,
;   extruderName,Primary Extruder
;   extruderToolheadNumber,0
;   extruderDiameter,0.4
;   extruderAutoWidth,0
;   extruderWidth,0.35
;   extrusionMultiplier,0.95
;   extruderUseRetract,1
;   extruderRetractionDistance,4
;   extruderExtraRestartDistance,0
;   extruderRetractionZLift,0.3
;   extruderRetractionSpeed,3000
;   extruderUseCoasting,0
;   extruderCoastingDistance,0.2
;   extruderUseWipe,0
;   extruderWipeDistance,4
;   primaryExtruder,0
;   layerHeight,0.15
;   topSolidLayers,4
;   bottomSolidLayers,3
;   perimeterOutlines,3
;   printPerimetersInsideOut,0
;   startPointOption,1
;   startPointOriginX,0
;   startPointOriginY,300
;   sequentialIslands,0
;   spiralVaseMode,0
;   firstLayerHeightPercentage,120
;   firstLayerWidthPercentage,100
;   firstLayerUnderspeed,0.5
;   useRaft,0
;   raftExtruder,0
;   raftTopLayers,3
;   raftBaseLayers,2
;   raftOffset,3
;   raftSeparationDistance,0.14
;   raftTopInfill,100
;   aboveRaftSpeedMultiplier,0.3
;   useSkirt,1
;   skirtExtruder,0
;   skirtLayers,1
;   skirtOutlines,3
;   skirtOffset,2
;   usePrimePillar,0
;   primePillarExtruder,999
;   primePillarWidth,12
;   primePillarLocation,7
;   primePillarSpeedMultiplier,1
;   useOozeShield,0
;   oozeShieldExtruder,999
;   oozeShieldOffset,2
;   oozeShieldOutlines,1
;   oozeShieldSidewallShape,1
;   oozeShieldSidewallAngle,30
;   oozeShieldSpeedMultiplier,1
;   infillExtruder,0
;   internalInfillPattern,Rectilinear
;   externalInfillPattern,Rectilinear
;   infillPercentage,15
;   outlineOverlapPercentage,15
;   infillExtrusionWidthPercentage,100
;   minInfillLength,5
;   infillLayerInterval,1
;   internalInfillAngles,45,-45
;   overlapInternalInfillAngles,0
;   externalInfillAngles,45,-45
;   generateSupport,1
;   supportExtruder,0
;   supportInfillPercentage,30
;   supportExtraInflation,0
;   supportBaseLayers,0
;   denseSupportExtruder,0
;   denseSupportLayers,0
;   denseSupportInfillPercentage,70
;   supportLayerInterval,1
;   supportHorizontalPartOffset,0.4
;   supportUpperSeparationLayers,1
;   supportLowerSeparationLayers,1
;   supportType,0
;   supportGridSpacing,4.5
;   maxOverhangAngle,45
;   supportAngles,0
;   temperatureName,Primary Extruder,Heated Bed
;   temperatureNumber,0,0
;   temperatureSetpointCount,1,1
;   temperatureSetpointLayers,1,1
;   temperatureSetpointTemperatures,215,55
;   temperatureStabilizeAtStartup,1,1
;   temperatureHeatedBed,0,1
;   fanLayers,1,2
;   fanSpeeds,0,100
;   blipFanToFullPower,0
;   adjustSpeedForCooling,1
;   minSpeedLayerTime,15
;   minCoolingSpeedSlowdown,50
;   increaseFanForCooling,1
;   minFanLayerTime,25
;   maxCoolingFanSpeed,100
;   increaseFanForBridging,1
;   bridgingFanSpeed,100
;   use5D,1
;   relativeEdistances,0
;   allowEaxisZeroing,1
;   independentExtruderAxes,0
;   includeM10123,0
;   stickySupport,1
;   applyToolheadOffsets,0
;   gcodeXoffset,0
;   gcodeYoffset,0
;   gcodeZoffset,0
;   overrideMachineDefinition,1
;   machineTypeOverride,0
;   strokeXoverride,300
;   strokeYoverride,300
;   strokeZoverride,400
;   originOffsetXoverride,0
;   originOffsetYoverride,0
;   originOffsetZoverride,0
;   homeXdirOverride,-1
;   homeYdirOverride,-1
;   homeZdirOverride,-1
;   flipXoverride,1
;   flipYoverride,-1
;   flipZoverride,1
;   toolheadOffsets,0,0|0,0|0,0|0,0|0,0|0,0
;   overrideFirmwareConfiguration,1
;   firmwareTypeOverride,RepRap (Marlin/Repetier/Sprinter)
;   GPXconfigOverride,r2
;   baudRateOverride,250000
;   overridePrinterModels,1
;   printerModelsOverride
;   startingGcode,;,; -]H.P.B[- MarshMalloW  ,; $VER: StartScript 1.02 (26.12.2019) MarshMalloW,;,; Begin Startcode,;,M117 *Preheat*     	; Preheat,;extruder0_temperature,M104 S[extruder0_temperature]  ,M109 S[extruder0_temperature] ,M109 R[extruder0_temperature] ,;,M117 *Auto-leveling*     	; Auto-leveling,M107                   	; Turn layer fan off,G21                    	; Set to metric [change to G20 if you want Imperial],G90                    	; Force coordinates to be absolute relative to the origin,G28                    	; Home X/Y/Z axis,G29                    	; Auto-leveling (BL-Touch),;,M117 *Start Clean*     	; Indicate nozzle clean in progress on LCD,G92 E0                 	; Set Extruder to 0 ,G1 X0 Y0 F2000         	; Move X and Y to 0 with speed 2000 (mm/min),G1 Z0.1 F1000          	; Move Z to   0.1 with speed 1000 (mm/min),G1 X8.0 F2000          	; Move X to   8.0 with speed 2000 (mm/min),G1 Y60.0 E4.0 F1000.0  	; Move Y to  60 and Extruder with 4.0 with speed 1000 (mm/min),G1 Y100.0 E8.5 F1000.0 	; Move Y to 100 and Extruder with 8.5 with speed 1000 (mm/min),G92 E0                 	; Set extruder to 0,G1 X16.0 F3000         	; Move X to 16.0 with speed 3000 (mm/min),G1 Y60.0 F3000         	; Move Y to 60.0 with speed 3000 (mm/min),M117 *End Clean*       	; Indicate nozzle clean in progress on LCD,G1 Z5 F3000            	; Move Z to  5.0 with speed 3000 (mm/min),G1 X20.0 F3000         	; Move X to 20.0 with speed 3000 (mm/min),G1 Y20.0 F3000         	; Move Y to 20.0 with speed 3000 (mm/min),; ,M117 *Printing...*     	; Start printing msg on LCD,;,; End Startcode,;,; Begin printing with sliced GCode after here,;
;   layerChangeGcode,
;   retractionGcode,
;   toolChangeGcode,
;   endingGcode,;,; init 181010,;,;M107 			; Fan off,;G1 E-1 F300 			; Retract the filament a bit before lifting the nozzle,;M104 S0 			; Turn off extruder,;M140 S0 			; Turn off bed,;G91			; Relative positioning,;G28 X0 Y0 			; Move X/Y to min endstops so the head is out of teh way,;M84 			; Disable motors,;G90 			; Absolute positioning,;M117 Print ready...,,;,; // From Cura 181010,; // End_gcode,G92 E0			; Zero the extruded length,;G1 E-30 F300		; Retract E -30,M106 S0			; Turn off cooling fan,M104 S0			; Turn off temperature,M140 S0		     	; Turn off bed,G91			; Relative positioning,G1 E-1 F300			; Retract the filament a bit before lifting the nozzle to release some of the pressure,G1 Z+20 E-5 X-20 Y-20 F7200	; Move Z up a bit and retract filament even more,G1 X0 Y150 F10000		; Move right min,M107			; Turn off layer fan,M84			; Disable motors,G90			; Absolute positioning,M117 *The-End* 		; End msg,;,
;   exportFileFormat,gcode
;   celebration,0
;   celebrationSong,Star Wars
;   postProcessing,
;   defaultSpeed,1800
;   outlineUnderspeed,0.5
;   solidInfillUnderspeed,0.8
;   supportUnderspeed,0.8
;   rapidXYspeed,6000
;   rapidZspeed,1002
;   minBridgingArea,50
;   bridgingExtraInflation,0.2
;   bridgingExtrusionMultiplier,1
;   bridgingSpeedMultiplier,0.6
;   useFixedBridgingAngle,0
;   fixedBridgingAngle,0
;   applyBridgingToPerimeters,0
;   filamentDiameters,1.75|1.75|1.75|1.75|1.75|1.75
;   filamentPricesPerKg,30|46|46|46|46|46
;   filamentDensities,1.25|1.25|1.25|1.25|1.25|1.25
;   useMinPrintHeight,0
;   minPrintHeight,0
;   useMaxPrintHeight,0
;   maxPrintHeight,9
;   useDiaphragm,0
;   diaphragmLayerInterval,20
;   robustSlicing,1
;   mergeAllIntoSolid,0
;   onlyRetractWhenCrossingOutline,1
;   retractBetweenLayers,1
;   useRetractionMinTravel,0
;   retractionMinTravel,3
;   retractWhileWiping,0
;   onlyWipeOutlines,1
;   avoidCrossingOutline,0
;   maxMovementDetourFactor,3
;   toolChangeRetractionDistance,12
;   toolChangeExtraRestartDistance,-0.5
;   toolChangeRetractionSpeed,600
;   externalThinWallType,1
;   internalThinWallType,1
;   thinWallAllowedOverlapPercentage,10
;   singleExtrusionMinLength,1
;   singleExtrusionMinPrintingWidthPercentage,50
;   singleExtrusionMaxPrintingWidthPercentage,200
;   singleExtrusionEndpointExtension,0.2
;   horizontalSizeCompensation,0
G90
M82
M106 S0
M140 S55
M190 S55
;
; -]H.P.B[- MarshMalloW  
; $VER: StartScript 1.02 (26.12.2019) MarshMalloW
;
; Begin Startcode
;
M117 *Preheat*     	; Preheat
;extruder0_temperature
M104 S215  
M109 S215 
M109 R215 
;
M117 *Auto-leveling*     	; Auto-leveling
M107                   	; Turn layer fan off
G21                    	; Set to metric [change to G20 if you want Imperial]
G90                    	; Force coordinates to be absolute relative to the origin
G28                    	; Home X/Y/Z axis
G29                    	; Auto-leveling (BL-Touch)
;
M117 *Start Clean*     	; Indicate nozzle clean in progress on LCD
G92 E0                 	; Set Extruder to 0 
G1 X0 Y0 F2000         	; Move X and Y to 0 with speed 2000 (mm/min)
G1 Z0.1 F1000          	; Move Z to   0.1 with speed 1000 (mm/min)
G1 X8.0 F2000          	; Move X to   8.0 with speed 2000 (mm/min)
G1 Y60.0 E4.0 F1000.0  	; Move Y to  60 and Extruder with 4.0 with speed 1000 (mm/min)
G1 Y100.0 E8.5 F1000.0 	; Move Y to 100 and Extruder with 8.5 with speed 1000 (mm/min)
G92 E0                 	; Set extruder to 0
G1 X16.0 F3000         	; Move X to 16.0 with speed 3000 (mm/min)
G1 Y60.0 F3000         	; Move Y to 60.0 with speed 3000 (mm/min)
M117 *End Clean*       	; Indicate nozzle clean in progress on LCD
G1 Z5 F3000            	; Move Z to  5.0 with speed 3000 (mm/min)
G1 X20.0 F3000         	; Move X to 20.0 with speed 3000 (mm/min)
G1 Y20.0 F3000         	; Move Y to 20.0 with speed 3000 (mm/min)
; 
M117 *Printing...*     	; Start printing msg on LCD
;
; End Startcode
;
; Begin printing with sliced GCode after here
;
; process Process1
; layer 1, Z = 0.180
T0
G92 E0.0000
G1 E-4.0000 F3000
; feature skirt
; tool H0.180 W0.350
G1 Z0.300 F1002
G1 X148.796 Y80.776 F6000
G1 Z0.180 F1002
G1 E0.0000 F3000
G92 E0.0000
G1 X148.796 Y83.241 E0.0613 F900
G1 X150.231 Y83.677 E0.0987
G1 X150.333 Y83.712 E0.1013
G1 X151.950 Y84.339 E0.1445
G1 X152.037 Y84.376 E0.1468
G1 X152.357 Y84.525 E0.1556
G1 X153.290 Y83.592 E0.1885
G1 X160.612 Y83.592 E0.3706
G1 X162.296 Y85.276 E0.4299
G1 X162.296 Y92.592 E0.6119
G1 X165.112 Y92.592 E0.6820
G1 X166.796 Y94.276 E0.7413
G1 X166.796 Y101.592 E0.9233
G1 X169.612 Y101.592 E0.9934
G1 X171.296 Y103.276 E1.0526
G1 X171.296 Y110.598 E1.2348
G1 X169.612 Y112.282 E1.2941
G1 X166.379 Y112.282 E1.3745
G1 X166.207 Y113.089 E1.3951
G1 X166.180 Y113.194 E1.3977
G1 X165.681 Y114.897 E1.4419
G1 X165.646 Y115.001 E1.4446
G1 X165.475 Y115.455 E1.4567
G1 X166.796 Y116.776 E1.5032
G1 X166.796 Y124.098 E1.6854
G1 X165.112 Y125.782 E1.7447
G1 X157.790 Y125.782 E1.9268
G1 X156.106 Y124.098 E1.9861
G1 X156.106 Y121.282 E2.0562
G1 X148.790 Y121.282 E2.2382
G1 X147.106 Y119.598 E2.2975
G1 X147.106 Y107.776 E2.5916
G1 X148.790 Y106.092 E2.6509
G1 X151.925 Y106.092 E2.7289
G1 X151.682 Y104.215 E2.7760
G1 X153.064 Y102.352 E2.8337
G1 X156.315 Y101.808 E2.9158
G1 X156.106 Y101.598 E2.9231
G1 X156.106 Y94.734 E3.0939
G1 X153.296 Y98.143 E3.2039
G1 X153.296 Y101.598 E3.2898
G1 X151.612 Y103.282 E3.3491
G1 X144.290 Y103.282 E3.5313
G1 X142.606 Y101.598 E3.5906
G1 X142.606 Y98.782 E3.6606
G1 X135.290 Y98.782 E3.8427
G1 X133.606 Y97.098 E3.9019
G1 X133.606 Y89.776 E4.0841
G1 X134.445 Y88.937 E4.1136
G1 X133.606 Y88.098 E4.1432
G1 X133.606 Y80.776 E4.3254
G1 X135.290 Y79.092 E4.3846
G1 X147.112 Y79.092 E4.6788
G1 X148.796 Y80.776 E4.7380
G92 E0.0000
G1 E-4.0000 F3000
G1 Z0.480 F1002
G1 X148.935 Y120.932 F6000
G1 Z0.180 F1002
G1 E0.0000 F3000
G92 E0.0000
G1 X147.456 Y119.453 E0.0520 F900
G1 X147.456 Y107.921 E0.3390
G1 X148.935 Y106.442 E0.3910
G1 X152.306 Y106.442 E0.4749
G1 X152.285 Y106.147 E0.4823
G1 X152.047 Y104.310 E0.5284
G1 X153.261 Y102.674 E0.5791
G1 X157.043 Y102.041 E0.6745
G1 X156.456 Y101.453 E0.6952
G1 X156.456 Y94.421 E0.8702
G1 X156.945 Y93.932 E0.8874
G1 X156.313 Y93.932 E0.9031
G1 X152.946 Y98.017 E1.0348
G1 X152.946 Y101.453 E1.1203
G1 X151.467 Y102.932 E1.1724
G1 X144.435 Y102.932 E1.3473
G1 X142.956 Y101.453 E1.3994
G1 X142.956 Y98.432 E1.4745
G1 X135.435 Y98.432 E1.6617
G1 X133.956 Y96.953 E1.7137
G1 X133.956 Y89.921 E1.8887
G1 X134.940 Y88.937 E1.9233
G1 X133.956 Y87.953 E1.9580
G1 X133.956 Y80.921 E2.1329
G1 X135.435 Y79.442 E2.1850
G1 X146.967 Y79.442 E2.4719
G1 X148.446 Y80.921 E2.5240
G1 X148.446 Y83.501 E2.5882
G1 X148.460 Y83.505 E2.5885
G1 X150.123 Y84.010 E2.6318
G1 X150.213 Y84.041 E2.6341
G1 X151.818 Y84.663 E2.6770
G1 X151.894 Y84.696 E2.6790
G1 X152.431 Y84.946 E2.6938
G1 X153.435 Y83.942 E2.7291
G1 X160.467 Y83.942 E2.9041
G1 X161.946 Y85.421 E2.9561
G1 X161.946 Y92.453 E3.1311
G1 X161.457 Y92.942 E3.1483
G1 X164.967 Y92.942 E3.2356
G1 X166.446 Y94.421 E3.2877
G1 X166.446 Y101.453 E3.4627
G1 X165.957 Y101.942 E3.4799
G1 X169.467 Y101.942 E3.5672
G1 X170.946 Y103.421 E3.6192
G1 X170.946 Y110.453 E3.7942
G1 X169.467 Y111.932 E3.8463
G1 X166.096 Y111.932 E3.9301
G1 X165.866 Y113.010 E3.9576
G1 X165.843 Y113.102 E3.9599
G1 X165.347 Y114.793 E4.0038
G1 X165.317 Y114.883 E4.0061
G1 X165.068 Y115.543 E4.0237
G1 X166.446 Y116.921 E4.0722
G1 X166.446 Y123.953 E4.2472
G1 X164.967 Y125.432 E4.2992
G1 X157.935 Y125.432 E4.4742
G1 X156.456 Y123.953 E4.5262
G1 X156.456 Y120.443 E4.6136
G1 X155.967 Y120.932 E4.6308
G1 X148.935 Y120.932 E4.8057
G92 E0.0000
G1 E-4.0000 F3000
G1 Z0.480 F1002
G1 X161.596 Y92.308 F6000
G1 Z0.180 F1002
G1 E0.0000 F3000
G92 E0.0000
G1 X160.612 Y93.292 E0.0346 F900
G1 X164.822 Y93.292 E0.1394
G1 X166.096 Y94.566 E0.1842
G1 X166.096 Y101.308 E0.3520
G1 X165.420 Y101.984 E0.3758
G1 X165.790 Y102.254 E0.3872
G1 X165.796 Y102.292 E0.3881
G1 X169.322 Y102.292 E0.4759
G1 X170.596 Y103.566 E0.5207
G1 X170.596 Y110.308 E0.6885
G1 X169.322 Y111.582 E0.7333
G1 X165.813 Y111.582 E0.8206
G1 X165.525 Y112.931 E0.8549
G1 X165.505 Y113.010 E0.8569
G1 X165.013 Y114.688 E0.9005
G1 X164.987 Y114.766 E0.9025
G1 X164.599 Y115.792 E0.9298
G1 X164.822 Y115.792 E0.9353
G1 X166.096 Y117.066 E0.9802
G1 X166.096 Y123.808 E1.1479
G1 X164.822 Y125.082 E1.1928
G1 X158.080 Y125.082 E1.3605
G1 X156.806 Y123.808 E1.4054
G1 X156.806 Y119.598 E1.5101
G1 X155.822 Y120.582 E1.5447
G1 X149.080 Y120.582 E1.7125
G1 X147.806 Y119.308 E1.7573
G1 X147.806 Y108.066 E2.0371
G1 X149.080 Y106.792 E2.0819
G1 X152.673 Y106.792 E2.1713
G1 X152.669 Y106.621 E2.1755
G1 X152.634 Y106.113 E2.1882
G1 X152.412 Y104.405 E2.2311
G1 X153.458 Y102.995 E2.2747
G1 X157.771 Y102.274 E2.3836
G1 X156.806 Y101.308 E2.4176
G1 X156.806 Y94.566 E2.5853
G1 X157.790 Y93.582 E2.6199
G1 X156.148 Y93.582 E2.6608
G1 X152.596 Y97.892 E2.7998
G1 X152.596 Y101.308 E2.8848
G1 X151.322 Y102.582 E2.9296
G1 X144.580 Y102.582 E3.0974
G1 X143.306 Y101.308 E3.1422
G1 X143.306 Y98.082 E3.2225
G1 X135.580 Y98.082 E3.4147
G1 X134.306 Y96.808 E3.4595
G1 X134.306 Y90.066 E3.6273
G1 X135.435 Y88.937 E3.6670
G1 X134.306 Y87.808 E3.7068
G1 X134.306 Y81.066 E3.8745
G1 X135.580 Y79.792 E3.9193
G1 X146.822 Y79.792 E4.1991
G1 X148.096 Y81.066 E4.2439
G1 X148.096 Y83.774 E4.3113
G1 X148.303 Y83.825 E4.3166
G1 X148.363 Y83.841 E4.3181
G1 X150.015 Y84.343 E4.3611
G1 X150.092 Y84.370 E4.3631
G1 X151.686 Y84.988 E4.4057
G1 X151.752 Y85.016 E4.4075
G1 X152.506 Y85.367 E4.4281
G1 X153.580 Y84.292 E4.4659
G1 X160.322 Y84.292 E4.6337
G1 X161.596 Y85.566 E4.6785
G1 X161.596 Y92.308 E4.8463
G92 E0.0000
G1 E-4.0000 F3000
; feature outer perimeter
G1 Z0.480 F1002
G1 X146.849 Y95.126 F6000
G1 Z0.180 F1002
G1 E0.0000 F3000
G92 E0.0000
G1 X145.965 Y94.819 E0.0233 F450
G1 X145.052 Y94.575 E0.0468
G1 X144.276 Y94.428 E0.0665
G1 X144.276 Y85.492 E0.2888
G1 X145.309 Y85.612 E0.3147
G1 X146.124 Y85.745 E0.3352
G1 X146.912 Y85.905 E0.3552
G1 X147.716 Y86.100 E0.3758
G1 X148.500 Y86.323 E0.3961
G1 X149.287 Y86.578 E0.4167
G1 X150.042 Y86.854 E0.4367
G1 X150.796 Y87.163 E0.4570
G1 X151.907 Y87.680 E0.4874
G1 X152.638 Y88.064 E0.5080
G1 X153.336 Y88.463 E0.5280
G1 X154.029 Y88.895 E0.5483
G1 X154.713 Y89.359 E0.5689
G1 X155.361 Y89.835 E0.5889
G1 X155.863 Y90.233 E0.6048
G1 X150.222 Y97.077 E0.8255
G1 X149.617 Y96.615 E0.8445
G1 X148.826 Y96.097 E0.8680
G1 X148.001 Y95.640 E0.8915
G1 X147.438 Y95.372 E0.9070
G1 X146.849 Y95.126 E0.9229
; feature inner perimeter
