; G-Code generated by Simplify3D(R) Version 4.1.2
; Apr 9, 2020 at 5:36:44 PM
; Settings Summary
;   processName,Process1
;   applyToModels,Courbe_2x060_Pente_00deg
;   profileName,A03-04-15s Tevo Tornado
;   profileVersion,2020-04-01 17:30:42
;   baseProfile,Creality CR-10(2)
;   printMaterial,PLA
;   printQuality,Medium
;   printExtruders,
;   extruderName,Primary Extruder
;   extruderToolheadNumber,0
;   extruderDiameter,0.4
;   extruderAutoWidth,0
;   extruderWidth,0.35
;   extrusionMultiplier,0.95
;   extruderUseRetract,1
;   extruderRetractionDistance,4
;   extruderExtraRestartDistance,0
;   extruderRetractionZLift,0.3
;   extruderRetractionSpeed,3000
;   extruderUseCoasting,0
;   extruderCoastingDistance,0.2
;   extruderUseWipe,0
;   extruderWipeDistance,4
;   primaryExtruder,0
;   layerHeight,0.15
;   topSolidLayers,4
;   bottomSolidLayers,3
;   perimeterOutlines,3
;   printPerimetersInsideOut,0
;   startPointOption,1
;   startPointOriginX,0
;   startPointOriginY,300
;   sequentialIslands,0
;   spiralVaseMode,0
;   firstLayerHeightPercentage,120
;   firstLayerWidthPercentage,100
;   firstLayerUnderspeed,0.5
;   useRaft,0
;   raftExtruder,0
;   raftTopLayers,3
;   raftBaseLayers,2
;   raftOffset,3
;   raftSeparationDistance,0.14
;   raftTopInfill,100
;   aboveRaftSpeedMultiplier,0.3
;   useSkirt,1
;   skirtExtruder,0
;   skirtLayers,1
;   skirtOutlines,3
;   skirtOffset,2
;   usePrimePillar,0
;   primePillarExtruder,999
;   primePillarWidth,12
;   primePillarLocation,7
;   primePillarSpeedMultiplier,1
;   useOozeShield,0
;   oozeShieldExtruder,999
;   oozeShieldOffset,2
;   oozeShieldOutlines,1
;   oozeShieldSidewallShape,1
;   oozeShieldSidewallAngle,30
;   oozeShieldSpeedMultiplier,1
;   infillExtruder,0
;   internalInfillPattern,Rectilinear
;   externalInfillPattern,Rectilinear
;   infillPercentage,15
;   outlineOverlapPercentage,15
;   infillExtrusionWidthPercentage,100
;   minInfillLength,5
;   infillLayerInterval,1
;   internalInfillAngles,45,-45
;   overlapInternalInfillAngles,0
;   externalInfillAngles,45,-45
;   generateSupport,1
;   supportExtruder,0
;   supportInfillPercentage,30
;   supportExtraInflation,0
;   supportBaseLayers,0
;   denseSupportExtruder,0
;   denseSupportLayers,0
;   denseSupportInfillPercentage,70
;   supportLayerInterval,1
;   supportHorizontalPartOffset,0.4
;   supportUpperSeparationLayers,1
;   supportLowerSeparationLayers,1
;   supportType,0
;   supportGridSpacing,4.5
;   maxOverhangAngle,45
;   supportAngles,0
;   temperatureName,Primary Extruder,Heated Bed
;   temperatureNumber,0,0
;   temperatureSetpointCount,1,1
;   temperatureSetpointLayers,1,1
;   temperatureSetpointTemperatures,215,55
;   temperatureStabilizeAtStartup,1,1
;   temperatureHeatedBed,0,1
;   fanLayers,1,2
;   fanSpeeds,0,100
;   blipFanToFullPower,0
;   adjustSpeedForCooling,1
;   minSpeedLayerTime,15
;   minCoolingSpeedSlowdown,50
;   increaseFanForCooling,1
;   minFanLayerTime,25
;   maxCoolingFanSpeed,100
;   increaseFanForBridging,1
;   bridgingFanSpeed,100
;   use5D,1
;   relativeEdistances,0
;   allowEaxisZeroing,1
;   independentExtruderAxes,0
;   includeM10123,0
;   stickySupport,1
;   applyToolheadOffsets,0
;   gcodeXoffset,0
;   gcodeYoffset,0
;   gcodeZoffset,0
;   overrideMachineDefinition,1
;   machineTypeOverride,0
;   strokeXoverride,300
;   strokeYoverride,300
;   strokeZoverride,400
;   originOffsetXoverride,0
;   originOffsetYoverride,0
;   originOffsetZoverride,0
;   homeXdirOverride,-1
;   homeYdirOverride,-1
;   homeZdirOverride,-1
;   flipXoverride,1
;   flipYoverride,-1
;   flipZoverride,1
;   toolheadOffsets,0,0|0,0|0,0|0,0|0,0|0,0
;   overrideFirmwareConfiguration,1
;   firmwareTypeOverride,RepRap (Marlin/Repetier/Sprinter)
;   GPXconfigOverride,r2
;   baudRateOverride,250000
;   overridePrinterModels,1
;   printerModelsOverride
;   startingGcode,;,; -]H.P.B[- MarshMalloW  ,; $VER: StartScript 1.02 (26.12.2019) MarshMalloW,;,; Begin Startcode,;,M117 *Preheat*     	; Preheat,;extruder0_temperature,M104 S[extruder0_temperature]  ,M109 S[extruder0_temperature] ,M109 R[extruder0_temperature] ,;,M117 *Auto-leveling*     	; Auto-leveling,M107                   	; Turn layer fan off,G21                    	; Set to metric [change to G20 if you want Imperial],G90                    	; Force coordinates to be absolute relative to the origin,G28                    	; Home X/Y/Z axis,G29                    	; Auto-leveling (BL-Touch),;,M117 *Start Clean*     	; Indicate nozzle clean in progress on LCD,G92 E0                 	; Set Extruder to 0 ,G1 X0 Y0 F2000         	; Move X and Y to 0 with speed 2000 (mm/min),G1 Z0.1 F1000          	; Move Z to   0.1 with speed 1000 (mm/min),G1 X8.0 F2000          	; Move X to   8.0 with speed 2000 (mm/min),G1 Y60.0 E4.0 F1000.0  	; Move Y to  60 and Extruder with 4.0 with speed 1000 (mm/min),G1 Y100.0 E8.5 F1000.0 	; Move Y to 100 and Extruder with 8.5 with speed 1000 (mm/min),G92 E0                 	; Set extruder to 0,G1 X16.0 F3000         	; Move X to 16.0 with speed 3000 (mm/min),G1 Y60.0 F3000         	; Move Y to 60.0 with speed 3000 (mm/min),M117 *End Clean*       	; Indicate nozzle clean in progress on LCD,G1 Z5 F3000            	; Move Z to  5.0 with speed 3000 (mm/min),G1 X20.0 F3000         	; Move X to 20.0 with speed 3000 (mm/min),G1 Y20.0 F3000         	; Move Y to 20.0 with speed 3000 (mm/min),; ,M117 *Printing...*     	; Start printing msg on LCD,;,; End Startcode,;,; Begin printing with sliced GCode after here,;
;   layerChangeGcode,
;   retractionGcode,
;   toolChangeGcode,
;   endingGcode,;,; init 181010,;,;M107 			; Fan off,;G1 E-1 F300 			; Retract the filament a bit before lifting the nozzle,;M104 S0 			; Turn off extruder,;M140 S0 			; Turn off bed,;G91			; Relative positioning,;G28 X0 Y0 			; Move X/Y to min endstops so the head is out of teh way,;M84 			; Disable motors,;G90 			; Absolute positioning,;M117 Print ready...,,;,; // From Cura 181010,; // End_gcode,G92 E0			; Zero the extruded length,;G1 E-30 F300		; Retract E -30,M106 S0			; Turn off cooling fan,M104 S0			; Turn off temperature,M140 S0		     	; Turn off bed,G91			; Relative positioning,G1 E-1 F300			; Retract the filament a bit before lifting the nozzle to release some of the pressure,G1 Z+20 E-5 X-20 Y-20 F7200	; Move Z up a bit and retract filament even more,G1 X0 Y150 F10000		; Move right min,M107			; Turn off layer fan,M84			; Disable motors,G90			; Absolute positioning,M117 *The-End* 		; End msg,;,
;   exportFileFormat,gcode
;   celebration,0
;   celebrationSong,Star Wars
;   postProcessing,
;   defaultSpeed,1800
;   outlineUnderspeed,0.5
;   solidInfillUnderspeed,0.8
;   supportUnderspeed,0.8
;   rapidXYspeed,6000
;   rapidZspeed,1002
;   minBridgingArea,50
;   bridgingExtraInflation,0.2
;   bridgingExtrusionMultiplier,1
;   bridgingSpeedMultiplier,0.6
;   useFixedBridgingAngle,0
;   fixedBridgingAngle,0
;   applyBridgingToPerimeters,0
;   filamentDiameters,1.75|1.75|1.75|1.75|1.75|1.75
;   filamentPricesPerKg,30|46|46|46|46|46
;   filamentDensities,1.25|1.25|1.25|1.25|1.25|1.25
;   useMinPrintHeight,0
;   minPrintHeight,0
;   useMaxPrintHeight,0
;   maxPrintHeight,9
;   useDiaphragm,0
;   diaphragmLayerInterval,20
;   robustSlicing,1
;   mergeAllIntoSolid,0
;   onlyRetractWhenCrossingOutline,1
;   retractBetweenLayers,1
;   useRetractionMinTravel,0
;   retractionMinTravel,3
;   retractWhileWiping,0
;   onlyWipeOutlines,1
;   avoidCrossingOutline,0
;   maxMovementDetourFactor,3
;   toolChangeRetractionDistance,12
;   toolChangeExtraRestartDistance,-0.5
;   toolChangeRetractionSpeed,600
;   externalThinWallType,1
;   internalThinWallType,1
;   thinWallAllowedOverlapPercentage,10
;   singleExtrusionMinLength,1
;   singleExtrusionMinPrintingWidthPercentage,50
;   singleExtrusionMaxPrintingWidthPercentage,200
;   singleExtrusionEndpointExtension,0.2
;   horizontalSizeCompensation,0
G90
M82
M106 S0
M140 S55
M190 S55
;
; -]H.P.B[- MarshMalloW  
; $VER: StartScript 1.02 (26.12.2019) MarshMalloW
;
; Begin Startcode
;
M117 *Preheat*     	; Preheat
;extruder0_temperature
M104 S215  
M109 S215 
M109 R215 
;
M117 *Auto-leveling*     	; Auto-leveling
M107                   	; Turn layer fan off
G21                    	; Set to metric [change to G20 if you want Imperial]
G90                    	; Force coordinates to be absolute relative to the origin
G28                    	; Home X/Y/Z axis
G29                    	; Auto-leveling (BL-Touch)
;
M117 *Start Clean*     	; Indicate nozzle clean in progress on LCD
G92 E0                 	; Set Extruder to 0 
G1 X0 Y0 F2000         	; Move X and Y to 0 with speed 2000 (mm/min)
G1 Z0.1 F1000          	; Move Z to   0.1 with speed 1000 (mm/min)
G1 X8.0 F2000          	; Move X to   8.0 with speed 2000 (mm/min)
G1 Y60.0 E4.0 F1000.0  	; Move Y to  60 and Extruder with 4.0 with speed 1000 (mm/min)
G1 Y100.0 E8.5 F1000.0 	; Move Y to 100 and Extruder with 8.5 with speed 1000 (mm/min)
G92 E0                 	; Set extruder to 0
G1 X16.0 F3000         	; Move X to 16.0 with speed 3000 (mm/min)
G1 Y60.0 F3000         	; Move Y to 60.0 with speed 3000 (mm/min)
M117 *End Clean*       	; Indicate nozzle clean in progress on LCD
G1 Z5 F3000            	; Move Z to  5.0 with speed 3000 (mm/min)
G1 X20.0 F3000         	; Move X to 20.0 with speed 3000 (mm/min)
G1 Y20.0 F3000         	; Move Y to 20.0 with speed 3000 (mm/min)
; 
M117 *Printing...*     	; Start printing msg on LCD
;
; End Startcode
;
; Begin printing with sliced GCode after here
;
; process Process1
; layer 1, Z = 0.180
T0
G92 E0.0000
G1 E-4.0000 F3000
; feature skirt
; tool H0.180 W0.350
G1 Z0.300 F1002
G1 X128.759 Y95.889 F6000
G1 Z0.180 F1002
G1 E0.0000 F3000
G92 E0.0000
G1 X129.598 Y95.050 E0.0295 F900
G1 X136.919 Y95.050 E0.2117
G1 X138.604 Y96.734 E0.2710
G1 X138.604 Y99.550 E0.3410
G1 X145.919 Y99.550 E0.5231
G1 X147.604 Y101.234 E0.5823
G1 X147.604 Y103.860 E0.6477
G1 X147.896 Y103.773 E0.6553
G1 X150.724 Y105.211 E0.7342
G1 X150.769 Y105.235 E0.7355
G1 X152.565 Y106.230 E0.7866
G1 X152.610 Y106.256 E0.7879
G1 X154.384 Y107.323 E0.8394
G1 X154.427 Y107.350 E0.8406
G1 X156.469 Y108.679 E0.9013
G1 X156.598 Y108.550 E0.9058
G1 X163.919 Y108.550 E1.0880
G1 X165.604 Y110.234 E1.1473
G1 X165.604 Y113.050 E1.2173
G1 X168.419 Y113.050 E1.2874
G1 X170.104 Y114.734 E1.3466
G1 X170.104 Y121.673 E1.5193
G1 X170.610 Y122.334 E1.5400
G1 X170.639 Y122.374 E1.5412
G1 X171.775 Y123.967 E1.5900
G1 X171.807 Y124.014 E1.5914
G1 X173.468 Y126.550 E1.6668
G1 X177.419 Y126.550 E1.7651
G1 X179.104 Y128.234 E1.8244
G1 X179.104 Y135.555 E2.0066
G1 X177.419 Y137.240 E2.0658
G1 X170.104 Y137.240 E2.2479
G1 X170.104 Y140.055 E2.3179
G1 X168.419 Y141.740 E2.3772
G1 X161.098 Y141.740 E2.5594
G1 X159.414 Y140.055 E2.6186
G1 X159.414 Y137.240 E2.6887
G1 X156.598 Y137.240 E2.7588
G1 X154.914 Y135.555 E2.8180
G1 X154.914 Y128.240 E3.0001
G1 X152.098 Y128.240 E3.0701
G1 X150.414 Y126.555 E3.1294
G1 X150.414 Y121.698 E3.2503
G1 X149.357 Y121.944 E3.2773
G1 X146.945 Y120.328 E3.3495
G1 X145.161 Y119.240 E3.4015
G1 X134.098 Y119.240 E3.6768
G1 X132.414 Y117.555 E3.7360
G1 X132.414 Y114.258 E3.8181
G1 X129.735 Y113.791 E3.8857
G1 X128.971 Y113.688 E3.9049
G1 X127.919 Y114.740 E3.9420
G1 X116.098 Y114.740 E4.2361
G1 X114.414 Y113.055 E4.2954
G1 X114.414 Y105.734 E4.4776
G1 X115.253 Y104.895 E4.5071
G1 X114.414 Y104.055 E4.5366
G1 X114.414 Y96.734 E4.7188
G1 X116.098 Y95.050 E4.7781
G1 X127.919 Y95.050 E5.0722
G1 X128.759 Y95.889 E5.1018
G92 E0.0000
G1 E-4.0000 F3000
G1 Z0.480 F1002
G1 X161.243 Y141.390 F6000
G1 Z0.180 F1002
G1 E0.0000 F3000
G92 E0.0000
G1 X159.764 Y139.911 E0.0520 F900
G1 X159.764 Y136.890 E0.1272
G1 X156.743 Y136.890 E0.2024
G1 X155.264 Y135.411 E0.2544
G1 X155.264 Y128.379 E0.4294
G1 X155.753 Y127.890 E0.4466
G1 X152.243 Y127.890 E0.5340
G1 X150.764 Y126.411 E0.5860
G1 X150.764 Y121.258 E0.7142
G1 X149.425 Y121.569 E0.7484
G1 X147.133 Y120.033 E0.8171
G1 X145.291 Y118.909 E0.8708
G1 X145.256 Y118.890 E0.8718
G1 X134.243 Y118.890 E1.1458
G1 X132.764 Y117.411 E1.1978
G1 X132.764 Y113.735 E1.2893
G1 X132.499 Y113.917 E1.2973
G1 X129.789 Y113.445 E1.3657
G1 X128.847 Y113.318 E1.3894
G1 X127.774 Y114.390 E1.4271
G1 X116.243 Y114.390 E1.7141
G1 X114.764 Y112.911 E1.7661
G1 X114.764 Y105.879 E1.9411
G1 X115.748 Y104.895 E1.9757
G1 X114.764 Y103.911 E2.0104
G1 X114.764 Y96.879 E2.1853
G1 X116.243 Y95.400 E2.2374
G1 X127.774 Y95.400 E2.5243
G1 X128.759 Y96.384 E2.5589
G1 X129.743 Y95.400 E2.5936
G1 X136.774 Y95.400 E2.7685
G1 X138.254 Y96.879 E2.8206
G1 X138.254 Y100.389 E2.9079
G1 X138.743 Y99.900 E2.9251
G1 X145.774 Y99.900 E3.1001
G1 X147.254 Y101.379 E3.1522
G1 X147.254 Y104.329 E3.2256
G1 X147.861 Y104.148 E3.2414
G1 X150.563 Y105.522 E3.3168
G1 X150.603 Y105.543 E3.3179
G1 X152.393 Y106.535 E3.3688
G1 X152.432 Y106.557 E3.3699
G1 X154.201 Y107.621 E3.4213
G1 X154.238 Y107.645 E3.4224
G1 X156.516 Y109.127 E3.4900
G1 X156.743 Y108.900 E3.4980
G1 X163.774 Y108.900 E3.6730
G1 X165.254 Y110.379 E3.7250
G1 X165.254 Y113.400 E3.8002
G1 X168.274 Y113.400 E3.8753
G1 X169.754 Y114.879 E3.9274
G1 X169.754 Y121.791 E4.0994
G1 X170.330 Y122.545 E4.1230
G1 X170.355 Y122.579 E4.1241
G1 X171.488 Y124.168 E4.1726
G1 X171.516 Y124.209 E4.1739
G1 X173.279 Y126.900 E4.2539
G1 X177.274 Y126.900 E4.3533
G1 X178.754 Y128.379 E4.4054
G1 X178.754 Y135.411 E4.5803
G1 X177.274 Y136.890 E4.6324
G1 X170.243 Y136.890 E4.8074
G1 X169.754 Y136.401 E4.8246
G1 X169.754 Y139.911 E4.9119
G1 X168.274 Y141.390 E4.9640
G1 X161.243 Y141.390 E5.1389
G92 E0.0000
G1 E-4.0000 F3000
G1 Z0.480 F1002
G1 X152.254 Y106.859 F6000
G1 Z0.180 F1002
G1 E0.0000 F3000
G92 E0.0000
G1 X154.018 Y107.919 E0.0512 F900
G1 X154.050 Y107.940 E0.0522
G1 X156.456 Y109.506 E0.1236
G1 X156.490 Y109.647 E0.1272
G1 X156.888 Y109.250 E0.1412
G1 X163.629 Y109.250 E0.3090
G1 X164.904 Y110.524 E0.3538
G1 X164.904 Y113.750 E0.4341
G1 X168.129 Y113.750 E0.5143
G1 X169.404 Y115.024 E0.5592
G1 X169.404 Y121.766 E0.7269
G1 X169.341 Y121.828 E0.7291
G1 X170.050 Y122.755 E0.7582
G1 X170.072 Y122.785 E0.7591
G1 X171.201 Y124.368 E0.8075
G1 X171.225 Y124.404 E0.8085
G1 X173.090 Y127.250 E0.8932
G1 X177.129 Y127.250 E0.9937
G1 X178.404 Y128.524 E1.0386
G1 X178.404 Y135.266 E1.2063
G1 X177.129 Y136.540 E1.2512
G1 X170.388 Y136.540 E1.4189
G1 X169.404 Y135.556 E1.4535
G1 X169.404 Y139.766 E1.5583
G1 X168.129 Y141.040 E1.6031
G1 X161.388 Y141.040 E1.7709
G1 X160.114 Y139.766 E1.8157
G1 X160.114 Y136.540 E1.8960
G1 X156.888 Y136.540 E1.9763
G1 X155.614 Y135.266 E2.0211
G1 X155.614 Y128.524 E2.1888
G1 X156.543 Y127.594 E2.2216
G1 X156.499 Y127.540 E2.2233
G1 X152.388 Y127.540 E2.3256
G1 X151.114 Y126.266 E2.3704
G1 X151.114 Y120.817 E2.5060
G1 X149.494 Y121.194 E2.5474
G1 X147.322 Y119.739 E2.6124
G1 X145.466 Y118.606 E2.6665
G1 X145.345 Y118.540 E2.6700
G1 X134.388 Y118.540 E2.9426
G1 X133.114 Y117.266 E2.9875
G1 X133.114 Y113.069 E3.0919
G1 X132.418 Y113.548 E3.1129
G1 X129.843 Y113.099 E3.1780
G1 X128.722 Y112.947 E3.2061
G1 X127.629 Y114.040 E3.2445
G1 X116.388 Y114.040 E3.5243
G1 X115.114 Y112.766 E3.5691
G1 X115.114 Y106.024 E3.7369
G1 X116.243 Y104.895 E3.7766
G1 X115.114 Y103.766 E3.8163
G1 X115.114 Y97.024 E3.9841
G1 X116.388 Y95.750 E4.0289
G1 X127.629 Y95.750 E4.3086
G1 X128.759 Y96.879 E4.3484
G1 X129.888 Y95.750 E4.3881
G1 X136.629 Y95.750 E4.5559
G1 X137.904 Y97.024 E4.6007
G1 X137.904 Y101.234 E4.7055
G1 X138.888 Y100.250 E4.7401
G1 X145.629 Y100.250 E4.9078
G1 X146.904 Y101.524 E4.9527
G1 X146.904 Y104.798 E5.0341
G1 X147.827 Y104.524 E5.0581
G1 X150.402 Y105.833 E5.1300
G1 X150.436 Y105.851 E5.1309
G1 X152.221 Y106.839 E5.1817
G1 X152.254 Y106.859 E5.1827
G92 E0.0000
G1 E-4.0000 F3000
; feature outer perimeter
G1 Z0.480 F1002
G1 X126.649 Y110.363 F6000
G1 Z0.180 F1002
G1 E0.0000 F3000
G92 E0.0000
G1 X125.026 Y110.267 E0.0405 F450
G1 X125.026 Y101.392 E0.2613
G1 X126.119 Y101.441 E0.2885
G1 X128.013 Y101.580 E0.3358
G1 X129.901 Y101.783 E0.3830
G1 X131.781 Y102.050 E0.4303
G1 X133.461 Y102.346 E0.4727
G1 X131.776 Y111.051 E0.6933
