; G-Code generated by Simplify3D(R) Version 4.1.2
;
;
;
;
; Feb 12, 2023 at 11:29:26 AM
; Settings Summary
;   processName,PLA B 02
;   applyToModels,Cabel Tag for labeling cables 40mm
;   profileName,PLA_B02_04_15_OS180_05 Tevo Tornado
;   profileVersion,2022-12-18 16:11:47
;   baseProfile,Creality CR-10(2)
;   printMaterial,PLA
;   printQuality,High
;   printExtruders,
;   extruderName,Primary Extruder
;   extruderToolheadNumber,0
;   extruderDiameter,0.4
;   extruderAutoWidth,0
;   extruderWidth,0.35
;   extrusionMultiplier,0.95
;   extruderUseRetract,1
;   extruderRetractionDistance,4
;   extruderExtraRestartDistance,0
;   extruderRetractionZLift,0.3
;   extruderRetractionSpeed,3000
;   extruderUseCoasting,1
;   extruderCoastingDistance,0.2
;   extruderUseWipe,0
;   extruderWipeDistance,5
;   primaryExtruder,0
;   layerHeight,0.12
;   topSolidLayers,6
;   bottomSolidLayers,5
;   perimeterOutlines,4
;   printPerimetersInsideOut,1
;   startPointOption,2
;   startPointOriginX,0
;   startPointOriginY,300
;   sequentialIslands,0
;   spiralVaseMode,0
;   firstLayerHeightPercentage,120
;   firstLayerWidthPercentage,100
;   firstLayerUnderspeed,0.25
;   useRaft,0
;   raftExtruder,0
;   raftTopLayers,3
;   raftBaseLayers,2
;   raftOffset,3
;   raftSeparationDistance,0.14
;   raftTopInfill,100
;   aboveRaftSpeedMultiplier,0.3
;   useSkirt,1
;   skirtExtruder,0
;   skirtLayers,2
;   skirtOutlines,2
;   skirtOffset,3
;   usePrimePillar,0
;   primePillarExtruder,999
;   primePillarWidth,12
;   primePillarLocation,7
;   primePillarSpeedMultiplier,1
;   useOozeShield,0
;   oozeShieldExtruder,999
;   oozeShieldOffset,2
;   oozeShieldOutlines,1
;   oozeShieldSidewallShape,1
;   oozeShieldSidewallAngle,30
;   oozeShieldSpeedMultiplier,1
;   infillExtruder,0
;   internalInfillPattern,Fast Honeycomb
;   externalInfillPattern,Rectilinear
;   infillPercentage,15
;   outlineOverlapPercentage,15
;   infillExtrusionWidthPercentage,100
;   minInfillLength,5
;   infillLayerInterval,1
;   internalInfillAngles,0
;   overlapInternalInfillAngles,0
;   externalInfillAngles,45,-45
;   generateSupport,0
;   supportExtruder,0
;   supportInfillPercentage,40
;   supportExtraInflation,0
;   supportBaseLayers,0
;   denseSupportExtruder,0
;   denseSupportLayers,0
;   denseSupportInfillPercentage,70
;   supportLayerInterval,1
;   supportHorizontalPartOffset,0.4
;   supportUpperSeparationLayers,1
;   supportLowerSeparationLayers,1
;   supportType,0
;   supportGridSpacing,4.5
;   maxOverhangAngle,45
;   supportAngles,0
;   temperatureName,Primary Extruder,Heated Bed
;   temperatureNumber,0,0
;   temperatureSetpointCount,2,2
;   temperatureSetpointLayers,1,2,1,2
;   temperatureSetpointTemperatures,185,180,10,5
;   temperatureStabilizeAtStartup,1,1
;   temperatureHeatedBed,0,1
;   fanLayers,1,2
;   fanSpeeds,0,100
;   blipFanToFullPower,0
;   adjustSpeedForCooling,1
;   minSpeedLayerTime,15
;   minCoolingSpeedSlowdown,20
;   increaseFanForCooling,1
;   minFanLayerTime,25
;   maxCoolingFanSpeed,100
;   increaseFanForBridging,1
;   bridgingFanSpeed,100
;   use5D,1
;   relativeEdistances,0
;   allowEaxisZeroing,1
;   independentExtruderAxes,0
;   includeM10123,0
;   stickySupport,1
;   applyToolheadOffsets,0
;   gcodeXoffset,0
;   gcodeYoffset,0
;   gcodeZoffset,0
;   overrideMachineDefinition,1
;   machineTypeOverride,0
;   strokeXoverride,300
;   strokeYoverride,300
;   strokeZoverride,400
;   originOffsetXoverride,0
;   originOffsetYoverride,0
;   originOffsetZoverride,0
;   homeXdirOverride,-1
;   homeYdirOverride,-1
;   homeZdirOverride,-1
;   flipXoverride,1
;   flipYoverride,-1
;   flipZoverride,1
;   toolheadOffsets,0,0|0,0|0,0|0,0|0,0|0,0
;   overrideFirmwareConfiguration,1
;   firmwareTypeOverride,RepRap (Marlin/Repetier/Sprinter)
;   GPXconfigOverride,r2
;   baudRateOverride,250000
;   overridePrinterModels,1
;   printerModelsOverride
;   startingGcode,;,; -]H.P.B[- MarshMalloW  ,; $VER: StartScript 1.03 (18.12.2022) MarshMalloW,;,; Begin Startcode,;,M117 *Preheat*	; Preheat,;extruder0_temperature,M104 S[extruder0_temperature],M109 S[extruder0_temperature],;M109 R[extruder0_temperature] ,;,M117 *Auto-leveling*     	; Auto-leveling,M107                   	; Turn layer fan off,G21                    	; Set to metric [change to G20 if you want Imperial],G90                    	; Force coordinates to be absolute relative to the origin,G28                    	; Home X/Y/Z axis,G29                    	; Auto-leveling (BL-Touch),;,M117 *Start Clean*     	; Indicate nozzle clean in progress on LCD,G92 E0                 	; Set Extruder to 0 ,G1 X0 Y0 F2000         	; Move X and Y to 0 with speed 2000 (mm/min),G1 Z0.1 F1000          	; Move Z to   0.1 with speed 1000 (mm/min),G1 X8.0 F2000          	; Move X to   8.0 with speed 2000 (mm/min),G1 Y60.0 E4.0 F1000.0  	; Move Y to  60 and Extruder with 4.0 with speed 1000 (mm/min),G1 Y100.0 E8.5 F1000.0 	; Move Y to 100 and Extruder with 8.5 with speed 1000 (mm/min),G92 E0                 	; Set extruder to 0,G1 X16.0 F3000         	; Move X to 16.0 with speed 3000 (mm/min),G1 Y60.0 F3000         	; Move Y to 60.0 with speed 3000 (mm/min),M117 *End Clean*       	; Indicate nozzle clean in progress on LCD,G1 Z5 F3000            	; Move Z to  5.0 with speed 3000 (mm/min),G1 X20.0 F3000         	; Move X to 20.0 with speed 3000 (mm/min),G1 Y20.0 F3000         	; Move Y to 20.0 with speed 3000 (mm/min),; ,M117 *Printing...*     	; Start printing msg on LCD,;,; End Startcode,;,; Begin printing with sliced GCode after here,;
;   layerChangeGcode,
;   retractionGcode,
;   toolChangeGcode,
;   endingGcode,;,; init 181010,;,;M107 			; Fan off,;G1 E-1 F300 			; Retract the filament a bit before lifting the nozzle,;M104 S0 			; Turn off extruder,;M140 S0 			; Turn off bed,;G91			; Relative positioning,;G28 X0 Y0 			; Move X/Y to min endstops so the head is out of teh way,;M84 			; Disable motors,;G90 			; Absolute positioning,;M117 Print ready...,,;,; // From Cura 181010,; // End_gcode,G92 E0			; Zero the extruded length,;G1 E-30 F300		; Retract E -30,M106 S0			; Turn off cooling fan,M104 S0			; Turn off temperature,M140 S0		     	; Turn off bed,G91			; Relative positioning,G1 E-1 F300			; Retract the filament a bit before lifting the nozzle to release some of the pressure,G1 Z+20 E-5 X-20 Y-20 F7200	; Move Z up a bit and retract filament even more,G1 X0 Y150 F10000		; Move right min,M107			; Turn off layer fan,M84			; Disable motors,G90			; Absolute positioning,M117 *The-End* 		; End msg,;,
;   exportFileFormat,gcode
;   celebration,0
;   celebrationSong,Star Wars
;   postProcessing,D:\S3D_Thumbs\S3D_Thumbs.exe f="[output_filepath]" x=600 y=110 w=953 lw=400 lh=300 sw=32 sh=32 d=Y
;   defaultSpeed,4200
;   outlineUnderspeed,0.5
;   solidInfillUnderspeed,0.8
;   supportUnderspeed,0.8
;   rapidXYspeed,6000
;   rapidZspeed,1002
;   minBridgingArea,50
;   bridgingExtraInflation,0.2
;   bridgingExtrusionMultiplier,1
;   bridgingSpeedMultiplier,0.8
;   useFixedBridgingAngle,0
;   fixedBridgingAngle,0
;   applyBridgingToPerimeters,0
;   filamentDiameters,1.75|1.75|1.75|1.75|1.75|1.75
;   filamentPricesPerKg,30|46|46|46|46|46
;   filamentDensities,1.25|1.25|1.25|1.25|1.25|1.25
;   useMinPrintHeight,0
;   minPrintHeight,0
;   useMaxPrintHeight,0
;   maxPrintHeight,50
;   useDiaphragm,0
;   diaphragmLayerInterval,20
;   robustSlicing,1
;   mergeAllIntoSolid,0
;   onlyRetractWhenCrossingOutline,1
;   retractBetweenLayers,1
;   useRetractionMinTravel,0
;   retractionMinTravel,3
;   retractWhileWiping,1
;   onlyWipeOutlines,1
;   avoidCrossingOutline,0
;   maxMovementDetourFactor,3
;   toolChangeRetractionDistance,12
;   toolChangeExtraRestartDistance,-0.5
;   toolChangeRetractionSpeed,600
;   externalThinWallType,1
;   internalThinWallType,1
;   thinWallAllowedOverlapPercentage,10
;   singleExtrusionMinLength,1
;   singleExtrusionMinPrintingWidthPercentage,50
;   singleExtrusionMaxPrintingWidthPercentage,200
;   singleExtrusionEndpointExtension,0.2
;   horizontalSizeCompensation,0
G90
M82
M106 S0
M140 S10
;
; -]H.P.B[- MarshMalloW  
; $VER: StartScript 1.03 (18.12.2022) MarshMalloW
;
; Begin Startcode
;
M117 *Preheat*	; Preheat
;extruder0_temperature
M104 S185
M109 S185
;M109 R185 
;
M117 *Auto-leveling*     	; Auto-leveling
M107                   	; Turn layer fan off
G21                    	; Set to metric [change to G20 if you want Imperial]
G90                    	; Force coordinates to be absolute relative to the origin
G28                    	; Home X/Y/Z axis
G29                    	; Auto-leveling (BL-Touch)
;
M117 *Start Clean*     	; Indicate nozzle clean in progress on LCD
G92 E0                 	; Set Extruder to 0 
G1 X0 Y0 F2000         	; Move X and Y to 0 with speed 2000 (mm/min)
G1 Z0.1 F1000          	; Move Z to   0.1 with speed 1000 (mm/min)
G1 X8.0 F2000          	; Move X to   8.0 with speed 2000 (mm/min)
G1 Y60.0 E4.0 F1000.0  	; Move Y to  60 and Extruder with 4.0 with speed 1000 (mm/min)
G1 Y100.0 E8.5 F1000.0 	; Move Y to 100 and Extruder with 8.5 with speed 1000 (mm/min)
G92 E0                 	; Set extruder to 0
G1 X16.0 F3000         	; Move X to 16.0 with speed 3000 (mm/min)
G1 Y60.0 F3000         	; Move Y to 60.0 with speed 3000 (mm/min)
M117 *End Clean*       	; Indicate nozzle clean in progress on LCD
G1 Z5 F3000            	; Move Z to  5.0 with speed 3000 (mm/min)
G1 X20.0 F3000         	; Move X to 20.0 with speed 3000 (mm/min)
G1 Y20.0 F3000         	; Move Y to 20.0 with speed 3000 (mm/min)
; 
M117 *Printing...*     	; Start printing msg on LCD
;
; End Startcode
;
; Begin printing with sliced GCode after here
;
; process PLA B 02
; layer 1, Z = 0.144
T0
G92 E0.0000
G1 E-4.0000 F3000
; feature skirt
; tool H0.144 W0.350
G1 Z0.300 F1002
G1 X129.741 Y143.748 F6000
G1 Z0.144 F1002
G1 E0.0000 F3000
G92 E0.0000
G1 X130.051 Y143.502 E0.0079 F1050
G1 X131.239 Y142.755 E0.0358
G1 X131.596 Y142.583 E0.0437
G1 X132.921 Y142.119 E0.0717
G1 X133.307 Y142.031 E0.0795
G1 X134.604 Y141.885 E0.1055
G1 X134.801 Y141.874 E0.1094
G1 X165.199 Y141.874 E0.7145
G1 X165.396 Y141.885 E0.7185
G1 X166.693 Y142.031 E0.7445
G1 X167.079 Y142.119 E0.7523
G1 X168.404 Y142.583 E0.7803
G1 X168.761 Y142.755 E0.7882
G1 X169.949 Y143.502 E0.8161
G1 X170.259 Y143.748 E0.8240
G1 X171.251 Y144.741 E0.8519
G1 X171.498 Y145.051 E0.8598
G1 X172.245 Y146.239 E0.8878
G1 X172.417 Y146.596 E0.8956
G1 X172.881 Y147.921 E0.9236
G1 X172.969 Y148.307 E0.9315
G1 X173.124 Y149.686 E0.9591
G1 X173.127 Y150.049 E0.9663
G1 X172.978 Y151.645 E0.9982
G1 X172.886 Y152.063 E1.0068
G1 X172.417 Y153.404 E1.0350
G1 X172.245 Y153.761 E1.0429
G1 X171.498 Y154.949 E1.0709
G1 X171.251 Y155.259 E1.0787
G1 X170.259 Y156.252 E1.1067
G1 X169.949 Y156.498 E1.1146
G1 X168.761 Y157.245 E1.1425
G1 X168.404 Y157.417 E1.1504
G1 X167.079 Y157.881 E1.1783
G1 X166.693 Y157.969 E1.1862
G1 X165.396 Y158.115 E1.2122
G1 X165.199 Y158.126 E1.2161
G1 X134.801 Y158.126 E1.8212
G1 X134.604 Y158.115 E1.8252
G1 X133.307 Y157.969 E1.8511
G1 X132.921 Y157.881 E1.8590
G1 X131.596 Y157.417 E1.8870
G1 X131.239 Y157.245 E1.8948
G1 X130.051 Y156.498 E1.9228
G1 X129.741 Y156.252 E1.9307
G1 X128.748 Y155.259 E1.9586
G1 X128.502 Y154.949 E1.9665
G1 X127.755 Y153.761 E1.9944
G1 X127.583 Y153.404 E2.0023
G1 X127.114 Y152.063 E2.0306
G1 X127.022 Y151.645 E2.0391
G1 X126.873 Y150.049 E2.0710
G1 X126.876 Y149.686 E2.0783
G1 X127.031 Y148.307 E2.1059
G1 X127.119 Y147.921 E2.1138
G1 X127.583 Y146.596 E2.1417
G1 X127.755 Y146.239 E2.1496
G1 X128.502 Y145.051 E2.1775
G1 X128.748 Y144.741 E2.1854
G1 X129.741 Y143.748 E2.2134
G92 E0.0000
G1 E-4.0000 F3000
G1 Z0.444 F1002
G1 X129.975 Y144.010 F6000
G1 Z0.144 F1002
G1 E0.0000 F3000
G92 E0.0000
G1 X130.254 Y143.788 E0.0071 F1050
G1 X131.409 Y143.062 E0.0343
G1 X131.730 Y142.907 E0.0414
G1 X133.018 Y142.456 E0.0685
G1 X133.366 Y142.377 E0.0756
G1 X134.633 Y142.234 E0.1010
G1 X134.811 Y142.224 E0.1046
G1 X165.189 Y142.224 E0.7093
G1 X165.367 Y142.234 E0.7128
G1 X166.634 Y142.377 E0.7382
G1 X166.982 Y142.456 E0.7453
G1 X168.270 Y142.907 E0.7725
G1 X168.591 Y143.062 E0.7796
G1 X169.746 Y143.788 E0.8067
G1 X170.025 Y144.010 E0.8138
G1 X170.990 Y144.975 E0.8410
G1 X171.212 Y145.254 E0.8481
G1 X171.938 Y146.409 E0.8752
G1 X172.093 Y146.730 E0.8823
G1 X172.544 Y148.018 E0.9095
G1 X172.623 Y148.366 E0.9166
G1 X172.774 Y149.707 E0.9435
G1 X172.777 Y150.034 E0.9500
G1 X172.631 Y151.591 E0.9811
G1 X172.549 Y151.968 E0.9888
G1 X172.093 Y153.270 E1.0162
G1 X171.938 Y153.591 E1.0233
G1 X171.212 Y154.746 E1.0505
G1 X170.990 Y155.025 E1.0576
G1 X170.025 Y155.990 E1.0848
G1 X169.746 Y156.212 E1.0919
G1 X168.591 Y156.938 E1.1190
G1 X168.270 Y157.093 E1.1261
G1 X166.982 Y157.544 E1.1533
G1 X166.634 Y157.623 E1.1604
G1 X165.367 Y157.766 E1.1858
G1 X165.189 Y157.776 E1.1893
G1 X134.811 Y157.776 E1.7940
G1 X134.633 Y157.766 E1.7976
G1 X133.366 Y157.623 E1.8230
G1 X133.018 Y157.544 E1.8301
G1 X131.730 Y157.093 E1.8572
G1 X131.409 Y156.938 E1.8643
G1 X130.254 Y156.212 E1.8915
G1 X129.975 Y155.990 E1.8986
G1 X129.010 Y155.025 E1.9257
G1 X128.788 Y154.746 E1.9328
G1 X128.062 Y153.591 E1.9600
G1 X127.907 Y153.270 E1.9671
G1 X127.451 Y151.968 E1.9946
G1 X127.369 Y151.591 E2.0022
G1 X127.223 Y150.034 E2.0334
G1 X127.226 Y149.707 E2.0399
G1 X127.377 Y148.366 E2.0668
G1 X127.456 Y148.018 E2.0738
G1 X127.907 Y146.730 E2.1010
G1 X128.062 Y146.409 E2.1081
G1 X128.788 Y145.254 E2.1353
G1 X129.010 Y144.975 E2.1424
G1 X129.975 Y144.010 E2.1695
G92 E0.0000
G1 E-4.0000 F3000
; feature inner perimeter
G1 Z0.444 F1002
G1 X133.015 Y147.536 F6000
G1 Z0.144 F1002
G1 E0.0000 F3000
G92 E0.0000
G1 X133.588 Y147.176 E0.0135 F788
G1 X134.227 Y146.952 E0.0270
G1 X134.969 Y146.868 E0.0418
G1 X165.031 Y146.868 E0.6402
G1 X165.773 Y146.952 E0.6551
G1 X166.412 Y147.176 E0.6686
G1 X166.985 Y147.536 E0.6821
G1 X167.464 Y148.015 E0.6955
G1 X167.824 Y148.588 E0.7090
G1 X168.048 Y149.227 E0.7225
G1 X168.132 Y149.969 E0.7374
G1 X168.132 Y150.031 E0.7386
G1 X168.048 Y150.773 E0.7535
G1 X167.824 Y151.412 E0.7669
G1 X167.464 Y151.985 E0.7804
G1 X166.985 Y152.464 E0.7939
G1 X166.412 Y152.824 E0.8074
G1 X165.773 Y153.048 E0.8208
G1 X165.031 Y153.132 E0.8357
G1 X134.969 Y153.132 E1.4341
G1 X134.227 Y153.048 E1.4490
G1 X133.588 Y152.824 E1.4625
G1 X133.015 Y152.464 E1.4759
G1 X132.536 Y151.985 E1.4894
G1 X132.176 Y151.412 E1.5029
G1 X131.952 Y150.773 E1.5164
G1 X131.868 Y150.031 E1.5312
G1 X131.868 Y149.969 E1.5325
G1 X131.952 Y149.227 E1.5473
G1 X132.176 Y148.588 E1.5608
G1 X132.536 Y148.015 E1.5743
G1 X132.873 Y147.677 E1.5838
G1 X133.015 Y147.536 F788
G1 X132.795 Y147.260 F6000
G92 E0.0000
G1 X133.435 Y146.858 E0.0150 F788
G1 X134.149 Y146.609 E0.0301
G1 X134.949 Y146.518 E0.0461
G1 X165.051 Y146.518 E0.6453
G1 X165.851 Y146.609 E0.6614
G1 X166.565 Y146.858 E0.6764
G1 X167.205 Y147.260 E0.6915
G1 X167.740 Y147.795 E0.7065
G1 X168.142 Y148.435 E0.7216
G1 X168.391 Y149.149 E0.7366
G1 X168.482 Y149.949 E0.7527
G1 X168.482 Y150.051 E0.7547
G1 X168.391 Y150.851 E0.7707
G1 X168.142 Y151.565 E0.7858
G1 X167.740 Y152.205 E0.8008
G1 X167.205 Y152.740 E0.8159
G1 X166.565 Y153.142 E0.8309
G1 X165.851 Y153.391 E0.8460
G1 X165.051 Y153.482 E0.8620
G1 X134.949 Y153.482 E1.4612
G1 X134.149 Y153.391 E1.4772
G1 X133.435 Y153.142 E1.4923
G1 X132.795 Y152.740 E1.5073
G1 X132.260 Y152.205 E1.5224
G1 X131.858 Y151.565 E1.5374
G1 X131.609 Y150.851 E1.5525
G1 X131.518 Y150.051 E1.5685
G1 X131.518 Y149.949 E1.5705
G1 X131.609 Y149.149 E1.5866
G1 X131.858 Y148.435 E1.6016
G1 X132.260 Y147.795 E1.6167
G1 X132.654 Y147.402 E1.6277
G1 X132.795 Y147.260 F788
G1 X132.575 Y146.985 F6000
G92 E0.0000
G1 X133.282 Y146.541 E0.0166 F788
G1 X134.070 Y146.265 E0.0332
G1 X134.929 Y146.168 E0.0504
G1 X165.071 Y146.168 E0.6504
G1 X165.930 Y146.265 E0.6677
G1 X166.718 Y146.541 E0.6843
G1 X167.425 Y146.985 E0.7009
G1 X168.015 Y147.575 E0.7175
G1 X168.459 Y148.282 E0.7341
G1 X168.735 Y149.070 E0.7507
G1 X168.832 Y149.929 E0.7680
G1 X168.832 Y150.071 E0.7708
G1 X168.735 Y150.930 E0.7880
G1 X168.459 Y151.718 E0.8046
