; G-Code generated by Simplify3D(R) Version 4.1.2
;
;
;
;
; Dec 13, 2022 at 5:17:21 PM
; Settings Summary
;   processName,PLA A15
;   applyToModels,Christmas_Tree_Out_2
;   profileName,PLA_A15_04_10_205_Vase Tevo Tornado
;   profileVersion,2022-11-25 01:03:47
;   baseProfile,Creality CR-10(2)
;   printMaterial,PLA
;   printQuality,High
;   printExtruders,
;   extruderName,Primary Extruder
;   extruderToolheadNumber,0
;   extruderDiameter,0.4
;   extruderAutoWidth,0
;   extruderWidth,0.35
;   extrusionMultiplier,0.95
;   extruderUseRetract,1
;   extruderRetractionDistance,4
;   extruderExtraRestartDistance,0
;   extruderRetractionZLift,0.3
;   extruderRetractionSpeed,3000
;   extruderUseCoasting,1
;   extruderCoastingDistance,0.2
;   extruderUseWipe,0
;   extruderWipeDistance,5
;   primaryExtruder,0
;   layerHeight,0.12
;   topSolidLayers,6
;   bottomSolidLayers,5
;   perimeterOutlines,1
;   printPerimetersInsideOut,1
;   startPointOption,2
;   startPointOriginX,0
;   startPointOriginY,300
;   sequentialIslands,0
;   spiralVaseMode,1
;   firstLayerHeightPercentage,120
;   firstLayerWidthPercentage,100
;   firstLayerUnderspeed,0.25
;   useRaft,0
;   raftExtruder,0
;   raftTopLayers,3
;   raftBaseLayers,2
;   raftOffset,3
;   raftSeparationDistance,0.14
;   raftTopInfill,100
;   aboveRaftSpeedMultiplier,0.3
;   useSkirt,1
;   skirtExtruder,0
;   skirtLayers,2
;   skirtOutlines,2
;   skirtOffset,3
;   usePrimePillar,0
;   primePillarExtruder,999
;   primePillarWidth,12
;   primePillarLocation,7
;   primePillarSpeedMultiplier,1
;   useOozeShield,0
;   oozeShieldExtruder,999
;   oozeShieldOffset,2
;   oozeShieldOutlines,1
;   oozeShieldSidewallShape,1
;   oozeShieldSidewallAngle,30
;   oozeShieldSpeedMultiplier,1
;   infillExtruder,0
;   internalInfillPattern,Full Honeycomb
;   externalInfillPattern,Rectilinear
;   infillPercentage,0
;   outlineOverlapPercentage,15
;   infillExtrusionWidthPercentage,100
;   minInfillLength,5
;   infillLayerInterval,1
;   internalInfillAngles,0,120,-120
;   overlapInternalInfillAngles,0
;   externalInfillAngles,45,-45
;   generateSupport,0
;   supportExtruder,0
;   supportInfillPercentage,40
;   supportExtraInflation,0
;   supportBaseLayers,0
;   denseSupportExtruder,0
;   denseSupportLayers,0
;   denseSupportInfillPercentage,70
;   supportLayerInterval,1
;   supportHorizontalPartOffset,0.4
;   supportUpperSeparationLayers,1
;   supportLowerSeparationLayers,1
;   supportType,0
;   supportGridSpacing,4.5
;   maxOverhangAngle,45
;   supportAngles,0
;   temperatureName,Primary Extruder,Heated Bed
;   temperatureNumber,0,0
;   temperatureSetpointCount,2,2
;   temperatureSetpointLayers,1,2,1,2
;   temperatureSetpointTemperatures,210,205,55,50
;   temperatureStabilizeAtStartup,1,1
;   temperatureHeatedBed,0,1
;   fanLayers,1,2
;   fanSpeeds,0,100
;   blipFanToFullPower,0
;   adjustSpeedForCooling,1
;   minSpeedLayerTime,15
;   minCoolingSpeedSlowdown,20
;   increaseFanForCooling,1
;   minFanLayerTime,25
;   maxCoolingFanSpeed,100
;   increaseFanForBridging,1
;   bridgingFanSpeed,100
;   use5D,1
;   relativeEdistances,0
;   allowEaxisZeroing,1
;   independentExtruderAxes,0
;   includeM10123,0
;   stickySupport,1
;   applyToolheadOffsets,0
;   gcodeXoffset,0
;   gcodeYoffset,0
;   gcodeZoffset,0
;   overrideMachineDefinition,1
;   machineTypeOverride,0
;   strokeXoverride,300
;   strokeYoverride,300
;   strokeZoverride,400
;   originOffsetXoverride,0
;   originOffsetYoverride,0
;   originOffsetZoverride,0
;   homeXdirOverride,-1
;   homeYdirOverride,-1
;   homeZdirOverride,-1
;   flipXoverride,1
;   flipYoverride,-1
;   flipZoverride,1
;   toolheadOffsets,0,0|0,0|0,0|0,0|0,0|0,0
;   overrideFirmwareConfiguration,1
;   firmwareTypeOverride,RepRap (Marlin/Repetier/Sprinter)
;   GPXconfigOverride,r2
;   baudRateOverride,250000
;   overridePrinterModels,1
;   printerModelsOverride
;   startingGcode,;,; -]H.P.B[- MarshMalloW  ,; $VER: StartScript 1.02 (26.12.2019) MarshMalloW,;,; Begin Startcode,;,M117 *Preheat*     	; Preheat,;extruder0_temperature,M104 S[extruder0_temperature]  ,M109 S[extruder0_temperature] ,M109 R[extruder0_temperature] ,;,M117 *Auto-leveling*     	; Auto-leveling,M107                   	; Turn layer fan off,G21                    	; Set to metric [change to G20 if you want Imperial],G90                    	; Force coordinates to be absolute relative to the origin,G28                    	; Home X/Y/Z axis,G29                    	; Auto-leveling (BL-Touch),;,M117 *Start Clean*     	; Indicate nozzle clean in progress on LCD,G92 E0                 	; Set Extruder to 0 ,G1 X0 Y0 F2000         	; Move X and Y to 0 with speed 2000 (mm/min),G1 Z0.1 F1000          	; Move Z to   0.1 with speed 1000 (mm/min),G1 X8.0 F2000          	; Move X to   8.0 with speed 2000 (mm/min),G1 Y60.0 E4.0 F1000.0  	; Move Y to  60 and Extruder with 4.0 with speed 1000 (mm/min),G1 Y100.0 E8.5 F1000.0 	; Move Y to 100 and Extruder with 8.5 with speed 1000 (mm/min),G92 E0                 	; Set extruder to 0,G1 X16.0 F3000         	; Move X to 16.0 with speed 3000 (mm/min),G1 Y60.0 F3000         	; Move Y to 60.0 with speed 3000 (mm/min),M117 *End Clean*       	; Indicate nozzle clean in progress on LCD,G1 Z5 F3000            	; Move Z to  5.0 with speed 3000 (mm/min),G1 X20.0 F3000         	; Move X to 20.0 with speed 3000 (mm/min),G1 Y20.0 F3000         	; Move Y to 20.0 with speed 3000 (mm/min),; ,M117 *Printing...*     	; Start printing msg on LCD,;,; End Startcode,;,; Begin printing with sliced GCode after here,;
;   layerChangeGcode,
;   retractionGcode,
;   toolChangeGcode,
;   endingGcode,;,; init 181010,;,;M107 			; Fan off,;G1 E-1 F300 			; Retract the filament a bit before lifting the nozzle,;M104 S0 			; Turn off extruder,;M140 S0 			; Turn off bed,;G91			; Relative positioning,;G28 X0 Y0 			; Move X/Y to min endstops so the head is out of teh way,;M84 			; Disable motors,;G90 			; Absolute positioning,;M117 Print ready...,,;,; // From Cura 181010,; // End_gcode,G92 E0			; Zero the extruded length,;G1 E-30 F300		; Retract E -30,M106 S0			; Turn off cooling fan,M104 S0			; Turn off temperature,M140 S0		     	; Turn off bed,G91			; Relative positioning,G1 E-1 F300			; Retract the filament a bit before lifting the nozzle to release some of the pressure,G1 Z+20 E-5 X-20 Y-20 F7200	; Move Z up a bit and retract filament even more,G1 X0 Y150 F10000		; Move right min,M107			; Turn off layer fan,M84			; Disable motors,G90			; Absolute positioning,M117 *The-End* 		; End msg,;,
;   exportFileFormat,gcode
;   celebration,0
;   celebrationSong,Star Wars
;   postProcessing,D:\S3D_Thumbs\S3D_Thumbs.exe f="[output_filepath]" x=600 y=110 w=953 lw=400 lh=300 sw=32 sh=32 d=Y
;   defaultSpeed,3000
;   outlineUnderspeed,0.5
;   solidInfillUnderspeed,0.8
;   supportUnderspeed,0.8
;   rapidXYspeed,6000
;   rapidZspeed,1002
;   minBridgingArea,50
;   bridgingExtraInflation,0.2
;   bridgingExtrusionMultiplier,1
;   bridgingSpeedMultiplier,0.8
;   useFixedBridgingAngle,0
;   fixedBridgingAngle,0
;   applyBridgingToPerimeters,0
;   filamentDiameters,1.75|1.75|1.75|1.75|1.75|1.75
;   filamentPricesPerKg,30|46|46|46|46|46
;   filamentDensities,1.25|1.25|1.25|1.25|1.25|1.25
;   useMinPrintHeight,0
;   minPrintHeight,0
;   useMaxPrintHeight,0
;   maxPrintHeight,7
;   useDiaphragm,0
;   diaphragmLayerInterval,20
;   robustSlicing,1
;   mergeAllIntoSolid,0
;   onlyRetractWhenCrossingOutline,1
;   retractBetweenLayers,1
;   useRetractionMinTravel,0
;   retractionMinTravel,3
;   retractWhileWiping,1
;   onlyWipeOutlines,1
;   avoidCrossingOutline,0
;   maxMovementDetourFactor,3
;   toolChangeRetractionDistance,12
;   toolChangeExtraRestartDistance,-0.5
;   toolChangeRetractionSpeed,600
;   externalThinWallType,1
;   internalThinWallType,1
;   thinWallAllowedOverlapPercentage,10
;   singleExtrusionMinLength,1
;   singleExtrusionMinPrintingWidthPercentage,50
;   singleExtrusionMaxPrintingWidthPercentage,200
;   singleExtrusionEndpointExtension,0.2
;   horizontalSizeCompensation,0
G90
M82
M106 S0
M140 S55
M190 S55
;
; -]H.P.B[- MarshMalloW  
; $VER: StartScript 1.02 (26.12.2019) MarshMalloW
;
; Begin Startcode
;
M117 *Preheat*     	; Preheat
;extruder0_temperature
M104 S210  
M109 S210 
M109 R210 
;
M117 *Auto-leveling*     	; Auto-leveling
M107                   	; Turn layer fan off
G21                    	; Set to metric [change to G20 if you want Imperial]
G90                    	; Force coordinates to be absolute relative to the origin
G28                    	; Home X/Y/Z axis
G29                    	; Auto-leveling (BL-Touch)
;
M117 *Start Clean*     	; Indicate nozzle clean in progress on LCD
G92 E0                 	; Set Extruder to 0 
G1 X0 Y0 F2000         	; Move X and Y to 0 with speed 2000 (mm/min)
G1 Z0.1 F1000          	; Move Z to   0.1 with speed 1000 (mm/min)
G1 X8.0 F2000          	; Move X to   8.0 with speed 2000 (mm/min)
G1 Y60.0 E4.0 F1000.0  	; Move Y to  60 and Extruder with 4.0 with speed 1000 (mm/min)
G1 Y100.0 E8.5 F1000.0 	; Move Y to 100 and Extruder with 8.5 with speed 1000 (mm/min)
G92 E0                 	; Set extruder to 0
G1 X16.0 F3000         	; Move X to 16.0 with speed 3000 (mm/min)
G1 Y60.0 F3000         	; Move Y to 60.0 with speed 3000 (mm/min)
M117 *End Clean*       	; Indicate nozzle clean in progress on LCD
G1 Z5 F3000            	; Move Z to  5.0 with speed 3000 (mm/min)
G1 X20.0 F3000         	; Move X to 20.0 with speed 3000 (mm/min)
G1 Y20.0 F3000         	; Move Y to 20.0 with speed 3000 (mm/min)
; 
M117 *Printing...*     	; Start printing msg on LCD
;
; End Startcode
;
; Begin printing with sliced GCode after here
;
; process PLA A15
; layer 1, Z = 0.144
T0
G92 E0.0000
G1 E-4.0000 F3000
; feature skirt
; tool H0.144 W0.350
G1 Z0.300 F1002
G1 X116.167 Y128.622 F6000
G1 Z0.144 F1002
G1 E0.0000 F3000
G92 E0.0000
G1 X126.557 Y126.557 E0.2109 F750
G1 X128.622 Y116.167 E0.4217
G1 X131.389 Y114.570 E0.4853
G1 X141.419 Y117.976 E0.6962
G1 X148.403 Y110.011 E0.9070
G1 X151.597 Y110.011 E0.9706
G1 X158.581 Y117.976 E1.1815
G1 X168.611 Y114.570 E1.3924
G1 X171.378 Y116.167 E1.4560
G1 X173.443 Y126.557 E1.6668
G1 X183.833 Y128.622 E1.8777
G1 X185.430 Y131.389 E1.9413
G1 X182.024 Y141.419 E2.1521
G1 X189.989 Y148.403 E2.3630
G1 X189.989 Y151.597 E2.4266
G1 X182.024 Y158.581 E2.6375
G1 X185.430 Y168.611 E2.8483
G1 X183.833 Y171.378 E2.9119
G1 X173.443 Y173.443 E3.1228
G1 X171.378 Y183.833 E3.3336
G1 X168.611 Y185.430 E3.3972
G1 X158.581 Y182.024 E3.6081
G1 X151.597 Y189.989 E3.8189
G1 X148.403 Y189.989 E3.8825
G1 X141.419 Y182.024 E4.0934
G1 X131.389 Y185.430 E4.3043
G1 X128.622 Y183.833 E4.3679
G1 X126.557 Y173.443 E4.5787
G1 X116.167 Y171.378 E4.7896
G1 X114.570 Y168.611 E4.8532
G1 X117.976 Y158.581 E5.0640
G1 X110.011 Y151.597 E5.2749
G1 X110.011 Y148.403 E5.3385
G1 X117.976 Y141.419 E5.5494
G1 X114.570 Y131.389 E5.7602
G1 X116.167 Y128.622 E5.8238
G92 E0.0000
G1 E-4.0000 F3000
G1 Z0.444 F1002
G1 X116.391 Y128.935 F6000
G1 Z0.144 F1002
G1 E0.0000 F3000
G92 E0.0000
G1 X126.854 Y126.854 E0.2124 F750
G1 X128.935 Y116.391 E0.4247
G1 X131.427 Y114.952 E0.4820
G1 X141.528 Y118.383 E0.6944
G1 X148.561 Y110.361 E0.9067
G1 X151.439 Y110.361 E0.9640
G1 X158.472 Y118.383 E1.1764
G1 X168.573 Y114.952 E1.3887
G1 X171.065 Y116.391 E1.4460
G1 X173.146 Y126.854 E1.6584
G1 X183.609 Y128.935 E1.8707
G1 X185.048 Y131.427 E1.9280
G1 X181.617 Y141.528 E2.1404
G1 X189.639 Y148.561 E2.3527
G1 X189.639 Y151.439 E2.4100
G1 X181.617 Y158.472 E2.6224
G1 X185.048 Y168.573 E2.8347
G1 X183.609 Y171.065 E2.8920
G1 X173.146 Y173.146 E3.1044
G1 X171.065 Y183.609 E3.3167
G1 X168.573 Y185.048 E3.3740
G1 X158.472 Y181.617 E3.5864
G1 X151.439 Y189.639 E3.7987
G1 X148.561 Y189.639 E3.8560
G1 X141.528 Y181.617 E4.0684
G1 X131.427 Y185.048 E4.2807
G1 X128.935 Y183.609 E4.3380
G1 X126.854 Y173.146 E4.5504
G1 X116.391 Y171.065 E4.7627
G1 X114.952 Y168.573 E4.8200
G1 X118.383 Y158.472 E5.0324
G1 X110.361 Y151.439 E5.2447
G1 X110.361 Y148.561 E5.3020
G1 X118.383 Y141.528 E5.5144
G1 X114.952 Y131.427 E5.7267
G1 X116.391 Y128.935 E5.7840
G92 E0.0000
G1 E-4.0000 F3000
; feature outer perimeter
G1 Z0.444 F1002
G1 X118.651 Y131.901 F6000
G1 Z0.144 F1002
G1 E0.0000 F3000
G92 E0.0000
G1 X129.517 Y129.741 E0.2205 F375
G1 X129.555 Y129.555 E0.2243
G1 X129.741 Y129.517 E0.2281
G1 X131.901 Y118.651 E0.4486
G1 X142.391 Y122.213 E0.6691
G1 X142.516 Y122.071 E0.6729
G1 X142.696 Y122.132 E0.6767
G1 X150.000 Y113.802 E0.8972
G1 X157.304 Y122.132 E1.1178
G1 X157.484 Y122.071 E1.1215
G1 X157.609 Y122.213 E1.1253
G1 X168.099 Y118.651 E1.3458
G1 X170.259 Y129.517 E1.5664
G1 X170.445 Y129.555 E1.5701
G1 X170.483 Y129.741 E1.5739
G1 X181.349 Y131.901 E1.7945
G1 X177.787 Y142.391 E2.0150
G1 X177.929 Y142.516 E2.0188
G1 X177.868 Y142.696 E2.0225
G1 X186.198 Y150.000 E2.2431
G1 X177.868 Y157.304 E2.4636
G1 X177.929 Y157.484 E2.4674
G1 X177.787 Y157.609 E2.4712
G1 X181.349 Y168.099 E2.6917
G1 X170.483 Y170.259 E2.9122
G1 X170.445 Y170.445 E2.9160
G1 X170.259 Y170.483 E2.9198
G1 X168.099 Y181.349 E3.1403
G1 X157.609 Y177.787 E3.3608
G1 X157.484 Y177.929 E3.3646
G1 X157.304 Y177.868 E3.3684
G1 X150.000 Y186.198 E3.5889
G1 X142.696 Y177.868 E3.8094
G1 X142.516 Y177.929 E3.8132
G1 X142.391 Y177.787 E3.8170
G1 X131.901 Y181.349 E4.0375
G1 X129.741 Y170.483 E4.2581
G1 X129.555 Y170.445 E4.2618
G1 X129.517 Y170.259 E4.2656
G1 X118.651 Y168.099 E4.4861
G1 X122.213 Y157.609 E4.7067
G1 X122.071 Y157.484 E4.7104
G1 X122.132 Y157.304 E4.7142
G1 X113.802 Y150.000 E4.9348
G1 X122.132 Y142.696 E5.1553
G1 X122.071 Y142.516 E5.1591
G1 X122.213 Y142.391 E5.1628
G1 X118.716 Y132.090 E5.3794
G1 X118.651 Y131.901 F375
G92 E0.0000
G1 E-4.0000 F3000
; feature solid layer
G1 Z0.444 F1002
G1 X115.137 Y150.775 F6000
G1 Z0.144 F1002
G1 E0.0000 F3000
G92 E0.0000
G1 X114.311 Y149.949 E0.0233 F600
G1 X114.575 Y149.718 E0.0302
G1 X119.154 Y154.298 E0.1592
G1 X122.477 Y157.211 E0.2471
G1 X122.416 Y157.391 E0.2509
G1 X122.559 Y157.517 E0.2547
G1 X122.512 Y157.655 E0.2576
G1 X142.345 Y177.488 E0.8159
G1 X142.483 Y177.441 E0.8188
G1 X142.609 Y177.584 E0.8226
G1 X142.789 Y177.523 E0.8264
G1 X145.702 Y180.846 E0.9144
G1 X150.282 Y185.425 E1.0433
G1 X150.513 Y185.162 E1.0503
G1 X114.838 Y149.487 E2.0546
G1 X115.102 Y149.255 E2.0616
G1 X150.745 Y184.898 E3.0650
G1 X150.976 Y184.634 E3.0719
G1 X115.366 Y149.024 E4.0744
G1 X115.630 Y148.793 E4.0814
G1 X151.207 Y184.370 E5.0830
G1 X151.438 Y184.107 E5.0900
G1 X115.893 Y148.562 E6.0906
G1 X116.157 Y148.330 E6.0976
G1 X151.670 Y183.843 E7.0973
G1 X151.901 Y183.579 E7.1043
G1 X116.421 Y148.099 E8.1031
G1 X116.685 Y147.868 E8.1101
G1 X152.132 Y183.315 E9.1080
G1 X152.363 Y183.052 E9.1150
G1 X116.948 Y147.637 E10.1120
G1 X117.212 Y147.405 E10.1190
G1 X152.595 Y182.788 E11.1150
G1 X152.826 Y182.524 E11.1220
G1 X117.476 Y147.174 E12.1172
G1 X117.739 Y146.943 E12.1242
G1 X153.057 Y182.261 E13.1184
G1 X153.288 Y181.997 E13.1254
G1 X118.003 Y146.712 E14.1187
G1 X118.267 Y146.481 E14.1257
G1 X153.519 Y181.733 E15.1181
G1 X153.751 Y181.469 E15.1251
G1 X118.531 Y146.249 E16.1166
G1 X118.794 Y146.018 E16.1236
G1 X153.982 Y181.206 E17.1142
G1 X154.213 Y180.942 E17.1211
G1 X119.058 Y145.787 E18.1108
G1 X119.322 Y145.556 E18.1178
G1 X154.444 Y180.678 E19.1066
G1 X154.676 Y180.414 E19.1135
G1 X119.586 Y145.324 E20.1014
G1 X119.849 Y145.093 E20.1084
G1 X154.907 Y180.151 E21.0953
G1 X155.138 Y179.887 E21.1023
G1 X120.113 Y144.862 E22.0883
G1 X120.377 Y144.631 E22.0953
G1 X155.369 Y179.623 E23.0804
G1 X155.601 Y179.359 E23.0873
G1 X120.641 Y144.399 E24.0715
G1 X120.904 Y144.168 E24.0785
G1 X155.832 Y179.096 E25.0618
G1 X156.063 Y178.832 E25.0688
G1 X121.168 Y143.937 E26.0511
G1 X121.432 Y143.706 E26.0581
G1 X156.294 Y178.568 E27.0395
G1 X156.526 Y178.304 E27.0465
G1 X121.696 Y143.474 E28.0270
G1 X121.959 Y143.243 E28.0340
G1 X156.757 Y178.041 E29.0136
G1 X156.988 Y177.777 E29.0206
G1 X122.223 Y143.012 E29.9993
G1 X122.477 Y142.789 E30.0060
G1 X122.467 Y142.761 E30.0066
G1 X157.239 Y177.533 E30.9855
G1 X157.391 Y177.584 E30.9887
