; G-Code generated by Simplify3D(R) Version 4.1.2
;
;
;
;
; Dec 13, 2022 at 12:48:37 PM
; Settings Summary
;   processName,PLA A15
;   applyToModels,Christmas_Tree_Out_2
;   profileName,PLA_A15_04_10_205_Vase Tevo Tornado
;   profileVersion,2022-11-25 01:03:47
;   baseProfile,Creality CR-10(2)
;   printMaterial,PLA
;   printQuality,High
;   printExtruders,
;   extruderName,Primary Extruder
;   extruderToolheadNumber,0
;   extruderDiameter,0.4
;   extruderAutoWidth,0
;   extruderWidth,0.35
;   extrusionMultiplier,0.95
;   extruderUseRetract,1
;   extruderRetractionDistance,4
;   extruderExtraRestartDistance,0
;   extruderRetractionZLift,0.3
;   extruderRetractionSpeed,3000
;   extruderUseCoasting,1
;   extruderCoastingDistance,0.2
;   extruderUseWipe,0
;   extruderWipeDistance,5
;   primaryExtruder,0
;   layerHeight,0.12
;   topSolidLayers,6
;   bottomSolidLayers,5
;   perimeterOutlines,1
;   printPerimetersInsideOut,1
;   startPointOption,2
;   startPointOriginX,0
;   startPointOriginY,300
;   sequentialIslands,0
;   spiralVaseMode,1
;   firstLayerHeightPercentage,120
;   firstLayerWidthPercentage,100
;   firstLayerUnderspeed,0.25
;   useRaft,0
;   raftExtruder,0
;   raftTopLayers,3
;   raftBaseLayers,2
;   raftOffset,3
;   raftSeparationDistance,0.14
;   raftTopInfill,100
;   aboveRaftSpeedMultiplier,0.3
;   useSkirt,1
;   skirtExtruder,0
;   skirtLayers,2
;   skirtOutlines,2
;   skirtOffset,3
;   usePrimePillar,0
;   primePillarExtruder,999
;   primePillarWidth,12
;   primePillarLocation,7
;   primePillarSpeedMultiplier,1
;   useOozeShield,0
;   oozeShieldExtruder,999
;   oozeShieldOffset,2
;   oozeShieldOutlines,1
;   oozeShieldSidewallShape,1
;   oozeShieldSidewallAngle,30
;   oozeShieldSpeedMultiplier,1
;   infillExtruder,0
;   internalInfillPattern,Full Honeycomb
;   externalInfillPattern,Rectilinear
;   infillPercentage,0
;   outlineOverlapPercentage,15
;   infillExtrusionWidthPercentage,100
;   minInfillLength,5
;   infillLayerInterval,1
;   internalInfillAngles,0,120,-120
;   overlapInternalInfillAngles,0
;   externalInfillAngles,45,-45
;   generateSupport,0
;   supportExtruder,0
;   supportInfillPercentage,40
;   supportExtraInflation,0
;   supportBaseLayers,0
;   denseSupportExtruder,0
;   denseSupportLayers,0
;   denseSupportInfillPercentage,70
;   supportLayerInterval,1
;   supportHorizontalPartOffset,0.4
;   supportUpperSeparationLayers,1
;   supportLowerSeparationLayers,1
;   supportType,0
;   supportGridSpacing,4.5
;   maxOverhangAngle,45
;   supportAngles,0
;   temperatureName,Primary Extruder,Heated Bed
;   temperatureNumber,0,0
;   temperatureSetpointCount,2,2
;   temperatureSetpointLayers,1,2,1,2
;   temperatureSetpointTemperatures,210,205,55,50
;   temperatureStabilizeAtStartup,1,1
;   temperatureHeatedBed,0,1
;   fanLayers,1,2
;   fanSpeeds,0,100
;   blipFanToFullPower,0
;   adjustSpeedForCooling,1
;   minSpeedLayerTime,15
;   minCoolingSpeedSlowdown,20
;   increaseFanForCooling,1
;   minFanLayerTime,25
;   maxCoolingFanSpeed,100
;   increaseFanForBridging,1
;   bridgingFanSpeed,100
;   use5D,1
;   relativeEdistances,0
;   allowEaxisZeroing,1
;   independentExtruderAxes,0
;   includeM10123,0
;   stickySupport,1
;   applyToolheadOffsets,0
;   gcodeXoffset,0
;   gcodeYoffset,0
;   gcodeZoffset,0
;   overrideMachineDefinition,1
;   machineTypeOverride,0
;   strokeXoverride,300
;   strokeYoverride,300
;   strokeZoverride,400
;   originOffsetXoverride,0
;   originOffsetYoverride,0
;   originOffsetZoverride,0
;   homeXdirOverride,-1
;   homeYdirOverride,-1
;   homeZdirOverride,-1
;   flipXoverride,1
;   flipYoverride,-1
;   flipZoverride,1
;   toolheadOffsets,0,0|0,0|0,0|0,0|0,0|0,0
;   overrideFirmwareConfiguration,1
;   firmwareTypeOverride,RepRap (Marlin/Repetier/Sprinter)
;   GPXconfigOverride,r2
;   baudRateOverride,250000
;   overridePrinterModels,1
;   printerModelsOverride
;   startingGcode,;,; -]H.P.B[- MarshMalloW  ,; $VER: StartScript 1.02 (26.12.2019) MarshMalloW,;,; Begin Startcode,;,M117 *Preheat*     	; Preheat,;extruder0_temperature,M104 S[extruder0_temperature]  ,M109 S[extruder0_temperature] ,M109 R[extruder0_temperature] ,;,M117 *Auto-leveling*     	; Auto-leveling,M107                   	; Turn layer fan off,G21                    	; Set to metric [change to G20 if you want Imperial],G90                    	; Force coordinates to be absolute relative to the origin,G28                    	; Home X/Y/Z axis,G29                    	; Auto-leveling (BL-Touch),;,M117 *Start Clean*     	; Indicate nozzle clean in progress on LCD,G92 E0                 	; Set Extruder to 0 ,G1 X0 Y0 F2000         	; Move X and Y to 0 with speed 2000 (mm/min),G1 Z0.1 F1000          	; Move Z to   0.1 with speed 1000 (mm/min),G1 X8.0 F2000          	; Move X to   8.0 with speed 2000 (mm/min),G1 Y60.0 E4.0 F1000.0  	; Move Y to  60 and Extruder with 4.0 with speed 1000 (mm/min),G1 Y100.0 E8.5 F1000.0 	; Move Y to 100 and Extruder with 8.5 with speed 1000 (mm/min),G92 E0                 	; Set extruder to 0,G1 X16.0 F3000         	; Move X to 16.0 with speed 3000 (mm/min),G1 Y60.0 F3000         	; Move Y to 60.0 with speed 3000 (mm/min),M117 *End Clean*       	; Indicate nozzle clean in progress on LCD,G1 Z5 F3000            	; Move Z to  5.0 with speed 3000 (mm/min),G1 X20.0 F3000         	; Move X to 20.0 with speed 3000 (mm/min),G1 Y20.0 F3000         	; Move Y to 20.0 with speed 3000 (mm/min),; ,M117 *Printing...*     	; Start printing msg on LCD,;,; End Startcode,;,; Begin printing with sliced GCode after here,;
;   layerChangeGcode,
;   retractionGcode,
;   toolChangeGcode,
;   endingGcode,;,; init 181010,;,;M107 			; Fan off,;G1 E-1 F300 			; Retract the filament a bit before lifting the nozzle,;M104 S0 			; Turn off extruder,;M140 S0 			; Turn off bed,;G91			; Relative positioning,;G28 X0 Y0 			; Move X/Y to min endstops so the head is out of teh way,;M84 			; Disable motors,;G90 			; Absolute positioning,;M117 Print ready...,,;,; // From Cura 181010,; // End_gcode,G92 E0			; Zero the extruded length,;G1 E-30 F300		; Retract E -30,M106 S0			; Turn off cooling fan,M104 S0			; Turn off temperature,M140 S0		     	; Turn off bed,G91			; Relative positioning,G1 E-1 F300			; Retract the filament a bit before lifting the nozzle to release some of the pressure,G1 Z+20 E-5 X-20 Y-20 F7200	; Move Z up a bit and retract filament even more,G1 X0 Y150 F10000		; Move right min,M107			; Turn off layer fan,M84			; Disable motors,G90			; Absolute positioning,M117 *The-End* 		; End msg,;,
;   exportFileFormat,gcode
;   celebration,0
;   celebrationSong,Star Wars
;   postProcessing,D:\S3D_Thumbs\S3D_Thumbs.exe f="[output_filepath]" x=600 y=110 w=953 lw=400 lh=300 sw=32 sh=32 d=Y
;   defaultSpeed,3000
;   outlineUnderspeed,0.5
;   solidInfillUnderspeed,0.8
;   supportUnderspeed,0.8
;   rapidXYspeed,6000
;   rapidZspeed,1002
;   minBridgingArea,50
;   bridgingExtraInflation,0.2
;   bridgingExtrusionMultiplier,1
;   bridgingSpeedMultiplier,0.8
;   useFixedBridgingAngle,0
;   fixedBridgingAngle,0
;   applyBridgingToPerimeters,0
;   filamentDiameters,1.75|1.75|1.75|1.75|1.75|1.75
;   filamentPricesPerKg,30|46|46|46|46|46
;   filamentDensities,1.25|1.25|1.25|1.25|1.25|1.25
;   useMinPrintHeight,0
;   minPrintHeight,0
;   useMaxPrintHeight,0
;   maxPrintHeight,7
;   useDiaphragm,0
;   diaphragmLayerInterval,20
;   robustSlicing,1
;   mergeAllIntoSolid,0
;   onlyRetractWhenCrossingOutline,1
;   retractBetweenLayers,1
;   useRetractionMinTravel,0
;   retractionMinTravel,3
;   retractWhileWiping,1
;   onlyWipeOutlines,1
;   avoidCrossingOutline,0
;   maxMovementDetourFactor,3
;   toolChangeRetractionDistance,12
;   toolChangeExtraRestartDistance,-0.5
;   toolChangeRetractionSpeed,600
;   externalThinWallType,1
;   internalThinWallType,1
;   thinWallAllowedOverlapPercentage,10
;   singleExtrusionMinLength,1
;   singleExtrusionMinPrintingWidthPercentage,50
;   singleExtrusionMaxPrintingWidthPercentage,200
;   singleExtrusionEndpointExtension,0.2
;   horizontalSizeCompensation,0
G90
M82
M106 S0
M140 S55
M190 S55
;
; -]H.P.B[- MarshMalloW  
; $VER: StartScript 1.02 (26.12.2019) MarshMalloW
;
; Begin Startcode
;
M117 *Preheat*     	; Preheat
;extruder0_temperature
M104 S210  
M109 S210 
M109 R210 
;
M117 *Auto-leveling*     	; Auto-leveling
M107                   	; Turn layer fan off
G21                    	; Set to metric [change to G20 if you want Imperial]
G90                    	; Force coordinates to be absolute relative to the origin
G28                    	; Home X/Y/Z axis
G29                    	; Auto-leveling (BL-Touch)
;
M117 *Start Clean*     	; Indicate nozzle clean in progress on LCD
G92 E0                 	; Set Extruder to 0 
G1 X0 Y0 F2000         	; Move X and Y to 0 with speed 2000 (mm/min)
G1 Z0.1 F1000          	; Move Z to   0.1 with speed 1000 (mm/min)
G1 X8.0 F2000          	; Move X to   8.0 with speed 2000 (mm/min)
G1 Y60.0 E4.0 F1000.0  	; Move Y to  60 and Extruder with 4.0 with speed 1000 (mm/min)
G1 Y100.0 E8.5 F1000.0 	; Move Y to 100 and Extruder with 8.5 with speed 1000 (mm/min)
G92 E0                 	; Set extruder to 0
G1 X16.0 F3000         	; Move X to 16.0 with speed 3000 (mm/min)
G1 Y60.0 F3000         	; Move Y to 60.0 with speed 3000 (mm/min)
M117 *End Clean*       	; Indicate nozzle clean in progress on LCD
G1 Z5 F3000            	; Move Z to  5.0 with speed 3000 (mm/min)
G1 X20.0 F3000         	; Move X to 20.0 with speed 3000 (mm/min)
G1 Y20.0 F3000         	; Move Y to 20.0 with speed 3000 (mm/min)
; 
M117 *Printing...*     	; Start printing msg on LCD
;
; End Startcode
;
; Begin printing with sliced GCode after here
;
; process PLA A15
; layer 1, Z = 0.144
T0
G92 E0.0000
G1 E-4.0000 F3000
; feature skirt
; tool H0.144 W0.350
G1 Z0.300 F1002
G1 X119.960 Y130.813 F6000
G1 Z0.144 F1002
G1 E0.0000 F3000
G92 E0.0000
G1 X129.011 Y129.011 E0.1837 F750
G1 X130.813 Y119.960 E0.3674
G1 X133.578 Y118.363 E0.4310
G1 X142.317 Y121.328 E0.6147
G1 X148.403 Y114.391 E0.7984
G1 X151.597 Y114.391 E0.8619
G1 X157.683 Y121.328 E1.0457
G1 X166.422 Y118.363 E1.2294
G1 X169.187 Y119.960 E1.2929
G1 X170.989 Y129.011 E1.4766
G1 X180.040 Y130.813 E1.6603
G1 X181.637 Y133.578 E1.7239
G1 X178.672 Y142.317 E1.9076
G1 X185.609 Y148.403 E2.0913
G1 X185.609 Y151.597 E2.1549
G1 X178.672 Y157.683 E2.3386
G1 X181.637 Y166.422 E2.5223
G1 X180.040 Y169.187 E2.5859
G1 X170.989 Y170.989 E2.7696
G1 X169.187 Y180.040 E2.9533
G1 X166.422 Y181.637 E3.0168
G1 X157.683 Y178.672 E3.2005
G1 X151.597 Y185.609 E3.3842
G1 X148.403 Y185.609 E3.4478
G1 X142.317 Y178.672 E3.6315
G1 X133.578 Y181.637 E3.8152
G1 X130.813 Y180.040 E3.8788
G1 X129.011 Y170.989 E4.0625
G1 X119.960 Y169.187 E4.2462
G1 X118.363 Y166.422 E4.3098
G1 X121.328 Y157.683 E4.4935
G1 X114.391 Y151.597 E4.6772
G1 X114.391 Y148.403 E4.7407
G1 X121.328 Y142.317 E4.9244
G1 X118.363 Y133.578 E5.1081
G1 X119.960 Y130.813 E5.1717
G92 E0.0000
G1 E-4.0000 F3000
G1 Z0.444 F1002
G1 X120.184 Y131.125 F6000
G1 Z0.144 F1002
G1 E0.0000 F3000
G92 E0.0000
G1 X129.308 Y129.308 E0.1852 F750
G1 X131.125 Y120.184 E0.3704
G1 X133.616 Y118.746 E0.4277
G1 X142.426 Y121.735 E0.6129
G1 X148.562 Y114.741 E0.7981
G1 X151.438 Y114.741 E0.8553
G1 X157.574 Y121.735 E1.0405
G1 X166.384 Y118.746 E1.2257
G1 X168.875 Y120.184 E1.2830
G1 X170.692 Y129.308 E1.4682
G1 X179.816 Y131.125 E1.6534
G1 X181.254 Y133.616 E1.7106
G1 X178.265 Y142.426 E1.8958
G1 X185.259 Y148.562 E2.0810
G1 X185.259 Y151.438 E2.1383
G1 X178.265 Y157.574 E2.3235
G1 X181.254 Y166.384 E2.5087
G1 X179.816 Y168.875 E2.5659
G1 X170.692 Y170.692 E2.7511
G1 X168.875 Y179.816 E2.9363
G1 X166.384 Y181.254 E2.9936
G1 X157.574 Y178.265 E3.1788
G1 X151.438 Y185.259 E3.3640
G1 X148.562 Y185.259 E3.4213
G1 X142.426 Y178.265 E3.6065
G1 X133.616 Y181.254 E3.7917
G1 X131.125 Y179.816 E3.8489
G1 X129.308 Y170.692 E4.0341
G1 X120.184 Y168.875 E4.2193
G1 X118.746 Y166.384 E4.2766
G1 X121.735 Y157.574 E4.4618
G1 X114.741 Y151.438 E4.6470
G1 X114.741 Y148.562 E4.7042
G1 X121.735 Y142.426 E4.8894
G1 X118.746 Y133.616 E5.0746
G1 X120.184 Y131.125 E5.1319
G92 E0.0000
G1 E-4.0000 F3000
; feature outer perimeter
G1 Z0.444 F1002
G1 X122.444 Y134.091 F6000
G1 Z0.144 F1002
G1 E0.0000 F3000
G92 E0.0000
G1 X131.985 Y132.191 E0.1936 F375
G1 X132.019 Y132.019 E0.1971
G1 X132.191 Y131.985 E0.2006
G1 X134.091 Y122.444 E0.3943
G1 X143.302 Y125.569 E0.5879
G1 X143.419 Y125.438 E0.5914
G1 X143.585 Y125.494 E0.5949
G1 X150.000 Y118.181 E0.7885
G1 X156.415 Y125.494 E0.9822
G1 X156.581 Y125.438 E0.9857
G1 X156.698 Y125.569 E0.9892
G1 X165.909 Y122.444 E1.1828
G1 X167.809 Y131.985 E1.3764
G1 X167.981 Y132.019 E1.3799
G1 X168.015 Y132.191 E1.3834
G1 X177.556 Y134.091 E1.5771
G1 X174.431 Y143.302 E1.7707
G1 X174.562 Y143.419 E1.7742
G1 X174.506 Y143.585 E1.7777
G1 X181.819 Y150.000 E1.9713
G1 X174.506 Y156.415 E2.1650
G1 X174.562 Y156.581 E2.1685
G1 X174.431 Y156.698 E2.1720
G1 X177.556 Y165.909 E2.3656
G1 X168.015 Y167.809 E2.5592
G1 X167.981 Y167.981 E2.5627
G1 X167.809 Y168.015 E2.5662
G1 X165.909 Y177.556 E2.7599
G1 X156.698 Y174.431 E2.9535
G1 X156.581 Y174.562 E2.9570
G1 X156.415 Y174.506 E2.9605
G1 X150.000 Y181.819 E3.1541
G1 X143.585 Y174.506 E3.3478
G1 X143.419 Y174.562 E3.3513
G1 X143.302 Y174.431 E3.3548
G1 X134.091 Y177.556 E3.5484
G1 X132.191 Y168.015 E3.7421
G1 X132.019 Y167.981 E3.7455
G1 X131.985 Y167.809 E3.7490
G1 X122.444 Y165.909 E3.9427
G1 X125.569 Y156.698 E4.1363
G1 X125.438 Y156.581 E4.1398
G1 X125.494 Y156.415 E4.1433
G1 X118.181 Y150.000 E4.3369
G1 X125.494 Y143.585 E4.5306
G1 X125.438 Y143.419 E4.5341
G1 X125.569 Y143.302 E4.5376
G1 X122.508 Y134.280 E4.7272
G1 X122.444 Y134.091 F375
G92 E0.0000
G1 E-4.0000 F3000
; feature solid layer
G1 Z0.444 F1002
G1 X118.730 Y149.914 F6000
G1 Z0.144 F1002
G1 E0.0000 F3000
G92 E0.0000
G1 X120.134 Y151.317 E0.0395 F600
G1 X124.166 Y154.855 E0.1463
G1 X118.994 Y149.683 E0.2919
G1 X119.258 Y149.451 E0.2989
G1 X150.549 Y180.742 E1.1798
G1 X150.780 Y180.479 E1.1868
G1 X119.522 Y149.220 E2.0667
G1 X119.785 Y148.989 E2.0737
G1 X151.011 Y180.215 E2.9528
G1 X151.243 Y179.951 E2.9598
G1 X120.049 Y148.757 E3.8379
G1 X120.313 Y148.526 E3.8449
G1 X151.474 Y179.687 E4.7221
G1 X151.705 Y179.424 E4.7291
G1 X120.576 Y148.295 E5.6055
G1 X120.840 Y148.063 E5.6124
G1 X151.937 Y179.160 E6.4879
G1 X152.168 Y178.896 E6.4948
G1 X121.104 Y147.832 E7.3694
G1 X121.367 Y147.601 E7.3763
G1 X152.399 Y178.633 E8.2499
G1 X152.630 Y178.369 E8.2569
G1 X121.631 Y147.370 E9.1296
G1 X121.895 Y147.138 E9.1366
G1 X152.862 Y178.105 E10.0084
G1 X153.093 Y177.842 E10.0154
G1 X122.158 Y146.907 E10.8862
G1 X122.422 Y146.676 E10.8932
G1 X153.324 Y177.578 E11.7632
G1 X153.556 Y177.314 E11.7701
G1 X122.686 Y146.444 E12.6392
G1 X122.949 Y146.213 E12.6462
G1 X153.787 Y177.051 E13.5143
G1 X154.018 Y176.787 E13.5213
G1 X123.213 Y145.982 E14.3885
G1 X123.477 Y145.750 E14.3955
G1 X154.250 Y176.523 E15.2618
G1 X154.481 Y176.260 E15.2688
G1 X123.740 Y145.519 E16.1342
G1 X124.004 Y145.288 E16.1412
G1 X154.712 Y175.996 E17.0057
G1 X154.944 Y175.732 E17.0126
G1 X124.268 Y145.056 E17.8762
G1 X124.531 Y144.825 E17.8832
G1 X155.175 Y175.469 E18.7459
G1 X155.406 Y175.205 E18.7528
G1 X124.795 Y144.594 E19.6146
G1 X125.059 Y144.363 E19.6216
G1 X155.637 Y174.941 E20.4824
G1 X155.869 Y174.678 E20.4894
G1 X125.322 Y144.131 E21.3494
G1 X125.586 Y143.900 E21.3563
G1 X156.100 Y174.414 E22.2154
G1 X156.322 Y174.161 E22.2221
G1 X156.352 Y174.171 E22.2227
G1 X125.829 Y143.648 E23.0820
G1 X125.783 Y143.511 E23.0848
G1 X125.915 Y143.395 E23.0883
G1 X125.835 Y143.159 E23.0933
G1 X156.841 Y174.165 E23.9662
G1 X157.590 Y174.419 E23.9819
G1 X125.581 Y142.410 E24.8830
G1 X125.327 Y141.661 E24.8988
G1 X158.339 Y174.673 E25.8281
G1 X159.088 Y174.928 E25.8439
G1 X125.072 Y140.912 E26.8015
G1 X124.818 Y140.163 E26.8172
G1 X159.837 Y175.182 E27.8031
G1 X160.587 Y175.436 E27.8188
G1 X124.564 Y139.413 E28.8329
G1 X124.310 Y138.664 E28.8487
G1 X161.336 Y175.690 E29.8910
G1 X162.085 Y175.944 E29.9067
G1 X124.056 Y137.915 E30.9773
G1 X123.802 Y137.166 E30.9931
