; G-Code generated by Simplify3D(R) Version 4.1.2
; Nov 27, 2019 at 8:46:04 PM
; Settings Summary
;   processName,Process1
;   applyToModels,nacelle_AR_feux_sur_Mat_SNCB_HO
;   profileName,A01-04-15 Tevo Tornado (experimental) (modified)
;   profileVersion,2019-11-27 20:24:12
;   baseProfile,Creality CR-10(2)
;   printMaterial,PLA
;   printQuality,Medium
;   printExtruders,
;   extruderName,Primary Extruder
;   extruderToolheadNumber,0
;   extruderDiameter,0.4
;   extruderAutoWidth,0
;   extruderWidth,0.35
;   extrusionMultiplier,0.95
;   extruderUseRetract,1
;   extruderRetractionDistance,3.5
;   extruderExtraRestartDistance,0
;   extruderRetractionZLift,0.3
;   extruderRetractionSpeed,3000
;   extruderUseCoasting,0
;   extruderCoastingDistance,0.2
;   extruderUseWipe,0
;   extruderWipeDistance,4
;   primaryExtruder,0
;   layerHeight,0.15
;   topSolidLayers,4
;   bottomSolidLayers,3
;   perimeterOutlines,3
;   printPerimetersInsideOut,0
;   startPointOption,3
;   startPointOriginX,0
;   startPointOriginY,300
;   sequentialIslands,0
;   spiralVaseMode,0
;   firstLayerHeightPercentage,120
;   firstLayerWidthPercentage,100
;   firstLayerUnderspeed,0.5
;   useRaft,0
;   raftExtruder,0
;   raftTopLayers,3
;   raftBaseLayers,2
;   raftOffset,3
;   raftSeparationDistance,0.14
;   raftTopInfill,100
;   aboveRaftSpeedMultiplier,0.3
;   useSkirt,1
;   skirtExtruder,0
;   skirtLayers,1
;   skirtOutlines,3
;   skirtOffset,2
;   usePrimePillar,0
;   primePillarExtruder,999
;   primePillarWidth,12
;   primePillarLocation,7
;   primePillarSpeedMultiplier,1
;   useOozeShield,0
;   oozeShieldExtruder,999
;   oozeShieldOffset,2
;   oozeShieldOutlines,1
;   oozeShieldSidewallShape,1
;   oozeShieldSidewallAngle,30
;   oozeShieldSpeedMultiplier,1
;   infillExtruder,0
;   internalInfillPattern,Grid
;   externalInfillPattern,Concentric
;   infillPercentage,15
;   outlineOverlapPercentage,15
;   infillExtrusionWidthPercentage,100
;   minInfillLength,5
;   infillLayerInterval,1
;   internalInfillAngles,45,-45
;   overlapInternalInfillAngles,1
;   externalInfillAngles,45,-45
;   generateSupport,1
;   supportExtruder,0
;   supportInfillPercentage,30
;   supportExtraInflation,0
;   supportBaseLayers,0
;   denseSupportExtruder,0
;   denseSupportLayers,0
;   denseSupportInfillPercentage,70
;   supportLayerInterval,1
;   supportHorizontalPartOffset,0.4
;   supportUpperSeparationLayers,1
;   supportLowerSeparationLayers,1
;   supportType,1
;   supportGridSpacing,4.5
;   maxOverhangAngle,45
;   supportAngles,0
;   temperatureName,Primary Extruder,Heated Bed
;   temperatureNumber,0,0
;   temperatureSetpointCount,2,1
;   temperatureSetpointLayers,1,2,1
;   temperatureSetpointTemperatures,215,210,55
;   temperatureStabilizeAtStartup,1,1
;   temperatureHeatedBed,0,1
;   fanLayers,1,2
;   fanSpeeds,0,100
;   blipFanToFullPower,0
;   adjustSpeedForCooling,1
;   minSpeedLayerTime,15
;   minCoolingSpeedSlowdown,50
;   increaseFanForCooling,1
;   minFanLayerTime,25
;   maxCoolingFanSpeed,100
;   increaseFanForBridging,1
;   bridgingFanSpeed,100
;   use5D,1
;   relativeEdistances,0
;   allowEaxisZeroing,1
;   independentExtruderAxes,0
;   includeM10123,0
;   stickySupport,1
;   applyToolheadOffsets,0
;   gcodeXoffset,0
;   gcodeYoffset,0
;   gcodeZoffset,0
;   overrideMachineDefinition,1
;   machineTypeOverride,0
;   strokeXoverride,300
;   strokeYoverride,300
;   strokeZoverride,400
;   originOffsetXoverride,0
;   originOffsetYoverride,0
;   originOffsetZoverride,0
;   homeXdirOverride,-1
;   homeYdirOverride,-1
;   homeZdirOverride,-1
;   flipXoverride,1
;   flipYoverride,-1
;   flipZoverride,1
;   toolheadOffsets,0,0|0,0|0,0|0,0|0,0|0,0
;   overrideFirmwareConfiguration,1
;   firmwareTypeOverride,RepRap (Marlin/Repetier/Sprinter)
;   GPXconfigOverride,r2
;   baudRateOverride,250000
;   overridePrinterModels,1
;   printerModelsOverride
;   startingGcode,;,; -]H.P.B[- MarshMalloW  ,; $VER: StartScript 1.01 (13.11.2019) MarshMalloW,;,; Begin Startcode,;,M117 *Start Clean*     	; Indicate nozzle clean in progress on LCD,;,;extruder0_temperature,M104 S[extruder0_temperature]  ,M109 S[extruder0_temperature] ,M109 R[extruder0_temperature] ,;,M107                   	; Turn layer fan off,G21                    	; Set to metric [change to G20 if you want Imperial],G90                    	; Force coordinates to be absolute relative to the origin,G28                    	; Home X/Y/Z axis,G29                    	; Auto-leveling (BL-Touch),;,G92 E0                 	; Set Extruder to 0 ,G1 X0 Y0 F2000         	; Move X and Y to 0 with speed 2000 (mm/min),G1 Z0.1 F1000          	; Move Z to   0.1 with speed 1000 (mm/min),G1 X8.0 F2000          	; Move X to   8.0 with speed 2000 (mm/min),G1 Y60.0 E4.0 F1000.0  	; Move Y to  60 and Extruder with 4.0 with speed 1000 (mm/min),G1 Y100.0 E8.5 F1000.0 	; Move Y to 100 and Extruder with 8.5 with speed 1000 (mm/min),G92 E0                 	; Set extruder to 0,G1 X16.0 F3000         	; Move X to 16.0 with speed 3000 (mm/min),G1 Y60.0 F3000         	; Move Y to 60.0 with speed 3000 (mm/min),M117 *End Clean*       	; Indicate nozzle clean in progress on LCD,G1 Z5 F3000            	; Move Z to  5.0 with speed 3000 (mm/min),G1 X20.0 F3000         	; Move X to 20.0 with speed 3000 (mm/min),; ,M117 *Printing...*     	; Start printing msg on LCD,;,; End Startcode,;,; Begin printing with sliced GCode after here,;
;   layerChangeGcode,
;   retractionGcode,
;   toolChangeGcode,
;   endingGcode,;,; init 181010,;,;M107 			; Fan off,;G1 E-1 F300 			; Retract the filament a bit before lifting the nozzle,;M104 S0 			; Turn off extruder,;M140 S0 			; Turn off bed,;G91			; Relative positioning,;G28 X0 Y0 			; Move X/Y to min endstops so the head is out of teh way,;M84 			; Disable motors,;G90 			; Absolute positioning,;M117 Print ready...,,;,; // From Cura 181010,; // End_gcode,G92 E0			; Zero the extruded length,;G1 E-30 F300		; Retract E -30,M106 S0			; Turn off cooling fan,M104 S0			; Turn off temperature,M140 S0		     	; Turn off bed,G91			; Relative positioning,G1 E-1 F300			; Retract the filament a bit before lifting the nozzle to release some of the pressure,G1 Z+20 E-5 X-20 Y-20 F7200	; Move Z up a bit and retract filament even more,G1 X0 Y150 F10000		; Move right min,M107			; Turn off layer fan,M84			; Disable motors,G90			; Absolute positioning,M117 *The-End* 		; End msg,;,
;   exportFileFormat,gcode
;   celebration,0
;   celebrationSong,Star Wars
;   postProcessing,
;   defaultSpeed,1800
;   outlineUnderspeed,0.5
;   solidInfillUnderspeed,0.8
;   supportUnderspeed,0.8
;   rapidXYspeed,6000
;   rapidZspeed,1002
;   minBridgingArea,5
;   bridgingExtraInflation,0.2
;   bridgingExtrusionMultiplier,1
;   bridgingSpeedMultiplier,0.6
;   useFixedBridgingAngle,0
;   fixedBridgingAngle,0
;   applyBridgingToPerimeters,0
;   filamentDiameters,1.75|1.75|1.75|1.75|1.75|1.75
;   filamentPricesPerKg,30|46|46|46|46|46
;   filamentDensities,1.25|1.25|1.25|1.25|1.25|1.25
;   useMinPrintHeight,0
;   minPrintHeight,0
;   useMaxPrintHeight,0
;   maxPrintHeight,9
;   useDiaphragm,0
;   diaphragmLayerInterval,20
;   robustSlicing,1
;   mergeAllIntoSolid,0
;   onlyRetractWhenCrossingOutline,1
;   retractBetweenLayers,1
;   useRetractionMinTravel,0
;   retractionMinTravel,3
;   retractWhileWiping,0
;   onlyWipeOutlines,1
;   avoidCrossingOutline,0
;   maxMovementDetourFactor,3
;   toolChangeRetractionDistance,12
;   toolChangeExtraRestartDistance,-0.5
;   toolChangeRetractionSpeed,600
;   externalThinWallType,1
;   internalThinWallType,1
;   thinWallAllowedOverlapPercentage,15
;   singleExtrusionMinLength,1
;   singleExtrusionMinPrintingWidthPercentage,50
;   singleExtrusionMaxPrintingWidthPercentage,200
;   singleExtrusionEndpointExtension,0.2
;   horizontalSizeCompensation,0
G90
M82
M106 S97
M140 S55
M190 S55
;
; -]H.P.B[- MarshMalloW  
; $VER: StartScript 1.01 (13.11.2019) MarshMalloW
;
; Begin Startcode
;
M117 *Start Clean*     	; Indicate nozzle clean in progress on LCD
;
;extruder0_temperature
M104 S215  
M109 S215 
M109 R215 
;
M107                   	; Turn layer fan off
G21                    	; Set to metric [change to G20 if you want Imperial]
G90                    	; Force coordinates to be absolute relative to the origin
G28                    	; Home X/Y/Z axis
G29                    	; Auto-leveling (BL-Touch)
;
G92 E0                 	; Set Extruder to 0 
G1 X0 Y0 F2000         	; Move X and Y to 0 with speed 2000 (mm/min)
G1 Z0.1 F1000          	; Move Z to   0.1 with speed 1000 (mm/min)
G1 X8.0 F2000          	; Move X to   8.0 with speed 2000 (mm/min)
G1 Y60.0 E4.0 F1000.0  	; Move Y to  60 and Extruder with 4.0 with speed 1000 (mm/min)
G1 Y100.0 E8.5 F1000.0 	; Move Y to 100 and Extruder with 8.5 with speed 1000 (mm/min)
G92 E0                 	; Set extruder to 0
G1 X16.0 F3000         	; Move X to 16.0 with speed 3000 (mm/min)
G1 Y60.0 F3000         	; Move Y to 60.0 with speed 3000 (mm/min)
M117 *End Clean*       	; Indicate nozzle clean in progress on LCD
G1 Z5 F3000            	; Move Z to  5.0 with speed 3000 (mm/min)
G1 X20.0 F3000         	; Move X to 20.0 with speed 3000 (mm/min)
; 
M117 *Printing...*     	; Start printing msg on LCD
;
; End Startcode
;
; Begin printing with sliced GCode after here
;
; process Process1
; layer 1, Z = 0.180
T0
G92 E0.0000
G1 E-3.5000 F3000
; feature skirt
; tool H0.180 W0.350
G1 Z0.300 F1002
G1 X147.125 Y155.943 F6000
G1 Z0.180 F1002
G1 E0.0000 F3000
G92 E0.0000
G1 X147.125 Y144.057 E0.2958 F900
G1 X148.809 Y142.373 E0.3550
G1 X162.387 Y142.373 E0.6929
G1 X162.758 Y142.421 E0.7022
G1 X163.440 Y142.603 E0.7197
G1 X164.114 Y142.998 E0.7392
G1 X164.678 Y143.579 E0.7593
G1 X165.003 Y144.098 E0.7746
G1 X165.241 Y144.759 E0.7921
G1 X165.327 Y145.250 E0.8045
G1 X165.327 Y154.750 E1.0408
G1 X165.241 Y155.241 E1.0533
G1 X165.003 Y155.902 E1.0707
G1 X164.678 Y156.422 E1.0860
G1 X164.114 Y157.002 E1.1061
G1 X163.440 Y157.397 E1.1256
G1 X162.758 Y157.579 E1.1431
G1 X162.387 Y157.627 E1.1524
G1 X148.809 Y157.627 E1.4903
G1 X147.125 Y155.943 E1.5495
G92 E0.0000
G1 E-3.5000 F3000
G1 Z0.480 F1002
G1 X147.475 Y155.798 F6000
G1 Z0.180 F1002
G1 E0.0000 F3000
G92 E0.0000
G1 X147.475 Y144.202 E0.2885 F900
G1 X148.954 Y142.723 E0.3406
G1 X162.364 Y142.723 E0.6743
G1 X162.690 Y142.765 E0.6825
G1 X163.304 Y142.929 E0.6983
G1 X163.896 Y143.276 E0.7153
G1 X164.401 Y143.796 E0.7334
G1 X164.686 Y144.252 E0.7467
G1 X164.902 Y144.849 E0.7625
G1 X164.977 Y145.281 E0.7735
G1 X164.977 Y154.719 E1.0083
G1 X164.902 Y155.151 E1.0192
G1 X164.686 Y155.748 E1.0350
G1 X164.401 Y156.204 E1.0484
G1 X163.896 Y156.724 E1.0664
G1 X163.304 Y157.071 E1.0835
G1 X162.690 Y157.234 E1.0993
G1 X162.364 Y157.277 E1.1075
G1 X148.954 Y157.277 E1.4412
G1 X147.475 Y155.798 E1.4932
G92 E0.0000
G1 E-3.5000 F3000
G1 Z0.480 F1002
G1 X147.825 Y155.653 F6000
G1 Z0.180 F1002
G1 E0.0000 F3000
G92 E0.0000
G1 X147.825 Y144.347 E0.2813 F900
G1 X149.099 Y143.073 E0.3262
G1 X162.342 Y143.073 E0.6557
G1 X162.622 Y143.110 E0.6627
G1 X163.168 Y143.255 E0.6768
G1 X163.678 Y143.554 E0.6915
G1 X164.124 Y144.013 E0.7074
G1 X164.369 Y144.406 E0.7189
G1 X164.562 Y144.939 E0.7330
G1 X164.627 Y145.311 E0.7424
G1 X164.627 Y154.689 E0.9758
G1 X164.562 Y155.061 E0.9852
G1 X164.369 Y155.594 E0.9993
G1 X164.124 Y155.987 E1.0108
G1 X163.678 Y156.446 E1.0267
G1 X163.168 Y156.745 E1.0414
G1 X162.622 Y156.890 E1.0555
G1 X162.342 Y156.927 E1.0626
G1 X149.099 Y156.927 E1.3921
G1 X147.825 Y155.653 E1.4369
G92 E0.0000
G1 E-3.5000 F3000
; feature outer perimeter
G1 Z0.480 F1002
G1 X150.175 Y154.577 F6000
G1 Z0.180 F1002
G1 E0.0000 F3000
G92 E0.0000
G1 X150.175 Y145.423 E0.2278 F450
G1 X162.277 Y145.423 E0.5289
G1 X162.277 Y154.577 E0.7567
G1 X150.175 Y154.577 E1.0578
G1 X150.825 Y154.275 F6000
G92 E0.0000
G1 X156.175 Y154.275 E0.1331 F450
G1 X156.175 Y145.725 E0.3459
G1 X150.825 Y145.725 E0.4790
G1 X150.825 Y154.275 E0.6917
G1 X156.625 Y154.275 F6000
G92 E0.0000
G1 X161.975 Y154.275 E0.1331 F450
G1 X161.975 Y145.725 E0.3459
G1 X156.625 Y145.725 E0.4790
G1 X156.625 Y154.275 E0.6917
; feature internal single extrusion
; tool H0.180 W0.175
G1 X156.400 Y154.532 F6000
G92 E0.0000
G1 X156.400 Y145.468 E0.1128 F450
; tool H0.180 W0.300
G1 X150.500 Y145.607 F6000
G92 E0.0000
G1 X150.500 Y154.393 E0.1874 F450
G92 E0.0000
G1 E-3.5000 F3000
; layer 2, Z = 0.330
M106 S255
M104 S210 T0
; feature outer perimeter
; tool H0.150 W0.350
G1 Z0.480 F1002
G1 X150.175 Y154.695 F6000
G1 Z0.330 F1002
G1 E0.0000 F3000
G92 E0.0000
G1 X150.175 Y145.305 E0.1947 F597
G1 X162.184 Y145.305 E0.4437
G1 X162.266 Y145.320 E0.4455
G1 X162.323 Y145.350 E0.4468
G1 X162.365 Y145.400 E0.4482
G1 X162.396 Y145.513 E0.4506
G1 X162.396 Y154.487 E0.6367
G1 X162.365 Y154.600 E0.6391
G1 X162.323 Y154.650 E0.6405
G1 X162.266 Y154.680 E0.6418
G1 X162.184 Y154.695 E0.6435
G1 X150.175 Y154.695 E0.8925
G1 X150.825 Y154.275 F6000
G92 E0.0000
G1 X156.175 Y154.275 E0.1109 F597
G1 X156.175 Y145.725 E0.2882
G1 X150.825 Y145.725 E0.3992
G1 X150.825 Y154.275 E0.5765
G1 X156.625 Y154.275 F6000
G92 E0.0000
G1 X161.975 Y154.275 E0.1109 F597
G1 X161.975 Y145.725 E0.2882
G1 X156.625 Y145.725 E0.3992
G1 X156.625 Y154.275 E0.5765
; feature internal single extrusion
; tool H0.150 W0.175
G1 X156.400 Y154.580 F6000
G92 E0.0000
G1 X156.400 Y145.420 E0.0950 F597
; tool H0.150 W0.300
G1 X150.500 Y145.488 F6000
G92 E0.0000
G1 X150.500 Y154.512 E0.1604 F597
; tool H0.150 W0.175
G1 X150.430 Y154.474 F6000
G92 E0.0000
G1 X150.700 Y154.485 E0.0028 F597
G1 X156.294 Y154.485 E0.0608
G1 X156.364 Y154.484 E0.0615
G1 X156.434 Y154.483 E0.0623
G1 X156.504 Y154.485 E0.0630
G1 X162.098 Y154.485 E0.1210
G1 X162.165 Y154.484 E0.1217
G1 X162.185 Y154.458 E0.1220
G1 X162.186 Y154.393 E0.1227
G1 X162.186 Y145.607 E0.2138
G1 X162.185 Y145.542 E0.2145
G1 X162.165 Y145.516 E0.2148
G1 X162.098 Y145.515 E0.2155
G1 X156.504 Y145.515 E0.2735
G1 X156.434 Y145.517 E0.2742
G1 X156.364 Y145.516 E0.2749
G1 X156.294 Y145.515 E0.2757
G1 X150.700 Y145.515 E0.3337
G1 X150.430 Y145.526 E0.3365
G92 E0.0000
G1 E-3.5000 F3000
; layer 3, Z = 0.480
; feature outer perimeter
; tool H0.150 W0.350
G1 Z0.630 F1002
G1 X150.175 Y154.725 F6000
G1 Z0.480 F1002
G1 E0.0000 F3000
G92 E0.0000
G1 X150.176 Y145.275 E0.1959 F600
G1 X162.276 Y145.285 E0.4469
G1 X162.340 Y145.325 E0.4484
G1 X162.375 Y145.360 E0.4494
G1 X162.402 Y145.403 E0.4505
G1 X162.418 Y145.450 E0.4515
G1 X162.425 Y145.510 E0.4528
G1 X162.425 Y154.490 E0.6390
G1 X162.418 Y154.550 E0.6402
G1 X162.402 Y154.597 E0.6413
G1 X162.375 Y154.640 E0.6423
G1 X162.340 Y154.675 E0.6433
G1 X162.297 Y154.702 E0.6444
G1 X162.250 Y154.718 E0.6454
G1 X162.190 Y154.725 E0.6467
G1 X150.175 Y154.725 E0.8958
G1 X150.825 Y154.275 F6000
G92 E0.0000
G1 X156.175 Y154.275 E0.1109 F600
G1 X156.175 Y145.725 E0.2882
G1 X150.825 Y145.725 E0.3992
G1 X150.825 Y154.275 E0.5765
G1 X156.625 Y154.275 F6000
G92 E0.0000
G1 X161.975 Y154.275 E0.1109 F600
G1 X161.975 Y145.725 E0.2882
G1 X156.625 Y145.725 E0.3992
G1 X156.625 Y154.275 E0.5765
; feature internal single extrusion
; tool H0.150 W0.175
G1 X156.400 Y154.580 F6000
G92 E0.0000
G1 X156.400 Y145.420 E0.0950 F600
; tool H0.150 W0.299
G1 X150.500 Y145.460 F6000
G92 E0.0000
G1 X150.500 Y154.540 E0.1611 F600
; tool H0.150 W0.175
G1 X150.429 Y154.491 F6000
G92 E0.0000
G1 X150.698 Y154.500 E0.0028 F600
G1 X156.335 Y154.500 E0.0612
G1 X156.404 Y154.490 E0.0620
G1 X156.474 Y154.500 E0.0627
G1 X162.311 Y154.500 E0.1232
G1 X162.269 Y154.692 F6000
G92 E0.0000
G1 X162.205 Y154.501 E0.0021 F600
G1 X162.196 Y154.477 E0.0023
G1 X162.200 Y154.411 E0.0030
G1 X162.200 Y145.589 E0.0945
G1 X162.196 Y145.523 E0.0952
G1 X162.156 Y145.505 E0.0956
G1 X162.086 Y145.505 E0.0964
G1 X156.498 Y145.503 E0.1543
G1 X156.428 Y145.505 E0.1550
G1 X156.358 Y145.503 E0.1558
G1 X156.288 Y145.503 E0.1565
G1 X150.700 Y145.500 E0.2144
G1 X150.430 Y145.508 E0.2172
G92 E0.0000
G1 E-3.5000 F3000
; layer 4, Z = 0.630
; feature outer perimeter
; tool H0.150 W0.350
G1 Z0.780 F1002
G1 X150.175 Y154.725 F6000
G1 Z0.630 F1002
G1 E0.0000 F3000
G92 E0.0000
