; G-Code generated by Simplify3D(R) Version 4.0.1
; Nov 21, 2019 at 8:28:00 PM
; Settings Summary
;   processName,Process1
;   applyToModels,signal_4_feux_cible_arrondis_droite_HO_Pied
;   profileName,401 Tevo Tornado (experimental)
;   profileVersion,2019-11-15 20:21:07
;   baseProfile,Creality CR-10(2)
;   printMaterial,PLA
;   printQuality,Medium
;   printExtruders,
;   extruderName,Primary Extruder
;   extruderToolheadNumber,0
;   extruderDiameter,0.4
;   extruderAutoWidth,0
;   extruderWidth,0.35
;   extrusionMultiplier,0.95
;   extruderUseRetract,1
;   extruderRetractionDistance,3.8
;   extruderExtraRestartDistance,0
;   extruderRetractionZLift,0.3
;   extruderRetractionSpeed,3000
;   extruderUseCoasting,0
;   extruderCoastingDistance,0.2
;   extruderUseWipe,0
;   extruderWipeDistance,4
;   primaryExtruder,0
;   layerHeight,0.15
;   topSolidLayers,4
;   bottomSolidLayers,3
;   perimeterOutlines,3
;   printPerimetersInsideOut,0
;   startPointOption,1
;   startPointOriginX,0
;   startPointOriginY,300
;   sequentialIslands,0
;   spiralVaseMode,0
;   firstLayerHeightPercentage,120
;   firstLayerWidthPercentage,100
;   firstLayerUnderspeed,0.5
;   useRaft,0
;   raftExtruder,0
;   raftTopLayers,3
;   raftBaseLayers,2
;   raftOffset,3
;   raftSeparationDistance,0.14
;   raftTopInfill,100
;   aboveRaftSpeedMultiplier,0.3
;   useSkirt,1
;   skirtExtruder,0
;   skirtLayers,1
;   skirtOutlines,3
;   skirtOffset,2
;   usePrimePillar,0
;   primePillarExtruder,999
;   primePillarWidth,12
;   primePillarLocation,7
;   primePillarSpeedMultiplier,1
;   useOozeShield,0
;   oozeShieldExtruder,999
;   oozeShieldOffset,2
;   oozeShieldOutlines,1
;   oozeShieldSidewallShape,1
;   oozeShieldSidewallAngle,30
;   oozeShieldSpeedMultiplier,1
;   infillExtruder,0
;   internalInfillPattern,Grid
;   externalInfillPattern,Concentric
;   infillPercentage,25
;   outlineOverlapPercentage,15
;   infillExtrusionWidthPercentage,100
;   minInfillLength,5
;   infillLayerInterval,1
;   internalInfillAngles,45,-45
;   overlapInternalInfillAngles,1
;   externalInfillAngles,45,-45
;   generateSupport,0
;   supportExtruder,0
;   supportInfillPercentage,30
;   supportExtraInflation,0
;   supportBaseLayers,0
;   denseSupportExtruder,0
;   denseSupportLayers,0
;   denseSupportInfillPercentage,70
;   supportLayerInterval,1
;   supportHorizontalPartOffset,0.4
;   supportUpperSeparationLayers,1
;   supportLowerSeparationLayers,1
;   supportType,0
;   supportGridSpacing,4.5
;   maxOverhangAngle,45
;   supportAngles,0
;   temperatureName,Primary Extruder,Heated Bed
;   temperatureNumber,0,0
;   temperatureSetpointCount,2,1
;   temperatureSetpointLayers,1,2,1
;   temperatureSetpointTemperatures,215,210,60
;   temperatureStabilizeAtStartup,1,1
;   temperatureHeatedBed,0,1
;   temperatureRelayBetweenLayers,0,0
;   temperatureRelayBetweenLoops,0,0
;   fanLayers,1,2
;   fanSpeeds,0,100
;   blipFanToFullPower,0
;   adjustSpeedForCooling,1
;   minSpeedLayerTime,15
;   minCoolingSpeedSlowdown,50
;   increaseFanForCooling,1
;   minFanLayerTime,25
;   maxCoolingFanSpeed,100
;   increaseFanForBridging,1
;   bridgingFanSpeed,100
;   use5D,1
;   relativeEdistances,0
;   allowEaxisZeroing,1
;   independentExtruderAxes,0
;   includeM10123,0
;   stickySupport,1
;   applyToolheadOffsets,0
;   gcodeXoffset,0
;   gcodeYoffset,0
;   gcodeZoffset,0
;   overrideMachineDefinition,1
;   machineTypeOverride,0
;   strokeXoverride,300
;   strokeYoverride,300
;   strokeZoverride,400
;   originOffsetXoverride,0
;   originOffsetYoverride,0
;   originOffsetZoverride,0
;   homeXdirOverride,-1
;   homeYdirOverride,-1
;   homeZdirOverride,-1
;   flipXoverride,1
;   flipYoverride,-1
;   flipZoverride,1
;   toolheadOffsets,0,0|0,0|0,0|0,0|0,0|0,0
;   overrideFirmwareConfiguration,1
;   firmwareTypeOverride,RepRap (Marlin/Repetier/Sprinter)
;   GPXconfigOverride,r2
;   baudRateOverride,250000
;   overridePrinterModels,1
;   printerModelsOverride
;   startingGcode,;,; -]H.P.B[- MarshMalloW  ,; $VER: StartScript 1.01 (13.11.2019) MarshMalloW,;,; Begin Startcode,;,M117 *Start Clean*     	; Indicate nozzle clean in progress on LCD,;,;extruder0_temperature,M104 S[extruder0_temperature]  ,M109 S[extruder0_temperature] ,M109 R[extruder0_temperature] ,;,M107                   	; Turn layer fan off,G21                    	; Set to metric [change to G20 if you want Imperial],G90                    	; Force coordinates to be absolute relative to the origin,G28                    	; Home X/Y/Z axis,G29                    	; Auto-leveling (BL-Touch),;,G92 E0                 	; Set Extruder to 0 ,G1 X0 Y0 F2000         	; Move X and Y to 0 with speed 2000 (mm/min),G1 Z0.1 F1000          	; Move Z to   0.1 with speed 1000 (mm/min),G1 X8.0 F2000          	; Move X to   8.0 with speed 2000 (mm/min),G1 Y60.0 E4.0 F1000.0  	; Move Y to  60 and Extruder with 4.0 with speed 1000 (mm/min),G1 Y100.0 E8.5 F1000.0 	; Move Y to 100 and Extruder with 8.5 with speed 1000 (mm/min),G92 E0                 	; Set extruder to 0,G1 X16.0 F3000         	; Move X to 16.0 with speed 3000 (mm/min),G1 Y60.0 F3000         	; Move Y to 60.0 with speed 3000 (mm/min),M117 *End Clean*       	; Indicate nozzle clean in progress on LCD,G1 Z5 F3000            	; Move Z to  5.0 with speed 3000 (mm/min),G1 X20.0 F3000         	; Move X to 20.0 with speed 3000 (mm/min),; ,M117 *Printing...*     	; Start printing msg on LCD,;,; End Startcode,;,; Begin printing with sliced GCode after here,;
;   layerChangeGcode,
;   retractionGcode,
;   toolChangeGcode,
;   endingGcode,;,; init 181010,;,;M107 			; Fan off,;G1 E-1 F300 			; Retract the filament a bit before lifting the nozzle,;M104 S0 			; Turn off extruder,;M140 S0 			; Turn off bed,;G91			; Relative positioning,;G28 X0 Y0 			; Move X/Y to min endstops so the head is out of teh way,;M84 			; Disable motors,;G90 			; Absolute positioning,;M117 Print ready...,,;,; // From Cura 181010,; // End_gcode,G92 E0			; Zero the extruded length,;G1 E-30 F300		; Retract E -30,M106 S0			; Turn off cooling fan,M104 S0			; Turn off temperature,M140 S0		     	; Turn off bed,G91			; Relative positioning,G1 E-1 F300			; Retract the filament a bit before lifting the nozzle to release some of the pressure,G1 Z+20 E-5 X-20 Y-20 F7200	; Move Z up a bit and retract filament even more,G1 X0 Y150 F10000		; Move right min,M107			; Turn off layer fan,M84			; Disable motors,G90			; Absolute positioning,M117 *The-End* 		; End msg,;,
;   exportFileFormat,gcode
;   celebration,0
;   celebrationSong,Star Wars
;   postProcessing,
;   defaultSpeed,1800
;   outlineUnderspeed,0.5
;   solidInfillUnderspeed,0.8
;   supportUnderspeed,0.8
;   rapidXYspeed,6000
;   rapidZspeed,1002
;   minBridgingArea,50
;   bridgingExtraInflation,0.2
;   bridgingExtrusionMultiplier,1
;   bridgingSpeedMultiplier,0.6
;   useFixedBridgingAngle,0
;   fixedBridgingAngle,0
;   applyBridgingToPerimeters,0
;   filamentDiameters,1.75|1.75|1.75|1.75|1.75|1.75
;   filamentPricesPerKg,30|46|46|46|46|46
;   filamentDensities,1.25|1.25|1.25|1.25|1.25|1.25
;   useMinPrintHeight,0
;   minPrintHeight,0
;   useMaxPrintHeight,0
;   maxPrintHeight,9
;   useDiaphragm,0
;   diaphragmLayerInterval,20
;   robustSlicing,1
;   mergeAllIntoSolid,0
;   onlyRetractWhenCrossingOutline,1
;   retractBetweenLayers,1
;   useRetractionMinTravel,1
;   retractionMinTravel,3
;   retractWhileWiping,1
;   onlyWipeOutlines,1
;   avoidCrossingOutline,1
;   maxMovementDetourFactor,3
;   toolChangeRetractionDistance,12
;   toolChangeExtraRestartDistance,-0.5
;   toolChangeRetractionSpeed,600
;   externalThinWallType,1
;   internalThinWallType,1
;   thinWallAllowedOverlapPercentage,15
;   singleExtrusionMinLength,1
;   singleExtrusionMinPrintingWidthPercentage,50
;   singleExtrusionMaxPrintingWidthPercentage,200
;   singleExtrusionEndpointExtension,0.2
;   horizontalSizeCompensation,0
G90
M82
M106 S0
M140 S60
M190 S60
;
; -]H.P.B[- MarshMalloW  
; $VER: StartScript 1.01 (13.11.2019) MarshMalloW
;
; Begin Startcode
;
M117 *Start Clean*     	; Indicate nozzle clean in progress on LCD
;
;extruder0_temperature
M104 S215  
M109 S215 
M109 R215 
;
M107                   	; Turn layer fan off
G21                    	; Set to metric [change to G20 if you want Imperial]
G90                    	; Force coordinates to be absolute relative to the origin
G28                    	; Home X/Y/Z axis
G29                    	; Auto-leveling (BL-Touch)
;
G92 E0                 	; Set Extruder to 0 
G1 X0 Y0 F2000         	; Move X and Y to 0 with speed 2000 (mm/min)
G1 Z0.1 F1000          	; Move Z to   0.1 with speed 1000 (mm/min)
G1 X8.0 F2000          	; Move X to   8.0 with speed 2000 (mm/min)
G1 Y60.0 E4.0 F1000.0  	; Move Y to  60 and Extruder with 4.0 with speed 1000 (mm/min)
G1 Y100.0 E8.5 F1000.0 	; Move Y to 100 and Extruder with 8.5 with speed 1000 (mm/min)
G92 E0                 	; Set extruder to 0
G1 X16.0 F3000         	; Move X to 16.0 with speed 3000 (mm/min)
G1 Y60.0 F3000         	; Move Y to 60.0 with speed 3000 (mm/min)
M117 *End Clean*       	; Indicate nozzle clean in progress on LCD
G1 Z5 F3000            	; Move Z to  5.0 with speed 3000 (mm/min)
G1 X20.0 F3000         	; Move X to 20.0 with speed 3000 (mm/min)
; 
M117 *Printing...*     	; Start printing msg on LCD
;
; End Startcode
;
; Begin printing with sliced GCode after here
;
G92 E0
G1 E-3.8000 F3000
G1 Z0.480 F1002
; process Process1
; layer 1, Z = 0.180
T0
; tool H0.180 W0.350
; skirt
G1 X142.328 Y143.709 F6000
G1 Z0.180 F1002
G1 E0.0000 F900
G92 E0
G1 X142.626 Y143.447 E0.0099 F900
G1 X142.683 Y143.405 E0.0116
G1 X143.156 Y143.109 E0.0255
G1 X143.201 Y143.085 E0.0268
G1 X143.457 Y142.964 E0.0338
G1 X143.504 Y142.945 E0.0351
G1 X143.977 Y142.785 E0.0475
G1 X144.024 Y142.772 E0.0487
G1 X144.290 Y142.714 E0.0555
G1 X144.338 Y142.706 E0.0567
G1 X144.745 Y142.664 E0.0669
G1 X144.768 Y142.662 E0.0675
G1 X144.893 Y142.656 E0.0706
G1 X144.916 Y142.655 E0.0712
G1 X155.084 Y142.655 E0.3242
G1 X155.107 Y142.656 E0.3247
G1 X155.232 Y142.662 E0.3279
G1 X155.255 Y142.664 E0.3284
G1 X155.660 Y142.706 E0.3385
G1 X155.707 Y142.713 E0.3397
G1 X155.967 Y142.769 E0.3464
G1 X156.013 Y142.782 E0.3476
G1 X156.483 Y142.939 E0.3599
G1 X156.531 Y142.958 E0.3612
G1 X156.791 Y143.080 E0.3683
G1 X156.837 Y143.105 E0.3696
G1 X157.258 Y143.367 E0.3819
G1 X157.296 Y143.394 E0.3831
G1 X157.500 Y143.554 E0.3896
G1 X157.535 Y143.585 E0.3907
G1 X157.835 Y143.875 E0.4011
G1 X157.864 Y143.907 E0.4022
G1 X158.022 Y144.094 E0.4083
G1 X158.048 Y144.129 E0.4094
G1 X158.304 Y144.503 E0.4206
G1 X158.329 Y144.543 E0.4218
G1 X158.454 Y144.777 E0.4284
G1 X158.474 Y144.820 E0.4296
G1 X158.655 Y145.269 E0.4416
G1 X158.672 Y145.320 E0.4430
G1 X158.749 Y145.608 E0.4504
G1 X158.759 Y145.660 E0.4517
G1 X158.828 Y146.156 E0.4642
G1 X158.832 Y146.186 E0.4649
G1 X158.843 Y146.355 E0.4691
G1 X158.844 Y146.385 E0.4699
G1 X158.845 Y153.584 E0.6490
G1 X158.844 Y153.607 E0.6496
G1 X158.838 Y153.733 E0.6527
G1 X158.836 Y153.755 E0.6533
G1 X158.794 Y154.160 E0.6634
G1 X158.787 Y154.207 E0.6646
G1 X158.731 Y154.467 E0.6712
G1 X158.718 Y154.513 E0.6724
G1 X158.562 Y154.983 E0.6847
G1 X158.542 Y155.031 E0.6860
G1 X158.420 Y155.291 E0.6932
G1 X158.395 Y155.337 E0.6945
G1 X158.133 Y155.758 E0.7068
G1 X158.106 Y155.796 E0.7080
G1 X157.946 Y156.000 E0.7144
G1 X157.915 Y156.035 E0.7156
G1 X157.625 Y156.335 E0.7260
G1 X157.593 Y156.364 E0.7270
G1 X157.406 Y156.522 E0.7331
G1 X157.371 Y156.548 E0.7342
G1 X156.997 Y156.804 E0.7455
G1 X156.957 Y156.829 E0.7467
G1 X156.723 Y156.954 E0.7533
G1 X156.680 Y156.974 E0.7544
G1 X156.231 Y157.155 E0.7665
G1 X156.180 Y157.172 E0.7678
G1 X155.892 Y157.249 E0.7752
G1 X155.840 Y157.259 E0.7766
G1 X155.344 Y157.328 E0.7890
G1 X155.314 Y157.332 E0.7898
G1 X155.145 Y157.343 E0.7940
G1 X155.115 Y157.344 E0.7947
G1 X144.897 Y157.345 E1.0490
G1 X144.867 Y157.344 E1.0497
G1 X144.703 Y157.333 E1.0538
G1 X144.674 Y157.330 E1.0546
G1 X144.177 Y157.263 E1.0670
G1 X144.124 Y157.252 E1.0684
G1 X143.837 Y157.177 E1.0758
G1 X143.787 Y157.160 E1.0771
G1 X143.282 Y156.960 E1.0906
G1 X143.221 Y156.930 E1.0923
G1 X142.895 Y156.737 E1.1017
G1 X142.840 Y156.698 E1.1034
G1 X142.260 Y156.222 E1.1221
G1 X142.209 Y156.172 E1.1238
G1 X141.947 Y155.874 E1.1337
G1 X141.905 Y155.817 E1.1355
G1 X141.609 Y155.344 E1.1494
G1 X141.585 Y155.299 E1.1506
G1 X141.464 Y155.043 E1.1577
G1 X141.445 Y154.996 E1.1589
G1 X141.285 Y154.523 E1.1714
G1 X141.272 Y154.476 E1.1726
G1 X141.214 Y154.210 E1.1793
G1 X141.206 Y154.162 E1.1806
G1 X141.164 Y153.755 E1.1907
G1 X141.162 Y153.732 E1.1913
G1 X141.156 Y153.607 E1.1944
G1 X141.155 Y153.584 E1.1950
G1 X141.155 Y146.396 E1.3738
G1 X141.156 Y146.367 E1.3746
G1 X141.167 Y146.203 E1.3787
G1 X141.170 Y146.173 E1.3794
G1 X141.237 Y145.677 E1.3919
G1 X141.248 Y145.624 E1.3932
G1 X141.323 Y145.337 E1.4006
G1 X141.340 Y145.287 E1.4019
G1 X141.540 Y144.782 E1.4154
G1 X141.570 Y144.721 E1.4171
G1 X141.763 Y144.395 E1.4265
G1 X141.802 Y144.339 E1.4282
G1 X142.278 Y143.760 E1.4469
G1 X142.328 Y143.709 E1.4487
G1 X142.569 Y143.962 F6000
G92 E0
G1 X142.846 Y143.720 E0.0092 F900
G1 X142.880 Y143.694 E0.0102
G1 X143.333 Y143.411 E0.0235
G1 X143.360 Y143.397 E0.0243
G1 X143.597 Y143.284 E0.0308
G1 X143.626 Y143.273 E0.0316
G1 X144.080 Y143.119 E0.0435
G1 X144.108 Y143.111 E0.0442
G1 X144.355 Y143.058 E0.0505
G1 X144.384 Y143.053 E0.0512
G1 X144.777 Y143.012 E0.0611
G1 X144.790 Y143.011 E0.0614
G1 X144.907 Y143.005 E0.0643
G1 X144.920 Y143.005 E0.0646
G1 X155.080 Y143.005 E0.3174
G1 X155.093 Y143.005 E0.3178
G1 X155.210 Y143.011 E0.3207
G1 X155.223 Y143.012 E0.3210
G1 X155.614 Y143.053 E0.3308
G1 X155.642 Y143.057 E0.3315
G1 X155.884 Y143.109 E0.3377
G1 X155.912 Y143.117 E0.3384
G1 X156.363 Y143.267 E0.3502
G1 X156.391 Y143.279 E0.3510
G1 X156.633 Y143.392 E0.3576
G1 X156.660 Y143.407 E0.3584
G1 X157.064 Y143.659 E0.3702
G1 X157.087 Y143.675 E0.3709
G1 X157.277 Y143.824 E0.3769
G1 X157.298 Y143.842 E0.3776
G1 X157.584 Y144.120 E0.3875
G1 X157.602 Y144.139 E0.3882
G1 X157.749 Y144.313 E0.3938
G1 X157.764 Y144.334 E0.3945
G1 X158.010 Y144.692 E0.4053
G1 X158.025 Y144.717 E0.4060
G1 X158.141 Y144.933 E0.4121
G1 X158.153 Y144.959 E0.4128
G1 X158.326 Y145.390 E0.4244
G1 X158.336 Y145.420 E0.4252
G1 X158.408 Y145.688 E0.4321
G1 X158.414 Y145.719 E0.4329
G1 X158.481 Y146.198 E0.4449
G1 X158.483 Y146.216 E0.4454
G1 X158.494 Y146.373 E0.4493
G1 X158.494 Y146.391 E0.4497
G1 X158.495 Y153.580 E0.6286
G1 X158.495 Y153.593 E0.6289
G1 X158.489 Y153.710 E0.6318
G1 X158.488 Y153.723 E0.6322
G1 X158.447 Y154.114 E0.6420
G1 X158.443 Y154.142 E0.6427
G1 X158.390 Y154.384 E0.6488
G1 X158.383 Y154.412 E0.6495
G1 X158.233 Y154.862 E0.6614
G1 X158.221 Y154.891 E0.6621
G1 X158.108 Y155.133 E0.6688
G1 X158.093 Y155.160 E0.6695
G1 X157.841 Y155.564 E0.6814
G1 X157.825 Y155.587 E0.6821
G1 X157.676 Y155.777 E0.6881
G1 X157.658 Y155.798 E0.6888
G1 X157.380 Y156.084 E0.6987
G1 X157.361 Y156.102 E0.6994
G1 X157.187 Y156.249 E0.7050
G1 X157.166 Y156.264 E0.7057
G1 X156.808 Y156.510 E0.7165
G1 X156.783 Y156.525 E0.7172
G1 X156.567 Y156.641 E0.7233
G1 X156.541 Y156.653 E0.7240
G1 X156.110 Y156.826 E0.7356
G1 X156.080 Y156.836 E0.7364
G1 X155.812 Y156.908 E0.7433
G1 X155.781 Y156.914 E0.7441
G1 X155.302 Y156.981 E0.7561
G1 X155.284 Y156.983 E0.7565
G1 X155.127 Y156.994 E0.7604
G1 X155.109 Y156.994 E0.7609
G1 X144.902 Y156.995 E1.0149
G1 X144.885 Y156.994 E1.0153
G1 X144.732 Y156.984 E1.0191
G1 X144.715 Y156.982 E1.0195
G1 X144.234 Y156.917 E1.0316
G1 X144.203 Y156.911 E1.0324
G1 X143.936 Y156.841 E1.0393
G1 X143.906 Y156.831 E1.0401
G1 X143.424 Y156.639 E1.0530
G1 X143.387 Y156.621 E1.0540
G1 X143.085 Y156.443 E1.0627
G1 X143.051 Y156.420 E1.0637
G1 X142.493 Y155.960 E1.0817
G1 X142.462 Y155.931 E1.0828
G1 X142.220 Y155.654 E1.0919
G1 X142.194 Y155.620 E1.0930
G1 X141.911 Y155.167 E1.1063
G1 X141.897 Y155.140 E1.1070
G1 X141.784 Y154.903 E1.1136
G1 X141.773 Y154.874 E1.1143
G1 X141.619 Y154.420 E1.1263
G1 X141.611 Y154.392 E1.1270
G1 X141.558 Y154.145 E1.1333
G1 X141.553 Y154.116 E1.1340
