; G-Code generated by Simplify3D(R) Version 4.0.1
; Nov 21, 2019 at 8:28:57 PM
; Settings Summary
;   processName,Process1
;   applyToModels,signal_4_feux_cible_arrondis_droite_HO_Mat
;   profileName,401 Tevo Tornado (experimental)
;   profileVersion,2019-11-15 20:21:07
;   baseProfile,Creality CR-10(2)
;   printMaterial,PLA
;   printQuality,Medium
;   printExtruders,
;   extruderName,Primary Extruder
;   extruderToolheadNumber,0
;   extruderDiameter,0.4
;   extruderAutoWidth,0
;   extruderWidth,0.35
;   extrusionMultiplier,0.95
;   extruderUseRetract,1
;   extruderRetractionDistance,3.8
;   extruderExtraRestartDistance,0
;   extruderRetractionZLift,0.3
;   extruderRetractionSpeed,3000
;   extruderUseCoasting,0
;   extruderCoastingDistance,0.2
;   extruderUseWipe,0
;   extruderWipeDistance,4
;   primaryExtruder,0
;   layerHeight,0.15
;   topSolidLayers,4
;   bottomSolidLayers,3
;   perimeterOutlines,3
;   printPerimetersInsideOut,0
;   startPointOption,1
;   startPointOriginX,0
;   startPointOriginY,300
;   sequentialIslands,0
;   spiralVaseMode,0
;   firstLayerHeightPercentage,120
;   firstLayerWidthPercentage,100
;   firstLayerUnderspeed,0.5
;   useRaft,0
;   raftExtruder,0
;   raftTopLayers,3
;   raftBaseLayers,2
;   raftOffset,3
;   raftSeparationDistance,0.14
;   raftTopInfill,100
;   aboveRaftSpeedMultiplier,0.3
;   useSkirt,1
;   skirtExtruder,0
;   skirtLayers,1
;   skirtOutlines,3
;   skirtOffset,2
;   usePrimePillar,0
;   primePillarExtruder,999
;   primePillarWidth,12
;   primePillarLocation,7
;   primePillarSpeedMultiplier,1
;   useOozeShield,0
;   oozeShieldExtruder,999
;   oozeShieldOffset,2
;   oozeShieldOutlines,1
;   oozeShieldSidewallShape,1
;   oozeShieldSidewallAngle,30
;   oozeShieldSpeedMultiplier,1
;   infillExtruder,0
;   internalInfillPattern,Grid
;   externalInfillPattern,Concentric
;   infillPercentage,25
;   outlineOverlapPercentage,15
;   infillExtrusionWidthPercentage,100
;   minInfillLength,5
;   infillLayerInterval,1
;   internalInfillAngles,45,-45
;   overlapInternalInfillAngles,1
;   externalInfillAngles,45,-45
;   generateSupport,0
;   supportExtruder,0
;   supportInfillPercentage,30
;   supportExtraInflation,0
;   supportBaseLayers,0
;   denseSupportExtruder,0
;   denseSupportLayers,0
;   denseSupportInfillPercentage,70
;   supportLayerInterval,1
;   supportHorizontalPartOffset,0.4
;   supportUpperSeparationLayers,1
;   supportLowerSeparationLayers,1
;   supportType,0
;   supportGridSpacing,4.5
;   maxOverhangAngle,45
;   supportAngles,0
;   temperatureName,Primary Extruder,Heated Bed
;   temperatureNumber,0,0
;   temperatureSetpointCount,2,1
;   temperatureSetpointLayers,1,2,1
;   temperatureSetpointTemperatures,215,210,60
;   temperatureStabilizeAtStartup,1,1
;   temperatureHeatedBed,0,1
;   temperatureRelayBetweenLayers,0,0
;   temperatureRelayBetweenLoops,0,0
;   fanLayers,1,2
;   fanSpeeds,0,100
;   blipFanToFullPower,0
;   adjustSpeedForCooling,1
;   minSpeedLayerTime,15
;   minCoolingSpeedSlowdown,50
;   increaseFanForCooling,1
;   minFanLayerTime,25
;   maxCoolingFanSpeed,100
;   increaseFanForBridging,1
;   bridgingFanSpeed,100
;   use5D,1
;   relativeEdistances,0
;   allowEaxisZeroing,1
;   independentExtruderAxes,0
;   includeM10123,0
;   stickySupport,1
;   applyToolheadOffsets,0
;   gcodeXoffset,0
;   gcodeYoffset,0
;   gcodeZoffset,0
;   overrideMachineDefinition,1
;   machineTypeOverride,0
;   strokeXoverride,300
;   strokeYoverride,300
;   strokeZoverride,400
;   originOffsetXoverride,0
;   originOffsetYoverride,0
;   originOffsetZoverride,0
;   homeXdirOverride,-1
;   homeYdirOverride,-1
;   homeZdirOverride,-1
;   flipXoverride,1
;   flipYoverride,-1
;   flipZoverride,1
;   toolheadOffsets,0,0|0,0|0,0|0,0|0,0|0,0
;   overrideFirmwareConfiguration,1
;   firmwareTypeOverride,RepRap (Marlin/Repetier/Sprinter)
;   GPXconfigOverride,r2
;   baudRateOverride,250000
;   overridePrinterModels,1
;   printerModelsOverride
;   startingGcode,;,; -]H.P.B[- MarshMalloW  ,; $VER: StartScript 1.01 (13.11.2019) MarshMalloW,;,; Begin Startcode,;,M117 *Start Clean*     	; Indicate nozzle clean in progress on LCD,;,;extruder0_temperature,M104 S[extruder0_temperature]  ,M109 S[extruder0_temperature] ,M109 R[extruder0_temperature] ,;,M107                   	; Turn layer fan off,G21                    	; Set to metric [change to G20 if you want Imperial],G90                    	; Force coordinates to be absolute relative to the origin,G28                    	; Home X/Y/Z axis,G29                    	; Auto-leveling (BL-Touch),;,G92 E0                 	; Set Extruder to 0 ,G1 X0 Y0 F2000         	; Move X and Y to 0 with speed 2000 (mm/min),G1 Z0.1 F1000          	; Move Z to   0.1 with speed 1000 (mm/min),G1 X8.0 F2000          	; Move X to   8.0 with speed 2000 (mm/min),G1 Y60.0 E4.0 F1000.0  	; Move Y to  60 and Extruder with 4.0 with speed 1000 (mm/min),G1 Y100.0 E8.5 F1000.0 	; Move Y to 100 and Extruder with 8.5 with speed 1000 (mm/min),G92 E0                 	; Set extruder to 0,G1 X16.0 F3000         	; Move X to 16.0 with speed 3000 (mm/min),G1 Y60.0 F3000         	; Move Y to 60.0 with speed 3000 (mm/min),M117 *End Clean*       	; Indicate nozzle clean in progress on LCD,G1 Z5 F3000            	; Move Z to  5.0 with speed 3000 (mm/min),G1 X20.0 F3000         	; Move X to 20.0 with speed 3000 (mm/min),; ,M117 *Printing...*     	; Start printing msg on LCD,;,; End Startcode,;,; Begin printing with sliced GCode after here,;
;   layerChangeGcode,
;   retractionGcode,
;   toolChangeGcode,
;   endingGcode,;,; init 181010,;,;M107 			; Fan off,;G1 E-1 F300 			; Retract the filament a bit before lifting the nozzle,;M104 S0 			; Turn off extruder,;M140 S0 			; Turn off bed,;G91			; Relative positioning,;G28 X0 Y0 			; Move X/Y to min endstops so the head is out of teh way,;M84 			; Disable motors,;G90 			; Absolute positioning,;M117 Print ready...,,;,; // From Cura 181010,; // End_gcode,G92 E0			; Zero the extruded length,;G1 E-30 F300		; Retract E -30,M106 S0			; Turn off cooling fan,M104 S0			; Turn off temperature,M140 S0		     	; Turn off bed,G91			; Relative positioning,G1 E-1 F300			; Retract the filament a bit before lifting the nozzle to release some of the pressure,G1 Z+20 E-5 X-20 Y-20 F7200	; Move Z up a bit and retract filament even more,G1 X0 Y150 F10000		; Move right min,M107			; Turn off layer fan,M84			; Disable motors,G90			; Absolute positioning,M117 *The-End* 		; End msg,;,
;   exportFileFormat,gcode
;   celebration,0
;   celebrationSong,Star Wars
;   postProcessing,
;   defaultSpeed,1800
;   outlineUnderspeed,0.5
;   solidInfillUnderspeed,0.8
;   supportUnderspeed,0.8
;   rapidXYspeed,6000
;   rapidZspeed,1002
;   minBridgingArea,50
;   bridgingExtraInflation,0.2
;   bridgingExtrusionMultiplier,1
;   bridgingSpeedMultiplier,0.6
;   useFixedBridgingAngle,0
;   fixedBridgingAngle,0
;   applyBridgingToPerimeters,0
;   filamentDiameters,1.75|1.75|1.75|1.75|1.75|1.75
;   filamentPricesPerKg,30|46|46|46|46|46
;   filamentDensities,1.25|1.25|1.25|1.25|1.25|1.25
;   useMinPrintHeight,0
;   minPrintHeight,0
;   useMaxPrintHeight,0
;   maxPrintHeight,9
;   useDiaphragm,0
;   diaphragmLayerInterval,20
;   robustSlicing,1
;   mergeAllIntoSolid,0
;   onlyRetractWhenCrossingOutline,1
;   retractBetweenLayers,1
;   useRetractionMinTravel,1
;   retractionMinTravel,3
;   retractWhileWiping,1
;   onlyWipeOutlines,1
;   avoidCrossingOutline,1
;   maxMovementDetourFactor,3
;   toolChangeRetractionDistance,12
;   toolChangeExtraRestartDistance,-0.5
;   toolChangeRetractionSpeed,600
;   externalThinWallType,1
;   internalThinWallType,1
;   thinWallAllowedOverlapPercentage,15
;   singleExtrusionMinLength,1
;   singleExtrusionMinPrintingWidthPercentage,50
;   singleExtrusionMaxPrintingWidthPercentage,200
;   singleExtrusionEndpointExtension,0.2
;   horizontalSizeCompensation,0
G90
M82
M106 S0
M140 S60
M190 S60
;
; -]H.P.B[- MarshMalloW  
; $VER: StartScript 1.01 (13.11.2019) MarshMalloW
;
; Begin Startcode
;
M117 *Start Clean*     	; Indicate nozzle clean in progress on LCD
;
;extruder0_temperature
M104 S215  
M109 S215 
M109 R215 
;
M107                   	; Turn layer fan off
G21                    	; Set to metric [change to G20 if you want Imperial]
G90                    	; Force coordinates to be absolute relative to the origin
G28                    	; Home X/Y/Z axis
G29                    	; Auto-leveling (BL-Touch)
;
G92 E0                 	; Set Extruder to 0 
G1 X0 Y0 F2000         	; Move X and Y to 0 with speed 2000 (mm/min)
G1 Z0.1 F1000          	; Move Z to   0.1 with speed 1000 (mm/min)
G1 X8.0 F2000          	; Move X to   8.0 with speed 2000 (mm/min)
G1 Y60.0 E4.0 F1000.0  	; Move Y to  60 and Extruder with 4.0 with speed 1000 (mm/min)
G1 Y100.0 E8.5 F1000.0 	; Move Y to 100 and Extruder with 8.5 with speed 1000 (mm/min)
G92 E0                 	; Set extruder to 0
G1 X16.0 F3000         	; Move X to 16.0 with speed 3000 (mm/min)
G1 Y60.0 F3000         	; Move Y to 60.0 with speed 3000 (mm/min)
M117 *End Clean*       	; Indicate nozzle clean in progress on LCD
G1 Z5 F3000            	; Move Z to  5.0 with speed 3000 (mm/min)
G1 X20.0 F3000         	; Move X to 20.0 with speed 3000 (mm/min)
; 
M117 *Printing...*     	; Start printing msg on LCD
;
; End Startcode
;
; Begin printing with sliced GCode after here
;
G92 E0
G1 E-3.8000 F3000
G1 Z0.480 F1002
; process Process1
; layer 1, Z = 0.180
M106 S163
T0
; tool H0.180 W0.350
; skirt
G1 X146.661 Y145.658 F6000
G1 Z0.180 F1002
G1 E0.0000 F900
G92 E0
G1 X146.983 Y145.525 E0.0087 F900
G1 X153.017 Y145.525 E0.1588
G1 X153.339 Y145.658 E0.1675
G1 X154.757 Y147.076 E0.2174
G1 X154.890 Y147.398 E0.2260
G1 X154.890 Y152.602 E0.3556
G1 X154.757 Y152.924 E0.3642
G1 X153.339 Y154.342 E0.4141
G1 X153.017 Y154.475 E0.4228
G1 X146.983 Y154.475 E0.5729
G1 X146.661 Y154.342 E0.5816
G1 X145.243 Y152.924 E0.6315
G1 X145.110 Y152.602 E0.6401
G1 X145.110 Y147.398 E0.7697
G1 X145.243 Y147.076 E0.7783
G1 X146.661 Y145.658 E0.8282
G1 X146.859 Y145.955 F6000
G92 E0
G1 X147.052 Y145.875 E0.0052 F900
G1 X152.948 Y145.875 E0.1519
G1 X153.141 Y145.955 E0.1571
G1 X154.460 Y147.274 E0.2035
G1 X154.540 Y147.467 E0.2087
G1 X154.540 Y152.533 E0.3348
G1 X154.460 Y152.726 E0.3400
G1 X153.141 Y154.045 E0.3864
G1 X152.948 Y154.125 E0.3916
G1 X147.052 Y154.125 E0.5383
G1 X146.859 Y154.045 E0.5435
G1 X145.540 Y152.726 E0.5899
G1 X145.460 Y152.533 E0.5951
G1 X145.460 Y147.467 E0.7212
G1 X145.540 Y147.274 E0.7263
G1 X146.859 Y145.955 E0.7728
G1 X147.057 Y146.252 F6000
G92 E0
G1 X147.122 Y146.225 E0.0017 F900
G1 X152.878 Y146.225 E0.1450
G1 X152.943 Y146.252 E0.1467
G1 X154.163 Y147.472 E0.1897
G1 X154.190 Y147.537 E0.1914
G1 X154.190 Y152.463 E0.3140
G1 X154.163 Y152.528 E0.3157
G1 X152.943 Y153.748 E0.3587
G1 X152.878 Y153.775 E0.3604
G1 X147.122 Y153.775 E0.5036
G1 X147.057 Y153.748 E0.5054
G1 X145.837 Y152.528 E0.5483
G1 X145.810 Y152.463 E0.5501
G1 X145.810 Y147.537 E0.6726
G1 X145.837 Y147.472 E0.6744
G1 X147.057 Y146.252 E0.7173
G92 E0
G1 E-3.8000 F3000
G1 Z0.480 F1002
; outer perimeter
G1 X148.156 Y148.571 F6000
G1 X151.833 Y148.571 F6000
G1 X151.840 Y148.575 F6000
G1 Z0.180 F1002
G1 E0.0000 F3000
G92 E0
G1 X151.840 Y151.425 E0.0709 F450
G1 X148.160 Y151.425 E0.1625
G1 X148.160 Y148.575 E0.2334
G1 X151.840 Y148.575 E0.3250
G1 X148.610 Y149.025 F6000
G92 E0
G1 X148.610 Y150.975 E0.0485 F450
G1 X151.390 Y150.975 E0.1177
G1 X151.390 Y149.025 E0.1662
G1 X148.610 Y149.025 E0.2354
; internal single extrusion
G1 X148.385 Y148.892 F6000
G92 E0
; tool H0.180 W0.175
G1 X148.388 Y148.823 E0.0009 F450
G1 X148.408 Y148.803 E0.0012
G1 X148.477 Y148.800 E0.0021
G1 X151.523 Y148.800 E0.0400
G1 X151.592 Y148.803 E0.0408
G1 X151.612 Y148.823 E0.0412
G1 X151.615 Y148.892 E0.0420
G1 X151.615 Y151.108 E0.0696
G1 X151.592 Y151.197 E0.0708
G1 X151.523 Y151.200 E0.0716
G1 X148.477 Y151.200 E0.1095
G1 X148.408 Y151.197 E0.1104
G1 X148.388 Y151.177 E0.1107
G1 X148.385 Y151.108 E0.1116
G1 X148.385 Y148.892 E0.1392
G92 E0
G1 E-3.8000 F3000
G1 Z0.630 F1002
; layer 2, Z = 0.330
M104 S210 T0
M106 S255
; tool H0.150 W0.350
; outer perimeter
G1 X148.613 Y149.060 F6000
G1 X148.613 Y150.971 F6000
G1 X151.221 Y150.971 F6000
G1 X151.840 Y151.425 F6000
G1 Z0.330 F1002
G1 E0.0000 F3000
G92 E0
G1 X148.160 Y151.425 E0.0763 F450
G1 X148.160 Y148.575 E0.1354
G1 X151.840 Y148.575 E0.2117
G1 X151.840 Y151.425 E0.2708
G1 X151.390 Y150.975 F6000
G92 E0
G1 X151.390 Y149.025 E0.0404 F450
G1 X148.610 Y149.025 E0.0981
G1 X148.610 Y150.975 E0.1385
G1 X151.390 Y150.975 E0.1962
; internal single extrusion
G1 X151.615 Y151.108 F6000
G92 E0
; tool H0.150 W0.175
G1 X151.592 Y151.197 E0.0010 F450
G1 X151.523 Y151.200 E0.0017
G1 X148.477 Y151.200 E0.0333
G1 X148.408 Y151.197 E0.0340
G1 X148.388 Y151.177 E0.0343
G1 X148.385 Y151.108 E0.0350
G1 X148.385 Y148.892 E0.0580
G1 X148.388 Y148.823 E0.0587
G1 X148.408 Y148.803 E0.0590
G1 X148.477 Y148.800 E0.0597
G1 X151.523 Y148.800 E0.0913
G1 X151.592 Y148.803 E0.0920
G1 X151.612 Y148.823 E0.0923
G1 X151.615 Y148.892 E0.0930
G1 X151.615 Y151.108 E0.1160
G92 E0
G1 E-3.8000 F3000
G1 Z0.780 F1002
; layer 3, Z = 0.480
; tool H0.150 W0.350
; outer perimeter
G1 X151.840 Y151.425 F6000
G1 Z0.480 F1002
G1 E0.0000 F3000
G92 E0
G1 X148.160 Y151.425 E0.0763 F450
G1 X148.160 Y148.575 E0.1354
G1 X151.840 Y148.575 E0.2117
G1 X151.840 Y151.425 E0.2708
G1 X148.610 Y150.975 F6000
G92 E0
G1 X151.390 Y150.975 E0.0576 F450
G1 X151.390 Y149.025 E0.0981
G1 X148.610 Y149.025 E0.1557
G1 X148.610 Y150.975 E0.1962
; internal single extrusion
G1 X148.385 Y151.108 F6000
G92 E0
; tool H0.150 W0.175
G1 X148.385 Y148.892 E0.0230 F450
G1 X148.388 Y148.823 E0.0237
G1 X148.408 Y148.803 E0.0240
G1 X148.477 Y148.800 E0.0247
G1 X151.523 Y148.800 E0.0563
G1 X151.592 Y148.803 E0.0570
G1 X151.612 Y148.823 E0.0573
G1 X151.615 Y148.892 E0.0580
G1 X151.615 Y151.108 E0.0810
G1 X151.592 Y151.197 E0.0819
G1 X151.523 Y151.200 E0.0827
G1 X148.477 Y151.200 E0.1142
G1 X148.408 Y151.197 E0.1150
G1 X148.388 Y151.177 E0.1152
G1 X148.385 Y151.108 E0.1160
G92 E0
G1 E-3.8000 F3000
G1 Z0.930 F1002
; layer 4, Z = 0.630
; tool H0.150 W0.350
; outer perimeter
G1 X148.614 Y150.940 F6000
G1 X148.613 Y149.028 F6000
G1 X151.221 Y149.028 F6000
G1 X151.840 Y148.575 F6000
G1 Z0.630 F1002
G1 E0.0000 F3000
G92 E0
G1 X151.840 Y151.425 E0.0591 F450
G1 X148.160 Y151.425 E0.1354
G1 X148.160 Y148.575 E0.1945
G1 X151.840 Y148.575 E0.2708
G1 X151.390 Y149.025 F6000
G92 E0
G1 X148.610 Y149.025 E0.0576 F450
G1 X148.610 Y150.975 E0.0981
G1 X151.390 Y150.975 E0.1557
G1 X151.390 Y149.025 E0.1962
; internal single extrusion
G1 X151.615 Y148.892 F6000
G92 E0
; tool H0.150 W0.175
G1 X151.615 Y151.108 E0.0230 F450
G1 X151.592 Y151.197 E0.0239
G1 X151.523 Y151.200 E0.0246
G1 X148.477 Y151.200 E0.0562
G1 X148.408 Y151.197 E0.0569
G1 X148.388 Y151.177 E0.0572
G1 X148.385 Y151.108 E0.0580
G1 X148.385 Y148.892 E0.0809
G1 X148.388 Y148.823 E0.0816
G1 X148.408 Y148.803 E0.0819
G1 X148.477 Y148.800 E0.0827
G1 X151.523 Y148.800 E0.1142
G1 X151.592 Y148.803 E0.1150
G1 X151.612 Y148.823 E0.1152
G1 X151.615 Y148.892 E0.1160
G92 E0
G1 E-3.8000 F3000
G1 Z1.080 F1002
; layer 5, Z = 0.780
; tool H0.150 W0.350
; outer perimeter
G1 X148.160 Y148.575 F6000
G1 Z0.780 F1002
G1 E0.0000 F3000
G92 E0
G1 X151.840 Y148.575 E0.0763 F450
G1 X151.840 Y151.425 E0.1354
G1 X148.160 Y151.425 E0.2117
G1 X148.160 Y148.575 E0.2708
G1 X148.610 Y149.025 F6000
G92 E0
G1 X148.610 Y150.975 E0.0404 F450
G1 X151.390 Y150.975 E0.0981
G1 X151.390 Y149.025 E0.1385
G1 X148.610 Y149.025 E0.1962
; internal single extrusion
G1 X148.385 Y148.892 F6000
G92 E0
; tool H0.150 W0.175
G1 X148.388 Y148.823 E0.0007 F450
G1 X148.408 Y148.803 E0.0010
G1 X148.477 Y148.800 E0.0017
G1 X151.523 Y148.800 E0.0333
G1 X151.592 Y148.803 E0.0340
G1 X151.612 Y148.823 E0.0343
G1 X151.615 Y148.892 E0.0350
G1 X151.615 Y151.108 E0.0580
G1 X151.592 Y151.197 E0.0590
G1 X151.523 Y151.200 E0.0597
G1 X148.477 Y151.200 E0.0913
G1 X148.408 Y151.197 E0.0920
G1 X148.388 Y151.177 E0.0923
G1 X148.385 Y151.108 E0.0930
