; G-Code generated by Simplify3D(R) Version 4.1.2
; Nov 11, 2019 at 3:43:34 PM
; Settings Summary
;   processName,Process1
;   applyToModels,Feux01
;   profileName,401 Tevo Tornado (experimental)
;   profileVersion,2019-11-06 19:35:09
;   baseProfile,Creality CR-10(2)
;   printMaterial,PLA
;   printQuality,Medium
;   printExtruders,
;   extruderName,Primary Extruder
;   extruderToolheadNumber,0
;   extruderDiameter,0.4
;   extruderAutoWidth,0
;   extruderWidth,0.35
;   extrusionMultiplier,0.95
;   extruderUseRetract,1
;   extruderRetractionDistance,3.8
;   extruderExtraRestartDistance,0
;   extruderRetractionZLift,0.3
;   extruderRetractionSpeed,3000
;   extruderUseCoasting,0
;   extruderCoastingDistance,0.2
;   extruderUseWipe,0
;   extruderWipeDistance,4
;   primaryExtruder,0
;   layerHeight,0.15
;   topSolidLayers,4
;   bottomSolidLayers,3
;   perimeterOutlines,3
;   printPerimetersInsideOut,0
;   startPointOption,1
;   startPointOriginX,0
;   startPointOriginY,300
;   sequentialIslands,0
;   spiralVaseMode,0
;   firstLayerHeightPercentage,120
;   firstLayerWidthPercentage,100
;   firstLayerUnderspeed,0.5
;   useRaft,0
;   raftExtruder,0
;   raftTopLayers,3
;   raftBaseLayers,2
;   raftOffset,3
;   raftSeparationDistance,0.14
;   raftTopInfill,100
;   aboveRaftSpeedMultiplier,0.3
;   useSkirt,1
;   skirtExtruder,0
;   skirtLayers,1
;   skirtOutlines,3
;   skirtOffset,2
;   usePrimePillar,0
;   primePillarExtruder,999
;   primePillarWidth,12
;   primePillarLocation,7
;   primePillarSpeedMultiplier,1
;   useOozeShield,0
;   oozeShieldExtruder,999
;   oozeShieldOffset,2
;   oozeShieldOutlines,1
;   oozeShieldSidewallShape,1
;   oozeShieldSidewallAngle,30
;   oozeShieldSpeedMultiplier,1
;   infillExtruder,0
;   internalInfillPattern,Grid
;   externalInfillPattern,Concentric
;   infillPercentage,25
;   outlineOverlapPercentage,15
;   infillExtrusionWidthPercentage,100
;   minInfillLength,5
;   infillLayerInterval,1
;   internalInfillAngles,45,-45
;   overlapInternalInfillAngles,1
;   externalInfillAngles,45,-45
;   generateSupport,0
;   supportExtruder,0
;   supportInfillPercentage,30
;   supportExtraInflation,0
;   supportBaseLayers,0
;   denseSupportExtruder,0
;   denseSupportLayers,0
;   denseSupportInfillPercentage,70
;   supportLayerInterval,1
;   supportHorizontalPartOffset,0.4
;   supportUpperSeparationLayers,1
;   supportLowerSeparationLayers,1
;   supportType,0
;   supportGridSpacing,4.5
;   maxOverhangAngle,45
;   supportAngles,0
;   temperatureName,Primary Extruder,Heated Bed
;   temperatureNumber,0,0
;   temperatureSetpointCount,2,1
;   temperatureSetpointLayers,1,2,1
;   temperatureSetpointTemperatures,215,210,60
;   temperatureStabilizeAtStartup,1,1
;   temperatureHeatedBed,0,1
;   fanLayers,1,2
;   fanSpeeds,0,100
;   blipFanToFullPower,0
;   adjustSpeedForCooling,1
;   minSpeedLayerTime,15
;   minCoolingSpeedSlowdown,50
;   increaseFanForCooling,1
;   minFanLayerTime,25
;   maxCoolingFanSpeed,100
;   increaseFanForBridging,1
;   bridgingFanSpeed,100
;   use5D,1
;   relativeEdistances,0
;   allowEaxisZeroing,1
;   independentExtruderAxes,0
;   includeM10123,0
;   stickySupport,1
;   applyToolheadOffsets,0
;   gcodeXoffset,0
;   gcodeYoffset,0
;   gcodeZoffset,0
;   overrideMachineDefinition,1
;   machineTypeOverride,0
;   strokeXoverride,300
;   strokeYoverride,300
;   strokeZoverride,400
;   originOffsetXoverride,0
;   originOffsetYoverride,0
;   originOffsetZoverride,0
;   homeXdirOverride,-1
;   homeYdirOverride,-1
;   homeZdirOverride,-1
;   flipXoverride,1
;   flipYoverride,-1
;   flipZoverride,1
;   toolheadOffsets,0,0|0,0|0,0|0,0|0,0|0,0
;   overrideFirmwareConfiguration,1
;   firmwareTypeOverride,RepRap (Marlin/Repetier/Sprinter)
;   GPXconfigOverride,r2
;   baudRateOverride,250000
;   overridePrinterModels,1
;   printerModelsOverride
;   startingGcode,;Init 181010,;G28 			; Home all axes,;G1 Z5 F3000 		; Lift,;G92 E0			; Reset extrusion distance,,; // From Cura 181010,; // Update 190823 (GueroLoco),; // Update 191005 Autoleveling,; // Update 192029 Modify Cleaning,; // Start_gcode,M117 *Start Clean*		; Indicate nozzle clean in progress on LCD,;,M104 S[extruder0_temperature] ,M109 S[extruder0_temperature] ,M109 R[extruder0_temperature] ,;,M107			; Turn layer fan off,G21			; Set to metric [change to G20 if you want Imperial],G90			; Force coordinates to be absolute relative to the origin,G28			; Home X/Y/Z axis,G29			; Auto-leveling,;,;G1 X3 Y1 Z15 F9000		; Move safe Z height to shear strings,;G0 X1 Y1 Z0.2 F9000		; Move in 1mm from edge and up [z] 0.2mm,;G92 E0			; Set extruder to [0] zero,;G1 X100 E12 F500		; Extrude 30mm filiment along X axis 100mm long to prime and clean the nozzle,;G92 E0			; Reset extruder to [0] zero end of cleaning run,;G1 E-1 F500			; Retract filiment by 1 mm to reduce string effect,;G1 X180 F4000		; Quick wipe away from the filament line / purge,;,G92 E0			; Set Extruder to 0 ,G1 X0 Y0 F2000		; Move X and Y to 0 with speed 2000 (mm/min),G1 Z0.1 F1000		; Move Z to 0.1,G1 X8.0 F2000		; Move X to 8.0,G1 Y60.0 E4.0 F1000.0		; Prime - Move Y to 60 and Extruder with 4.0,G1 Y100.0 E8.5 F1000.0		; Prime - Move Y to 100 and Extruder with 8.5,G92 E0			; Set extruder to 0,M117 *End Clean*		; Indicate nozzle clean in progress on LCD,G1 X16.0 F3000		; Move X to 16.0,G1 Y-20.0 F3000		; Move Y to -20.0,G1 Z5 F3000			; Move Z to 5 - Lift,G1 X20.0 F3000		; Move X to 20.0,,; ,M117 *Printing...*		; start msg,; // Begin printing with sliced GCode after here,;
;   layerChangeGcode,
;   retractionGcode,
;   toolChangeGcode,
;   endingGcode,;,; init 181010,;,;M107 			; Fan off,;G1 E-1 F300 			; Retract the filament a bit before lifting the nozzle,;M104 S0 			; Turn off extruder,;M140 S0 			; Turn off bed,;G91			; Relative positioning,;G28 X0 Y0 			; Move X/Y to min endstops so the head is out of teh way,;M84 			; Disable motors,;G90 			; Absolute positioning,;M117 Print ready...,,;,; // From Cura 181010,; // End_gcode,G92 E0			; Zero the extruded length,;G1 E-30 F300		; Retract E -30,M106 S0			; Turn off cooling fan,M104 S0			; Turn off temperature,M140 S0		     	; Turn off bed,G91			; Relative positioning,G1 E-1 F300			; Retract the filament a bit before lifting the nozzle to release some of the pressure,G1 Z+20 E-5 X-20 Y-20 F7200	; Move Z up a bit and retract filament even more,G1 X0 Y150 F10000		; Move right min,M107			; Turn off layer fan,M84			; Disable motors,G90			; Absolute positioning,M117 *The-End* 		; End msg,;,
;   exportFileFormat,gcode
;   celebration,0
;   celebrationSong,Star Wars
;   postProcessing,
;   defaultSpeed,1800
;   outlineUnderspeed,0.5
;   solidInfillUnderspeed,0.8
;   supportUnderspeed,0.8
;   rapidXYspeed,6000
;   rapidZspeed,1002
;   minBridgingArea,50
;   bridgingExtraInflation,0.2
;   bridgingExtrusionMultiplier,1
;   bridgingSpeedMultiplier,0.6
;   useFixedBridgingAngle,0
;   fixedBridgingAngle,0
;   applyBridgingToPerimeters,0
;   filamentDiameters,1.75|1.75|1.75|1.75|1.75|1.75
;   filamentPricesPerKg,30|46|46|46|46|46
;   filamentDensities,1.25|1.25|1.25|1.25|1.25|1.25
;   useMinPrintHeight,0
;   minPrintHeight,0
;   useMaxPrintHeight,0
;   maxPrintHeight,9
;   useDiaphragm,0
;   diaphragmLayerInterval,20
;   robustSlicing,1
;   mergeAllIntoSolid,0
;   onlyRetractWhenCrossingOutline,1
;   retractBetweenLayers,1
;   useRetractionMinTravel,1
;   retractionMinTravel,3
;   retractWhileWiping,1
;   onlyWipeOutlines,1
;   avoidCrossingOutline,1
;   maxMovementDetourFactor,3
;   toolChangeRetractionDistance,12
;   toolChangeExtraRestartDistance,-0.5
;   toolChangeRetractionSpeed,600
;   externalThinWallType,1
;   internalThinWallType,1
;   thinWallAllowedOverlapPercentage,15
;   singleExtrusionMinLength,1
;   singleExtrusionMinPrintingWidthPercentage,50
;   singleExtrusionMaxPrintingWidthPercentage,200
;   singleExtrusionEndpointExtension,0.2
;   horizontalSizeCompensation,0
G90
M82
M106 S0
M140 S60
M190 S60
;Init 181010
;G28 			; Home all axes
;G1 Z5 F3000 		; Lift
;G92 E0			; Reset extrusion distance
; // From Cura 181010
; // Update 190823 (GueroLoco)
; // Update 191005 Autoleveling
; // Update 192029 Modify Cleaning
; // Start_gcode
M117 *Start Clean*		; Indicate nozzle clean in progress on LCD
;
M104 S215 
M109 S215 
M109 R215 
;
M107			; Turn layer fan off
G21			; Set to metric [change to G20 if you want Imperial]
G90			; Force coordinates to be absolute relative to the origin
G28			; Home X/Y/Z axis
G29			; Auto-leveling
;
;G1 X3 Y1 Z15 F9000		; Move safe Z height to shear strings
;G0 X1 Y1 Z0.2 F9000		; Move in 1mm from edge and up [z] 0.2mm
;G92 E0			; Set extruder to [0] zero
;G1 X100 E12 F500		; Extrude 30mm filiment along X axis 100mm long to prime and clean the nozzle
;G92 E0			; Reset extruder to [0] zero end of cleaning run
;G1 E-1 F500			; Retract filiment by 1 mm to reduce string effect
;G1 X180 F4000		; Quick wipe away from the filament line / purge
;
G92 E0			; Set Extruder to 0 
G1 X0 Y0 F2000		; Move X and Y to 0 with speed 2000 (mm/min)
G1 Z0.1 F1000		; Move Z to 0.1
G1 X8.0 F2000		; Move X to 8.0
G1 Y60.0 E4.0 F1000.0		; Prime - Move Y to 60 and Extruder with 4.0
G1 Y100.0 E8.5 F1000.0		; Prime - Move Y to 100 and Extruder with 8.5
G92 E0			; Set extruder to 0
M117 *End Clean*		; Indicate nozzle clean in progress on LCD
G1 X16.0 F3000		; Move X to 16.0
G1 Y-20.0 F3000		; Move Y to -20.0
G1 Z5 F3000			; Move Z to 5 - Lift
G1 X20.0 F3000		; Move X to 20.0
; 
M117 *Printing...*		; start msg
; // Begin printing with sliced GCode after here
;
; process Process1
; layer 1, Z = 0.180
T0
G92 E0.0000
G1 E-3.8000 F3000
; feature skirt
; tool H0.180 W0.350
G1 Z0.300 F1002
G1 X172.298 Y115.672 F6000
G1 Z0.180 F1002
G1 E0.0000 F3000
G92 E0.0000
G1 X172.298 Y125.054 E0.2334 F900
G1 X170.613 Y126.738 E0.2927
G1 X118.232 Y126.738 E1.5961
G1 X116.548 Y125.054 E1.6554
G1 X116.548 Y115.672 E1.8888
G1 X118.232 Y113.988 E1.9481
G1 X170.613 Y113.988 E3.2515
G1 X172.298 Y115.672 E3.3107
G92 E0.0000
G1 E-3.8000 F3000
G1 Z0.480 F1002
G1 X169.248 Y117.038 F6000
G1 X164.105 Y117.038
G1 X154.209 Y118.688
G1 X148.748 Y118.688
G1 X148.748 Y119.599
G1 X139.098 Y121.208
G1 X139.098 Y122.038
G1 X134.117 Y122.038
G1 X124.220 Y123.688
G1 X119.598 Y123.688
G1 X116.898 Y124.909
G1 Z0.180 F1002
G1 E0.0000 F3000
G92 E0.0000
G1 X116.898 Y115.817 E0.2262 F900
G1 X118.377 Y114.338 E0.2783
G1 X170.468 Y114.338 E1.5745
G1 X171.948 Y115.817 E1.6265
G1 X171.948 Y124.909 E1.8527
G1 X170.468 Y126.388 E1.9048
G1 X118.377 Y126.388 E3.2010
G1 X116.898 Y124.909 E3.2530
G92 E0.0000
G1 E-3.8000 F3000
G1 Z0.480 F1002
G1 X171.598 Y124.764 F6000
G1 Z0.180 F1002
G1 E0.0000 F3000
G92 E0.0000
G1 X170.323 Y126.038 E0.0448 F900
G1 X118.522 Y126.038 E1.3338
G1 X117.248 Y124.764 E1.3786
G1 X117.248 Y115.962 E1.5977
G1 X118.522 Y114.688 E1.6425
G1 X170.323 Y114.688 E2.9315
G1 X171.598 Y115.962 E2.9763
G1 X171.598 Y124.764 E3.1953
G92 E0.0000
G1 E-3.8000 F3000
; feature outer perimeter
G1 Z0.480 F1002
G1 X169.248 Y117.038 F6000
G1 Z0.180 F1002
G1 E0.0000 F3000
G92 E0.0000
G1 X169.248 Y123.688 E0.1655 F450
G1 X119.598 Y123.688 E1.4009
G1 X119.598 Y117.038 E1.5664
G1 X169.248 Y117.038 E2.8018
; feature inner perimeter
G1 X168.898 Y117.388 F6000
G92 E0.0000
G1 X168.898 Y123.338 E0.1481 F675
G1 X119.948 Y123.338 E1.3661
G1 X119.948 Y117.388 E1.5141
G1 X168.898 Y117.388 E2.7321
G1 X168.548 Y117.738 F6000
G92 E0.0000
G1 X168.548 Y122.988 E0.1306 F675
G1 X160.298 Y122.988 E0.3359
G1 X160.298 Y117.738 E0.4666
G1 X168.548 Y117.738 E0.6718
G1 X148.048 Y117.738 F6000
G92 E0.0000
G1 X148.048 Y122.988 E0.1306 F675
G1 X139.798 Y122.988 E0.3359
G1 X139.798 Y117.738 E0.4666
G1 X148.048 Y117.738 E0.6718
G1 X128.548 Y117.738 F6000
G92 E0.0000
G1 X128.548 Y122.988 E0.1306 F675
G1 X120.298 Y122.988 E0.3359
G1 X120.298 Y117.738 E0.4666
G1 X128.548 Y117.738 E0.6718
; feature outer perimeter
G1 X129.248 Y118.688 F6000
G92 E0.0000
G1 X129.248 Y122.038 E0.0834 F450
G1 X139.098 Y122.038 E0.3285
G1 X139.098 Y118.688 E0.4118
G1 X129.248 Y118.688 E0.6569
; feature inner perimeter
G1 X128.898 Y118.338 F6000
G92 E0.0000
G1 X128.898 Y122.388 E0.1008 F675
G1 X139.448 Y122.388 E0.3633
G1 X139.448 Y118.338 E0.4641
G1 X128.898 Y118.338 E0.7266
; feature outer perimeter
G1 X148.748 Y118.688 F6000
G92 E0.0000
G1 X148.748 Y122.038 E0.0834 F450
G1 X159.598 Y122.038 E0.3533
G1 X159.598 Y118.688 E0.4367
G1 X148.748 Y118.688 E0.7067
; feature inner perimeter
G1 X148.398 Y118.338 F6000
G92 E0.0000
G1 X148.398 Y122.388 E0.1008 F675
G1 X159.948 Y122.388 E0.3882
G1 X159.948 Y118.338 E0.4889
G1 X148.398 Y118.338 E0.7763
; feature internal single extrusion
; tool H0.180 W0.600
G1 X148.376 Y117.863 F6000
G92 E0.0000
G1 X148.576 Y117.863 E0.0085 F450
G1 X159.969 Y117.863 E0.4945
G1 X159.969 Y122.863 F6000
G92 E0.0000
G1 X148.576 Y122.863 E0.4860 F450
G1 X148.376 Y122.863 E0.4945
G1 X139.470 Y122.863 F6000
G92 E0.0000
G1 X129.075 Y122.863 E0.4434 F450
G1 X128.875 Y122.863 E0.4519
G1 X128.875 Y117.863 F6000
G92 E0.0000
G1 X129.075 Y117.863 E0.0085 F450
G1 X139.470 Y117.863 E0.4519
; feature solid layer
; tool H0.180 W0.350
G1 X140.095 Y118.036 F6000
G92 E0.0000
G1 X147.750 Y118.036 E0.1905 F720
G1 X147.750 Y122.691 E0.3063
G1 X140.095 Y122.691 E0.4968
G1 X140.095 Y118.036 E0.6126
G1 X140.445 Y118.386 F6000
G92 E0.0000
G1 X147.400 Y118.386 E0.1731 F720
G1 X147.400 Y122.341 E0.2715
G1 X140.445 Y122.341 E0.4445
G1 X140.445 Y118.386 E0.5429
G1 X140.795 Y118.736 F6000
G92 E0.0000
G1 X147.050 Y118.736 E0.1556 F720
G1 X147.050 Y121.991 E0.2366
G1 X140.795 Y121.991 E0.3923
G1 X140.795 Y118.736 E0.4733
G1 X141.145 Y119.086 F6000
G92 E0.0000
G1 X146.700 Y119.086 E0.1382 F720
G1 X146.700 Y121.641 E0.2018
G1 X141.145 Y121.641 E0.3400
G1 X141.145 Y119.086 E0.4036
G1 X141.495 Y119.436 F6000
G92 E0.0000
G1 X146.350 Y119.436 E0.1208 F720
G1 X146.350 Y121.291 E0.1670
G1 X141.495 Y121.291 E0.2878
G1 X141.495 Y119.436 E0.3339
G1 X141.845 Y119.786 F6000
G92 E0.0000
G1 X146.000 Y119.786 E0.1034 F720
G1 X146.000 Y120.941 E0.1321
G1 X141.845 Y120.941 E0.2355
G1 X141.845 Y119.786 E0.2643
G1 X142.195 Y120.136 F6000
G92 E0.0000
G1 X145.650 Y120.136 E0.0860 F720
G1 X145.650 Y120.591 E0.0973
G1 X142.195 Y120.591 E0.1833
G1 X142.195 Y120.136 E0.1946
G1 X139.098 Y119.669 F6000
G1 X139.098 Y118.688
G1 X132.583 Y118.688
G1 X128.250 Y118.036
G92 E0.0000
G1 X128.250 Y122.691 E0.1158 F720
G1 X120.595 Y122.691 E0.3063
G1 X120.595 Y118.036 E0.4221
G1 X128.250 Y118.036 E0.6126
G1 X127.900 Y118.386 F6000
G92 E0.0000
G1 X127.900 Y122.341 E0.0984 F720
G1 X120.945 Y122.341 E0.2715
G1 X120.945 Y118.386 E0.3699
G1 X127.900 Y118.386 E0.5429
G1 X127.550 Y118.736 F6000
G92 E0.0000
G1 X127.550 Y121.991 E0.0810 F720
G1 X121.295 Y121.991 E0.2366
G1 X121.295 Y118.736 E0.3176
G1 X127.550 Y118.736 E0.4733
G1 X127.200 Y119.086 F6000
G92 E0.0000
G1 X127.200 Y121.641 E0.0636 F720
G1 X121.645 Y121.641 E0.2018
G1 X121.645 Y119.086 E0.2654
G1 X127.200 Y119.086 E0.4036
G1 X126.850 Y119.436 F6000
G92 E0.0000
G1 X126.850 Y121.291 E0.0462 F720
G1 X121.995 Y121.291 E0.1670
G1 X121.995 Y119.436 E0.2131
G1 X126.850 Y119.436 E0.3339
G1 X126.500 Y119.786 F6000
G92 E0.0000
G1 X126.500 Y120.941 E0.0287 F720
G1 X122.345 Y120.941 E0.1321
G1 X122.345 Y119.786 E0.1609
G1 X126.500 Y119.786 E0.2643
G1 X126.150 Y120.136 F6000
G92 E0.0000
G1 X126.150 Y120.591 E0.0113 F720
G1 X122.695 Y120.591 E0.0973
G1 X122.695 Y120.136 E0.1086
G1 X126.150 Y120.136 E0.1946
G1 X129.248 Y119.947 F6000
G1 X129.248 Y118.688
G1 X139.098 Y118.688
G1 X139.098 Y119.346
G1 X148.748 Y118.758
G1 X148.748 Y118.688
G1 X149.893 Y118.688
G1 X160.595 Y118.036
G92 E0.0000
G1 X168.250 Y118.036 E0.1905 F720
G1 X168.250 Y122.691 E0.3063
G1 X160.595 Y122.691 E0.4968
G1 X160.595 Y118.036 E0.6126
G1 X160.945 Y118.386 F6000
G92 E0.0000
G1 X167.900 Y118.386 E0.1731 F720
G1 X167.900 Y122.341 E0.2715
G1 X160.945 Y122.341 E0.4445
G1 X160.945 Y118.386 E0.5429
G1 X161.295 Y118.736 F6000
G92 E0.0000
G1 X167.550 Y118.736 E0.1556 F720
G1 X167.550 Y121.991 E0.2366
G1 X161.295 Y121.991 E0.3923
G1 X161.295 Y118.736 E0.4733
G1 X161.645 Y119.086 F6000
