; G-Code generated by Simplify3D(R) Version 4.0.1
; Nov 21, 2019 at 8:32:38 PM
; Settings Summary
;   processName,Process1
;   applyToModels,signal_4_feux_cible_arrondis_droite_HO_Feux
;   profileName,401s Tevo Tornado (experimental)
;   profileVersion,2019-11-19 20:29:34
;   baseProfile,Creality CR-10(2)
;   printMaterial,PLA
;   printQuality,Medium
;   printExtruders,
;   extruderName,Primary Extruder
;   extruderToolheadNumber,0
;   extruderDiameter,0.4
;   extruderAutoWidth,0
;   extruderWidth,0.35
;   extrusionMultiplier,0.95
;   extruderUseRetract,1
;   extruderRetractionDistance,3.8
;   extruderExtraRestartDistance,0
;   extruderRetractionZLift,0.3
;   extruderRetractionSpeed,3000
;   extruderUseCoasting,0
;   extruderCoastingDistance,0.2
;   extruderUseWipe,0
;   extruderWipeDistance,4
;   primaryExtruder,0
;   layerHeight,0.15
;   topSolidLayers,4
;   bottomSolidLayers,3
;   perimeterOutlines,3
;   printPerimetersInsideOut,0
;   startPointOption,1
;   startPointOriginX,0
;   startPointOriginY,300
;   sequentialIslands,0
;   spiralVaseMode,0
;   firstLayerHeightPercentage,120
;   firstLayerWidthPercentage,100
;   firstLayerUnderspeed,0.5
;   useRaft,0
;   raftExtruder,0
;   raftTopLayers,3
;   raftBaseLayers,2
;   raftOffset,3
;   raftSeparationDistance,0.14
;   raftTopInfill,100
;   aboveRaftSpeedMultiplier,0.3
;   useSkirt,1
;   skirtExtruder,0
;   skirtLayers,1
;   skirtOutlines,3
;   skirtOffset,2
;   usePrimePillar,0
;   primePillarExtruder,999
;   primePillarWidth,12
;   primePillarLocation,7
;   primePillarSpeedMultiplier,1
;   useOozeShield,0
;   oozeShieldExtruder,999
;   oozeShieldOffset,2
;   oozeShieldOutlines,1
;   oozeShieldSidewallShape,1
;   oozeShieldSidewallAngle,30
;   oozeShieldSpeedMultiplier,1
;   infillExtruder,0
;   internalInfillPattern,Grid
;   externalInfillPattern,Concentric
;   infillPercentage,25
;   outlineOverlapPercentage,15
;   infillExtrusionWidthPercentage,100
;   minInfillLength,5
;   infillLayerInterval,1
;   internalInfillAngles,45,-45
;   overlapInternalInfillAngles,1
;   externalInfillAngles,45,-45
;   generateSupport,1
;   supportExtruder,0
;   supportInfillPercentage,30
;   supportExtraInflation,0
;   supportBaseLayers,0
;   denseSupportExtruder,0
;   denseSupportLayers,0
;   denseSupportInfillPercentage,70
;   supportLayerInterval,1
;   supportHorizontalPartOffset,0.4
;   supportUpperSeparationLayers,1
;   supportLowerSeparationLayers,1
;   supportType,0
;   supportGridSpacing,4.5
;   maxOverhangAngle,45
;   supportAngles,0
;   temperatureName,Primary Extruder,Heated Bed
;   temperatureNumber,0,0
;   temperatureSetpointCount,2,1
;   temperatureSetpointLayers,1,2,1
;   temperatureSetpointTemperatures,215,210,60
;   temperatureStabilizeAtStartup,1,1
;   temperatureHeatedBed,0,1
;   temperatureRelayBetweenLayers,0,0
;   temperatureRelayBetweenLoops,0,0
;   fanLayers,1,2
;   fanSpeeds,0,100
;   blipFanToFullPower,0
;   adjustSpeedForCooling,1
;   minSpeedLayerTime,15
;   minCoolingSpeedSlowdown,50
;   increaseFanForCooling,1
;   minFanLayerTime,25
;   maxCoolingFanSpeed,100
;   increaseFanForBridging,1
;   bridgingFanSpeed,100
;   use5D,1
;   relativeEdistances,0
;   allowEaxisZeroing,1
;   independentExtruderAxes,0
;   includeM10123,0
;   stickySupport,1
;   applyToolheadOffsets,0
;   gcodeXoffset,0
;   gcodeYoffset,0
;   gcodeZoffset,0
;   overrideMachineDefinition,1
;   machineTypeOverride,0
;   strokeXoverride,300
;   strokeYoverride,300
;   strokeZoverride,400
;   originOffsetXoverride,0
;   originOffsetYoverride,0
;   originOffsetZoverride,0
;   homeXdirOverride,-1
;   homeYdirOverride,-1
;   homeZdirOverride,-1
;   flipXoverride,1
;   flipYoverride,-1
;   flipZoverride,1
;   toolheadOffsets,0,0|0,0|0,0|0,0|0,0|0,0
;   overrideFirmwareConfiguration,1
;   firmwareTypeOverride,RepRap (Marlin/Repetier/Sprinter)
;   GPXconfigOverride,r2
;   baudRateOverride,250000
;   overridePrinterModels,1
;   printerModelsOverride
;   startingGcode,;,; -]H.P.B[- MarshMalloW  ,; $VER: StartScript 1.01 (13.11.2019) MarshMalloW,;,; Begin Startcode,;,M117 *Start Clean*     	; Indicate nozzle clean in progress on LCD,;,;extruder0_temperature,M104 S[extruder0_temperature]  ,M109 S[extruder0_temperature] ,M109 R[extruder0_temperature] ,;,M107                   	; Turn layer fan off,G21                    	; Set to metric [change to G20 if you want Imperial],G90                    	; Force coordinates to be absolute relative to the origin,G28                    	; Home X/Y/Z axis,G29                    	; Auto-leveling (BL-Touch),;,G92 E0                 	; Set Extruder to 0 ,G1 X0 Y0 F2000         	; Move X and Y to 0 with speed 2000 (mm/min),G1 Z0.1 F1000          	; Move Z to   0.1 with speed 1000 (mm/min),G1 X8.0 F2000          	; Move X to   8.0 with speed 2000 (mm/min),G1 Y60.0 E4.0 F1000.0  	; Move Y to  60 and Extruder with 4.0 with speed 1000 (mm/min),G1 Y100.0 E8.5 F1000.0 	; Move Y to 100 and Extruder with 8.5 with speed 1000 (mm/min),G92 E0                 	; Set extruder to 0,G1 X16.0 F3000         	; Move X to 16.0 with speed 3000 (mm/min),G1 Y60.0 F3000         	; Move Y to 60.0 with speed 3000 (mm/min),M117 *End Clean*       	; Indicate nozzle clean in progress on LCD,G1 Z5 F3000            	; Move Z to  5.0 with speed 3000 (mm/min),G1 X20.0 F3000         	; Move X to 20.0 with speed 3000 (mm/min),; ,M117 *Printing...*     	; Start printing msg on LCD,;,; End Startcode,;,; Begin printing with sliced GCode after here,;
;   layerChangeGcode,
;   retractionGcode,
;   toolChangeGcode,
;   endingGcode,;,; init 181010,;,;M107 			; Fan off,;G1 E-1 F300 			; Retract the filament a bit before lifting the nozzle,;M104 S0 			; Turn off extruder,;M140 S0 			; Turn off bed,;G91			; Relative positioning,;G28 X0 Y0 			; Move X/Y to min endstops so the head is out of teh way,;M84 			; Disable motors,;G90 			; Absolute positioning,;M117 Print ready...,,;,; // From Cura 181010,; // End_gcode,G92 E0			; Zero the extruded length,;G1 E-30 F300		; Retract E -30,M106 S0			; Turn off cooling fan,M104 S0			; Turn off temperature,M140 S0		     	; Turn off bed,G91			; Relative positioning,G1 E-1 F300			; Retract the filament a bit before lifting the nozzle to release some of the pressure,G1 Z+20 E-5 X-20 Y-20 F7200	; Move Z up a bit and retract filament even more,G1 X0 Y150 F10000		; Move right min,M107			; Turn off layer fan,M84			; Disable motors,G90			; Absolute positioning,M117 *The-End* 		; End msg,;,
;   exportFileFormat,gcode
;   celebration,0
;   celebrationSong,Star Wars
;   postProcessing,
;   defaultSpeed,1800
;   outlineUnderspeed,0.5
;   solidInfillUnderspeed,0.8
;   supportUnderspeed,0.8
;   rapidXYspeed,6000
;   rapidZspeed,1002
;   minBridgingArea,50
;   bridgingExtraInflation,0.2
;   bridgingExtrusionMultiplier,1
;   bridgingSpeedMultiplier,0.6
;   useFixedBridgingAngle,0
;   fixedBridgingAngle,0
;   applyBridgingToPerimeters,0
;   filamentDiameters,1.75|1.75|1.75|1.75|1.75|1.75
;   filamentPricesPerKg,30|46|46|46|46|46
;   filamentDensities,1.25|1.25|1.25|1.25|1.25|1.25
;   useMinPrintHeight,0
;   minPrintHeight,0
;   useMaxPrintHeight,0
;   maxPrintHeight,9
;   useDiaphragm,0
;   diaphragmLayerInterval,20
;   robustSlicing,1
;   mergeAllIntoSolid,0
;   onlyRetractWhenCrossingOutline,1
;   retractBetweenLayers,1
;   useRetractionMinTravel,1
;   retractionMinTravel,3
;   retractWhileWiping,1
;   onlyWipeOutlines,1
;   avoidCrossingOutline,1
;   maxMovementDetourFactor,3
;   toolChangeRetractionDistance,12
;   toolChangeExtraRestartDistance,-0.5
;   toolChangeRetractionSpeed,600
;   externalThinWallType,1
;   internalThinWallType,1
;   thinWallAllowedOverlapPercentage,15
;   singleExtrusionMinLength,1
;   singleExtrusionMinPrintingWidthPercentage,50
;   singleExtrusionMaxPrintingWidthPercentage,200
;   singleExtrusionEndpointExtension,0.2
;   horizontalSizeCompensation,0
G90
M82
M106 S0
M140 S60
M190 S60
;
; -]H.P.B[- MarshMalloW  
; $VER: StartScript 1.01 (13.11.2019) MarshMalloW
;
; Begin Startcode
;
M117 *Start Clean*     	; Indicate nozzle clean in progress on LCD
;
;extruder0_temperature
M104 S215  
M109 S215 
M109 R215 
;
M107                   	; Turn layer fan off
G21                    	; Set to metric [change to G20 if you want Imperial]
G90                    	; Force coordinates to be absolute relative to the origin
G28                    	; Home X/Y/Z axis
G29                    	; Auto-leveling (BL-Touch)
;
G92 E0                 	; Set Extruder to 0 
G1 X0 Y0 F2000         	; Move X and Y to 0 with speed 2000 (mm/min)
G1 Z0.1 F1000          	; Move Z to   0.1 with speed 1000 (mm/min)
G1 X8.0 F2000          	; Move X to   8.0 with speed 2000 (mm/min)
G1 Y60.0 E4.0 F1000.0  	; Move Y to  60 and Extruder with 4.0 with speed 1000 (mm/min)
G1 Y100.0 E8.5 F1000.0 	; Move Y to 100 and Extruder with 8.5 with speed 1000 (mm/min)
G92 E0                 	; Set extruder to 0
G1 X16.0 F3000         	; Move X to 16.0 with speed 3000 (mm/min)
G1 Y60.0 F3000         	; Move Y to 60.0 with speed 3000 (mm/min)
M117 *End Clean*       	; Indicate nozzle clean in progress on LCD
G1 Z5 F3000            	; Move Z to  5.0 with speed 3000 (mm/min)
G1 X20.0 F3000         	; Move X to 20.0 with speed 3000 (mm/min)
; 
M117 *Printing...*     	; Start printing msg on LCD
;
; End Startcode
;
; Begin printing with sliced GCode after here
;
G92 E0
G1 E-3.8000 F3000
G1 Z0.480 F1002
; process Process1
; layer 1, Z = 0.180
T0
; tool H0.180 W0.350
; skirt
G1 X141.150 Y139.747 F6000
G1 Z0.180 F1002
G1 E0.0000 F900
G92 E0
G1 X141.547 Y139.350 E0.0140 F900
G1 X141.583 Y139.317 E0.0152
G1 X141.797 Y139.147 E0.0220
G1 X141.837 Y139.118 E0.0232
G1 X142.312 Y138.820 E0.0372
G1 X142.355 Y138.796 E0.0384
G1 X142.602 Y138.677 E0.0452
G1 X142.647 Y138.659 E0.0464
G1 X143.176 Y138.473 E0.0604
G1 X143.224 Y138.460 E0.0616
G1 X143.491 Y138.399 E0.0684
G1 X143.539 Y138.391 E0.0696
G1 X144.028 Y138.335 E0.0819
G1 X144.053 Y138.333 E0.0825
G1 X144.189 Y138.326 E0.0859
G1 X144.214 Y138.325 E0.0865
G1 X151.050 Y138.325 E0.2566
G1 X151.075 Y138.326 E0.2572
G1 X151.211 Y138.333 E0.2606
G1 X151.236 Y138.335 E0.2612
G1 X151.800 Y138.399 E0.2754
G1 X151.848 Y138.407 E0.2766
G1 X152.115 Y138.468 E0.2834
G1 X152.162 Y138.482 E0.2846
G1 X152.762 Y138.692 E0.3004
G1 X152.808 Y138.711 E0.3017
G1 X153.055 Y138.829 E0.3085
G1 X153.098 Y138.853 E0.3097
G1 X153.636 Y139.192 E0.3255
G1 X153.676 Y139.220 E0.3267
G1 X153.890 Y139.391 E0.3336
G1 X153.927 Y139.423 E0.3348
G1 X154.377 Y139.873 E0.3506
G1 X154.409 Y139.910 E0.3518
G1 X154.580 Y140.124 E0.3586
G1 X154.608 Y140.164 E0.3599
G1 X154.947 Y140.702 E0.3757
G1 X154.971 Y140.745 E0.3769
G1 X155.089 Y140.992 E0.3837
G1 X155.108 Y141.037 E0.3849
G1 X155.318 Y141.638 E0.4008
G1 X155.332 Y141.685 E0.4020
G1 X155.393 Y141.952 E0.4088
G1 X155.401 Y142.000 E0.4100
G1 X155.465 Y142.564 E0.4242
G1 X155.467 Y142.589 E0.4248
G1 X155.474 Y142.725 E0.4282
G1 X155.475 Y142.750 E0.4288
G1 X155.475 Y148.649 E0.5756
G1 X158.574 Y151.537 E0.6810
G1 X158.590 Y151.553 E0.6815
G1 X158.677 Y151.643 E0.6846
G1 X158.692 Y151.659 E0.6852
G1 X158.998 Y152.010 E0.6968
G1 X159.026 Y152.045 E0.6979
G1 X159.171 Y152.249 E0.7041
G1 X159.195 Y152.287 E0.7052
G1 X159.454 Y152.747 E0.7184
G1 X159.474 Y152.787 E0.7195
G1 X159.574 Y153.017 E0.7257
G1 X159.589 Y153.059 E0.7268
G1 X159.749 Y153.562 E0.7400
G1 X159.761 Y153.606 E0.7411
G1 X159.812 Y153.851 E0.7473
G1 X159.819 Y153.895 E0.7484
G1 X159.866 Y154.358 E0.7600
G1 X159.868 Y154.380 E0.7606
G1 X159.874 Y154.505 E0.7637
G1 X159.875 Y154.528 E0.7643
G1 X159.875 Y157.400 E0.8357
G1 X159.874 Y157.425 E0.8363
G1 X159.867 Y157.561 E0.8397
G1 X159.865 Y157.586 E0.8404
G1 X159.805 Y158.116 E0.8536
G1 X159.797 Y158.165 E0.8549
G1 X159.736 Y158.432 E0.8617
G1 X159.722 Y158.479 E0.8629
G1 X159.523 Y159.048 E0.8779
G1 X159.504 Y159.093 E0.8791
G1 X159.385 Y159.340 E0.8859
G1 X159.362 Y159.383 E0.8871
G1 X159.041 Y159.893 E0.9021
G1 X159.013 Y159.933 E0.9034
G1 X158.842 Y160.147 E0.9102
G1 X158.809 Y160.183 E0.9114
G1 X158.383 Y160.609 E0.9264
G1 X158.347 Y160.642 E0.9276
G1 X158.133 Y160.813 E0.9344
G1 X158.093 Y160.841 E0.9356
G1 X157.582 Y161.162 E0.9506
G1 X157.539 Y161.186 E0.9519
G1 X157.293 Y161.304 E0.9587
G1 X157.248 Y161.323 E0.9599
G1 X156.679 Y161.522 E0.9749
G1 X156.632 Y161.536 E0.9761
G1 X156.365 Y161.597 E0.9829
G1 X156.316 Y161.605 E0.9841
G1 X155.786 Y161.665 E0.9974
G1 X155.761 Y161.667 E0.9980
G1 X155.625 Y161.674 E1.0014
G1 X155.600 Y161.675 E1.0020
G1 X144.098 Y161.675 E1.2883
G1 X144.073 Y161.674 E1.2889
G1 X143.937 Y161.667 E1.2923
G1 X143.912 Y161.665 E1.2929
G1 X143.449 Y161.612 E1.3045
G1 X143.400 Y161.604 E1.3057
G1 X143.134 Y161.543 E1.3125
G1 X143.086 Y161.530 E1.3137
G1 X142.581 Y161.353 E1.3271
G1 X142.536 Y161.334 E1.3283
G1 X142.289 Y161.215 E1.3351
G1 X142.247 Y161.192 E1.3363
G1 X141.794 Y160.907 E1.3496
G1 X141.754 Y160.879 E1.3508
G1 X141.540 Y160.708 E1.3576
G1 X141.503 Y160.675 E1.3589
G1 X141.125 Y160.297 E1.3722
G1 X141.092 Y160.261 E1.3734
G1 X140.921 Y160.046 E1.3802
G1 X140.893 Y160.006 E1.3814
G1 X140.608 Y159.553 E1.3947
G1 X140.585 Y159.510 E1.3960
G1 X140.466 Y159.264 E1.4028
G1 X140.447 Y159.219 E1.4040
G1 X140.270 Y158.714 E1.4173
G1 X140.257 Y158.666 E1.4185
G1 X140.196 Y158.399 E1.4253
G1 X140.188 Y158.351 E1.4266
G1 X140.135 Y157.888 E1.4382
G1 X140.133 Y157.863 E1.4388
G1 X140.126 Y157.727 E1.4422
G1 X140.125 Y157.702 E1.4428
G1 X140.125 Y142.414 E1.8232
G1 X140.126 Y142.389 E1.8238
G1 X140.133 Y142.253 E1.8272
G1 X140.135 Y142.228 E1.8278
G1 X140.191 Y141.739 E1.8401
G1 X140.199 Y141.690 E1.8413
G1 X140.260 Y141.424 E1.8481
G1 X140.273 Y141.376 E1.8493
G1 X140.458 Y140.847 E1.8633
G1 X140.477 Y140.802 E1.8645
G1 X140.596 Y140.555 E1.8713
G1 X140.620 Y140.512 E1.8726
G1 X140.918 Y140.037 E1.8865
G1 X140.947 Y139.997 E1.8877
G1 X141.117 Y139.783 E1.8945
G1 X141.150 Y139.746 E1.8958
G1 X141.404 Y139.987 F6000
G92 E0
G1 X141.787 Y139.604 E0.0135 F900
G1 X141.809 Y139.585 E0.0142
G1 X142.008 Y139.426 E0.0205
G1 X142.032 Y139.409 E0.0213
G1 X142.490 Y139.121 E0.0347
G1 X142.516 Y139.107 E0.0355
G1 X142.745 Y138.997 E0.0418
G1 X142.772 Y138.986 E0.0425
G1 X143.283 Y138.807 E0.0560
G1 X143.311 Y138.799 E0.0567
G1 X143.559 Y138.742 E0.0630
G1 X143.588 Y138.737 E0.0638
G1 X144.062 Y138.684 E0.0756
G1 X144.077 Y138.683 E0.0760
G1 X144.204 Y138.675 E0.0792
G1 X144.219 Y138.675 E0.0795
G1 X151.045 Y138.675 E0.2494
G1 X151.060 Y138.675 E0.2498
G1 X151.187 Y138.683 E0.2529
G1 X151.201 Y138.684 E0.2533
G1 X151.751 Y138.746 E0.2671
G1 X151.780 Y138.751 E0.2678
G1 X152.027 Y138.807 E0.2741
G1 X152.056 Y138.815 E0.2748
G1 X152.638 Y139.019 E0.2902
G1 X152.665 Y139.030 E0.2909
G1 X152.894 Y139.140 E0.2972
G1 X152.920 Y139.155 E0.2980
G1 X153.442 Y139.483 E0.3133
G1 X153.466 Y139.500 E0.3140
G1 X153.664 Y139.658 E0.3204
G1 X153.686 Y139.678 E0.3211
G1 X154.122 Y140.114 E0.3364
G1 X154.142 Y140.136 E0.3372
G1 X154.300 Y140.334 E0.3435
G1 X154.317 Y140.358 E0.3442
G1 X154.645 Y140.880 E0.3596
G1 X154.660 Y140.906 E0.3603
G1 X154.770 Y141.135 E0.3666
G1 X154.781 Y141.162 E0.3674
G1 X154.985 Y141.744 E0.3827
G1 X154.993 Y141.772 E0.3834
G1 X155.049 Y142.020 E0.3897
G1 X155.054 Y142.049 E0.3905
G1 X155.116 Y142.599 E0.4042
G1 X155.117 Y142.613 E0.4046
G1 X155.125 Y142.740 E0.4078
G1 X155.125 Y142.755 E0.4081
G1 X155.125 Y148.802 E0.5586
G1 X158.332 Y151.790 E0.6677
G1 X158.342 Y151.799 E0.6680
G1 X158.422 Y151.883 E0.6709
G1 X158.432 Y151.893 E0.6712
G1 X158.729 Y152.233 E0.6825
G1 X158.746 Y152.254 E0.6831
G1 X158.880 Y152.444 E0.6889
G1 X158.894 Y152.466 E0.6896
G1 X159.144 Y152.911 E0.7023
G1 X159.156 Y152.935 E0.7030
G1 X159.249 Y153.148 E0.7087
G1 X159.259 Y153.173 E0.7094
G1 X159.413 Y153.660 E0.7221
G1 X159.420 Y153.686 E0.7228
G1 X159.467 Y153.913 E0.7285
G1 X159.471 Y153.940 E0.7292
G1 X159.518 Y154.389 E0.7405
G1 X159.519 Y154.403 E0.7408
G1 X159.525 Y154.519 E0.7437
G1 X159.525 Y154.532 E0.7440
G1 X159.525 Y157.395 E0.8153
G1 X159.525 Y157.410 E0.8156
G1 X159.517 Y157.537 E0.8188
G1 X159.516 Y157.551 E0.8192
