; G-Code generated by Simplify3D(R) Version 4.1.2
; Nov 11, 2019 at 6:02:06 PM
; Settings Summary
;   processName,Process1
;   applyToModels,Feux03
;   profileName,401s Tevo Tornado (experimental)
;   profileVersion,2019-10-29 11:02:25
;   baseProfile,Creality CR-10(2)
;   printMaterial,PLA
;   printQuality,Medium
;   printExtruders,
;   extruderName,Primary Extruder
;   extruderToolheadNumber,0
;   extruderDiameter,0.4
;   extruderAutoWidth,0
;   extruderWidth,0.35
;   extrusionMultiplier,0.95
;   extruderUseRetract,1
;   extruderRetractionDistance,3.8
;   extruderExtraRestartDistance,0
;   extruderRetractionZLift,0.3
;   extruderRetractionSpeed,3000
;   extruderUseCoasting,0
;   extruderCoastingDistance,0.2
;   extruderUseWipe,0
;   extruderWipeDistance,4
;   primaryExtruder,0
;   layerHeight,0.15
;   topSolidLayers,4
;   bottomSolidLayers,3
;   perimeterOutlines,3
;   printPerimetersInsideOut,0
;   startPointOption,1
;   startPointOriginX,0
;   startPointOriginY,300
;   sequentialIslands,0
;   spiralVaseMode,0
;   firstLayerHeightPercentage,120
;   firstLayerWidthPercentage,100
;   firstLayerUnderspeed,0.5
;   useRaft,0
;   raftExtruder,0
;   raftTopLayers,3
;   raftBaseLayers,2
;   raftOffset,3
;   raftSeparationDistance,0.14
;   raftTopInfill,100
;   aboveRaftSpeedMultiplier,0.3
;   useSkirt,1
;   skirtExtruder,0
;   skirtLayers,1
;   skirtOutlines,3
;   skirtOffset,2
;   usePrimePillar,0
;   primePillarExtruder,999
;   primePillarWidth,12
;   primePillarLocation,7
;   primePillarSpeedMultiplier,1
;   useOozeShield,0
;   oozeShieldExtruder,999
;   oozeShieldOffset,2
;   oozeShieldOutlines,1
;   oozeShieldSidewallShape,1
;   oozeShieldSidewallAngle,30
;   oozeShieldSpeedMultiplier,1
;   infillExtruder,0
;   internalInfillPattern,Grid
;   externalInfillPattern,Concentric
;   infillPercentage,25
;   outlineOverlapPercentage,15
;   infillExtrusionWidthPercentage,100
;   minInfillLength,5
;   infillLayerInterval,1
;   internalInfillAngles,45,-45
;   overlapInternalInfillAngles,1
;   externalInfillAngles,45,-45
;   generateSupport,1
;   supportExtruder,0
;   supportInfillPercentage,30
;   supportExtraInflation,0
;   supportBaseLayers,0
;   denseSupportExtruder,0
;   denseSupportLayers,0
;   denseSupportInfillPercentage,70
;   supportLayerInterval,1
;   supportHorizontalPartOffset,0.4
;   supportUpperSeparationLayers,1
;   supportLowerSeparationLayers,1
;   supportType,0
;   supportGridSpacing,4.5
;   maxOverhangAngle,45
;   supportAngles,0
;   temperatureName,Primary Extruder,Heated Bed
;   temperatureNumber,0,0
;   temperatureSetpointCount,2,1
;   temperatureSetpointLayers,1,2,1
;   temperatureSetpointTemperatures,215,210,60
;   temperatureStabilizeAtStartup,1,1
;   temperatureHeatedBed,0,1
;   fanLayers,1,2
;   fanSpeeds,0,100
;   blipFanToFullPower,0
;   adjustSpeedForCooling,1
;   minSpeedLayerTime,15
;   minCoolingSpeedSlowdown,50
;   increaseFanForCooling,1
;   minFanLayerTime,25
;   maxCoolingFanSpeed,100
;   increaseFanForBridging,1
;   bridgingFanSpeed,100
;   use5D,1
;   relativeEdistances,0
;   allowEaxisZeroing,1
;   independentExtruderAxes,0
;   includeM10123,0
;   stickySupport,1
;   applyToolheadOffsets,0
;   gcodeXoffset,0
;   gcodeYoffset,0
;   gcodeZoffset,0
;   overrideMachineDefinition,1
;   machineTypeOverride,0
;   strokeXoverride,300
;   strokeYoverride,300
;   strokeZoverride,400
;   originOffsetXoverride,0
;   originOffsetYoverride,0
;   originOffsetZoverride,0
;   homeXdirOverride,-1
;   homeYdirOverride,-1
;   homeZdirOverride,-1
;   flipXoverride,1
;   flipYoverride,-1
;   flipZoverride,1
;   toolheadOffsets,0,0|0,0|0,0|0,0|0,0|0,0
;   overrideFirmwareConfiguration,1
;   firmwareTypeOverride,RepRap (Marlin/Repetier/Sprinter)
;   GPXconfigOverride,r2
;   baudRateOverride,250000
;   overridePrinterModels,1
;   printerModelsOverride
;   startingGcode,;Init 181010,;G28 			; Home all axes,;G1 Z5 F3000 		; Lift,;G92 E0			; Reset extrusion distance,,; // From Cura 181010,; // Update 190823 (GueroLoco),; // Update 191005 Autoleveling,; // Update 192029 Modify Cleaning,; // Start_gcode,M117 *Start Clean*		; Indicate nozzle clean in progress on LCD,;,M104 S[extruder0_temperature] ,M109 S[extruder0_temperature] ,M109 R[extruder0_temperature] ,;,M107			; Turn layer fan off,G21			; Set to metric [change to G20 if you want Imperial],G90			; Force coordinates to be absolute relative to the origin,G28			; Home X/Y/Z axis,G29			; Auto-leveling,;,;G1 X3 Y1 Z15 F9000		; Move safe Z height to shear strings,;G0 X1 Y1 Z0.2 F9000		; Move in 1mm from edge and up [z] 0.2mm,;G92 E0			; Set extruder to [0] zero,;G1 X100 E12 F500		; Extrude 30mm filiment along X axis 100mm long to prime and clean the nozzle,;G92 E0			; Reset extruder to [0] zero end of cleaning run,;G1 E-1 F500			; Retract filiment by 1 mm to reduce string effect,;G1 X180 F4000		; Quick wipe away from the filament line / purge,;,G92 E0			; Set Extruder to 0 ,G1 X0 Y0 F2000		; Move X and Y to 0 with speed 2000 (mm/min),G1 Z0.1 F1000		; Move Z to 0.1,G1 X8.0 F2000		; Move X to 8.0,G1 Y60.0 E4.0 F1000.0		; Prime - Move Y to 60 and Extruder with 4.0,G1 Y100.0 E8.5 F1000.0		; Prime - Move Y to 100 and Extruder with 8.5,G92 E0			; Set extruder to 0,M117 *End Clean*		; Indicate nozzle clean in progress on LCD,G1 X16.0 F3000		; Move X to 16.0,G1 Y-20.0 F3000		; Move Y to -20.0,G1 Z5 F3000			; Move Z to 5 - Lift,G1 X20.0 F3000		; Move X to 20.0,; ,M117 *Printing...*		; start msg,; // Begin printing with sliced GCode after here,;
;   layerChangeGcode,
;   retractionGcode,
;   toolChangeGcode,
;   endingGcode,;,; init 181010,;,;M107 			; Fan off,;G1 E-1 F300 			; Retract the filament a bit before lifting the nozzle,;M104 S0 			; Turn off extruder,;M140 S0 			; Turn off bed,;G91			; Relative positioning,;G28 X0 Y0 			; Move X/Y to min endstops so the head is out of teh way,;M84 			; Disable motors,;G90 			; Absolute positioning,;M117 Print ready...,,;,; // From Cura 181010,; // End_gcode,G92 E0			; Zero the extruded length,;G1 E-30 F300		; Retract E -30,M106 S0			; Turn off cooling fan,M104 S0			; Turn off temperature,M140 S0		     	; Turn off bed,G91			; Relative positioning,G1 E-1 F300			; Retract the filament a bit before lifting the nozzle to release some of the pressure,G1 Z+20 E-5 X-20 Y-20 F7200	; Move Z up a bit and retract filament even more,G1 X0 Y150 F10000		; Move right min,M107			; Turn off layer fan,M84			; Disable motors,G90			; Absolute positioning,M117 *The-End* 		; End msg,;,
;   exportFileFormat,gcode
;   celebration,0
;   celebrationSong,Star Wars
;   postProcessing,
;   defaultSpeed,1800
;   outlineUnderspeed,0.5
;   solidInfillUnderspeed,0.8
;   supportUnderspeed,0.8
;   rapidXYspeed,6000
;   rapidZspeed,1002
;   minBridgingArea,50
;   bridgingExtraInflation,0.2
;   bridgingExtrusionMultiplier,1
;   bridgingSpeedMultiplier,0.6
;   useFixedBridgingAngle,0
;   fixedBridgingAngle,0
;   applyBridgingToPerimeters,0
;   filamentDiameters,1.75|1.75|1.75|1.75|1.75|1.75
;   filamentPricesPerKg,30|46|46|46|46|46
;   filamentDensities,1.25|1.25|1.25|1.25|1.25|1.25
;   useMinPrintHeight,0
;   minPrintHeight,0
;   useMaxPrintHeight,0
;   maxPrintHeight,9
;   useDiaphragm,0
;   diaphragmLayerInterval,20
;   robustSlicing,1
;   mergeAllIntoSolid,0
;   onlyRetractWhenCrossingOutline,1
;   retractBetweenLayers,1
;   useRetractionMinTravel,1
;   retractionMinTravel,3
;   retractWhileWiping,1
;   onlyWipeOutlines,1
;   avoidCrossingOutline,1
;   maxMovementDetourFactor,3
;   toolChangeRetractionDistance,12
;   toolChangeExtraRestartDistance,-0.5
;   toolChangeRetractionSpeed,600
;   externalThinWallType,1
;   internalThinWallType,1
;   thinWallAllowedOverlapPercentage,15
;   singleExtrusionMinLength,1
;   singleExtrusionMinPrintingWidthPercentage,50
;   singleExtrusionMaxPrintingWidthPercentage,200
;   singleExtrusionEndpointExtension,0.2
;   horizontalSizeCompensation,0
G90
M82
M106 S0
M140 S60
M190 S60
;Init 181010
;G28 			; Home all axes
;G1 Z5 F3000 		; Lift
;G92 E0			; Reset extrusion distance
; // From Cura 181010
; // Update 190823 (GueroLoco)
; // Update 191005 Autoleveling
; // Update 192029 Modify Cleaning
; // Start_gcode
M117 *Start Clean*		; Indicate nozzle clean in progress on LCD
;
M104 S215 
M109 S215 
M109 R215 
;
M107			; Turn layer fan off
G21			; Set to metric [change to G20 if you want Imperial]
G90			; Force coordinates to be absolute relative to the origin
G28			; Home X/Y/Z axis
G29			; Auto-leveling
;
;G1 X3 Y1 Z15 F9000		; Move safe Z height to shear strings
;G0 X1 Y1 Z0.2 F9000		; Move in 1mm from edge and up [z] 0.2mm
;G92 E0			; Set extruder to [0] zero
;G1 X100 E12 F500		; Extrude 30mm filiment along X axis 100mm long to prime and clean the nozzle
;G92 E0			; Reset extruder to [0] zero end of cleaning run
;G1 E-1 F500			; Retract filiment by 1 mm to reduce string effect
;G1 X180 F4000		; Quick wipe away from the filament line / purge
;
G92 E0			; Set Extruder to 0 
G1 X0 Y0 F2000		; Move X and Y to 0 with speed 2000 (mm/min)
G1 Z0.1 F1000		; Move Z to 0.1
G1 X8.0 F2000		; Move X to 8.0
G1 Y60.0 E4.0 F1000.0		; Prime - Move Y to 60 and Extruder with 4.0
G1 Y100.0 E8.5 F1000.0		; Prime - Move Y to 100 and Extruder with 8.5
G92 E0			; Set extruder to 0
M117 *End Clean*		; Indicate nozzle clean in progress on LCD
G1 X16.0 F3000		; Move X to 16.0
G1 Y-20.0 F3000		; Move Y to -20.0
G1 Z5 F3000			; Move Z to 5 - Lift
G1 X20.0 F3000		; Move X to 20.0
; 
M117 *Printing...*		; start msg
; // Begin printing with sliced GCode after here
;
; process Process1
; layer 1, Z = 0.180
T0
G92 E0.0000
G1 E-3.8000 F3000
; feature skirt
; tool H0.180 W0.350
G1 Z0.300 F1002
G1 X177.875 Y144.809 F6000
G1 Z0.180 F1002
G1 E0.0000 F3000
G92 E0.0000
G1 X177.875 Y151.191 E0.1588 F900
G1 X176.191 Y152.875 E0.2181
G1 X123.809 Y152.875 E1.5215
G1 X122.125 Y151.191 E1.5807
G1 X122.125 Y144.809 E1.7395
G1 X123.809 Y143.125 E1.7988
G1 X176.191 Y143.125 E3.1022
G1 X177.875 Y144.809 E3.1614
G92 E0.0000
G1 E-3.8000 F3000
G1 Z0.480 F1002
G1 X174.825 Y146.175 F6000
G1 X165.742 Y146.175
G1 X159.968 Y146.825
G1 X159.825 Y146.825
G1 X159.825 Y146.841
G1 X155.175 Y147.365
G1 X155.175 Y146.825
G1 X144.825 Y146.825
G1 X144.825 Y148.530
G1 X140.175 Y149.053
G1 X140.175 Y149.175
G1 X139.094 Y149.175
G1 X133.320 Y149.825
G1 X125.175 Y149.825
G1 X122.475 Y151.046
G1 Z0.180 F1002
G1 E0.0000 F3000
G92 E0.0000
G1 X122.475 Y144.954 E0.1516 F900
G1 X123.954 Y143.475 E0.2036
G1 X176.046 Y143.475 E1.4998
G1 X177.525 Y144.954 E1.5519
G1 X177.525 Y151.046 E1.7034
G1 X176.046 Y152.525 E1.7555
G1 X123.954 Y152.525 E3.0517
G1 X122.475 Y151.046 E3.1037
G92 E0.0000
G1 E-3.8000 F3000
G1 Z0.480 F1002
G1 X177.175 Y150.901 F6000
G1 Z0.180 F1002
G1 E0.0000 F3000
G92 E0.0000
G1 X175.901 Y152.175 E0.0448 F900
G1 X124.099 Y152.175 E1.3338
G1 X122.825 Y150.901 E1.3786
G1 X122.825 Y145.099 E1.5230
G1 X124.099 Y143.825 E1.5678
G1 X175.901 Y143.825 E2.8568
G1 X177.175 Y145.099 E2.9016
G1 X177.175 Y150.901 E3.0460
G92 E0.0000
G1 E-3.8000 F3000
; feature outer perimeter
G1 Z0.480 F1002
G1 X174.825 Y146.175 F6000
G1 Z0.180 F1002
G1 E0.0000 F3000
G92 E0.0000
G1 X174.825 Y149.825 E0.0908 F450
G1 X125.175 Y149.825 E1.3263
G1 X125.175 Y146.175 E1.4171
G1 X174.825 Y146.175 E2.6525
; feature inner perimeter
G1 X174.475 Y146.525 F6000
G92 E0.0000
G1 X174.475 Y149.475 E0.0734 F675
G1 X170.525 Y149.475 E0.1717
G1 X170.525 Y146.525 E0.2451
G1 X174.475 Y146.525 E0.3434
G1 X159.475 Y146.525 F6000
G92 E0.0000
G1 X159.475 Y149.475 E0.0734 F675
G1 X155.525 Y149.475 E0.1717
G1 X155.525 Y146.525 E0.2451
G1 X159.475 Y146.525 E0.3434
G1 X144.475 Y146.525 F6000
G92 E0.0000
G1 X144.475 Y149.475 E0.0734 F675
G1 X140.525 Y149.475 E0.1717
G1 X140.525 Y146.525 E0.2451
G1 X144.475 Y146.525 E0.3434
G1 X129.475 Y146.525 F6000
G92 E0.0000
G1 X129.475 Y149.475 E0.0734 F675
G1 X125.525 Y149.475 E0.1717
G1 X125.525 Y146.525 E0.2451
G1 X129.475 Y146.525 E0.3434
G1 X129.125 Y146.875 F6000
G92 E0.0000
G1 X129.125 Y149.125 E0.0560 F675
G1 X125.875 Y149.125 E0.1369
G1 X125.875 Y146.875 E0.1928
G1 X129.125 Y146.875 E0.2737
G1 X129.825 Y146.875 F6000
G1 X129.825 Y146.825
G1 X140.175 Y146.825
G1 X140.175 Y146.875
G1 X140.875 Y146.875
G92 E0.0000
G1 X144.125 Y146.875 E0.0809 F675
G1 X144.125 Y149.125 E0.1369
G1 X140.875 Y149.125 E0.2177
G1 X140.875 Y146.875 E0.2737
G1 X144.825 Y146.875 F6000
G1 X144.825 Y146.825
G1 X155.175 Y146.825
G1 X155.175 Y146.875
G1 X155.875 Y146.875
G92 E0.0000
G1 X159.125 Y146.875 E0.0809 F675
G1 X159.125 Y149.125 E0.1369
G1 X155.875 Y149.125 E0.2177
G1 X155.875 Y146.875 E0.2737
G1 X159.825 Y146.875 F6000
G1 X159.825 Y146.825
G1 X170.175 Y146.825
G1 X170.175 Y146.875
G1 X170.875 Y146.875
G92 E0.0000
G1 X174.125 Y146.875 E0.0809 F675
G1 X174.125 Y149.125 E0.1369
G1 X170.875 Y149.125 E0.2177
G1 X170.875 Y146.875 E0.2737
; feature outer perimeter
G1 X170.175 Y146.825 F6000
G92 E0.0000
G1 X159.825 Y146.825 E0.2575 F450
G1 X159.825 Y149.175 E0.3160
G1 X170.175 Y149.175 E0.5735
G1 X170.175 Y146.825 E0.6320
G1 X155.175 Y146.825 F6000
G92 E0.0000
G1 X144.825 Y146.825 E0.2575 F450
G1 X144.825 Y149.175 E0.3160
G1 X155.175 Y149.175 E0.5735
G1 X155.175 Y146.825 E0.6320
G1 X140.175 Y146.825 F6000
G92 E0.0000
G1 X129.825 Y146.825 E0.2575 F450
G1 X129.825 Y149.175 E0.3160
G1 X140.175 Y149.175 E0.5735
G1 X140.175 Y146.825 E0.6320
; feature internal single extrusion
; tool H0.180 W0.300
G1 X140.337 Y146.500 F6000
G92 E0.0000
G1 X129.863 Y146.500 E0.2234 F450
G1 X129.663 Y146.500 E0.2276
G1 X129.663 Y149.500 F6000
G92 E0.0000
G1 X129.863 Y149.500 E0.0043 F450
G1 X140.337 Y149.500 E0.2276
G1 X144.663 Y149.500 F6000
G92 E0.0000
G1 X144.863 Y149.500 E0.0043 F450
G1 X155.337 Y149.500 E0.2276
G1 X155.337 Y146.500 F6000
G92 E0.0000
G1 X144.863 Y146.500 E0.2234 F450
G1 X144.663 Y146.500 E0.2276
G1 X159.663 Y146.500 F6000
G92 E0.0000
G1 X159.863 Y146.500 E0.0043 F450
G1 X170.337 Y146.500 E0.2276
G1 X170.337 Y149.500 F6000
G92 E0.0000
G1 X159.863 Y149.500 E0.2234 F450
G1 X159.663 Y149.500 E0.2276
; feature solid layer
; tool H0.180 W0.350
G1 X158.827 Y148.827 F6000
G92 E0.0000
G1 X156.173 Y148.827 E0.0661 F720
G1 X156.173 Y147.173 E0.1072
G1 X158.827 Y147.173 E0.1733
G1 X158.827 Y148.827 E0.2145
G1 X158.477 Y148.477 F6000
G92 E0.0000
G1 X156.523 Y148.477 E0.0486 F720
G1 X156.523 Y147.523 E0.0724
G1 X158.477 Y147.523 E0.1211
G1 X158.477 Y148.477 E0.1448
G1 X158.127 Y148.127 F6000
G92 E0.0000
G1 X156.873 Y148.127 E0.0312 F720
G1 X156.873 Y147.873 E0.0376
G1 X158.127 Y147.873 E0.0688
G1 X158.127 Y148.127 E0.0751
G1 X159.825 Y148.219 F6000
G1 X159.825 Y149.175
G1 X170.175 Y149.175
G1 X170.175 Y148.774
G1 X171.173 Y148.827
G92 E0.0000
G1 X171.173 Y147.173 E0.0412 F720
G1 X173.827 Y147.173 E0.1072
G1 X173.827 Y148.827 E0.1484
G1 X171.173 Y148.827 E0.2145
G1 X171.523 Y148.477 F6000
G92 E0.0000
G1 X171.523 Y147.523 E0.0238 F720
G1 X173.477 Y147.523 E0.0724
G1 X173.477 Y148.477 E0.0962
G1 X171.523 Y148.477 E0.1448
G1 X171.873 Y148.127 F6000
G92 E0.0000
G1 X171.873 Y147.873 E0.0063 F720
G1 X173.127 Y147.873 E0.0376
G1 X173.127 Y148.127 E0.0439
G1 X171.873 Y148.127 E0.0751
G1 X170.175 Y148.170 F6000
G1 X170.175 Y149.175
G1 X159.825 Y149.175
G1 X159.825 Y148.428
G1 X155.175 Y148.544
G1 X155.175 Y149.175
G1 X144.825 Y149.175
G1 X144.825 Y148.803
G1 X143.827 Y148.827
G92 E0.0000
G1 X141.173 Y148.827 E0.0661 F720
G1 X141.173 Y147.173 E0.1072
G1 X143.827 Y147.173 E0.1733
G1 X143.827 Y148.827 E0.2145
G1 X143.477 Y148.477 F6000
G92 E0.0000
G1 X141.523 Y148.477 E0.0486 F720
G1 X141.523 Y147.523 E0.0724
G1 X143.477 Y147.523 E0.1211
G1 X143.477 Y148.477 E0.1448
G1 X143.127 Y148.127 F6000
G92 E0.0000
G1 X141.873 Y148.127 E0.0312 F720
G1 X141.873 Y147.873 E0.0376
G1 X143.127 Y147.873 E0.0688
G1 X143.127 Y148.127 E0.0751
G1 X140.175 Y148.272 F6000
G1 X140.175 Y149.175
G1 X129.825 Y149.175
G1 X129.825 Y148.779
G1 X128.827 Y148.827
G92 E0.0000
G1 X126.172 Y148.827 E0.0661 F720
G1 X126.172 Y147.173 E0.1072
G1 X128.827 Y147.173 E0.1733
G1 X128.827 Y148.827 E0.2145
G1 X128.477 Y148.477 F6000
G92 E0.0000
G1 X126.522 Y148.477 E0.0486 F720
