; G-Code generated by Simplify3D(R) Version 4.1.2
; Nov 27, 2019 at 8:47:03 PM
; Settings Summary
;   processName,Process1
;   applyToModels,nacelle_AR_feux_sur_Mat_SNCB_HO
;   profileName,A02-04-15 Tevo Tornado (experimental)
;   profileVersion,2019-11-27 20:30:20
;   baseProfile,Creality CR-10(2)
;   printMaterial,PLA
;   printQuality,Medium
;   printExtruders,
;   extruderName,Primary Extruder
;   extruderToolheadNumber,0
;   extruderDiameter,0.4
;   extruderAutoWidth,0
;   extruderWidth,0.4
;   extrusionMultiplier,0.95
;   extruderUseRetract,1
;   extruderRetractionDistance,3.5
;   extruderExtraRestartDistance,0
;   extruderRetractionZLift,0.3
;   extruderRetractionSpeed,3000
;   extruderUseCoasting,0
;   extruderCoastingDistance,0.2
;   extruderUseWipe,0
;   extruderWipeDistance,4
;   primaryExtruder,0
;   layerHeight,0.15
;   topSolidLayers,4
;   bottomSolidLayers,3
;   perimeterOutlines,3
;   printPerimetersInsideOut,0
;   startPointOption,3
;   startPointOriginX,0
;   startPointOriginY,300
;   sequentialIslands,0
;   spiralVaseMode,0
;   firstLayerHeightPercentage,120
;   firstLayerWidthPercentage,100
;   firstLayerUnderspeed,0.5
;   useRaft,0
;   raftExtruder,0
;   raftTopLayers,3
;   raftBaseLayers,2
;   raftOffset,3
;   raftSeparationDistance,0.14
;   raftTopInfill,100
;   aboveRaftSpeedMultiplier,0.3
;   useSkirt,1
;   skirtExtruder,0
;   skirtLayers,1
;   skirtOutlines,3
;   skirtOffset,2
;   usePrimePillar,0
;   primePillarExtruder,999
;   primePillarWidth,12
;   primePillarLocation,7
;   primePillarSpeedMultiplier,1
;   useOozeShield,0
;   oozeShieldExtruder,999
;   oozeShieldOffset,2
;   oozeShieldOutlines,1
;   oozeShieldSidewallShape,1
;   oozeShieldSidewallAngle,30
;   oozeShieldSpeedMultiplier,1
;   infillExtruder,0
;   internalInfillPattern,Grid
;   externalInfillPattern,Concentric
;   infillPercentage,15
;   outlineOverlapPercentage,15
;   infillExtrusionWidthPercentage,100
;   minInfillLength,5
;   infillLayerInterval,1
;   internalInfillAngles,45,-45
;   overlapInternalInfillAngles,1
;   externalInfillAngles,45,-45
;   generateSupport,1
;   supportExtruder,0
;   supportInfillPercentage,30
;   supportExtraInflation,0
;   supportBaseLayers,0
;   denseSupportExtruder,0
;   denseSupportLayers,0
;   denseSupportInfillPercentage,70
;   supportLayerInterval,1
;   supportHorizontalPartOffset,0.4
;   supportUpperSeparationLayers,1
;   supportLowerSeparationLayers,1
;   supportType,0
;   supportGridSpacing,4.5
;   maxOverhangAngle,45
;   supportAngles,0
;   temperatureName,Primary Extruder,Heated Bed
;   temperatureNumber,0,0
;   temperatureSetpointCount,2,1
;   temperatureSetpointLayers,1,2,1
;   temperatureSetpointTemperatures,215,210,55
;   temperatureStabilizeAtStartup,1,1
;   temperatureHeatedBed,0,1
;   fanLayers,1,2
;   fanSpeeds,0,100
;   blipFanToFullPower,0
;   adjustSpeedForCooling,1
;   minSpeedLayerTime,15
;   minCoolingSpeedSlowdown,50
;   increaseFanForCooling,1
;   minFanLayerTime,25
;   maxCoolingFanSpeed,100
;   increaseFanForBridging,1
;   bridgingFanSpeed,100
;   use5D,1
;   relativeEdistances,0
;   allowEaxisZeroing,1
;   independentExtruderAxes,0
;   includeM10123,0
;   stickySupport,1
;   applyToolheadOffsets,0
;   gcodeXoffset,0
;   gcodeYoffset,0
;   gcodeZoffset,0
;   overrideMachineDefinition,1
;   machineTypeOverride,0
;   strokeXoverride,300
;   strokeYoverride,300
;   strokeZoverride,400
;   originOffsetXoverride,0
;   originOffsetYoverride,0
;   originOffsetZoverride,0
;   homeXdirOverride,-1
;   homeYdirOverride,-1
;   homeZdirOverride,-1
;   flipXoverride,1
;   flipYoverride,-1
;   flipZoverride,1
;   toolheadOffsets,0,0|0,0|0,0|0,0|0,0|0,0
;   overrideFirmwareConfiguration,1
;   firmwareTypeOverride,RepRap (Marlin/Repetier/Sprinter)
;   GPXconfigOverride,r2
;   baudRateOverride,250000
;   overridePrinterModels,1
;   printerModelsOverride
;   startingGcode,;,; -]H.P.B[- MarshMalloW  ,; $VER: StartScript 1.01 (13.11.2019) MarshMalloW,;,; Begin Startcode,;,M117 *Start Clean*     	; Indicate nozzle clean in progress on LCD,;,;extruder0_temperature,M104 S[extruder0_temperature]  ,M109 S[extruder0_temperature] ,M109 R[extruder0_temperature] ,;,M107                   	; Turn layer fan off,G21                    	; Set to metric [change to G20 if you want Imperial],G90                    	; Force coordinates to be absolute relative to the origin,G28                    	; Home X/Y/Z axis,G29                    	; Auto-leveling (BL-Touch),;,G92 E0                 	; Set Extruder to 0 ,G1 X0 Y0 F2000         	; Move X and Y to 0 with speed 2000 (mm/min),G1 Z0.1 F1000          	; Move Z to   0.1 with speed 1000 (mm/min),G1 X8.0 F2000          	; Move X to   8.0 with speed 2000 (mm/min),G1 Y60.0 E4.0 F1000.0  	; Move Y to  60 and Extruder with 4.0 with speed 1000 (mm/min),G1 Y100.0 E8.5 F1000.0 	; Move Y to 100 and Extruder with 8.5 with speed 1000 (mm/min),G92 E0                 	; Set extruder to 0,G1 X16.0 F3000         	; Move X to 16.0 with speed 3000 (mm/min),G1 Y60.0 F3000         	; Move Y to 60.0 with speed 3000 (mm/min),M117 *End Clean*       	; Indicate nozzle clean in progress on LCD,G1 Z5 F3000            	; Move Z to  5.0 with speed 3000 (mm/min),G1 X20.0 F3000         	; Move X to 20.0 with speed 3000 (mm/min),; ,M117 *Printing...*     	; Start printing msg on LCD,;,; End Startcode,;,; Begin printing with sliced GCode after here,;
;   layerChangeGcode,
;   retractionGcode,
;   toolChangeGcode,
;   endingGcode,;,; init 181010,;,;M107 			; Fan off,;G1 E-1 F300 			; Retract the filament a bit before lifting the nozzle,;M104 S0 			; Turn off extruder,;M140 S0 			; Turn off bed,;G91			; Relative positioning,;G28 X0 Y0 			; Move X/Y to min endstops so the head is out of teh way,;M84 			; Disable motors,;G90 			; Absolute positioning,;M117 Print ready...,,;,; // From Cura 181010,; // End_gcode,G92 E0			; Zero the extruded length,;G1 E-30 F300		; Retract E -30,M106 S0			; Turn off cooling fan,M104 S0			; Turn off temperature,M140 S0		     	; Turn off bed,G91			; Relative positioning,G1 E-1 F300			; Retract the filament a bit before lifting the nozzle to release some of the pressure,G1 Z+20 E-5 X-20 Y-20 F7200	; Move Z up a bit and retract filament even more,G1 X0 Y150 F10000		; Move right min,M107			; Turn off layer fan,M84			; Disable motors,G90			; Absolute positioning,M117 *The-End* 		; End msg,;,
;   exportFileFormat,gcode
;   celebration,0
;   celebrationSong,Star Wars
;   postProcessing,
;   defaultSpeed,1800
;   outlineUnderspeed,0.5
;   solidInfillUnderspeed,0.8
;   supportUnderspeed,0.8
;   rapidXYspeed,6000
;   rapidZspeed,1002
;   minBridgingArea,5
;   bridgingExtraInflation,0.2
;   bridgingExtrusionMultiplier,1
;   bridgingSpeedMultiplier,0.6
;   useFixedBridgingAngle,0
;   fixedBridgingAngle,0
;   applyBridgingToPerimeters,0
;   filamentDiameters,1.75|1.75|1.75|1.75|1.75|1.75
;   filamentPricesPerKg,30|46|46|46|46|46
;   filamentDensities,1.25|1.25|1.25|1.25|1.25|1.25
;   useMinPrintHeight,0
;   minPrintHeight,0
;   useMaxPrintHeight,0
;   maxPrintHeight,9
;   useDiaphragm,0
;   diaphragmLayerInterval,20
;   robustSlicing,1
;   mergeAllIntoSolid,0
;   onlyRetractWhenCrossingOutline,1
;   retractBetweenLayers,1
;   useRetractionMinTravel,0
;   retractionMinTravel,3
;   retractWhileWiping,0
;   onlyWipeOutlines,1
;   avoidCrossingOutline,0
;   maxMovementDetourFactor,3
;   toolChangeRetractionDistance,12
;   toolChangeExtraRestartDistance,-0.5
;   toolChangeRetractionSpeed,600
;   externalThinWallType,1
;   internalThinWallType,1
;   thinWallAllowedOverlapPercentage,15
;   singleExtrusionMinLength,1
;   singleExtrusionMinPrintingWidthPercentage,50
;   singleExtrusionMaxPrintingWidthPercentage,200
;   singleExtrusionEndpointExtension,0.2
;   horizontalSizeCompensation,0
G90
M82
M106 S102
M140 S55
M190 S55
;
; -]H.P.B[- MarshMalloW  
; $VER: StartScript 1.01 (13.11.2019) MarshMalloW
;
; Begin Startcode
;
M117 *Start Clean*     	; Indicate nozzle clean in progress on LCD
;
;extruder0_temperature
M104 S215  
M109 S215 
M109 R215 
;
M107                   	; Turn layer fan off
G21                    	; Set to metric [change to G20 if you want Imperial]
G90                    	; Force coordinates to be absolute relative to the origin
G28                    	; Home X/Y/Z axis
G29                    	; Auto-leveling (BL-Touch)
;
G92 E0                 	; Set Extruder to 0 
G1 X0 Y0 F2000         	; Move X and Y to 0 with speed 2000 (mm/min)
G1 Z0.1 F1000          	; Move Z to   0.1 with speed 1000 (mm/min)
G1 X8.0 F2000          	; Move X to   8.0 with speed 2000 (mm/min)
G1 Y60.0 E4.0 F1000.0  	; Move Y to  60 and Extruder with 4.0 with speed 1000 (mm/min)
G1 Y100.0 E8.5 F1000.0 	; Move Y to 100 and Extruder with 8.5 with speed 1000 (mm/min)
G92 E0                 	; Set extruder to 0
G1 X16.0 F3000         	; Move X to 16.0 with speed 3000 (mm/min)
G1 Y60.0 F3000         	; Move Y to 60.0 with speed 3000 (mm/min)
M117 *End Clean*       	; Indicate nozzle clean in progress on LCD
G1 Z5 F3000            	; Move Z to  5.0 with speed 3000 (mm/min)
G1 X20.0 F3000         	; Move X to 20.0 with speed 3000 (mm/min)
; 
M117 *Printing...*     	; Start printing msg on LCD
;
; End Startcode
;
; Begin printing with sliced GCode after here
;
; process Process1
; layer 1, Z = 0.180
T0
G92 E0.0000
G1 E-3.5000 F3000
; feature skirt
; tool H0.180 W0.400
G1 Z0.300 F1002
G1 X147.000 Y155.995 F6000
G1 Z0.180 F1002
G1 E0.0000 F3000
G92 E0.0000
G1 X147.000 Y144.005 E0.3410 F602
G1 X148.757 Y142.248 E0.4116
G1 X162.395 Y142.248 E0.7995
G1 X162.782 Y142.298 E0.8106
G1 X163.489 Y142.486 E0.8313
G1 X164.192 Y142.899 E0.8545
G1 X164.777 Y143.501 E0.8784
G1 X165.116 Y144.043 E0.8966
G1 X165.362 Y144.727 E0.9172
G1 X165.452 Y145.240 E0.9321
G1 X165.452 Y154.760 E1.2028
G1 X165.362 Y155.273 E1.2176
G1 X165.116 Y155.957 E1.2383
G1 X164.777 Y156.499 E1.2565
G1 X164.192 Y157.102 E1.2803
G1 X163.489 Y157.514 E1.3035
G1 X162.783 Y157.701 E1.3243
G1 X162.395 Y157.752 E1.3354
G1 X148.757 Y157.752 E1.7232
G1 X147.000 Y155.995 E1.7939
G92 E0.0000
G1 E-3.5000 F3000
G1 Z0.480 F1002
G1 X147.400 Y155.829 F6000
G1 Z0.180 F1002
G1 E0.0000 F3000
G92 E0.0000
G1 X147.400 Y144.171 E0.3315 F602
G1 X148.923 Y142.648 E0.3928
G1 X162.369 Y142.648 E0.7752
G1 X162.705 Y142.692 E0.7848
G1 X163.333 Y142.859 E0.8033
G1 X163.943 Y143.216 E0.8234
G1 X164.460 Y143.749 E0.8445
G1 X164.754 Y144.219 E0.8602
G1 X164.974 Y144.830 E0.8787
G1 X165.052 Y145.274 E0.8915
G1 X165.052 Y154.726 E1.1603
G1 X164.974 Y155.170 E1.1732
G1 X164.754 Y155.781 E1.1916
G1 X164.460 Y156.251 E1.2074
G1 X163.943 Y156.784 E1.2285
G1 X163.333 Y157.141 E1.2486
G1 X162.705 Y157.308 E1.2671
G1 X162.369 Y157.352 E1.2767
G1 X148.923 Y157.352 E1.6591
G1 X147.400 Y155.829 E1.7203
G92 E0.0000
G1 E-3.5000 F3000
G1 Z0.480 F1002
G1 X147.800 Y155.663 F6000
G1 Z0.180 F1002
G1 E0.0000 F3000
G92 E0.0000
G1 X147.800 Y144.337 E0.3221 F602
G1 X149.089 Y143.048 E0.3739
G1 X162.343 Y143.048 E0.7509
G1 X162.627 Y143.085 E0.7590
G1 X163.178 Y143.232 E0.7752
G1 X163.694 Y143.534 E0.7922
G1 X164.144 Y143.997 E0.8106
G1 X164.392 Y144.395 E0.8239
G1 X164.586 Y144.933 E0.8402
G1 X164.652 Y145.309 E0.8510
G1 X164.652 Y154.691 E1.1178
G1 X164.586 Y155.067 E1.1287
G1 X164.392 Y155.605 E1.1450
G1 X164.144 Y156.003 E1.1583
G1 X163.694 Y156.466 E1.1767
G1 X163.178 Y156.768 E1.1937
G1 X162.627 Y156.915 E1.2099
G1 X162.343 Y156.952 E1.2180
G1 X149.089 Y156.952 E1.5949
G1 X147.800 Y155.663 E1.6468
G92 E0.0000
G1 E-3.5000 F3000
; feature outer perimeter
G1 Z0.480 F1002
G1 X150.200 Y154.552 F6000
G1 Z0.180 F1002
G1 E0.0000 F3000
G92 E0.0000
G1 X150.200 Y145.448 E0.2589 F301
G1 X150.800 Y145.448 E0.2760
G1 X150.800 Y154.552 E0.5349
G1 X150.200 Y154.552 E0.5519
G1 X156.200 Y154.552 F6000
G92 E0.0000
G1 X156.200 Y145.448 E0.2589 F301
G1 X156.600 Y145.448 E0.2703
G1 X156.600 Y154.552 E0.5292
G1 X156.200 Y154.552 E0.5406
G92 E0.0000
G1 E-3.5000 F3000
; feature external single extrusion
; tool H0.180 W0.652
G1 Z0.480 F1002
G1 X155.800 Y154.426 F6000
G1 Z0.180 F1002
G1 E0.0000 F3000
G92 E0.0000
G1 X151.200 Y154.426 E0.2132 F301
G92 E0.0000
G1 E-3.5000 F3000
G1 Z0.480 F1002
G1 X157.001 Y154.426 F6000
G1 Z0.180 F1002
G1 E0.0000 F3000
G92 E0.0000
G1 X157.201 Y154.426 E0.0093 F301
G1 X161.724 Y154.426 E0.2190
G1 X161.803 Y154.426 E0.2227
; tool H0.180 W0.657
G1 X161.883 Y154.421 E0.2264
; tool H0.180 W0.677
G1 X161.962 Y154.406 E0.2303
; tool H0.180 W0.717
G1 X162.041 Y154.381 E0.2345
; tool H0.180 W0.741
G1 X162.082 Y154.341 E0.2375
; tool H0.180 W0.716
G1 X162.106 Y154.261 E0.2418
; tool H0.180 W0.677
G1 X162.121 Y154.181 E0.2457
; tool H0.180 W0.657
G1 X162.126 Y154.102 E0.2494
; tool H0.180 W0.652
G1 X162.126 Y154.022 E0.2531
G1 X162.126 Y145.978 E0.6260
G1 X162.126 Y145.898 E0.6297
; tool H0.180 W0.657
G1 X162.121 Y145.819 E0.6335
; tool H0.180 W0.677
G1 X162.106 Y145.739 E0.6374
; tool H0.180 W0.716
G1 X162.082 Y145.659 E0.6416
; tool H0.180 W0.741
G1 X162.041 Y145.619 E0.6446
; tool H0.180 W0.717
G1 X161.962 Y145.594 E0.6489
; tool H0.180 W0.677
G1 X161.883 Y145.579 E0.6527
; tool H0.180 W0.657
G1 X161.803 Y145.574 E0.6565
; tool H0.180 W0.652
G1 X161.724 Y145.574 E0.6601
G1 X157.001 Y145.574 E0.8791
G92 E0.0000
G1 E-3.5000 F3000
G1 Z0.480 F1002
G1 X155.800 Y145.574 F6000
G1 Z0.180 F1002
G1 E0.0000 F3000
G92 E0.0000
G1 X151.200 Y145.574 E0.2132 F301
G92 E0.0000
G1 E-3.5000 F3000
; feature internal single extrusion
; tool H0.180 W0.200
G1 Z0.480 F1002
G1 X150.500 Y145.608 F6000
G1 Z0.180 F1002
G1 E0.0000 F3000
G92 E0.0000
G1 X150.500 Y145.808 E0.0028 F301
G1 X150.500 Y154.392 E0.1249
G92 E0.0000
G1 E-3.5000 F3000
; layer 2, Z = 0.330
M106 S255
M104 S210 T0
; feature outer perimeter
; tool H0.150 W0.400
G1 Z0.480 F1002
G1 X150.200 Y154.670 F6000
G1 Z0.330 F1002
G1 E0.0000 F3000
G92 E0.0000
G1 X150.200 Y145.330 E0.2214 F450
G1 X162.182 Y145.330 E0.5053
G1 X162.327 Y145.356 E0.5088
G1 X162.371 Y145.517 E0.5127
G1 X162.371 Y154.483 E0.7252
G1 X162.327 Y154.644 E0.7292
G1 X162.182 Y154.670 E0.7327
G1 X150.200 Y154.670 E1.0166
G1 X150.800 Y154.300 F6000
G92 E0.0000
G1 X156.200 Y154.300 E0.1280 F450
G1 X156.200 Y145.700 E0.3318
G1 X150.800 Y145.700 E0.4597
G1 X150.800 Y154.300 E0.6635
G1 X156.600 Y154.300 F6000
G92 E0.0000
G1 X162.000 Y154.300 E0.1280 F450
G1 X162.000 Y145.700 E0.3318
G1 X156.600 Y145.700 E0.4597
G1 X156.600 Y154.300 E0.6635
; feature internal single extrusion
; tool H0.150 W0.200
G1 X150.500 Y154.511 F6000
G92 E0.0000
G1 X150.500 Y145.489 E0.1069 F450
G92 E0.0000
G1 E-3.5000 F3000
; layer 3, Z = 0.480
; feature outer perimeter
; tool H0.150 W0.400
G1 Z0.630 F1002
G1 X150.200 Y154.700 F6000
G1 Z0.480 F1002
G1 E0.0000 F3000
G92 E0.0000
G1 X150.201 Y145.300 E0.2228 F450
G1 X162.289 Y145.310 E0.5092
G1 X162.355 Y145.376 E0.5114
G1 X162.379 Y145.414 E0.5125
G1 X162.394 Y145.456 E0.5135
G1 X162.400 Y145.511 E0.5149
G1 X162.400 Y154.489 E0.7276
G1 X162.394 Y154.544 E0.7289
G1 X162.379 Y154.586 E0.7300
G1 X162.355 Y154.624 E0.7310
G1 X162.324 Y154.655 E0.7321
G1 X162.286 Y154.679 E0.7332
G1 X162.244 Y154.694 E0.7342
G1 X162.189 Y154.700 E0.7355
G1 X150.200 Y154.700 E1.0196
G1 X150.800 Y154.300 F6000
G92 E0.0000
G1 X156.200 Y154.300 E0.1280 F450
G1 X156.200 Y145.700 E0.3318
G1 X150.800 Y145.700 E0.4597
G1 X150.800 Y154.300 E0.6635
G1 X156.600 Y154.300 F6000
G92 E0.0000
G1 X162.000 Y154.300 E0.1280 F450
G1 X162.000 Y145.700 E0.3318
G1 X156.600 Y145.700 E0.4597
G1 X156.600 Y154.300 E0.6635
; feature internal single extrusion
; tool H0.150 W0.200
G1 X150.500 Y154.541 F6000
G92 E0.0000
G1 X150.500 Y154.341 E0.0024 F450
G1 X150.500 Y145.460 E0.1076
G92 E0.0000
G1 E-3.5000 F3000
; layer 4, Z = 0.630
; feature outer perimeter
; tool H0.150 W0.400
G1 Z0.780 F1002
G1 X150.200 Y154.700 F6000
G1 Z0.630 F1002
G1 E0.0000 F3000
G92 E0.0000
G1 X150.200 Y145.300 E0.2228 F450
G1 X162.172 Y145.300 E0.5065
G1 X162.236 Y145.306 E0.5080
G1 X162.322 Y145.348 E0.5103
G1 X162.391 Y145.435 E0.5129
G1 X162.400 Y145.511 E0.5147
G1 X162.400 Y154.489 E0.7275
G1 X162.391 Y154.565 E0.7293
