; G-Code generated by Simplify3D(R) Version 4.1.2
; Nov 5, 2019 at 9:16:44 PM
; Settings Summary
;   processName,Process1
;   applyToModels,CM02
;   profileName,401_35p Tevo Tornado (experimental)
;   profileVersion,2019-10-31 17:04:36
;   baseProfile,Creality CR-10(2)
;   printMaterial,PLA
;   printQuality,Medium
;   printExtruders,
;   extruderName,Primary Extruder
;   extruderToolheadNumber,0
;   extruderDiameter,0.4
;   extruderAutoWidth,0
;   extruderWidth,0.35
;   extrusionMultiplier,0.95
;   extruderUseRetract,1
;   extruderRetractionDistance,3.8
;   extruderExtraRestartDistance,0
;   extruderRetractionZLift,0.3
;   extruderRetractionSpeed,3000
;   extruderUseCoasting,0
;   extruderCoastingDistance,0.2
;   extruderUseWipe,0
;   extruderWipeDistance,4
;   primaryExtruder,0
;   layerHeight,0.15
;   topSolidLayers,4
;   bottomSolidLayers,3
;   perimeterOutlines,3
;   printPerimetersInsideOut,0
;   startPointOption,1
;   startPointOriginX,0
;   startPointOriginY,300
;   sequentialIslands,0
;   spiralVaseMode,0
;   firstLayerHeightPercentage,120
;   firstLayerWidthPercentage,100
;   firstLayerUnderspeed,0.5
;   useRaft,0
;   raftExtruder,0
;   raftTopLayers,3
;   raftBaseLayers,2
;   raftOffset,3
;   raftSeparationDistance,0.14
;   raftTopInfill,100
;   aboveRaftSpeedMultiplier,0.3
;   useSkirt,1
;   skirtExtruder,0
;   skirtLayers,1
;   skirtOutlines,3
;   skirtOffset,2
;   usePrimePillar,0
;   primePillarExtruder,999
;   primePillarWidth,12
;   primePillarLocation,7
;   primePillarSpeedMultiplier,1
;   useOozeShield,0
;   oozeShieldExtruder,999
;   oozeShieldOffset,2
;   oozeShieldOutlines,1
;   oozeShieldSidewallShape,1
;   oozeShieldSidewallAngle,30
;   oozeShieldSpeedMultiplier,1
;   infillExtruder,0
;   internalInfillPattern,Grid
;   externalInfillPattern,Concentric
;   infillPercentage,35
;   outlineOverlapPercentage,15
;   infillExtrusionWidthPercentage,100
;   minInfillLength,5
;   infillLayerInterval,1
;   internalInfillAngles,45,-45
;   overlapInternalInfillAngles,1
;   externalInfillAngles,45,-45
;   generateSupport,0
;   supportExtruder,0
;   supportInfillPercentage,30
;   supportExtraInflation,0
;   supportBaseLayers,0
;   denseSupportExtruder,0
;   denseSupportLayers,0
;   denseSupportInfillPercentage,70
;   supportLayerInterval,1
;   supportHorizontalPartOffset,0.4
;   supportUpperSeparationLayers,1
;   supportLowerSeparationLayers,1
;   supportType,0
;   supportGridSpacing,4.5
;   maxOverhangAngle,45
;   supportAngles,0
;   temperatureName,Primary Extruder,Heated Bed
;   temperatureNumber,0,0
;   temperatureSetpointCount,2,1
;   temperatureSetpointLayers,1,2,1
;   temperatureSetpointTemperatures,215,210,60
;   temperatureStabilizeAtStartup,1,1
;   temperatureHeatedBed,0,1
;   fanLayers,1,2
;   fanSpeeds,0,100
;   blipFanToFullPower,0
;   adjustSpeedForCooling,1
;   minSpeedLayerTime,15
;   minCoolingSpeedSlowdown,50
;   increaseFanForCooling,1
;   minFanLayerTime,25
;   maxCoolingFanSpeed,100
;   increaseFanForBridging,1
;   bridgingFanSpeed,100
;   use5D,1
;   relativeEdistances,0
;   allowEaxisZeroing,1
;   independentExtruderAxes,0
;   includeM10123,0
;   stickySupport,1
;   applyToolheadOffsets,0
;   gcodeXoffset,0
;   gcodeYoffset,0
;   gcodeZoffset,0
;   overrideMachineDefinition,1
;   machineTypeOverride,0
;   strokeXoverride,300
;   strokeYoverride,300
;   strokeZoverride,400
;   originOffsetXoverride,0
;   originOffsetYoverride,0
;   originOffsetZoverride,0
;   homeXdirOverride,-1
;   homeYdirOverride,-1
;   homeZdirOverride,-1
;   flipXoverride,1
;   flipYoverride,-1
;   flipZoverride,1
;   toolheadOffsets,0,0|0,0|0,0|0,0|0,0|0,0
;   overrideFirmwareConfiguration,1
;   firmwareTypeOverride,RepRap (Marlin/Repetier/Sprinter)
;   GPXconfigOverride,r2
;   baudRateOverride,250000
;   overridePrinterModels,1
;   printerModelsOverride
;   startingGcode,;Init 181010,;G28 			; Home all axes,;G1 Z5 F3000 		; Lift,;G92 E0			; Reset extrusion distance,,; // From Cura 181010,; // Update 190823 (GueroLoco),; // Update 191005 Autoleveling,; // Update 192029 Modify Cleaning,; // Start_gcode,M117 *Start Clean*		; Indicate nozzle clean in progress on LCD,;,M104 S[extruder0_temperature] ,M109 S[extruder0_temperature] ,M109 R[extruder0_temperature] ,;,M107			; Turn layer fan off,G21			; Set to metric [change to G20 if you want Imperial],G90			; Force coordinates to be absolute relative to the origin,G28			; Home X/Y/Z axis,G29			; Auto-leveling,;,;G1 X3 Y1 Z15 F9000		; Move safe Z height to shear strings,;G0 X1 Y1 Z0.2 F9000		; Move in 1mm from edge and up [z] 0.2mm,;G92 E0			; Set extruder to [0] zero,;G1 X100 E12 F500		; Extrude 30mm filiment along X axis 100mm long to prime and clean the nozzle,;G92 E0			; Reset extruder to [0] zero end of cleaning run,;G1 E-1 F500			; Retract filiment by 1 mm to reduce string effect,;G1 X180 F4000		; Quick wipe away from the filament line / purge,;,G92 E0			; Set Extruder to 0 ,G1 X0 Y0 F2000		; Move X and Y to 0 with speed 2000 (mm/min),G1 Z0.1 F1000		; Move Z to 0.1,G1 X8.0 F2000		; Move X to 8.0,G1 Y60.0 E4.0 F1000.0		; Prime - Move Y to 60 and Extruder with 4.0,G1 Y100.0 E8.5 F1000.0		; Prime - Move Y to 100 and Extruder with 8.5,G92 E0			; Set extruder to 0,M117 *End Clean*		; Indicate nozzle clean in progress on LCD,G1 X16.0 F3000		; Move X to 16.0,G1 Z5 F3000			; Move Z to 5 - Lift,; ,M117 *Printing...*		; start msg,; // Begin printing with sliced GCode after here,;
;   layerChangeGcode,
;   retractionGcode,
;   toolChangeGcode,
;   endingGcode,;,; init 181010,;,;M107 			; Fan off,;G1 E-1 F300 			; Retract the filament a bit before lifting the nozzle,;M104 S0 			; Turn off extruder,;M140 S0 			; Turn off bed,;G91			; Relative positioning,;G28 X0 Y0 			; Move X/Y to min endstops so the head is out of teh way,;M84 			; Disable motors,;G90 			; Absolute positioning,;M117 Print ready...,,;,; // From Cura 181010,; // End_gcode,G92 E0			; Zero the extruded length,;G1 E-30 F300		; Retract E -30,M106 S0			; Turn off cooling fan,M104 S0			; Turn off temperature,M140 S0		     	; Turn off bed,G91			; Relative positioning,G1 E-1 F300			; Retract the filament a bit before lifting the nozzle to release some of the pressure,G1 Z+20 E-5 X-20 Y-20 F7200	; Move Z up a bit and retract filament even more,G1 X0 Y150 F10000		; Move right min,M107			; Turn off layer fan,M84			; Disable motors,G90			; Absolute positioning,M117 *The-End* 		; End msg,;,
;   exportFileFormat,gcode
;   celebration,0
;   celebrationSong,Star Wars
;   postProcessing,
;   defaultSpeed,1800
;   outlineUnderspeed,0.5
;   solidInfillUnderspeed,0.8
;   supportUnderspeed,0.8
;   rapidXYspeed,6000
;   rapidZspeed,1002
;   minBridgingArea,50
;   bridgingExtraInflation,0.2
;   bridgingExtrusionMultiplier,1
;   bridgingSpeedMultiplier,0.6
;   useFixedBridgingAngle,0
;   fixedBridgingAngle,0
;   applyBridgingToPerimeters,0
;   filamentDiameters,1.75|1.75|1.75|1.75|1.75|1.75
;   filamentPricesPerKg,30|46|46|46|46|46
;   filamentDensities,1.25|1.25|1.25|1.25|1.25|1.25
;   useMinPrintHeight,0
;   minPrintHeight,0
;   useMaxPrintHeight,0
;   maxPrintHeight,9
;   useDiaphragm,0
;   diaphragmLayerInterval,20
;   robustSlicing,1
;   mergeAllIntoSolid,0
;   onlyRetractWhenCrossingOutline,1
;   retractBetweenLayers,1
;   useRetractionMinTravel,1
;   retractionMinTravel,3
;   retractWhileWiping,1
;   onlyWipeOutlines,1
;   avoidCrossingOutline,1
;   maxMovementDetourFactor,3
;   toolChangeRetractionDistance,12
;   toolChangeExtraRestartDistance,-0.5
;   toolChangeRetractionSpeed,600
;   externalThinWallType,1
;   internalThinWallType,1
;   thinWallAllowedOverlapPercentage,15
;   singleExtrusionMinLength,1
;   singleExtrusionMinPrintingWidthPercentage,50
;   singleExtrusionMaxPrintingWidthPercentage,200
;   singleExtrusionEndpointExtension,0.2
;   horizontalSizeCompensation,0
G90
M82
M106 S0
M140 S60
M190 S60
;Init 181010
;G28 			; Home all axes
;G1 Z5 F3000 		; Lift
;G92 E0			; Reset extrusion distance
; // From Cura 181010
; // Update 190823 (GueroLoco)
; // Update 191005 Autoleveling
; // Update 192029 Modify Cleaning
; // Start_gcode
M117 *Start Clean*		; Indicate nozzle clean in progress on LCD
;
M104 S215 
M109 S215 
M109 R215 
;
M107			; Turn layer fan off
G21			; Set to metric [change to G20 if you want Imperial]
G90			; Force coordinates to be absolute relative to the origin
G28			; Home X/Y/Z axis
G29			; Auto-leveling
;
;G1 X3 Y1 Z15 F9000		; Move safe Z height to shear strings
;G0 X1 Y1 Z0.2 F9000		; Move in 1mm from edge and up [z] 0.2mm
;G92 E0			; Set extruder to [0] zero
;G1 X100 E12 F500		; Extrude 30mm filiment along X axis 100mm long to prime and clean the nozzle
;G92 E0			; Reset extruder to [0] zero end of cleaning run
;G1 E-1 F500			; Retract filiment by 1 mm to reduce string effect
;G1 X180 F4000		; Quick wipe away from the filament line / purge
;
G92 E0			; Set Extruder to 0 
G1 X0 Y0 F2000		; Move X and Y to 0 with speed 2000 (mm/min)
G1 Z0.1 F1000		; Move Z to 0.1
G1 X8.0 F2000		; Move X to 8.0
G1 Y60.0 E4.0 F1000.0		; Prime - Move Y to 60 and Extruder with 4.0
G1 Y100.0 E8.5 F1000.0		; Prime - Move Y to 100 and Extruder with 8.5
G92 E0			; Set extruder to 0
M117 *End Clean*		; Indicate nozzle clean in progress on LCD
G1 X16.0 F3000		; Move X to 16.0
G1 Z5 F3000			; Move Z to 5 - Lift
; 
M117 *Printing...*		; start msg
; // Begin printing with sliced GCode after here
;
; process Process1
; layer 1, Z = 0.180
T0
G92 E0.0000
G1 E-3.8000 F3000
; feature skirt
; tool H0.180 W0.350
G1 Z0.300 F1002
G1 X149.737 Y83.063 F6000
G1 Z0.180 F1002
G1 E0.0000 F3000
G92 E0.0000
G1 X149.817 Y83.066 E0.0020 F900
G1 X150.570 Y83.114 E0.0208
G1 X150.721 Y83.071 E0.0247
G1 X152.163 Y83.131 E0.0606
G1 X152.327 Y83.148 E0.0647
G1 X152.727 Y83.211 E0.0748
G1 X154.016 Y83.225 E0.1068
G1 X154.109 Y83.229 E0.1091
G1 X154.971 Y83.294 E0.1307
G1 X155.058 Y83.303 E0.1328
G1 X155.666 Y83.386 E0.1481
G1 X155.809 Y83.356 E0.1517
G1 X157.222 Y83.510 E0.1871
G1 X157.389 Y83.539 E0.1913
G1 X157.764 Y83.625 E0.2009
G1 X158.999 Y83.720 E0.2317
G1 X159.094 Y83.731 E0.2341
G1 X159.925 Y83.851 E0.2550
G1 X160.015 Y83.867 E0.2573
G1 X160.567 Y83.983 E0.2713
G1 X160.709 Y83.963 E0.2749
G1 X162.075 Y84.210 E0.3094
G1 X162.250 Y84.253 E0.3139
G1 X162.582 Y84.358 E0.3226
G1 X163.719 Y84.524 E0.3512
G1 X163.819 Y84.542 E0.3537
G1 X164.601 Y84.714 E0.3736
G1 X164.696 Y84.738 E0.3760
G1 X165.159 Y84.873 E0.3880
G1 X165.293 Y84.863 E0.3914
G1 X166.600 Y85.203 E0.4250
G1 X166.785 Y85.265 E0.4299
G1 X167.060 Y85.379 E0.4373
G1 X168.063 Y85.601 E0.4628
G1 X168.171 Y85.629 E0.4656
G1 X168.890 Y85.848 E0.4843
G1 X168.990 Y85.883 E0.4869
G1 X169.338 Y86.017 E0.4962
G1 X169.461 Y86.016 E0.4993
G1 X170.698 Y86.451 E0.5319
G1 X170.898 Y86.539 E0.5373
G1 X171.105 Y86.649 E0.5432
G1 X171.947 Y86.907 E0.5651
G1 X172.064 Y86.948 E0.5682
G1 X172.711 Y87.209 E0.5855
G1 X172.820 Y87.259 E0.5885
G1 X173.039 Y87.369 E0.5946
G1 X173.146 Y87.375 E0.5973
G1 X174.307 Y87.910 E0.6291
G1 X174.523 Y88.033 E0.6353
G1 X174.657 Y88.126 E0.6393
G1 X175.322 Y88.396 E0.6572
G1 X175.450 Y88.455 E0.6607
G1 X176.019 Y88.755 E0.6767
G1 X176.137 Y88.824 E0.6801
G1 X176.228 Y88.883 E0.6828
G1 X176.318 Y88.896 E0.6851
G1 X177.393 Y89.540 E0.7163
G1 X177.624 Y89.712 E0.7234
G1 X177.686 Y89.769 E0.7255
G1 X178.169 Y90.024 E0.7391
G1 X178.309 Y90.109 E0.7432
G1 X178.801 Y90.446 E0.7580
G1 X178.904 Y90.525 E0.7612
G1 X178.978 Y90.543 E0.7631
G1 X179.953 Y91.308 E0.7940
G1 X180.193 Y91.548 E0.8024
G1 X180.500 Y91.759 E0.8117
G1 X180.650 Y91.877 E0.8164
G1 X181.066 Y92.255 E0.8304
G1 X181.097 Y92.287 E0.8315
G1 X181.218 Y92.336 E0.8348
G1 X183.063 Y94.423 E0.9041
G1 X183.285 Y94.857 E0.9162
G1 X183.470 Y95.041 E0.9227
G1 X183.804 Y95.559 E0.9380
G1 X183.888 Y95.782 E0.9440
G1 X183.938 Y95.851 E0.9461
G1 X184.167 Y96.245 E0.9574
G1 X184.280 Y96.490 E0.9641
G1 X184.449 Y96.972 E0.9769
G1 X184.525 Y97.321 E0.9857
G1 X184.574 Y97.858 E0.9992
G1 X184.564 Y98.199 E1.0077
G1 X184.488 Y98.714 E1.0206
G1 X184.399 Y99.040 E1.0290
G1 X184.203 Y99.529 E1.0421
G1 X184.038 Y99.830 E1.0507
G1 X183.730 Y100.261 E1.0638
G1 X183.500 Y100.513 E1.0723
G1 X183.261 Y100.719 E1.0802
G1 X183.718 Y101.125 E1.0954
G1 X184.108 Y101.684 E1.1124
G1 X184.483 Y102.644 E1.1380
G1 X184.579 Y103.280 E1.1540
G1 X184.516 Y104.138 E1.1754
G1 X184.421 Y104.559 E1.1862
G1 X184.202 Y105.117 E1.2011
G1 X183.957 Y105.528 E1.2130
G1 X183.651 Y105.887 E1.2247
G1 X183.419 Y106.251 E1.2354
G1 X183.141 Y106.849 E1.2519
G1 X182.464 Y107.702 E1.2790
G1 X182.190 Y107.965 E1.2884
G1 X182.016 Y108.205 E1.2958
G1 X181.872 Y108.374 E1.3013
G1 X181.754 Y108.493 E1.3055
G1 X181.733 Y108.592 E1.3080
G1 X180.538 Y109.621 E1.3472
G1 X180.303 Y109.786 E1.3544
G1 X180.236 Y109.824 E1.3563
G1 X179.874 Y110.174 E1.3688
G1 X179.732 Y110.294 E1.3734
G1 X179.352 Y110.575 E1.3852
G1 X179.320 Y110.647 E1.3872
G1 X178.038 Y111.472 E1.4251
G1 X177.817 Y111.588 E1.4313
G1 X177.673 Y111.649 E1.4352
G1 X177.120 Y112.044 E1.4521
G1 X176.988 Y112.128 E1.4560
G1 X176.417 Y112.447 E1.4723
G1 X176.340 Y112.485 E1.4744
G1 X176.302 Y112.541 E1.4761
G1 X174.952 Y113.198 E1.5134
G1 X174.751 Y113.278 E1.5188
G1 X174.526 Y113.348 E1.5247
G1 X173.766 Y113.758 E1.5462
G1 X173.644 Y113.816 E1.5495
G1 X172.986 Y114.095 E1.5673
G1 X172.878 Y114.135 E1.5702
G1 X172.726 Y114.185 E1.5742
G1 X172.667 Y114.247 E1.5763
G1 X171.259 Y114.763 E1.6136
G1 X171.076 Y114.817 E1.6184
G1 X170.772 Y114.884 E1.6261
G1 X169.804 Y115.277 E1.6521
G1 X169.694 Y115.317 E1.6550
G1 X168.949 Y115.552 E1.6745
G1 X168.850 Y115.579 E1.6770
G1 X168.513 Y115.659 E1.6856
G1 X168.429 Y115.726 E1.6883
G1 X166.968 Y116.115 E1.7259
G1 X166.800 Y116.149 E1.7302
G1 X166.424 Y116.203 E1.7396
G1 X165.266 Y116.551 E1.7697
G1 X165.165 Y116.578 E1.7723
G1 X164.339 Y116.761 E1.7934
G1 X164.249 Y116.778 E1.7957
G1 X163.745 Y116.857 E1.8083
G1 X163.638 Y116.923 E1.8115
G1 X162.132 Y117.195 E1.8495
G1 X161.976 Y117.215 E1.8535
G1 X161.542 Y117.245 E1.8643
G1 X160.224 Y117.522 E1.8978
G1 X160.129 Y117.539 E1.9002
G1 X159.237 Y117.665 E1.9226
G1 X159.153 Y117.674 E1.9247
G1 X158.518 Y117.725 E1.9406
G1 X158.390 Y117.787 E1.9441
G1 X156.854 Y117.945 E1.9825
G1 X156.705 Y117.952 E1.9862
G1 X156.231 Y117.952 E1.9980
G1 X154.800 Y118.138 E2.0339
G1 X154.709 Y118.147 E2.0362
G1 X153.773 Y118.208 E2.0596
G1 X153.691 Y118.211 E2.0616
G1 X152.971 Y118.218 E2.0795
G1 X152.827 Y118.271 E2.0833
G1 X151.280 Y118.316 E2.1218
G1 X151.134 Y118.313 E2.1255
G1 X150.643 Y118.278 E2.1377
G1 X149.156 Y118.360 E2.1748
G1 X149.067 Y118.362 E2.1770
G1 X148.112 Y118.355 E2.2007
G1 X148.033 Y118.352 E2.2027
G1 X147.280 Y118.305 E2.2215
G1 X147.129 Y118.347 E2.2254
G1 X145.686 Y118.287 E2.2613
G1 X145.523 Y118.270 E2.2654
G1 X145.122 Y118.207 E2.2755
G1 X143.833 Y118.194 E2.3076
G1 X143.741 Y118.189 E2.3099
G1 X142.879 Y118.125 E2.3314
G1 X142.792 Y118.115 E2.3336
G1 X142.184 Y118.032 E2.3488
G1 X142.041 Y118.062 E2.3525
G1 X140.628 Y117.908 E2.3879
G1 X140.460 Y117.879 E2.3921
G1 X140.086 Y117.793 E2.4016
G1 X138.851 Y117.698 E2.4325
G1 X138.756 Y117.687 E2.4349
G1 X137.924 Y117.567 E2.4558
G1 X137.835 Y117.551 E2.4580
G1 X137.282 Y117.435 E2.4721
G1 X137.141 Y117.455 E2.4756
G1 X135.774 Y117.208 E2.5102
G1 X135.600 Y117.165 E2.5147
G1 X135.268 Y117.060 E2.5233
G1 X134.131 Y116.894 E2.5519
G1 X134.030 Y116.876 E2.5544
G1 X133.248 Y116.704 E2.5744
G1 X133.154 Y116.680 E2.5768
G1 X132.691 Y116.545 E2.5888
G1 X132.557 Y116.555 E2.5921
G1 X131.250 Y116.215 E2.6257
G1 X131.064 Y116.153 E2.6306
G1 X130.789 Y116.040 E2.6380
G1 X129.786 Y115.817 E2.6636
G1 X129.679 Y115.789 E2.6663
G1 X128.960 Y115.570 E2.6850
G1 X128.859 Y115.536 E2.6877
G1 X128.511 Y115.401 E2.6970
G1 X128.389 Y115.402 E2.7000
G1 X127.151 Y114.967 E2.7327
G1 X126.951 Y114.880 E2.7381
G1 X126.744 Y114.769 E2.7439
G1 X125.902 Y114.511 E2.7658
G1 X125.785 Y114.470 E2.7689
G1 X125.139 Y114.209 E2.7863
G1 X125.030 Y114.160 E2.7893
G1 X124.811 Y114.049 E2.7954
G1 X124.703 Y114.043 E2.7980
G1 X123.543 Y113.508 E2.8298
G1 X123.327 Y113.385 E2.8360
G1 X123.193 Y113.292 E2.8401
