; G-Code generated by Simplify3D(R) Version 4.1.2
;
;
;
;
; Nov 19, 2022 at 3:20:23 PM
; Settings Summary
;   processName,PLA A15
;   applyToModels,Support_lunettes
;   profileName,PLA_A15_04_10_210 Tevo Tornado
;   profileVersion,2022-11-19 15:16:21
;   baseProfile,Creality CR-10(2)
;   printMaterial,PLA
;   printQuality,Medium
;   printExtruders,
;   extruderName,Primary Extruder
;   extruderToolheadNumber,0
;   extruderDiameter,0.4
;   extruderAutoWidth,0
;   extruderWidth,0.35
;   extrusionMultiplier,0.95
;   extruderUseRetract,1
;   extruderRetractionDistance,4
;   extruderExtraRestartDistance,0
;   extruderRetractionZLift,0.3
;   extruderRetractionSpeed,3000
;   extruderUseCoasting,1
;   extruderCoastingDistance,0.2
;   extruderUseWipe,0
;   extruderWipeDistance,5
;   primaryExtruder,0
;   layerHeight,0.15
;   topSolidLayers,4
;   bottomSolidLayers,4
;   perimeterOutlines,3
;   printPerimetersInsideOut,1
;   startPointOption,2
;   startPointOriginX,0
;   startPointOriginY,300
;   sequentialIslands,0
;   spiralVaseMode,0
;   firstLayerHeightPercentage,120
;   firstLayerWidthPercentage,100
;   firstLayerUnderspeed,0.25
;   useRaft,0
;   raftExtruder,0
;   raftTopLayers,3
;   raftBaseLayers,2
;   raftOffset,3
;   raftSeparationDistance,0.14
;   raftTopInfill,100
;   aboveRaftSpeedMultiplier,0.3
;   useSkirt,1
;   skirtExtruder,0
;   skirtLayers,1
;   skirtOutlines,2
;   skirtOffset,3
;   usePrimePillar,0
;   primePillarExtruder,999
;   primePillarWidth,12
;   primePillarLocation,7
;   primePillarSpeedMultiplier,1
;   useOozeShield,0
;   oozeShieldExtruder,999
;   oozeShieldOffset,2
;   oozeShieldOutlines,1
;   oozeShieldSidewallShape,1
;   oozeShieldSidewallAngle,30
;   oozeShieldSpeedMultiplier,1
;   infillExtruder,0
;   internalInfillPattern,Rectilinear
;   externalInfillPattern,Rectilinear
;   infillPercentage,10
;   outlineOverlapPercentage,15
;   infillExtrusionWidthPercentage,100
;   minInfillLength,5
;   infillLayerInterval,1
;   internalInfillAngles,45,-45
;   overlapInternalInfillAngles,0
;   externalInfillAngles,45,-45
;   generateSupport,0
;   supportExtruder,0
;   supportInfillPercentage,30
;   supportExtraInflation,0
;   supportBaseLayers,0
;   denseSupportExtruder,0
;   denseSupportLayers,0
;   denseSupportInfillPercentage,70
;   supportLayerInterval,1
;   supportHorizontalPartOffset,0.4
;   supportUpperSeparationLayers,1
;   supportLowerSeparationLayers,1
;   supportType,0
;   supportGridSpacing,4.5
;   maxOverhangAngle,45
;   supportAngles,0
;   temperatureName,Primary Extruder,Heated Bed
;   temperatureNumber,0,0
;   temperatureSetpointCount,2,2
;   temperatureSetpointLayers,1,2,1,2
;   temperatureSetpointTemperatures,215,210,55,50
;   temperatureStabilizeAtStartup,1,1
;   temperatureHeatedBed,0,1
;   fanLayers,1,2
;   fanSpeeds,0,100
;   blipFanToFullPower,0
;   adjustSpeedForCooling,1
;   minSpeedLayerTime,15
;   minCoolingSpeedSlowdown,20
;   increaseFanForCooling,1
;   minFanLayerTime,25
;   maxCoolingFanSpeed,100
;   increaseFanForBridging,1
;   bridgingFanSpeed,100
;   use5D,1
;   relativeEdistances,0
;   allowEaxisZeroing,1
;   independentExtruderAxes,0
;   includeM10123,0
;   stickySupport,1
;   applyToolheadOffsets,0
;   gcodeXoffset,0
;   gcodeYoffset,0
;   gcodeZoffset,0
;   overrideMachineDefinition,1
;   machineTypeOverride,0
;   strokeXoverride,300
;   strokeYoverride,300
;   strokeZoverride,400
;   originOffsetXoverride,0
;   originOffsetYoverride,0
;   originOffsetZoverride,0
;   homeXdirOverride,-1
;   homeYdirOverride,-1
;   homeZdirOverride,-1
;   flipXoverride,1
;   flipYoverride,-1
;   flipZoverride,1
;   toolheadOffsets,0,0|0,0|0,0|0,0|0,0|0,0
;   overrideFirmwareConfiguration,1
;   firmwareTypeOverride,RepRap (Marlin/Repetier/Sprinter)
;   GPXconfigOverride,r2
;   baudRateOverride,250000
;   overridePrinterModels,1
;   printerModelsOverride
;   startingGcode,;,; -]H.P.B[- MarshMalloW  ,; $VER: StartScript 1.02 (26.12.2019) MarshMalloW,;,; Begin Startcode,;,M117 *Preheat*     	; Preheat,;extruder0_temperature,M104 S[extruder0_temperature]  ,M109 S[extruder0_temperature] ,M109 R[extruder0_temperature] ,;,M117 *Auto-leveling*     	; Auto-leveling,M107                   	; Turn layer fan off,G21                    	; Set to metric [change to G20 if you want Imperial],G90                    	; Force coordinates to be absolute relative to the origin,G28                    	; Home X/Y/Z axis,G29                    	; Auto-leveling (BL-Touch),;,M117 *Start Clean*     	; Indicate nozzle clean in progress on LCD,G92 E0                 	; Set Extruder to 0 ,G1 X0 Y0 F2000         	; Move X and Y to 0 with speed 2000 (mm/min),G1 Z0.1 F1000          	; Move Z to   0.1 with speed 1000 (mm/min),G1 X8.0 F2000          	; Move X to   8.0 with speed 2000 (mm/min),G1 Y60.0 E4.0 F1000.0  	; Move Y to  60 and Extruder with 4.0 with speed 1000 (mm/min),G1 Y100.0 E8.5 F1000.0 	; Move Y to 100 and Extruder with 8.5 with speed 1000 (mm/min),G92 E0                 	; Set extruder to 0,G1 X16.0 F3000         	; Move X to 16.0 with speed 3000 (mm/min),G1 Y60.0 F3000         	; Move Y to 60.0 with speed 3000 (mm/min),M117 *End Clean*       	; Indicate nozzle clean in progress on LCD,G1 Z5 F3000            	; Move Z to  5.0 with speed 3000 (mm/min),G1 X20.0 F3000         	; Move X to 20.0 with speed 3000 (mm/min),G1 Y20.0 F3000         	; Move Y to 20.0 with speed 3000 (mm/min),; ,M117 *Printing...*     	; Start printing msg on LCD,;,; End Startcode,;,; Begin printing with sliced GCode after here,;
;   layerChangeGcode,
;   retractionGcode,
;   toolChangeGcode,
;   endingGcode,;,; init 181010,;,;M107 			; Fan off,;G1 E-1 F300 			; Retract the filament a bit before lifting the nozzle,;M104 S0 			; Turn off extruder,;M140 S0 			; Turn off bed,;G91			; Relative positioning,;G28 X0 Y0 			; Move X/Y to min endstops so the head is out of teh way,;M84 			; Disable motors,;G90 			; Absolute positioning,;M117 Print ready...,,;,; // From Cura 181010,; // End_gcode,G92 E0			; Zero the extruded length,;G1 E-30 F300		; Retract E -30,M106 S0			; Turn off cooling fan,M104 S0			; Turn off temperature,M140 S0		     	; Turn off bed,G91			; Relative positioning,G1 E-1 F300			; Retract the filament a bit before lifting the nozzle to release some of the pressure,G1 Z+20 E-5 X-20 Y-20 F7200	; Move Z up a bit and retract filament even more,G1 X0 Y150 F10000		; Move right min,M107			; Turn off layer fan,M84			; Disable motors,G90			; Absolute positioning,M117 *The-End* 		; End msg,;,
;   exportFileFormat,gcode
;   celebration,0
;   celebrationSong,Star Wars
;   postProcessing,D:\S3D_Thumbs\S3D_Thumbs.exe f="[output_filepath]" x=600 y=110 w=953 lw=400 lh=300 sw=32 sh=32 d=Y
;   defaultSpeed,4800
;   outlineUnderspeed,0.5
;   solidInfillUnderspeed,0.8
;   supportUnderspeed,0.8
;   rapidXYspeed,6000
;   rapidZspeed,1002
;   minBridgingArea,50
;   bridgingExtraInflation,0.2
;   bridgingExtrusionMultiplier,1
;   bridgingSpeedMultiplier,0.8
;   useFixedBridgingAngle,0
;   fixedBridgingAngle,0
;   applyBridgingToPerimeters,0
;   filamentDiameters,1.75|1.75|1.75|1.75|1.75|1.75
;   filamentPricesPerKg,30|46|46|46|46|46
;   filamentDensities,1.25|1.25|1.25|1.25|1.25|1.25
;   useMinPrintHeight,0
;   minPrintHeight,0
;   useMaxPrintHeight,0
;   maxPrintHeight,50
;   useDiaphragm,0
;   diaphragmLayerInterval,20
;   robustSlicing,1
;   mergeAllIntoSolid,0
;   onlyRetractWhenCrossingOutline,1
;   retractBetweenLayers,1
;   useRetractionMinTravel,0
;   retractionMinTravel,3
;   retractWhileWiping,1
;   onlyWipeOutlines,1
;   avoidCrossingOutline,0
;   maxMovementDetourFactor,3
;   toolChangeRetractionDistance,12
;   toolChangeExtraRestartDistance,-0.5
;   toolChangeRetractionSpeed,600
;   externalThinWallType,1
;   internalThinWallType,1
;   thinWallAllowedOverlapPercentage,10
;   singleExtrusionMinLength,1
;   singleExtrusionMinPrintingWidthPercentage,50
;   singleExtrusionMaxPrintingWidthPercentage,200
;   singleExtrusionEndpointExtension,0.2
;   horizontalSizeCompensation,0
G90
M82
M106 S0
M140 S55
M190 S55
;
; -]H.P.B[- MarshMalloW  
; $VER: StartScript 1.02 (26.12.2019) MarshMalloW
;
; Begin Startcode
;
M117 *Preheat*     	; Preheat
;extruder0_temperature
M104 S215  
M109 S215 
M109 R215 
;
M117 *Auto-leveling*     	; Auto-leveling
M107                   	; Turn layer fan off
G21                    	; Set to metric [change to G20 if you want Imperial]
G90                    	; Force coordinates to be absolute relative to the origin
G28                    	; Home X/Y/Z axis
G29                    	; Auto-leveling (BL-Touch)
;
M117 *Start Clean*     	; Indicate nozzle clean in progress on LCD
G92 E0                 	; Set Extruder to 0 
G1 X0 Y0 F2000         	; Move X and Y to 0 with speed 2000 (mm/min)
G1 Z0.1 F1000          	; Move Z to   0.1 with speed 1000 (mm/min)
G1 X8.0 F2000          	; Move X to   8.0 with speed 2000 (mm/min)
G1 Y60.0 E4.0 F1000.0  	; Move Y to  60 and Extruder with 4.0 with speed 1000 (mm/min)
G1 Y100.0 E8.5 F1000.0 	; Move Y to 100 and Extruder with 8.5 with speed 1000 (mm/min)
G92 E0                 	; Set extruder to 0
G1 X16.0 F3000         	; Move X to 16.0 with speed 3000 (mm/min)
G1 Y60.0 F3000         	; Move Y to 60.0 with speed 3000 (mm/min)
M117 *End Clean*       	; Indicate nozzle clean in progress on LCD
G1 Z5 F3000            	; Move Z to  5.0 with speed 3000 (mm/min)
G1 X20.0 F3000         	; Move X to 20.0 with speed 3000 (mm/min)
G1 Y20.0 F3000         	; Move Y to 20.0 with speed 3000 (mm/min)
; 
M117 *Printing...*     	; Start printing msg on LCD
;
; End Startcode
;
; Begin printing with sliced GCode after here
;
; process PLA A15
; layer 1, Z = 0.180
M117 INDICATOR-Layer1
M117 DASHBOARD_LAYER_INDICATOR 1
T0
G92 E0.0000
G1 E-4.0000 F3000
; feature skirt
; tool H0.180 W0.350
G1 Z0.300 F1002
G1 X134.743 Y124.461 F6000
G1 Z0.180 F1002
G1 E0.0000 F3000
G92 E0.0000
G1 X135.470 Y123.978 E0.0217 F1200
G1 X136.354 Y123.667 E0.0450
G1 X136.944 Y123.566 E0.0599
G1 X163.296 Y123.581 E0.7156
G1 X164.192 Y123.821 E0.7387
G1 X165.145 Y124.371 E0.7661
G1 X165.771 Y124.979 E0.7878
G1 X166.279 Y125.798 E0.8118
G1 X166.514 Y126.407 E0.8280
G1 X166.623 Y126.987 E0.8427
G1 X166.653 Y127.312 E0.8508
G1 X166.650 Y172.745 E1.9813
G1 X166.582 Y173.230 E1.9935
G1 X166.315 Y174.169 E2.0178
G1 X165.810 Y174.993 E2.0419
G1 X164.996 Y175.749 E2.0695
G1 X164.188 Y176.181 E2.0923
G1 X163.329 Y176.383 E2.1143
G1 X162.923 Y176.431 E2.1244
G1 X137.076 Y176.431 E2.7676
G1 X136.670 Y176.383 E2.7778
G1 X135.811 Y176.181 E2.7997
G1 X135.002 Y175.749 E2.8225
G1 X134.189 Y174.993 E2.8502
G1 X133.684 Y174.170 E2.8742
G1 X133.417 Y173.231 E2.8985
G1 X133.349 Y172.745 E2.9107
G1 X133.347 Y127.241 E4.0429
G1 X133.410 Y126.775 E4.0547
G1 X133.628 Y125.974 E4.0753
G1 X134.032 Y125.240 E4.0961
G1 X134.743 Y124.461 E4.1224
G92 E0.0000
G1 E-4.0000 F3000
G1 Z0.480 F1002
G1 X134.972 Y124.729 F6000
G1 Z0.180 F1002
G1 E0.0000 F3000
G92 E0.0000
G1 X135.628 Y124.294 E0.0196 F1200
G1 X136.442 Y124.007 E0.0410
G1 X136.974 Y123.916 E0.0545
G1 X163.250 Y123.931 E0.7083
G1 X164.057 Y124.147 E0.7291
G1 X164.932 Y124.652 E0.7542
G1 X165.497 Y125.200 E0.7738
G1 X165.964 Y125.954 E0.7959
G1 X166.176 Y126.503 E0.8105
G1 X166.276 Y127.036 E0.8240
G1 X166.303 Y127.328 E0.8313
G1 X166.300 Y172.721 E1.9608
G1 X166.239 Y173.158 E1.9718
G1 X165.991 Y174.027 E1.9943
G1 X165.537 Y174.769 E2.0159
G1 X164.791 Y175.462 E2.0413
G1 X164.063 Y175.851 E2.0618
G1 X163.269 Y176.038 E2.0821
G1 X162.903 Y176.081 E2.0913
G1 X137.096 Y176.081 E2.7334
G1 X136.730 Y176.038 E2.7426
G1 X135.936 Y175.851 E2.7629
G1 X135.207 Y175.462 E2.7834
G1 X134.462 Y174.769 E2.8088
G1 X134.008 Y174.028 E2.8304
G1 X133.760 Y173.158 E2.8529
G1 X133.699 Y172.721 E2.8639
G1 X133.697 Y127.264 E3.9950
G1 X133.754 Y126.844 E4.0055
G1 X133.955 Y126.106 E4.0245
G1 X134.318 Y125.446 E4.0433
G1 X134.972 Y124.729 E4.0674
G92 E0.0000
G1 E-4.0000 F3000
; feature inner perimeter
G1 Z0.480 F1002
G1 X137.747 Y127.967 F6000
G1 Z0.180 F1002
G1 E0.0000 F3000
G92 E0.0000
G1 X162.253 Y127.966 E0.6098 F900
G1 X162.250 Y172.031 E1.7062
G1 X137.749 Y172.031 E2.3159
G1 X137.747 Y128.167 E3.4073
G1 X137.747 Y127.967 F900
G1 X137.397 Y127.617 F6000
G92 E0.0000
G1 X162.603 Y127.616 E0.6272 F900
G1 X162.600 Y172.381 E1.7411
G1 X137.399 Y172.381 E2.3681
G1 X137.397 Y127.817 E3.4770
G1 X137.397 Y127.617 F900
; feature outer perimeter
G1 X137.272 Y127.267 F6000
G92 E0.0000
G1 X162.714 Y127.266 E0.6331 F600
G1 X162.784 Y127.276 E0.6348
G1 X162.835 Y127.297 E0.6362
G1 X162.881 Y127.332 E0.6376
G1 X162.917 Y127.377 E0.6391
G1 X162.941 Y127.429 E0.6405
G1 X162.953 Y127.491 E0.6421
G1 X162.950 Y172.490 E1.7618
G1 X162.940 Y172.573 E1.7638
G1 X162.912 Y172.635 E1.7655
G1 X162.838 Y172.704 E1.7680
G1 X162.779 Y172.726 E1.7696
G1 X162.712 Y172.731 E1.7713
G1 X137.286 Y172.731 E2.4039
G1 X137.220 Y172.726 E2.4056
G1 X137.161 Y172.704 E2.4072
G1 X137.087 Y172.635 E2.4097
G1 X137.059 Y172.573 E2.4114
G1 X137.049 Y172.490 E2.4135
G1 X137.047 Y127.488 E3.5332
G1 X137.053 Y127.444 E3.5344
G1 X137.074 Y127.389 E3.5358
G1 X137.099 Y127.354 E3.5369
G1 X137.124 Y127.319 F600
G1 X137.272 Y127.267
; feature solid layer
G1 X161.922 Y128.263 F6000
G92 E0.0000
G1 X161.955 Y128.297 E0.0012 F960
G1 X161.955 Y128.792 E0.0135
G1 X161.427 Y128.263 E0.0321
G1 X160.932 Y128.263 E0.0444
G1 X161.955 Y129.287 E0.0804
G1 X161.955 Y129.782 E0.0928
G1 X160.437 Y128.263 E0.1462
G1 X159.942 Y128.263 E0.1585
G1 X161.955 Y130.277 E0.2294
G1 X161.955 Y130.772 E0.2417
G1 X159.447 Y128.263 E0.3299
G1 X158.952 Y128.264 E0.3423
G1 X161.955 Y131.267 E0.4479
G1 X161.955 Y131.762 E0.4603
G1 X158.457 Y128.264 E0.5834
G1 X157.962 Y128.264 E0.5957
G1 X161.955 Y132.257 E0.7362
G1 X161.955 Y132.752 E0.7485
G1 X157.467 Y128.264 E0.9064
G1 X156.972 Y128.264 E0.9188
G1 X161.955 Y133.247 E1.0941
G1 X161.955 Y133.741 E1.1064
G1 X156.477 Y128.264 E1.2992
G1 X155.982 Y128.264 E1.3115
G1 X161.955 Y134.236 E1.5217
G1 X161.955 Y134.731 E1.5340
G1 X155.487 Y128.264 E1.7616
G1 X154.992 Y128.264 E1.7739
G1 X161.955 Y135.226 E2.0189
G1 X161.955 Y135.721 E2.0312
G1 X154.497 Y128.264 E2.2937
G1 X154.002 Y128.264 E2.3060
G1 X161.955 Y136.216 E2.5858
G1 X161.955 Y136.711 E2.5981
G1 X153.507 Y128.264 E2.8954
G1 X153.012 Y128.264 E2.9077
G1 X161.955 Y137.206 E3.2224
G1 X161.955 Y137.701 E3.2347
G1 X152.517 Y128.264 E3.5668
G1 X152.022 Y128.264 E3.5791
G1 X161.955 Y138.196 E3.9286
G1 X161.955 Y138.691 E3.9410
G1 X151.528 Y128.264 E4.3079
G1 X151.033 Y128.264 E4.3202
G1 X161.955 Y139.186 E4.7045
G1 X161.955 Y139.681 E4.7169
G1 X150.538 Y128.264 E5.1186
G1 X150.043 Y128.264 E5.1309
G1 X161.955 Y140.176 E5.5501
G1 X161.955 Y140.671 E5.5624
G1 X149.548 Y128.264 E5.9990
G1 X149.053 Y128.264 E6.0113
G1 X161.955 Y141.166 E6.4654
G1 X161.955 Y141.661 E6.4777
G1 X148.558 Y128.264 E6.9491
G1 X148.063 Y128.264 E6.9614
G1 X161.954 Y142.155 E7.4503
G1 X161.954 Y142.650 E7.4626
G1 X147.568 Y128.264 E7.9688
G1 X147.073 Y128.264 E7.9811
G1 X161.954 Y143.145 E8.5048
G1 X161.954 Y143.640 E8.5171
G1 X146.578 Y128.264 E9.0582
G1 X146.083 Y128.264 E9.0705
G1 X161.954 Y144.135 E9.6290
G1 X161.954 Y144.630 E9.6414
G1 X145.588 Y128.264 E10.2173
G1 X145.093 Y128.264 E10.2296
G1 X161.954 Y145.125 E10.8229
G1 X161.954 Y145.620 E10.8353
G1 X144.598 Y128.264 E11.4460
G1 X144.103 Y128.264 E11.4583
G1 X161.954 Y146.115 E12.0865
G1 X161.954 Y146.610 E12.0988
G1 X143.608 Y128.264 E12.7444
G1 X143.113 Y128.264 E12.7567
G1 X161.954 Y147.105 E13.4197
G1 X161.954 Y147.600 E13.4320
G1 X142.618 Y128.264 E14.1125
G1 X142.123 Y128.264 E14.1248
G1 X161.954 Y148.095 E14.8226
G1 X161.954 Y148.590 E14.8349
G1 X141.628 Y128.264 E15.5502
G1 X141.133 Y128.264 E15.5625
G1 X161.954 Y149.085 E16.2952
G1 X161.954 Y149.580 E16.3075
G1 X140.638 Y128.264 E17.0576
G1 X140.143 Y128.264 E17.0699
G1 X161.954 Y150.075 E17.8374
G1 X161.954 Y150.569 E17.8497
G1 X139.648 Y128.264 E18.6346
G1 X139.153 Y128.264 E18.6470
G1 X161.954 Y151.064 E19.4493
G1 X161.954 Y151.559 E19.4616
G1 X138.659 Y128.264 E20.2814
G1 X138.164 Y128.264 E20.2937
