; G-Code generated by Simplify3D(R) Version 4.1.2
; Oct 28, 2019 at 11:08:04 AM
; Settings Summary
;   processName,Process1
;   applyToModels,crochet_de_tente_v1
;   profileName,301.30p Tevo Tornado (experimental)
;   profileVersion,2019-10-20 15:24:49
;   baseProfile,Creality CR-10(2)
;   printMaterial,PLA
;   printQuality,Medium
;   printExtruders,
;   extruderName,Primary Extruder
;   extruderToolheadNumber,0
;   extruderDiameter,0.4
;   extruderAutoWidth,0
;   extruderWidth,0.35
;   extrusionMultiplier,0.95
;   extruderUseRetract,1
;   extruderRetractionDistance,3.8
;   extruderExtraRestartDistance,0
;   extruderRetractionZLift,0.3
;   extruderRetractionSpeed,3000
;   extruderUseCoasting,0
;   extruderCoastingDistance,0.2
;   extruderUseWipe,0
;   extruderWipeDistance,4
;   primaryExtruder,0
;   layerHeight,0.15
;   topSolidLayers,4
;   bottomSolidLayers,3
;   perimeterOutlines,3
;   printPerimetersInsideOut,0
;   startPointOption,3
;   startPointOriginX,0
;   startPointOriginY,300
;   sequentialIslands,0
;   spiralVaseMode,0
;   firstLayerHeightPercentage,120
;   firstLayerWidthPercentage,100
;   firstLayerUnderspeed,0.5
;   useRaft,0
;   raftExtruder,0
;   raftTopLayers,3
;   raftBaseLayers,2
;   raftOffset,3
;   raftSeparationDistance,0.14
;   raftTopInfill,100
;   aboveRaftSpeedMultiplier,0.3
;   useSkirt,1
;   skirtExtruder,0
;   skirtLayers,1
;   skirtOutlines,3
;   skirtOffset,2
;   usePrimePillar,0
;   primePillarExtruder,999
;   primePillarWidth,12
;   primePillarLocation,7
;   primePillarSpeedMultiplier,1
;   useOozeShield,0
;   oozeShieldExtruder,999
;   oozeShieldOffset,2
;   oozeShieldOutlines,1
;   oozeShieldSidewallShape,1
;   oozeShieldSidewallAngle,30
;   oozeShieldSpeedMultiplier,1
;   infillExtruder,0
;   internalInfillPattern,Rectilinear
;   externalInfillPattern,Rectilinear
;   infillPercentage,30
;   outlineOverlapPercentage,15
;   infillExtrusionWidthPercentage,100
;   minInfillLength,5
;   infillLayerInterval,1
;   internalInfillAngles,45,-45
;   overlapInternalInfillAngles,0
;   externalInfillAngles,45,-45
;   generateSupport,0
;   supportExtruder,0
;   supportInfillPercentage,30
;   supportExtraInflation,0
;   supportBaseLayers,0
;   denseSupportExtruder,0
;   denseSupportLayers,0
;   denseSupportInfillPercentage,70
;   supportLayerInterval,1
;   supportHorizontalPartOffset,0.4
;   supportUpperSeparationLayers,1
;   supportLowerSeparationLayers,1
;   supportType,0
;   supportGridSpacing,4.5
;   maxOverhangAngle,45
;   supportAngles,0
;   temperatureName,Primary Extruder,Heated Bed
;   temperatureNumber,0,0
;   temperatureSetpointCount,2,1
;   temperatureSetpointLayers,1,2,1
;   temperatureSetpointTemperatures,215,210,50
;   temperatureStabilizeAtStartup,1,1
;   temperatureHeatedBed,0,1
;   fanLayers,1,2
;   fanSpeeds,0,100
;   blipFanToFullPower,0
;   adjustSpeedForCooling,1
;   minSpeedLayerTime,15
;   minCoolingSpeedSlowdown,50
;   increaseFanForCooling,1
;   minFanLayerTime,25
;   maxCoolingFanSpeed,100
;   increaseFanForBridging,1
;   bridgingFanSpeed,100
;   use5D,1
;   relativeEdistances,0
;   allowEaxisZeroing,1
;   independentExtruderAxes,0
;   includeM10123,0
;   stickySupport,1
;   applyToolheadOffsets,0
;   gcodeXoffset,0
;   gcodeYoffset,0
;   gcodeZoffset,0
;   overrideMachineDefinition,1
;   machineTypeOverride,0
;   strokeXoverride,300
;   strokeYoverride,300
;   strokeZoverride,400
;   originOffsetXoverride,0
;   originOffsetYoverride,0
;   originOffsetZoverride,0
;   homeXdirOverride,-1
;   homeYdirOverride,-1
;   homeZdirOverride,-1
;   flipXoverride,1
;   flipYoverride,-1
;   flipZoverride,1
;   toolheadOffsets,0,0|0,0|0,0|0,0|0,0|0,0
;   overrideFirmwareConfiguration,1
;   firmwareTypeOverride,RepRap (Marlin/Repetier/Sprinter)
;   GPXconfigOverride,r2
;   baudRateOverride,250000
;   overridePrinterModels,1
;   printerModelsOverride
;   startingGcode,;Init 181010,;G28 			; Home all axes,;G1 Z5 F3000 		; Lift,;G92 E0			; Reset extrusion distance,,; // From Cura 181010,; // Update 190823 (GueroLoco),; // Update 191005 Autoleveling,; // Start_gcode,M117 *Start Clean*		; Indicate nozzle clean in progress on LCD,;,M104 S[extruder0_temperature] ,M109 S[extruder0_temperature] ,M109 R[extruder0_temperature] ,;,M107			; Turn layer fan off,G21			; Set to metric [change to G20 if you want Imperial],G90			; Force coordinates to be absolute relative to the origin,G28			; Home X/Y/Z axis,G29			; Auto-leveling,;,;G1 X3 Y1 Z15 F9000		; Move safe Z height to shear strings,;G0 X1 Y1 Z0.2 F9000		; Move in 1mm from edge and up [z] 0.2mm,;G92 E0			; Set extruder to [0] zero,;G1 X100 E12 F500		; Extrude 30mm filiment along X axis 100mm long to prime and clean the nozzle,;G92 E0			; Reset extruder to [0] zero end of cleaning run,;G1 E-1 F500			; Retract filiment by 1 mm to reduce string effect,;G1 X180 F4000		; Quick wipe away from the filament line / purge,;,G92 E0			; Set Extruder to 0 ,G1 X0 Y0 F2000		; Move X and Y to 0 with speed 2000 (mm/min),G1 Z0.1 F1000		; Move Z to 0.1,G1 X8.0 F2000		; Move X to 8.0,G1 Y60.0 E4.0 F1000.0		; Prime - Move Y to 60 and Extruder with 4.0,G1 Y100.0 E8.5 F1000.0		; Prime - Move Y to 100 and Extruder with 8.5,G92 E0			; Set extruder to 0,M117 *End Clean*		; Indicate nozzle clean in progress on LCD,G1 Z5 F3000			; Lift - Move Z to 5,; ,M117 *Printing...*		; start msg,; // Begin printing with sliced GCode after here,;
;   layerChangeGcode,
;   retractionGcode,
;   toolChangeGcode,
;   endingGcode,;,; init 181010,;,;M107 			; Fan off,;G1 E-1 F300 			; Retract the filament a bit before lifting the nozzle,;M104 S0 			; Turn off extruder,;M140 S0 			; Turn off bed,;G91			; Relative positioning,;G28 X0 Y0 			; Move X/Y to min endstops so the head is out of teh way,;M84 			; Disable motors,;G90 			; Absolute positioning,;M117 Print ready...,,;,; // From Cura 181010,; // End_gcode,G92 E0			; Zero the extruded length,;G1 E-30 F300		; Retract E -30,M106 S0			; Turn off cooling fan,M104 S0			; Turn off temperature,M140 S0		     	; Turn off bed,G91			; Relative positioning,G1 E-1 F300			; Retract the filament a bit before lifting the nozzle to release some of the pressure,G1 Z+20 E-5 X-20 Y-20 F7200	; Move Z up a bit and retract filament even more,G1 X0 Y150 F10000		; Move right min,M107			; Turn off layer fan,M84			; Disable motors,G90			; Absolute positioning,M117 *The-End* 		; End msg,;,
;   exportFileFormat,gcode
;   celebration,0
;   celebrationSong,Star Wars
;   postProcessing,
;   defaultSpeed,1800
;   outlineUnderspeed,0.5
;   solidInfillUnderspeed,0.8
;   supportUnderspeed,0.8
;   rapidXYspeed,6000
;   rapidZspeed,1002
;   minBridgingArea,50
;   bridgingExtraInflation,0.2
;   bridgingExtrusionMultiplier,1
;   bridgingSpeedMultiplier,0.6
;   useFixedBridgingAngle,0
;   fixedBridgingAngle,0
;   applyBridgingToPerimeters,0
;   filamentDiameters,1.75|1.75|1.75|1.75|1.75|1.75
;   filamentPricesPerKg,30|46|46|46|46|46
;   filamentDensities,1.25|1.25|1.25|1.25|1.25|1.25
;   useMinPrintHeight,0
;   minPrintHeight,0
;   useMaxPrintHeight,0
;   maxPrintHeight,9
;   useDiaphragm,0
;   diaphragmLayerInterval,20
;   robustSlicing,1
;   mergeAllIntoSolid,0
;   onlyRetractWhenCrossingOutline,1
;   retractBetweenLayers,1
;   useRetractionMinTravel,0
;   retractionMinTravel,3
;   retractWhileWiping,0
;   onlyWipeOutlines,1
;   avoidCrossingOutline,0
;   maxMovementDetourFactor,3
;   toolChangeRetractionDistance,12
;   toolChangeExtraRestartDistance,-0.5
;   toolChangeRetractionSpeed,600
;   externalThinWallType,1
;   internalThinWallType,1
;   thinWallAllowedOverlapPercentage,15
;   singleExtrusionMinLength,1
;   singleExtrusionMinPrintingWidthPercentage,50
;   singleExtrusionMaxPrintingWidthPercentage,200
;   singleExtrusionEndpointExtension,0.2
;   horizontalSizeCompensation,0
G90
M82
M106 S32
M140 S50
M190 S50
;Init 181010
;G28 			; Home all axes
;G1 Z5 F3000 		; Lift
;G92 E0			; Reset extrusion distance
; // From Cura 181010
; // Update 190823 (GueroLoco)
; // Update 191005 Autoleveling
; // Start_gcode
M117 *Start Clean*		; Indicate nozzle clean in progress on LCD
;
M104 S215 
M109 S215 
M109 R215 
;
M107			; Turn layer fan off
G21			; Set to metric [change to G20 if you want Imperial]
G90			; Force coordinates to be absolute relative to the origin
G28			; Home X/Y/Z axis
G29			; Auto-leveling
;
;G1 X3 Y1 Z15 F9000		; Move safe Z height to shear strings
;G0 X1 Y1 Z0.2 F9000		; Move in 1mm from edge and up [z] 0.2mm
;G92 E0			; Set extruder to [0] zero
;G1 X100 E12 F500		; Extrude 30mm filiment along X axis 100mm long to prime and clean the nozzle
;G92 E0			; Reset extruder to [0] zero end of cleaning run
;G1 E-1 F500			; Retract filiment by 1 mm to reduce string effect
;G1 X180 F4000		; Quick wipe away from the filament line / purge
;
G92 E0			; Set Extruder to 0 
G1 X0 Y0 F2000		; Move X and Y to 0 with speed 2000 (mm/min)
G1 Z0.1 F1000		; Move Z to 0.1
G1 X8.0 F2000		; Move X to 8.0
G1 Y60.0 E4.0 F1000.0		; Prime - Move Y to 60 and Extruder with 4.0
G1 Y100.0 E8.5 F1000.0		; Prime - Move Y to 100 and Extruder with 8.5
G92 E0			; Set extruder to 0
M117 *End Clean*		; Indicate nozzle clean in progress on LCD
G1 Z5 F3000			; Lift - Move Z to 5
; 
M117 *Printing...*		; start msg
; // Begin printing with sliced GCode after here
;
; process Process1
; layer 1, Z = 0.180
T0
G92 E0.0000
G1 E-3.8000 F3000
; feature skirt
; tool H0.180 W0.350
G1 Z0.300 F1002
G1 X121.796 Y25.056 F6000
G1 Z0.180 F1002
G1 E0.0000 F3000
G92 E0.0000
G1 X121.238 Y24.789 E0.0154 F900
G1 X121.088 Y24.706 E0.0197
G1 X120.706 Y24.463 E0.0309
G1 X120.594 Y24.384 E0.0343
G1 X120.224 Y24.095 E0.0460
G1 X120.071 Y23.958 E0.0511
G1 X119.492 Y23.355 E0.0719
G1 X119.321 Y23.140 E0.0788
G1 X118.848 Y22.410 E0.1004
G1 X118.721 Y22.167 E0.1072
G1 X118.407 Y21.392 E0.1280
G1 X118.344 Y21.196 E0.1331
G1 X118.223 Y20.707 E0.1457
G1 X118.188 Y20.504 E0.1508
G1 X118.109 Y19.707 E0.1708
G1 X118.104 Y19.501 E0.1759
G1 X118.126 Y18.998 E0.1884
G1 X118.150 Y18.793 E0.1935
G1 X118.299 Y18.006 E0.2135
G1 X118.351 Y17.807 E0.2186
G1 X118.509 Y17.347 E0.2307
G1 X118.574 Y17.188 E0.2350
G1 X118.858 Y16.600 E0.2512
G1 X118.980 Y16.393 E0.2572
G1 X119.463 Y15.711 E0.2780
G1 X119.617 Y15.527 E0.2840
G1 X120.102 Y15.040 E0.3010
G1 X120.285 Y14.885 E0.3070
G1 X120.965 Y14.399 E0.3278
G1 X121.171 Y14.276 E0.3338
G1 X121.773 Y13.982 E0.3505
G1 X121.964 Y13.905 E0.3556
G1 X122.585 Y13.705 E0.3718
G1 X122.785 Y13.656 E0.3769
G1 X123.429 Y13.547 E0.3932
G1 X123.633 Y13.527 E0.3983
G1 X124.303 Y13.510 E0.4150
G1 X124.543 Y13.524 E0.4209
G1 X125.415 Y13.648 E0.4429
G1 X125.734 Y13.732 E0.4511
G1 X126.732 Y14.120 E0.4777
G1 X126.864 Y14.178 E0.4813
G1 X127.924 Y14.718 E0.5109
G1 X128.007 Y14.764 E0.5133
G1 X128.362 Y14.975 E0.5235
G1 X128.657 Y14.302 E0.5418
G1 X128.858 Y13.973 E0.5514
G1 X129.273 Y13.461 E0.5678
G1 X129.554 Y13.196 E0.5774
G1 X130.163 Y12.760 E0.5961
G1 X130.504 Y12.579 E0.6057
G1 X131.171 Y12.333 E0.6234
G1 X131.653 Y12.244 E0.6355
G1 X132.518 Y12.232 E0.6571
G1 X132.691 Y12.241 E0.6614
G1 X133.394 Y12.316 E0.6790
G1 X133.565 Y12.345 E0.6833
G1 X134.240 Y12.501 E0.7005
G1 X134.379 Y12.540 E0.7041
G1 X134.839 Y12.697 E0.7162
G1 X134.947 Y12.738 E0.7191
G1 X135.393 Y12.931 E0.7312
G1 X135.522 Y12.995 E0.7348
G1 X136.140 Y13.339 E0.7524
G1 X136.309 Y13.449 E0.7574
G1 X137.026 Y13.992 E0.7798
G1 X137.157 Y14.105 E0.7841
G1 X137.528 Y14.462 E0.7969
G1 X137.626 Y14.568 E0.8005
G1 X138.073 Y15.097 E0.8177
G1 X138.177 Y15.235 E0.8220
G1 X138.558 Y15.814 E0.8393
G1 X138.631 Y15.939 E0.8429
G1 X138.862 Y16.382 E0.8553
G1 X138.923 Y16.513 E0.8589
G1 X139.175 Y17.143 E0.8758
G1 X139.222 Y17.279 E0.8794
G1 X139.361 Y17.760 E0.8918
G1 X139.394 Y17.900 E0.8954
G1 X139.515 Y18.568 E0.9123
G1 X139.534 Y18.711 E0.9159
G1 X139.574 Y19.210 E0.9283
G1 X139.579 Y19.354 E0.9319
G1 X139.565 Y20.061 E0.9495
G1 X139.547 Y20.262 E0.9545
G1 X139.401 Y21.164 E0.9773
G1 X139.355 Y21.361 E0.9823
G1 X139.145 Y22.036 E0.9999
G1 X139.096 Y22.172 E1.0035
G1 X138.900 Y22.632 E1.0159
G1 X138.837 Y22.762 E1.0195
G1 X138.505 Y23.370 E1.0368
G1 X138.413 Y23.516 E1.0411
G1 X138.009 Y24.080 E1.0583
G1 X137.919 Y24.193 E1.0619
G1 X137.589 Y24.568 E1.0744
G1 X137.488 Y24.672 E1.0779
G1 X136.991 Y25.133 E1.0948
G1 X136.881 Y25.226 E1.0984
G1 X136.471 Y25.537 E1.1112
G1 X136.327 Y25.633 E1.1155
G1 X135.550 Y26.087 E1.1379
G1 X135.369 Y26.176 E1.1429
G1 X134.714 Y26.443 E1.1605
G1 X134.578 Y26.491 E1.1641
G1 X134.098 Y26.633 E1.1766
G1 X133.958 Y26.667 E1.1802
G1 X133.263 Y26.799 E1.1978
G1 X133.063 Y26.823 E1.2028
G1 X132.150 Y26.866 E1.2255
G1 X131.948 Y26.861 E1.2305
G1 X131.229 Y26.794 E1.2485
G1 X131.058 Y26.767 E1.2528
G1 X130.367 Y26.617 E1.2704
G1 X130.201 Y26.571 E1.2747
G1 X129.532 Y26.339 E1.2923
G1 X129.373 Y26.272 E1.2966
G1 X128.729 Y25.958 E1.3144
G1 X128.563 Y25.863 E1.3192
G1 X127.746 Y25.319 E1.3436
G1 X127.517 Y25.196 E1.3501
G1 X127.147 Y25.056 E1.3599
G1 X126.911 Y25.010 E1.3659
G1 X126.888 Y25.008 E1.3665
G1 X126.624 Y25.024 E1.3731
G1 X126.458 Y25.059 E1.3773
G1 X125.676 Y25.313 E1.3977
G1 X125.511 Y25.357 E1.4020
G1 X125.050 Y25.448 E1.4137
G1 X124.881 Y25.471 E1.4179
G1 X124.247 Y25.520 E1.4338
G1 X124.041 Y25.521 E1.4389
G1 X123.390 Y25.478 E1.4551
G1 X123.186 Y25.450 E1.4602
G1 X122.564 Y25.318 E1.4761
G1 X122.399 Y25.273 E1.4803
G1 X121.954 Y25.121 E1.4920
G1 X121.796 Y25.056 E1.4963
G92 E0.0000
G1 E-3.8000 F3000
G1 Z0.480 F1002
G1 X121.938 Y24.736 F6000
G1 Z0.180 F1002
G1 E0.0000 F3000
G92 E0.0000
G1 X121.399 Y24.478 E0.0149 F900
G1 X121.267 Y24.405 E0.0186
G1 X120.901 Y24.172 E0.0294
G1 X120.803 Y24.103 E0.0324
G1 X120.449 Y23.827 E0.0436
G1 X120.315 Y23.706 E0.0481
G1 X119.755 Y23.124 E0.0681
G1 X119.606 Y22.936 E0.0741
G1 X119.150 Y22.234 E0.0950
G1 X119.039 Y22.020 E0.1010
G1 X118.736 Y21.272 E0.1210
G1 X118.681 Y21.100 E0.1255
G1 X118.566 Y20.635 E0.1374
G1 X118.535 Y20.457 E0.1419
G1 X118.459 Y19.685 E0.1613
G1 X118.454 Y19.504 E0.1657
G1 X118.475 Y19.026 E0.1777
G1 X118.496 Y18.846 E0.1822
G1 X118.640 Y18.083 E0.2015
G1 X118.687 Y17.909 E0.2060
G1 X118.837 Y17.470 E0.2175
G1 X118.894 Y17.331 E0.2213
G1 X119.167 Y16.765 E0.2369
G1 X119.274 Y16.584 E0.2421
G1 X119.740 Y15.925 E0.2622
G1 X119.876 Y15.764 E0.2674
G1 X120.340 Y15.298 E0.2838
G1 X120.501 Y15.161 E0.2891
G1 X121.157 Y14.692 E0.3091
G1 X121.338 Y14.584 E0.3144
G1 X121.915 Y14.302 E0.3304
G1 X122.083 Y14.234 E0.3349
G1 X122.681 Y14.042 E0.3505
G1 X122.856 Y13.999 E0.3550
G1 X123.475 Y13.894 E0.3706
G1 X123.655 Y13.877 E0.3751
G1 X124.298 Y13.860 E0.3911
G1 X124.508 Y13.873 E0.3963
G1 X125.346 Y13.992 E0.4174
G1 X125.626 Y14.065 E0.4246
G1 X126.597 Y14.443 E0.4505
G1 X126.713 Y14.494 E0.4537
G1 X127.760 Y15.027 E0.4829
G1 X127.833 Y15.068 E0.4850
G1 X128.581 Y15.512 E0.5067
G1 X128.593 Y15.433 E0.5087
G1 X128.686 Y15.107 E0.5171
G1 X128.968 Y14.464 E0.5346
G1 X129.145 Y14.175 E0.5430
G1 X129.530 Y13.699 E0.5582
G1 X129.777 Y13.467 E0.5667
G1 X130.348 Y13.058 E0.5841
G1 X130.647 Y12.900 E0.5926
G1 X131.264 Y12.672 E0.6089
G1 X131.687 Y12.594 E0.6196
G1 X132.512 Y12.583 E0.6402
G1 X132.664 Y12.590 E0.6439
G1 X133.347 Y12.663 E0.6610
G1 X133.496 Y12.688 E0.6648
G1 X134.153 Y12.840 E0.6816
G1 X134.274 Y12.875 E0.6847
G1 X134.720 Y13.026 E0.6964
G1 X134.814 Y13.062 E0.6989
G1 X135.246 Y13.249 E0.7106
G1 X135.359 Y13.305 E0.7138
G1 X135.959 Y13.638 E0.7309
G1 X136.108 Y13.735 E0.7353
G1 X136.806 Y14.265 E0.7571
G1 X136.922 Y14.364 E0.7609
G1 X137.278 Y14.708 E0.7732
G1 X137.364 Y14.800 E0.7763
G1 X137.799 Y15.315 E0.7931
G1 X137.890 Y15.437 E0.7969
G1 X138.260 Y15.999 E0.8137
G1 X138.325 Y16.108 E0.8168
G1 X138.548 Y16.537 E0.8288
G1 X138.601 Y16.652 E0.8320
G1 X138.847 Y17.265 E0.8484
G1 X138.888 Y17.385 E0.8516
G1 X139.022 Y17.849 E0.8636
G1 X139.051 Y17.972 E0.8667
G1 X139.170 Y18.622 E0.8832
G1 X139.186 Y18.748 E0.8863
G1 X139.225 Y19.229 E0.8983
G1 X139.229 Y19.356 E0.9015
G1 X139.215 Y20.042 E0.9186
G1 X139.199 Y20.218 E0.9230
G1 X139.057 Y21.096 E0.9451
G1 X139.017 Y21.269 E0.9495
G1 X138.813 Y21.924 E0.9666
G1 X138.770 Y22.043 E0.9697
