; G-Code generated by Simplify3D(R) Version 4.1.2
; Oct 28, 2019 at 10:41:25 AM
; Settings Summary
;   processName,Process1
;   applyToModels,crochet_de_tente_v1
;   profileName,301.30p Tevo Tornado (experimental)
;   profileVersion,2019-10-20 15:24:49
;   baseProfile,Creality CR-10(2)
;   printMaterial,PLA
;   printQuality,Medium
;   printExtruders,
;   extruderName,Primary Extruder
;   extruderToolheadNumber,0
;   extruderDiameter,0.4
;   extruderAutoWidth,0
;   extruderWidth,0.35
;   extrusionMultiplier,0.95
;   extruderUseRetract,1
;   extruderRetractionDistance,3.8
;   extruderExtraRestartDistance,0
;   extruderRetractionZLift,0.3
;   extruderRetractionSpeed,3000
;   extruderUseCoasting,0
;   extruderCoastingDistance,0.2
;   extruderUseWipe,0
;   extruderWipeDistance,4
;   primaryExtruder,0
;   layerHeight,0.15
;   topSolidLayers,4
;   bottomSolidLayers,3
;   perimeterOutlines,3
;   printPerimetersInsideOut,0
;   startPointOption,3
;   startPointOriginX,0
;   startPointOriginY,300
;   sequentialIslands,0
;   spiralVaseMode,0
;   firstLayerHeightPercentage,120
;   firstLayerWidthPercentage,100
;   firstLayerUnderspeed,0.5
;   useRaft,0
;   raftExtruder,0
;   raftTopLayers,3
;   raftBaseLayers,2
;   raftOffset,3
;   raftSeparationDistance,0.14
;   raftTopInfill,100
;   aboveRaftSpeedMultiplier,0.3
;   useSkirt,1
;   skirtExtruder,0
;   skirtLayers,1
;   skirtOutlines,3
;   skirtOffset,2
;   usePrimePillar,0
;   primePillarExtruder,999
;   primePillarWidth,12
;   primePillarLocation,7
;   primePillarSpeedMultiplier,1
;   useOozeShield,0
;   oozeShieldExtruder,999
;   oozeShieldOffset,2
;   oozeShieldOutlines,1
;   oozeShieldSidewallShape,1
;   oozeShieldSidewallAngle,30
;   oozeShieldSpeedMultiplier,1
;   infillExtruder,0
;   internalInfillPattern,Rectilinear
;   externalInfillPattern,Rectilinear
;   infillPercentage,30
;   outlineOverlapPercentage,15
;   infillExtrusionWidthPercentage,100
;   minInfillLength,5
;   infillLayerInterval,1
;   internalInfillAngles,45,-45
;   overlapInternalInfillAngles,0
;   externalInfillAngles,45,-45
;   generateSupport,0
;   supportExtruder,0
;   supportInfillPercentage,30
;   supportExtraInflation,0
;   supportBaseLayers,0
;   denseSupportExtruder,0
;   denseSupportLayers,0
;   denseSupportInfillPercentage,70
;   supportLayerInterval,1
;   supportHorizontalPartOffset,0.4
;   supportUpperSeparationLayers,1
;   supportLowerSeparationLayers,1
;   supportType,0
;   supportGridSpacing,4.5
;   maxOverhangAngle,45
;   supportAngles,0
;   temperatureName,Primary Extruder,Heated Bed
;   temperatureNumber,0,0
;   temperatureSetpointCount,2,1
;   temperatureSetpointLayers,1,2,1
;   temperatureSetpointTemperatures,215,210,50
;   temperatureStabilizeAtStartup,1,1
;   temperatureHeatedBed,0,1
;   fanLayers,1,2
;   fanSpeeds,0,100
;   blipFanToFullPower,0
;   adjustSpeedForCooling,1
;   minSpeedLayerTime,15
;   minCoolingSpeedSlowdown,50
;   increaseFanForCooling,1
;   minFanLayerTime,25
;   maxCoolingFanSpeed,100
;   increaseFanForBridging,1
;   bridgingFanSpeed,100
;   use5D,1
;   relativeEdistances,0
;   allowEaxisZeroing,1
;   independentExtruderAxes,0
;   includeM10123,0
;   stickySupport,1
;   applyToolheadOffsets,0
;   gcodeXoffset,0
;   gcodeYoffset,0
;   gcodeZoffset,0
;   overrideMachineDefinition,1
;   machineTypeOverride,0
;   strokeXoverride,300
;   strokeYoverride,300
;   strokeZoverride,400
;   originOffsetXoverride,0
;   originOffsetYoverride,0
;   originOffsetZoverride,0
;   homeXdirOverride,-1
;   homeYdirOverride,-1
;   homeZdirOverride,-1
;   flipXoverride,1
;   flipYoverride,-1
;   flipZoverride,1
;   toolheadOffsets,0,0|0,0|0,0|0,0|0,0|0,0
;   overrideFirmwareConfiguration,1
;   firmwareTypeOverride,RepRap (Marlin/Repetier/Sprinter)
;   GPXconfigOverride,r2
;   baudRateOverride,250000
;   overridePrinterModels,1
;   printerModelsOverride
;   startingGcode,;Init 181010,;G28 			; Home all axes,;G1 Z5 F3000 		; Lift,;G92 E0			; Reset extrusion distance,,; // From Cura 181010,; // Update 190823 (GueroLoco),; // Update 191005 Autoleveling,; // Start_gcode,M117 *Start Clean*		; Indicate nozzle clean in progress on LCD,;,M104 S[extruder0_temperature] ,M109 S[extruder0_temperature] ,M109 R[extruder0_temperature] ,;,M107			; Turn layer fan off,G21			; Set to metric [change to G20 if you want Imperial],G90			; Force coordinates to be absolute relative to the origin,G28			; Home X/Y/Z axis,G29			; Auto-leveling,;,;G1 X3 Y1 Z15 F9000		; Move safe Z height to shear strings,;G0 X1 Y1 Z0.2 F9000		; Move in 1mm from edge and up [z] 0.2mm,;G92 E0			; Set extruder to [0] zero,;G1 X100 E12 F500		; Extrude 30mm filiment along X axis 100mm long to prime and clean the nozzle,;G92 E0			; Reset extruder to [0] zero end of cleaning run,;G1 E-1 F500			; Retract filiment by 1 mm to reduce string effect,;G1 X180 F4000		; Quick wipe away from the filament line / purge,;,G92 E0			; Set Extruder to 0 ,G1 X0 Y0 F2000		; Move X and Y to 0 with speed 2000 (mm/min),G1 Z0.1 F1000		; Move Z to 0.1,G1 X8.0 F2000		; Move X to 8.0,G1 Y60.0 E4.0 F1000.0		; Prime - Move Y to 60 and Extruder with 4.0,G1 Y100.0 E8.5 F1000.0		; Prime - Move Y to 100 and Extruder with 8.5,G92 E0			; Set extruder to 0,M117 *End Clean*		; Indicate nozzle clean in progress on LCD,G1 Z5 F3000			; Lift - Move Z to 5,; ,M117 *Printing...*		; start msg,; // Begin printing with sliced GCode after here,;
;   layerChangeGcode,
;   retractionGcode,
;   toolChangeGcode,
;   endingGcode,;,; init 181010,;,;M107 			; Fan off,;G1 E-1 F300 			; Retract the filament a bit before lifting the nozzle,;M104 S0 			; Turn off extruder,;M140 S0 			; Turn off bed,;G91			; Relative positioning,;G28 X0 Y0 			; Move X/Y to min endstops so the head is out of teh way,;M84 			; Disable motors,;G90 			; Absolute positioning,;M117 Print ready...,,;,; // From Cura 181010,; // End_gcode,G92 E0			; Zero the extruded length,;G1 E-30 F300		; Retract E -30,M106 S0			; Turn off cooling fan,M104 S0			; Turn off temperature,M140 S0		     	; Turn off bed,G91			; Relative positioning,G1 E-1 F300			; Retract the filament a bit before lifting the nozzle to release some of the pressure,G1 Z+20 E-5 X-20 Y-20 F7200	; Move Z up a bit and retract filament even more,G1 X0 Y150 F10000		; Move right min,M107			; Turn off layer fan,M84			; Disable motors,G90			; Absolute positioning,M117 *The-End* 		; End msg,;,
;   exportFileFormat,gcode
;   celebration,0
;   celebrationSong,Star Wars
;   postProcessing,
;   defaultSpeed,1800
;   outlineUnderspeed,0.5
;   solidInfillUnderspeed,0.8
;   supportUnderspeed,0.8
;   rapidXYspeed,6000
;   rapidZspeed,1002
;   minBridgingArea,50
;   bridgingExtraInflation,0.2
;   bridgingExtrusionMultiplier,1
;   bridgingSpeedMultiplier,0.6
;   useFixedBridgingAngle,0
;   fixedBridgingAngle,0
;   applyBridgingToPerimeters,0
;   filamentDiameters,1.75|1.75|1.75|1.75|1.75|1.75
;   filamentPricesPerKg,30|46|46|46|46|46
;   filamentDensities,1.25|1.25|1.25|1.25|1.25|1.25
;   useMinPrintHeight,0
;   minPrintHeight,0
;   useMaxPrintHeight,0
;   maxPrintHeight,9
;   useDiaphragm,0
;   diaphragmLayerInterval,20
;   robustSlicing,1
;   mergeAllIntoSolid,0
;   onlyRetractWhenCrossingOutline,1
;   retractBetweenLayers,1
;   useRetractionMinTravel,0
;   retractionMinTravel,3
;   retractWhileWiping,0
;   onlyWipeOutlines,1
;   avoidCrossingOutline,0
;   maxMovementDetourFactor,3
;   toolChangeRetractionDistance,12
;   toolChangeExtraRestartDistance,-0.5
;   toolChangeRetractionSpeed,600
;   externalThinWallType,1
;   internalThinWallType,1
;   thinWallAllowedOverlapPercentage,15
;   singleExtrusionMinLength,1
;   singleExtrusionMinPrintingWidthPercentage,50
;   singleExtrusionMaxPrintingWidthPercentage,200
;   singleExtrusionEndpointExtension,0.2
;   horizontalSizeCompensation,0
G90
M82
M106 S32
M140 S50
M190 S50
;Init 181010
;G28 			; Home all axes
;G1 Z5 F3000 		; Lift
;G92 E0			; Reset extrusion distance
; // From Cura 181010
; // Update 190823 (GueroLoco)
; // Update 191005 Autoleveling
; // Start_gcode
M117 *Start Clean*		; Indicate nozzle clean in progress on LCD
;
M104 S215 
M109 S215 
M109 R215 
;
M107			; Turn layer fan off
G21			; Set to metric [change to G20 if you want Imperial]
G90			; Force coordinates to be absolute relative to the origin
G28			; Home X/Y/Z axis
G29			; Auto-leveling
;
;G1 X3 Y1 Z15 F9000		; Move safe Z height to shear strings
;G0 X1 Y1 Z0.2 F9000		; Move in 1mm from edge and up [z] 0.2mm
;G92 E0			; Set extruder to [0] zero
;G1 X100 E12 F500		; Extrude 30mm filiment along X axis 100mm long to prime and clean the nozzle
;G92 E0			; Reset extruder to [0] zero end of cleaning run
;G1 E-1 F500			; Retract filiment by 1 mm to reduce string effect
;G1 X180 F4000		; Quick wipe away from the filament line / purge
;
G92 E0			; Set Extruder to 0 
G1 X0 Y0 F2000		; Move X and Y to 0 with speed 2000 (mm/min)
G1 Z0.1 F1000		; Move Z to 0.1
G1 X8.0 F2000		; Move X to 8.0
G1 Y60.0 E4.0 F1000.0		; Prime - Move Y to 60 and Extruder with 4.0
G1 Y100.0 E8.5 F1000.0		; Prime - Move Y to 100 and Extruder with 8.5
G92 E0			; Set extruder to 0
M117 *End Clean*		; Indicate nozzle clean in progress on LCD
G1 Z5 F3000			; Lift - Move Z to 5
; 
M117 *Printing...*		; start msg
; // Begin printing with sliced GCode after here
;
; process Process1
; layer 1, Z = 0.180
T0
G92 E0.0000
G1 E-3.8000 F3000
; feature skirt
; tool H0.180 W0.350
G1 Z0.300 F1002
G1 X248.065 Y140.719 F6000
G1 Z0.180 F1002
G1 E0.0000 F3000
G92 E0.0000
G1 X247.965 Y140.539 E0.0051 F900
G1 X247.754 Y140.081 E0.0177
G1 X247.682 Y139.889 E0.0228
G1 X247.443 Y139.088 E0.0436
G1 X247.390 Y138.819 E0.0504
G1 X247.308 Y137.987 E0.0712
G1 X247.302 Y137.781 E0.0763
G1 X247.324 Y137.278 E0.0889
G1 X247.348 Y137.074 E0.0940
G1 X247.497 Y136.286 E0.1139
G1 X247.550 Y136.087 E0.1190
G1 X247.708 Y135.627 E0.1311
G1 X247.773 Y135.468 E0.1354
G1 X248.056 Y134.880 E0.1517
G1 X248.178 Y134.673 E0.1576
G1 X248.661 Y133.991 E0.1784
G1 X248.816 Y133.808 E0.1844
G1 X249.301 Y133.321 E0.2015
G1 X249.483 Y133.165 E0.2075
G1 X250.163 Y132.679 E0.2283
G1 X250.369 Y132.556 E0.2342
G1 X250.971 Y132.262 E0.2509
G1 X251.162 Y132.185 E0.2560
G1 X251.784 Y131.985 E0.2723
G1 X251.983 Y131.936 E0.2774
G1 X252.627 Y131.827 E0.2936
G1 X252.832 Y131.807 E0.2988
G1 X253.502 Y131.790 E0.3154
G1 X253.741 Y131.804 E0.3214
G1 X254.613 Y131.928 E0.3433
G1 X254.932 Y132.012 E0.3515
G1 X255.931 Y132.400 E0.3782
G1 X256.062 Y132.459 E0.3818
G1 X257.123 Y132.998 E0.4114
G1 X257.206 Y133.044 E0.4137
G1 X257.560 Y133.255 E0.4240
G1 X257.856 Y132.582 E0.4423
G1 X258.056 Y132.253 E0.4519
G1 X258.471 Y131.741 E0.4683
G1 X258.752 Y131.476 E0.4779
G1 X259.361 Y131.040 E0.4965
G1 X259.702 Y130.860 E0.5061
G1 X260.369 Y130.614 E0.5238
G1 X260.851 Y130.524 E0.5360
G1 X261.717 Y130.513 E0.5575
G1 X261.889 Y130.521 E0.5618
G1 X262.593 Y130.596 E0.5794
G1 X262.763 Y130.625 E0.5837
G1 X263.438 Y130.781 E0.6010
G1 X263.577 Y130.821 E0.6046
G1 X264.037 Y130.977 E0.6167
G1 X264.145 Y131.018 E0.6195
G1 X264.591 Y131.211 E0.6316
G1 X264.720 Y131.275 E0.6352
G1 X265.313 Y131.605 E0.6521
G1 X265.435 Y131.681 E0.6557
G1 X265.858 Y131.975 E0.6685
G1 X265.994 Y132.082 E0.6728
G1 X266.665 Y132.681 E0.6952
G1 X266.806 Y132.826 E0.7002
G1 X267.272 Y133.377 E0.7182
G1 X267.375 Y133.516 E0.7225
G1 X267.756 Y134.095 E0.7397
G1 X267.829 Y134.219 E0.7433
G1 X268.061 Y134.662 E0.7558
G1 X268.121 Y134.793 E0.7593
G1 X268.373 Y135.423 E0.7762
G1 X268.420 Y135.560 E0.7798
G1 X268.559 Y136.040 E0.7923
G1 X268.592 Y136.181 E0.7958
G1 X268.714 Y136.848 E0.8127
G1 X268.733 Y136.991 E0.8163
G1 X268.773 Y137.490 E0.8288
G1 X268.777 Y137.634 E0.8324
G1 X268.763 Y138.341 E0.8500
G1 X268.745 Y138.542 E0.8550
G1 X268.599 Y139.444 E0.8777
G1 X268.553 Y139.641 E0.8827
G1 X268.343 Y140.317 E0.9003
G1 X268.294 Y140.452 E0.9039
G1 X268.099 Y140.913 E0.9164
G1 X268.036 Y141.042 E0.9200
G1 X267.703 Y141.650 E0.9372
G1 X267.611 Y141.797 E0.9415
G1 X267.208 Y142.360 E0.9588
G1 X267.118 Y142.473 E0.9623
G1 X266.787 Y142.849 E0.9748
G1 X266.687 Y142.952 E0.9784
G1 X266.190 Y143.414 E0.9953
G1 X266.079 Y143.506 E0.9989
G1 X265.669 Y143.817 E1.0117
G1 X265.525 Y143.913 E1.0160
G1 X264.748 Y144.367 E1.0384
G1 X264.567 Y144.456 E1.0434
G1 X263.912 Y144.724 E1.0610
G1 X263.776 Y144.771 E1.0646
G1 X263.297 Y144.913 E1.0770
G1 X263.156 Y144.947 E1.0806
G1 X262.462 Y145.079 E1.0982
G1 X262.261 Y145.103 E1.1032
G1 X261.348 Y145.146 E1.1260
G1 X261.146 Y145.141 E1.1310
G1 X260.428 Y145.074 E1.1489
G1 X260.257 Y145.047 E1.1532
G1 X259.565 Y144.898 E1.1708
G1 X259.399 Y144.851 E1.1752
G1 X258.731 Y144.619 E1.1928
G1 X258.571 Y144.553 E1.1971
G1 X257.927 Y144.238 E1.2149
G1 X257.762 Y144.143 E1.2196
G1 X256.944 Y143.599 E1.2441
G1 X256.715 Y143.476 E1.2505
G1 X256.345 Y143.336 E1.2604
G1 X256.109 Y143.290 E1.2664
G1 X256.087 Y143.288 E1.2669
G1 X255.823 Y143.305 E1.2735
G1 X255.656 Y143.339 E1.2777
G1 X254.875 Y143.594 E1.2982
G1 X254.709 Y143.637 E1.3024
G1 X254.249 Y143.728 E1.3141
G1 X254.079 Y143.751 E1.3184
G1 X253.445 Y143.800 E1.3342
G1 X253.240 Y143.801 E1.3393
G1 X252.588 Y143.758 E1.3556
G1 X252.384 Y143.730 E1.3607
G1 X251.763 Y143.598 E1.3765
G1 X251.597 Y143.553 E1.3808
G1 X251.153 Y143.401 E1.3925
G1 X250.994 Y143.337 E1.3967
G1 X250.436 Y143.069 E1.4121
G1 X250.287 Y142.986 E1.4164
G1 X249.905 Y142.743 E1.4276
G1 X249.793 Y142.664 E1.4310
G1 X249.422 Y142.375 E1.4427
G1 X249.269 Y142.238 E1.4478
G1 X248.690 Y141.635 E1.4686
G1 X248.519 Y141.420 E1.4755
G1 X248.065 Y140.719 E1.4963
G92 E0.0000
G1 E-3.8000 F3000
G1 Z0.480 F1002
G1 X248.365 Y140.539 F6000
G1 Z0.180 F1002
G1 E0.0000 F3000
G92 E0.0000
G1 X248.278 Y140.381 E0.0045 F900
G1 X248.077 Y139.946 E0.0164
G1 X248.013 Y139.777 E0.0209
G1 X247.783 Y139.004 E0.0410
G1 X247.737 Y138.768 E0.0470
G1 X247.657 Y137.965 E0.0670
G1 X247.652 Y137.784 E0.0715
G1 X247.673 Y137.306 E0.0835
G1 X247.694 Y137.127 E0.0879
G1 X247.839 Y136.364 E0.1073
G1 X247.885 Y136.189 E0.1118
G1 X248.035 Y135.750 E0.1233
G1 X248.093 Y135.611 E0.1271
G1 X248.365 Y135.045 E0.1427
G1 X248.472 Y134.864 E0.1479
G1 X248.939 Y134.205 E0.1680
G1 X249.074 Y134.044 E0.1732
G1 X249.538 Y133.578 E0.1896
G1 X249.699 Y133.441 E0.1949
G1 X250.355 Y132.972 E0.2149
G1 X250.536 Y132.864 E0.2202
G1 X251.114 Y132.582 E0.2362
G1 X251.281 Y132.514 E0.2407
G1 X251.879 Y132.322 E0.2563
G1 X252.054 Y132.279 E0.2608
G1 X252.673 Y132.174 E0.2764
G1 X252.853 Y132.157 E0.2809
G1 X253.496 Y132.140 E0.2969
G1 X253.706 Y132.153 E0.3021
G1 X254.544 Y132.272 E0.3232
G1 X254.824 Y132.345 E0.3304
G1 X255.796 Y132.723 E0.3563
G1 X255.911 Y132.775 E0.3595
G1 X256.959 Y133.308 E0.3887
G1 X257.032 Y133.348 E0.3908
G1 X257.779 Y133.793 E0.4124
G1 X257.791 Y133.713 E0.4144
G1 X257.885 Y133.387 E0.4229
G1 X258.167 Y132.744 E0.4404
G1 X258.343 Y132.455 E0.4488
G1 X258.728 Y131.980 E0.4640
G1 X258.975 Y131.747 E0.4724
G1 X259.546 Y131.339 E0.4899
G1 X259.846 Y131.180 E0.4983
G1 X260.462 Y130.952 E0.5147
G1 X260.885 Y130.874 E0.5254
G1 X261.711 Y130.863 E0.5460
G1 X261.863 Y130.870 E0.5497
G1 X262.545 Y130.943 E0.5668
G1 X262.695 Y130.968 E0.5706
G1 X263.351 Y131.120 E0.5874
G1 X263.473 Y131.155 E0.5905
G1 X263.918 Y131.306 E0.6022
G1 X264.013 Y131.342 E0.6047
G1 X264.444 Y131.529 E0.6164
G1 X264.558 Y131.585 E0.6196
G1 X265.135 Y131.906 E0.6360
G1 X265.243 Y131.973 E0.6392
G1 X265.649 Y132.256 E0.6515
G1 X265.769 Y132.351 E0.6553
G1 X266.423 Y132.934 E0.6771
G1 X266.546 Y133.061 E0.6815
G1 X266.998 Y133.595 E0.6989
G1 X267.089 Y133.717 E0.7027
G1 X267.459 Y134.280 E0.7194
G1 X267.523 Y134.389 E0.7226
G1 X267.747 Y134.817 E0.7346
G1 X267.799 Y134.932 E0.7378
G1 X268.045 Y135.545 E0.7542
G1 X268.086 Y135.665 E0.7574
G1 X268.220 Y136.129 E0.7694
G1 X268.249 Y136.252 E0.7725
G1 X268.368 Y136.902 E0.7890
G1 X268.384 Y137.028 E0.7921
G1 X268.423 Y137.510 E0.8041
G1 X268.427 Y137.636 E0.8073
G1 X268.413 Y138.322 E0.8244
G1 X268.397 Y138.498 E0.8288
G1 X268.255 Y139.376 E0.8509
G1 X268.215 Y139.549 E0.8553
G1 X268.012 Y140.205 E0.8724
G1 X267.968 Y140.323 E0.8755
G1 X267.780 Y140.768 E0.8876
