; G-Code generated by Simplify3D(R) Version 4.1.2
; Sep 17, 2019 at 9:05:55 PM
; Settings Summary
;   processName,Process1
;   applyToModels,crochet_de_tente_2
;   profileName,101.01 40% Tevo Tornado (experimental) (modified)
;   profileVersion,2019-09-14 14:29:36
;   baseProfile,Creality CR-10(2)
;   printMaterial,PLA
;   printQuality,Medium
;   printExtruders,
;   extruderName,Primary Extruder
;   extruderToolheadNumber,0
;   extruderDiameter,0.4
;   extruderAutoWidth,0
;   extruderWidth,0.35
;   extrusionMultiplier,0.95
;   extruderUseRetract,1
;   extruderRetractionDistance,6
;   extruderExtraRestartDistance,0
;   extruderRetractionZLift,0.3
;   extruderRetractionSpeed,3000
;   extruderUseCoasting,0
;   extruderCoastingDistance,0.2
;   extruderUseWipe,0
;   extruderWipeDistance,4
;   primaryExtruder,0
;   layerHeight,0.15
;   topSolidLayers,4
;   bottomSolidLayers,3
;   perimeterOutlines,3
;   printPerimetersInsideOut,0
;   startPointOption,2
;   startPointOriginX,0
;   startPointOriginY,300
;   sequentialIslands,0
;   spiralVaseMode,0
;   firstLayerHeightPercentage,120
;   firstLayerWidthPercentage,100
;   firstLayerUnderspeed,0.5
;   useRaft,0
;   raftExtruder,0
;   raftTopLayers,3
;   raftBaseLayers,2
;   raftOffset,3
;   raftSeparationDistance,0.14
;   raftTopInfill,100
;   aboveRaftSpeedMultiplier,0.3
;   useSkirt,1
;   skirtExtruder,0
;   skirtLayers,1
;   skirtOutlines,3
;   skirtOffset,2
;   usePrimePillar,0
;   primePillarExtruder,999
;   primePillarWidth,12
;   primePillarLocation,7
;   primePillarSpeedMultiplier,1
;   useOozeShield,0
;   oozeShieldExtruder,999
;   oozeShieldOffset,2
;   oozeShieldOutlines,1
;   oozeShieldSidewallShape,1
;   oozeShieldSidewallAngle,30
;   oozeShieldSpeedMultiplier,1
;   infillExtruder,0
;   internalInfillPattern,Rectilinear
;   externalInfillPattern,Rectilinear
;   infillPercentage,40
;   outlineOverlapPercentage,15
;   infillExtrusionWidthPercentage,100
;   minInfillLength,5
;   infillLayerInterval,1
;   internalInfillAngles,45,-45
;   overlapInternalInfillAngles,0
;   externalInfillAngles,45,-45
;   generateSupport,0
;   supportExtruder,0
;   supportInfillPercentage,30
;   supportExtraInflation,0
;   supportBaseLayers,0
;   denseSupportExtruder,0
;   denseSupportLayers,0
;   denseSupportInfillPercentage,70
;   supportLayerInterval,1
;   supportHorizontalPartOffset,0.4
;   supportUpperSeparationLayers,1
;   supportLowerSeparationLayers,1
;   supportType,0
;   supportGridSpacing,4.5
;   maxOverhangAngle,45
;   supportAngles,0
;   temperatureName,Primary Extruder,Heated Bed
;   temperatureNumber,0,0
;   temperatureSetpointCount,2,1
;   temperatureSetpointLayers,1,2,1
;   temperatureSetpointTemperatures,210,205,50
;   temperatureStabilizeAtStartup,1,1
;   temperatureHeatedBed,0,1
;   fanLayers,1,2
;   fanSpeeds,0,100
;   blipFanToFullPower,0
;   adjustSpeedForCooling,1
;   minSpeedLayerTime,15
;   minCoolingSpeedSlowdown,50
;   increaseFanForCooling,1
;   minFanLayerTime,25
;   maxCoolingFanSpeed,100
;   increaseFanForBridging,1
;   bridgingFanSpeed,100
;   use5D,1
;   relativeEdistances,0
;   allowEaxisZeroing,1
;   independentExtruderAxes,0
;   includeM10123,0
;   stickySupport,1
;   applyToolheadOffsets,0
;   gcodeXoffset,0
;   gcodeYoffset,0
;   gcodeZoffset,0
;   overrideMachineDefinition,1
;   machineTypeOverride,0
;   strokeXoverride,300
;   strokeYoverride,300
;   strokeZoverride,400
;   originOffsetXoverride,0
;   originOffsetYoverride,0
;   originOffsetZoverride,0
;   homeXdirOverride,-1
;   homeYdirOverride,-1
;   homeZdirOverride,-1
;   flipXoverride,1
;   flipYoverride,-1
;   flipZoverride,1
;   toolheadOffsets,0,0|0,0|0,0|0,0|0,0|0,0
;   overrideFirmwareConfiguration,1
;   firmwareTypeOverride,RepRap (Marlin/Repetier/Sprinter)
;   GPXconfigOverride,r2
;   baudRateOverride,250000
;   overridePrinterModels,1
;   printerModelsOverride
;   startingGcode,;Init 181010,;G28 			; Home all axes,;G1 Z5 F3000 ; lift,;G92 E0			; Reset extrusion distance,,; // From Cura 181010,; // Update 190823 (GueroLoco),; // Start_gcode,M117 *Start Clean*		; Indicate nozzle clean in progress on LCD,;,M104 S[extruder0_temperature] ,M109 S[extruder0_temperature] ,M109 R[extruder0_temperature] ,;,M107			; Turn layer fan off,G21			; Set to metric [change to G20 if you want Imperial],G90			; Force coordinates to be absolute relative to the origin,G28			; Home X/Y/Z axis,;,;G1 X3 Y1 Z15 F9000		; Move safe Z height to shear strings,;G0 X1 Y1 Z0.2 F9000		; Move in 1mm from edge and up [z] 0.2mm,;G92 E0			; Set extruder to [0] zero,;G1 X100 E12 F500		; Extrude 30mm filiment along X axis 100mm long to prime and clean the nozzle,;G92 E0			; Reset extruder to [0] zero end of cleaning run,;G1 E-1 F500			; Retract filiment by 1 mm to reduce string effect,;G1 X180 F4000		; Quick wipe away from the filament line / purge,;,G92 E0			; Set Extruder to 0 ,G1 X0 Y0 F2000		; Move X and Y to 0 with speed 2000 (mm/min),G1 Z0.1 F1000		; Move Z to 0.1,G1 X8.0 F2000		; Move X to 8.0,G1 Y60.0 E4.0 F1000.0		; Prime - Move Y to 60 and Extruder with 4.0,G1 Y100.0 E8.5 F1000.0		; Prime - Move Y to 100 and Extruder with 8.5,G92 E0			; Set extruder to 0,M117 *End Clean*		; Indicate nozzle clean in progress on LCD,G1 Z5 F3000			; Lift - Move Z to 5,; ,M117 *Printing...*		; start msg,; // Begin printing with sliced GCode after here,;
;   layerChangeGcode,
;   retractionGcode,
;   toolChangeGcode,
;   endingGcode,;,; init 181010,;,;M107 			; Fan off,;G1 E-1 F300 			; Retract the filament a bit before lifting the nozzle,;M104 S0 			; Turn off extruder,;M140 S0 			; Turn off bed,;G91			; Relative positioning,;G28 X0 Y0 			; Move X/Y to min endstops so the head is out of teh way,;M84 			; Disable motors,;G90 			; Absolute positioning,;M117 Print ready...,,;,; // From Cura 181010,; // End_gcode,G92 E0			; Zero the extruded length,G1 E-30 F300			; Retract E -30,M106 S0			; Turn off cooling fan,M104 S0			; Turn off temperature,M140 S0		     	; Turn off bed,G91			; Relative positioning,G1 E-1 F300			; Retract the filament a bit before lifting the nozzle to release some of the pressure,G1 Z+20 E-5 X-20 Y-20 F7200	; Move Z up a bit and retract filament even more,G1 X0 Y150 F10000		; Move right min,M107			; Turn off layer fan,M84			; Disable motors,G90			; Absolute positioning,M117 *The-End* 		; End msg,;,
;   exportFileFormat,gcode
;   celebration,0
;   celebrationSong,Star Wars
;   postProcessing,
;   defaultSpeed,1800
;   outlineUnderspeed,0.5
;   solidInfillUnderspeed,0.8
;   supportUnderspeed,0.8
;   rapidXYspeed,6000
;   rapidZspeed,1002
;   minBridgingArea,50
;   bridgingExtraInflation,0.2
;   bridgingExtrusionMultiplier,1
;   bridgingSpeedMultiplier,0.6
;   useFixedBridgingAngle,0
;   fixedBridgingAngle,0
;   applyBridgingToPerimeters,0
;   filamentDiameters,1.75|1.75|1.75|1.75|1.75|1.75
;   filamentPricesPerKg,30|46|46|46|46|46
;   filamentDensities,1.25|1.25|1.25|1.25|1.25|1.25
;   useMinPrintHeight,0
;   minPrintHeight,0
;   useMaxPrintHeight,0
;   maxPrintHeight,9
;   useDiaphragm,0
;   diaphragmLayerInterval,20
;   robustSlicing,1
;   mergeAllIntoSolid,0
;   onlyRetractWhenCrossingOutline,1
;   retractBetweenLayers,1
;   useRetractionMinTravel,0
;   retractionMinTravel,3
;   retractWhileWiping,0
;   onlyWipeOutlines,1
;   avoidCrossingOutline,0
;   maxMovementDetourFactor,3
;   toolChangeRetractionDistance,12
;   toolChangeExtraRestartDistance,-0.5
;   toolChangeRetractionSpeed,600
;   externalThinWallType,1
;   internalThinWallType,1
;   thinWallAllowedOverlapPercentage,15
;   singleExtrusionMinLength,1
;   singleExtrusionMinPrintingWidthPercentage,50
;   singleExtrusionMaxPrintingWidthPercentage,200
;   singleExtrusionEndpointExtension,0.2
;   horizontalSizeCompensation,0
G90
M82
M106 S37
M140 S50
M190 S50
;Init 181010
;G28 			; Home all axes
;G1 Z5 F3000 ; lift
;G92 E0			; Reset extrusion distance
; // From Cura 181010
; // Update 190823 (GueroLoco)
; // Start_gcode
M117 *Start Clean*		; Indicate nozzle clean in progress on LCD
;
M104 S210 
M109 S210 
M109 R210 
;
M107			; Turn layer fan off
G21			; Set to metric [change to G20 if you want Imperial]
G90			; Force coordinates to be absolute relative to the origin
G28			; Home X/Y/Z axis
;
;G1 X3 Y1 Z15 F9000		; Move safe Z height to shear strings
;G0 X1 Y1 Z0.2 F9000		; Move in 1mm from edge and up [z] 0.2mm
;G92 E0			; Set extruder to [0] zero
;G1 X100 E12 F500		; Extrude 30mm filiment along X axis 100mm long to prime and clean the nozzle
;G92 E0			; Reset extruder to [0] zero end of cleaning run
;G1 E-1 F500			; Retract filiment by 1 mm to reduce string effect
;G1 X180 F4000		; Quick wipe away from the filament line / purge
;
G92 E0			; Set Extruder to 0 
G1 X0 Y0 F2000		; Move X and Y to 0 with speed 2000 (mm/min)
G1 Z0.1 F1000		; Move Z to 0.1
G1 X8.0 F2000		; Move X to 8.0
G1 Y60.0 E4.0 F1000.0		; Prime - Move Y to 60 and Extruder with 4.0
G1 Y100.0 E8.5 F1000.0		; Prime - Move Y to 100 and Extruder with 8.5
G92 E0			; Set extruder to 0
M117 *End Clean*		; Indicate nozzle clean in progress on LCD
G1 Z5 F3000			; Lift - Move Z to 5
; 
M117 *Printing...*		; start msg
; // Begin printing with sliced GCode after here
;
; process Process1
; layer 1, Z = 0.180
T0
G92 E0.0000
G1 E-6.0000 F3000
; feature skirt
; tool H0.180 W0.350
G1 Z0.300 F1002
G1 X140.982 Y134.759 F6000
G1 Z0.180 F1002
G1 E0.0000 F3000
G92 E0.0000
G1 X141.464 Y134.319 E0.0162 F900
G1 X141.625 Y134.191 E0.0214
G1 X142.165 Y133.824 E0.0376
G1 X142.343 Y133.721 E0.0427
G1 X142.930 Y133.434 E0.0590
G1 X143.120 Y133.358 E0.0641
G1 X143.742 Y133.158 E0.0803
G1 X143.942 Y133.109 E0.0855
G1 X144.585 Y133.000 E0.1017
G1 X144.790 Y132.980 E0.1068
G1 X145.460 Y132.963 E0.1235
G1 X145.699 Y132.977 E0.1295
G1 X146.565 Y133.100 E0.1512
G1 X146.871 Y133.179 E0.1591
G1 X147.746 Y133.509 E0.1824
G1 X147.875 Y133.566 E0.1859
G1 X148.912 Y134.078 E0.2146
G1 X149.016 Y134.135 E0.2176
G1 X149.516 Y134.436 E0.2321
G1 X149.622 Y134.149 E0.2397
G1 X149.975 Y133.488 E0.2584
G1 X150.200 Y133.175 E0.2680
G1 X150.615 Y132.737 E0.2830
G1 X150.823 Y132.556 E0.2898
G1 X151.218 Y132.273 E0.3019
G1 X151.506 Y132.113 E0.3101
G1 X152.260 Y131.801 E0.3304
G1 X152.824 Y131.691 E0.3447
G1 X153.925 Y131.699 E0.3721
G1 X154.126 Y131.714 E0.3771
G1 X154.840 Y131.820 E0.3951
G1 X155.009 Y131.856 E0.3994
G1 X155.678 Y132.039 E0.4166
G1 X155.815 Y132.084 E0.4202
G1 X156.268 Y132.258 E0.4323
G1 X156.374 Y132.304 E0.4352
G1 X156.812 Y132.514 E0.4473
G1 X156.939 Y132.583 E0.4509
G1 X157.530 Y132.944 E0.4681
G1 X157.672 Y133.043 E0.4724
G1 X158.216 Y133.473 E0.4897
G1 X158.324 Y133.567 E0.4932
G1 X158.684 Y133.915 E0.5057
G1 X158.783 Y134.021 E0.5093
G1 X159.221 Y134.539 E0.5262
G1 X159.308 Y134.653 E0.5297
G1 X159.591 Y135.066 E0.5422
G1 X159.667 Y135.189 E0.5458
G1 X159.993 Y135.784 E0.5627
G1 X160.056 Y135.913 E0.5663
G1 X160.251 Y136.374 E0.5787
G1 X160.301 Y136.509 E0.5823
G1 X160.511 Y137.185 E0.5999
G1 X160.557 Y137.381 E0.6049
G1 X160.701 Y138.269 E0.6273
G1 X160.718 Y138.442 E0.6316
G1 X160.739 Y138.956 E0.6444
G1 X160.737 Y139.100 E0.6480
G1 X160.695 Y139.806 E0.6656
G1 X160.669 Y140.006 E0.6706
G1 X160.487 Y140.902 E0.6934
G1 X160.433 Y141.096 E0.6984
G1 X160.192 Y141.777 E0.7163
G1 X160.124 Y141.936 E0.7207
G1 X159.803 Y142.582 E0.7386
G1 X159.701 Y142.756 E0.7436
G1 X159.184 Y143.510 E0.7664
G1 X159.058 Y143.668 E0.7714
G1 X158.580 Y144.190 E0.7890
G1 X158.477 Y144.291 E0.7926
G1 X158.104 Y144.624 E0.8050
G1 X157.992 Y144.714 E0.8086
G1 X157.443 Y145.113 E0.8255
G1 X157.323 Y145.192 E0.8291
G1 X156.903 Y145.437 E0.8412
G1 X156.801 Y145.491 E0.8441
G1 X156.363 Y145.702 E0.8561
G1 X156.230 Y145.758 E0.8597
G1 X155.592 Y145.989 E0.8766
G1 X155.454 Y146.031 E0.8802
G1 X154.969 Y146.154 E0.8927
G1 X154.828 Y146.182 E0.8962
G1 X154.157 Y146.282 E0.9131
G1 X154.013 Y146.296 E0.9167
G1 X153.513 Y146.319 E0.9292
G1 X153.369 Y146.319 E0.9328
G1 X152.692 Y146.283 E0.9496
G1 X152.548 Y146.268 E0.9532
G1 X152.054 Y146.191 E0.9657
G1 X151.913 Y146.162 E0.9693
G1 X151.242 Y145.988 E0.9865
G1 X151.077 Y145.935 E0.9908
G1 X150.419 Y145.677 E1.0084
G1 X150.262 Y145.604 E1.0127
G1 X149.644 Y145.271 E1.0302
G1 X149.506 Y145.186 E1.0342
G1 X148.961 Y144.808 E1.0507
G1 X148.777 Y144.699 E1.0560
G1 X148.504 Y144.570 E1.0635
G1 X148.390 Y144.528 E1.0666
G1 X148.193 Y144.480 E1.0716
G1 X148.037 Y144.462 E1.0755
G1 X148.030 Y144.462 E1.0757
G1 X146.494 Y144.848 E1.1151
G1 X146.322 Y144.880 E1.1195
G1 X145.706 Y144.958 E1.1349
G1 X145.535 Y144.969 E1.1392
G1 X145.066 Y144.971 E1.1509
G1 X144.895 Y144.962 E1.1551
G1 X144.263 Y144.890 E1.1709
G1 X144.061 Y144.852 E1.1761
G1 X143.429 Y144.686 E1.1923
G1 X143.235 Y144.620 E1.1974
G1 X142.633 Y144.366 E1.2137
G1 X142.450 Y144.272 E1.2188
G1 X141.906 Y143.944 E1.2346
G1 X141.764 Y143.847 E1.2389
G1 X141.394 Y143.558 E1.2505
G1 X141.265 Y143.445 E1.2548
G1 X140.814 Y142.998 E1.2706
G1 X140.678 Y142.843 E1.2757
G1 X140.285 Y142.322 E1.2920
G1 X140.173 Y142.150 E1.2971
G1 X139.858 Y141.578 E1.3134
G1 X139.772 Y141.391 E1.3185
G1 X139.547 Y140.796 E1.3343
G1 X139.496 Y140.632 E1.3386
G1 X139.384 Y140.176 E1.3502
G1 X139.353 Y140.008 E1.3545
G1 X139.275 Y139.377 E1.3703
G1 X139.265 Y139.172 E1.3754
G1 X139.278 Y138.519 E1.3917
G1 X139.297 Y138.314 E1.3968
G1 X139.400 Y137.687 E1.4126
G1 X139.438 Y137.520 E1.4169
G1 X139.569 Y137.069 E1.4286
G1 X139.626 Y136.907 E1.4328
G1 X139.875 Y136.322 E1.4487
G1 X139.969 Y136.139 E1.4538
G1 X140.307 Y135.581 E1.4700
G1 X140.426 Y135.413 E1.4751
G1 X140.840 Y134.908 E1.4914
G1 X140.982 Y134.759 E1.4965
G92 E0.0000
G1 E-6.0000 F3000
G1 Z0.480 F1002
G1 X141.227 Y135.009 F6000
G1 Z0.180 F1002
G1 E0.0000 F3000
G92 E0.0000
G1 X141.691 Y134.586 E0.0156 F900
G1 X141.832 Y134.474 E0.0201
G1 X142.351 Y134.121 E0.0357
G1 X142.508 Y134.030 E0.0402
G1 X143.072 Y133.754 E0.0559
G1 X143.239 Y133.687 E0.0604
G1 X143.837 Y133.495 E0.0760
G1 X144.013 Y133.452 E0.0805
G1 X144.632 Y133.347 E0.0961
G1 X144.811 Y133.329 E0.1006
G1 X145.454 Y133.313 E0.1166
G1 X145.664 Y133.325 E0.1218
G1 X146.496 Y133.444 E0.1427
G1 X146.766 Y133.513 E0.1497
G1 X147.614 Y133.834 E0.1722
G1 X147.728 Y133.883 E0.1753
G1 X148.750 Y134.389 E0.2037
G1 X148.842 Y134.439 E0.2063
G1 X149.741 Y134.980 E0.2324
G1 X149.824 Y134.611 E0.2418
G1 X149.942 Y134.293 E0.2502
G1 X150.273 Y133.674 E0.2677
G1 X150.471 Y133.399 E0.2761
G1 X150.858 Y132.989 E0.2902
G1 X151.040 Y132.830 E0.2962
G1 X151.405 Y132.569 E0.3073
G1 X151.659 Y132.429 E0.3146
G1 X152.362 Y132.138 E0.3335
G1 X152.857 Y132.042 E0.3461
G1 X153.910 Y132.049 E0.3723
G1 X154.087 Y132.062 E0.3767
G1 X154.778 Y132.165 E0.3941
G1 X154.927 Y132.196 E0.3978
G1 X155.577 Y132.374 E0.4146
G1 X155.697 Y132.413 E0.4178
G1 X156.136 Y132.582 E0.4295
G1 X156.229 Y132.623 E0.4320
G1 X156.653 Y132.826 E0.4437
G1 X156.764 Y132.887 E0.4468
G1 X157.339 Y133.238 E0.4636
G1 X157.463 Y133.324 E0.4674
G1 X157.992 Y133.742 E0.4841
G1 X158.087 Y133.825 E0.4873
G1 X158.435 Y134.161 E0.4993
G1 X158.521 Y134.253 E0.5024
G1 X158.948 Y134.758 E0.5189
G1 X159.025 Y134.859 E0.5220
G1 X159.298 Y135.257 E0.5341
G1 X159.364 Y135.365 E0.5372
G1 X159.682 Y135.944 E0.5537
G1 X159.737 Y136.058 E0.5568
G1 X159.926 Y136.503 E0.5688
G1 X159.969 Y136.621 E0.5720
G1 X160.173 Y137.277 E0.5890
G1 X160.213 Y137.449 E0.5935
G1 X160.353 Y138.315 E0.6153
G1 X160.369 Y138.466 E0.6190
G1 X160.389 Y138.961 E0.6314
G1 X160.387 Y139.088 E0.6345
G1 X160.346 Y139.773 E0.6516
G1 X160.323 Y139.949 E0.6560
G1 X160.146 Y140.820 E0.6781
G1 X160.099 Y140.991 E0.6826
G1 X159.865 Y141.650 E0.7000
G1 X159.806 Y141.790 E0.7037
G1 X159.495 Y142.416 E0.7211
G1 X159.405 Y142.568 E0.7255
G1 X158.902 Y143.302 E0.7477
G1 X158.792 Y143.441 E0.7521
G1 X158.328 Y143.947 E0.7692
G1 X158.238 Y144.036 E0.7723
G1 X157.878 Y144.357 E0.7843
G1 X157.779 Y144.437 E0.7875
G1 X157.245 Y144.825 E0.8039
G1 X157.139 Y144.894 E0.8071
G1 X156.732 Y145.131 E0.8188
G1 X156.643 Y145.179 E0.8213
G1 X156.219 Y145.383 E0.8330
G1 X156.103 Y145.432 E0.8361
G1 X155.481 Y145.657 E0.8526
G1 X155.360 Y145.694 E0.8557
G1 X154.892 Y145.812 E0.8677
