; G-Code generated by Simplify3D(R) Version 4.1.2
;
;
;
;
; Nov 13, 2022 at 2:54:51 AM
; Settings Summary
;   processName,PLA A14 04
;   applyToModels,gw_isha_obelisk
;   profileName,PLAMETA-A14-04-15-190 Tevo Tornado
;   profileVersion,2022-11-13 01:18:42
;   baseProfile,Creality CR-10(2)
;   printMaterial,PLA
;   printQuality,Medium
;   printExtruders,
;   extruderName,Primary Extruder
;   extruderToolheadNumber,0
;   extruderDiameter,0.4
;   extruderAutoWidth,0
;   extruderWidth,0.35
;   extrusionMultiplier,0.95
;   extruderUseRetract,1
;   extruderRetractionDistance,4
;   extruderExtraRestartDistance,0
;   extruderRetractionZLift,0.3
;   extruderRetractionSpeed,3000
;   extruderUseCoasting,1
;   extruderCoastingDistance,0.2
;   extruderUseWipe,0
;   extruderWipeDistance,5
;   primaryExtruder,0
;   layerHeight,0.15
;   topSolidLayers,4
;   bottomSolidLayers,3
;   perimeterOutlines,3
;   printPerimetersInsideOut,0
;   startPointOption,2
;   startPointOriginX,0
;   startPointOriginY,300
;   sequentialIslands,0
;   spiralVaseMode,0
;   firstLayerHeightPercentage,120
;   firstLayerWidthPercentage,100
;   firstLayerUnderspeed,0.5
;   useRaft,0
;   raftExtruder,0
;   raftTopLayers,3
;   raftBaseLayers,2
;   raftOffset,3
;   raftSeparationDistance,0.14
;   raftTopInfill,100
;   aboveRaftSpeedMultiplier,0.3
;   useSkirt,1
;   skirtExtruder,0
;   skirtLayers,1
;   skirtOutlines,2
;   skirtOffset,3
;   usePrimePillar,0
;   primePillarExtruder,999
;   primePillarWidth,12
;   primePillarLocation,7
;   primePillarSpeedMultiplier,1
;   useOozeShield,0
;   oozeShieldExtruder,999
;   oozeShieldOffset,2
;   oozeShieldOutlines,1
;   oozeShieldSidewallShape,1
;   oozeShieldSidewallAngle,30
;   oozeShieldSpeedMultiplier,1
;   infillExtruder,0
;   internalInfillPattern,Rectilinear
;   externalInfillPattern,Rectilinear
;   infillPercentage,15
;   outlineOverlapPercentage,15
;   infillExtrusionWidthPercentage,100
;   minInfillLength,5
;   infillLayerInterval,1
;   internalInfillAngles,45,-45
;   overlapInternalInfillAngles,0
;   externalInfillAngles,45,-45
;   generateSupport,0
;   supportExtruder,0
;   supportInfillPercentage,30
;   supportExtraInflation,0
;   supportBaseLayers,0
;   denseSupportExtruder,0
;   denseSupportLayers,0
;   denseSupportInfillPercentage,70
;   supportLayerInterval,1
;   supportHorizontalPartOffset,0.4
;   supportUpperSeparationLayers,1
;   supportLowerSeparationLayers,1
;   supportType,0
;   supportGridSpacing,4.5
;   maxOverhangAngle,45
;   supportAngles,0
;   temperatureName,Primary Extruder,Heated Bed
;   temperatureNumber,0,0
;   temperatureSetpointCount,2,2
;   temperatureSetpointLayers,1,2,1,2
;   temperatureSetpointTemperatures,195,190,55,50
;   temperatureStabilizeAtStartup,1,1
;   temperatureHeatedBed,0,1
;   fanLayers,1,2
;   fanSpeeds,0,100
;   blipFanToFullPower,0
;   adjustSpeedForCooling,1
;   minSpeedLayerTime,15
;   minCoolingSpeedSlowdown,20
;   increaseFanForCooling,1
;   minFanLayerTime,25
;   maxCoolingFanSpeed,100
;   increaseFanForBridging,1
;   bridgingFanSpeed,100
;   use5D,1
;   relativeEdistances,0
;   allowEaxisZeroing,1
;   independentExtruderAxes,0
;   includeM10123,0
;   stickySupport,1
;   applyToolheadOffsets,0
;   gcodeXoffset,0
;   gcodeYoffset,0
;   gcodeZoffset,0
;   overrideMachineDefinition,1
;   machineTypeOverride,0
;   strokeXoverride,300
;   strokeYoverride,300
;   strokeZoverride,400
;   originOffsetXoverride,0
;   originOffsetYoverride,0
;   originOffsetZoverride,0
;   homeXdirOverride,-1
;   homeYdirOverride,-1
;   homeZdirOverride,-1
;   flipXoverride,1
;   flipYoverride,-1
;   flipZoverride,1
;   toolheadOffsets,0,0|0,0|0,0|0,0|0,0|0,0
;   overrideFirmwareConfiguration,1
;   firmwareTypeOverride,RepRap (Marlin/Repetier/Sprinter)
;   GPXconfigOverride,r2
;   baudRateOverride,250000
;   overridePrinterModels,1
;   printerModelsOverride
;   startingGcode,;,; -]H.P.B[- MarshMalloW  ,; $VER: StartScript 1.02 (26.12.2019) MarshMalloW,;,; Begin Startcode,;,M117 *Preheat*     	; Preheat,;extruder0_temperature,M104 S[extruder0_temperature]  ,M109 S[extruder0_temperature] ,M109 R[extruder0_temperature] ,;,M117 *Auto-leveling*     	; Auto-leveling,M107                   	; Turn layer fan off,G21                    	; Set to metric [change to G20 if you want Imperial],G90                    	; Force coordinates to be absolute relative to the origin,G28                    	; Home X/Y/Z axis,G29                    	; Auto-leveling (BL-Touch),;,M117 *Start Clean*     	; Indicate nozzle clean in progress on LCD,G92 E0                 	; Set Extruder to 0 ,G1 X0 Y0 F2000         	; Move X and Y to 0 with speed 2000 (mm/min),G1 Z0.1 F1000          	; Move Z to   0.1 with speed 1000 (mm/min),G1 X8.0 F2000          	; Move X to   8.0 with speed 2000 (mm/min),G1 Y60.0 E4.0 F1000.0  	; Move Y to  60 and Extruder with 4.0 with speed 1000 (mm/min),G1 Y100.0 E8.5 F1000.0 	; Move Y to 100 and Extruder with 8.5 with speed 1000 (mm/min),G92 E0                 	; Set extruder to 0,G1 X16.0 F3000         	; Move X to 16.0 with speed 3000 (mm/min),G1 Y60.0 F3000         	; Move Y to 60.0 with speed 3000 (mm/min),M117 *End Clean*       	; Indicate nozzle clean in progress on LCD,G1 Z5 F3000            	; Move Z to  5.0 with speed 3000 (mm/min),G1 X20.0 F3000         	; Move X to 20.0 with speed 3000 (mm/min),G1 Y20.0 F3000         	; Move Y to 20.0 with speed 3000 (mm/min),; ,M117 *Printing...*     	; Start printing msg on LCD,;,; End Startcode,;,; Begin printing with sliced GCode after here,;
;   layerChangeGcode,
;   retractionGcode,
;   toolChangeGcode,
;   endingGcode,;,; init 181010,;,;M107 			; Fan off,;G1 E-1 F300 			; Retract the filament a bit before lifting the nozzle,;M104 S0 			; Turn off extruder,;M140 S0 			; Turn off bed,;G91			; Relative positioning,;G28 X0 Y0 			; Move X/Y to min endstops so the head is out of teh way,;M84 			; Disable motors,;G90 			; Absolute positioning,;M117 Print ready...,,;,; // From Cura 181010,; // End_gcode,G92 E0			; Zero the extruded length,;G1 E-30 F300		; Retract E -30,M106 S0			; Turn off cooling fan,M104 S0			; Turn off temperature,M140 S0		     	; Turn off bed,G91			; Relative positioning,G1 E-1 F300			; Retract the filament a bit before lifting the nozzle to release some of the pressure,G1 Z+20 E-5 X-20 Y-20 F7200	; Move Z up a bit and retract filament even more,G1 X0 Y150 F10000		; Move right min,M107			; Turn off layer fan,M84			; Disable motors,G90			; Absolute positioning,M117 *The-End* 		; End msg,;,
;   exportFileFormat,gcode
;   celebration,0
;   celebrationSong,Star Wars
;   postProcessing,D:\S3D_Thumbs\S3D_Thumbs.exe f="[output_filepath]" x=600 y=110 w=953 lw=400 lh=300 sw=32 sh=32 d=Y
;   defaultSpeed,1800
;   outlineUnderspeed,0.5
;   solidInfillUnderspeed,0.8
;   supportUnderspeed,0.8
;   rapidXYspeed,6000
;   rapidZspeed,1002
;   minBridgingArea,50
;   bridgingExtraInflation,0.2
;   bridgingExtrusionMultiplier,1
;   bridgingSpeedMultiplier,0.8
;   useFixedBridgingAngle,0
;   fixedBridgingAngle,0
;   applyBridgingToPerimeters,0
;   filamentDiameters,1.75|1.75|1.75|1.75|1.75|1.75
;   filamentPricesPerKg,30|46|46|46|46|46
;   filamentDensities,1.25|1.25|1.25|1.25|1.25|1.25
;   useMinPrintHeight,0
;   minPrintHeight,0
;   useMaxPrintHeight,0
;   maxPrintHeight,50
;   useDiaphragm,0
;   diaphragmLayerInterval,20
;   robustSlicing,1
;   mergeAllIntoSolid,0
;   onlyRetractWhenCrossingOutline,1
;   retractBetweenLayers,1
;   useRetractionMinTravel,0
;   retractionMinTravel,3
;   retractWhileWiping,0
;   onlyWipeOutlines,1
;   avoidCrossingOutline,0
;   maxMovementDetourFactor,3
;   toolChangeRetractionDistance,12
;   toolChangeExtraRestartDistance,-0.5
;   toolChangeRetractionSpeed,600
;   externalThinWallType,1
;   internalThinWallType,1
;   thinWallAllowedOverlapPercentage,10
;   singleExtrusionMinLength,1
;   singleExtrusionMinPrintingWidthPercentage,50
;   singleExtrusionMaxPrintingWidthPercentage,200
;   singleExtrusionEndpointExtension,0.2
;   horizontalSizeCompensation,0
G90
M82
M106 S0
M140 S55
M190 S55
;
; -]H.P.B[- MarshMalloW  
; $VER: StartScript 1.02 (26.12.2019) MarshMalloW
;
; Begin Startcode
;
M117 *Preheat*     	; Preheat
;extruder0_temperature
M104 S195  
M109 S195 
M109 R195 
;
M117 *Auto-leveling*     	; Auto-leveling
M107                   	; Turn layer fan off
G21                    	; Set to metric [change to G20 if you want Imperial]
G90                    	; Force coordinates to be absolute relative to the origin
G28                    	; Home X/Y/Z axis
G29                    	; Auto-leveling (BL-Touch)
;
M117 *Start Clean*     	; Indicate nozzle clean in progress on LCD
G92 E0                 	; Set Extruder to 0 
G1 X0 Y0 F2000         	; Move X and Y to 0 with speed 2000 (mm/min)
G1 Z0.1 F1000          	; Move Z to   0.1 with speed 1000 (mm/min)
G1 X8.0 F2000          	; Move X to   8.0 with speed 2000 (mm/min)
G1 Y60.0 E4.0 F1000.0  	; Move Y to  60 and Extruder with 4.0 with speed 1000 (mm/min)
G1 Y100.0 E8.5 F1000.0 	; Move Y to 100 and Extruder with 8.5 with speed 1000 (mm/min)
G92 E0                 	; Set extruder to 0
G1 X16.0 F3000         	; Move X to 16.0 with speed 3000 (mm/min)
G1 Y60.0 F3000         	; Move Y to 60.0 with speed 3000 (mm/min)
M117 *End Clean*       	; Indicate nozzle clean in progress on LCD
G1 Z5 F3000            	; Move Z to  5.0 with speed 3000 (mm/min)
G1 X20.0 F3000         	; Move X to 20.0 with speed 3000 (mm/min)
G1 Y20.0 F3000         	; Move Y to 20.0 with speed 3000 (mm/min)
; 
M117 *Printing...*     	; Start printing msg on LCD
;
; End Startcode
;
; Begin printing with sliced GCode after here
;
; process PLA A14 04
; layer 1, Z = 0.180
M117 INDICATOR-Layer1
M117 DASHBOARD_LAYER_INDICATOR 1
T0
G92 E0.0000
G1 E-4.0000 F3000
; feature skirt
; tool H0.180 W0.350
G1 Z0.300 F1002
G1 X121.475 Y123.540 F6000
G1 Z0.180 F1002
G1 E0.0000 F3000
G92 E0.0000
G1 X123.540 Y121.475 E0.0727 F900
G1 X176.460 Y121.475 E1.3895
G1 X178.525 Y123.540 E1.4621
G1 X178.525 Y176.460 E2.7789
G1 X176.460 Y178.525 E2.8516
G1 X123.540 Y178.525 E4.1684
G1 X121.475 Y176.460 E4.2410
G1 X121.475 Y123.540 E5.5578
G92 E0.0000
G1 E-4.0000 F3000
G1 Z0.480 F1002
G1 X121.825 Y123.685 F6000
G1 Z0.180 F1002
G1 E0.0000 F3000
G92 E0.0000
G1 X123.685 Y121.825 E0.0654 F900
G1 X176.315 Y121.825 E1.3750
G1 X178.175 Y123.685 E1.4405
G1 X178.175 Y176.315 E2.7501
G1 X176.315 Y178.175 E2.8155
G1 X123.685 Y178.175 E4.1251
G1 X121.825 Y176.315 E4.1905
G1 X121.825 Y123.685 E5.5001
G92 E0.0000
G1 E-4.0000 F3000
; feature outer perimeter
G1 Z0.480 F1002
G1 X125.175 Y125.175 F6000
G1 Z0.180 F1002
G1 E0.0000 F3000
G92 E0.0000
G1 X174.825 Y125.175 E1.2354 F450
G1 X174.825 Y174.825 E2.4709
G1 X125.175 Y174.825 E3.7063
G1 X125.175 Y125.375 E4.9367
G1 X125.175 Y125.175 F450
; feature inner perimeter
G1 X125.525 Y125.525 F6000
G92 E0.0000
G1 X174.475 Y125.525 E1.2180 F675
G1 X174.475 Y174.475 E2.4360
G1 X125.525 Y174.475 E3.6540
G1 X125.525 Y125.725 E4.8671
G1 X125.525 Y125.525 F675
G92 E0.0000
G1 E-4.0000 F3000
G1 Z0.480 F1002
G1 X144.701 Y145.157 F6000
G1 Z0.180 F1002
G1 E0.0000 F3000
G92 E0.0000
G1 X148.330 Y145.157 E0.0903 F675
G1 X148.330 Y143.314 E0.1361
G1 X148.580 Y143.262 E0.1425
G1 X150.960 Y148.686 E0.2899
G1 X148.581 Y154.205 E0.4394
G1 X148.330 Y154.153 E0.4458
G1 X148.330 Y152.714 E0.4816
G1 X144.701 Y152.714 E0.5719
G1 X144.701 Y149.835 E0.6436
G1 X148.119 Y149.835 E0.7286
G1 X148.119 Y147.532 E0.7859
G1 X144.701 Y147.532 E0.8710
G1 X144.701 Y145.357 E0.9251
G1 X144.701 Y145.157 F675
G1 X145.051 Y145.507 F6000
G92 E0.0000
G1 X148.680 Y145.507 E0.0903 F675
G1 X148.680 Y144.984 E0.1033
G1 X148.930 Y144.931 E0.1097
G1 X150.578 Y148.687 E0.2117
G1 X148.931 Y152.508 E0.3153
G1 X148.680 Y152.456 E0.3217
G1 X148.680 Y152.364 E0.3240
G1 X145.051 Y152.364 E0.4143
G1 X145.051 Y150.185 E0.4685
G1 X148.469 Y150.185 E0.5535
G1 X148.469 Y147.182 E0.6282
G1 X145.051 Y147.182 E0.7133
G1 X145.051 Y145.707 E0.7500
G1 X145.051 Y145.507 F675
G92 E0.0000
G1 E-4.0000 F3000
G1 Z0.480 F1002
G1 X125.875 Y125.875 F6000
G1 Z0.180 F1002
G1 E0.0000 F3000
G92 E0.0000
G1 X174.125 Y125.875 E1.2006 F675
G1 X174.125 Y174.125 E2.4012
G1 X125.875 Y174.125 E3.6018
G1 X125.875 Y126.075 E4.7974
G1 X125.875 Y125.875 F675
; feature outer perimeter
G1 X135.555 Y143.204 F6000
G92 E0.0000
G1 X135.555 Y144.807 E0.0399 F450
G1 X137.866 Y144.807 E0.0974
G1 X137.866 Y154.656 E0.3425
G1 X139.241 Y154.656 E0.3767
G1 X139.241 Y144.807 E0.6217
G1 X141.544 Y144.807 E0.6791
G1 X141.544 Y143.204 E0.7189
G1 X135.755 Y143.204 E0.8630
G1 X135.555 Y143.204 F450
; feature inner perimeter
G1 X135.205 Y142.854 F6000
G92 E0.0000
G1 X135.205 Y145.157 E0.0573 F675
G1 X137.516 Y145.157 E0.1148
G1 X137.516 Y155.006 E0.3599
G1 X139.591 Y155.006 E0.4115
G1 X139.591 Y145.157 E0.6566
G1 X141.894 Y145.157 E0.7139
G1 X141.894 Y142.854 E0.7712
G1 X135.405 Y142.854 E0.9327
G1 X135.205 Y142.854 F675
; feature outer perimeter
G1 X142.976 Y143.204 F6000
G92 E0.0000
G1 X142.976 Y154.656 E0.2850 F450
G1 X147.980 Y154.656 E0.4095
G1 X147.980 Y153.064 E0.4491
G1 X144.351 Y153.064 E0.5394
G1 X144.351 Y149.485 E0.6284
G1 X147.769 Y149.485 E0.7135
G1 X147.769 Y147.882 E0.7534
G1 X144.351 Y147.882 E0.8384
G1 X144.351 Y144.807 E0.9149
G1 X147.980 Y144.807 E1.0052
G1 X147.980 Y143.204 E1.0451
G1 X143.176 Y143.204 E1.1647
G1 X142.976 Y143.204 F450
G1 X148.937 Y143.204 F6000
G92 E0.0000
G1 X151.341 Y148.685 E0.1489 F450
G1 X148.768 Y154.656 E0.3107
G1 X150.191 Y154.656 E0.3461
G1 X152.091 Y150.127 E0.4683
G1 X153.936 Y154.656 E0.5900
G1 X155.493 Y154.656 E0.6287
G1 X152.886 Y148.640 E0.7919
G1 X155.300 Y143.204 E0.9399
G1 X153.858 Y143.204 E0.9758
G1 X152.127 Y147.191 E1.0839
G1 X150.410 Y143.204 E1.1919
G1 X149.137 Y143.204 E1.2236
G1 X148.937 Y143.204 F450
; feature inner perimeter
G1 X150.641 Y142.854 F6000
G92 E0.0000
G1 X142.626 Y142.854 E0.1994 F675
G1 X142.626 Y155.006 E0.5018
G1 X150.424 Y155.006 E0.6958
G1 X152.086 Y151.043 E0.8028
G1 X153.701 Y155.006 E0.9092
G1 X156.026 Y155.006 E0.9671
G1 X153.268 Y148.642 E1.1397
G1 X155.313 Y144.037 E1.2651
G1 X155.563 Y144.090 E1.2714
G1 X155.563 Y145.157 E1.2980
G1 X157.874 Y145.157 E1.3555
G1 X157.874 Y155.006 E1.6005
G1 X159.950 Y155.006 E1.6522
G1 X159.950 Y145.157 E1.8973
G1 X162.252 Y145.157 E1.9545
G1 X162.252 Y142.854 E2.0118
G1 X153.629 Y142.854 E2.2264
G1 X152.128 Y146.309 E2.3202
G1 X150.720 Y143.038 E2.4088
G1 X150.641 Y142.854 F675
G1 X150.871 Y142.504 F6000
G92 E0.0000
G1 X134.855 Y142.504 E0.3985 F675
G1 X134.855 Y145.507 E0.4732
G1 X137.166 Y145.507 E0.5307
G1 X137.166 Y155.356 E0.7758
G1 X139.941 Y155.356 E0.8449
G1 X139.941 Y145.507 E1.0899
G1 X142.276 Y145.507 E1.1480
G1 X142.276 Y155.356 E1.3931
G1 X150.657 Y155.356 E1.6016
G1 X152.081 Y151.959 E1.6933
G1 X153.466 Y155.356 E1.7846
G1 X156.559 Y155.356 E1.8615
G1 X153.650 Y148.643 E2.0436
G1 X155.043 Y145.507 E2.1290
G1 X157.524 Y145.507 E2.1907
G1 X157.524 Y155.356 E2.4358
G1 X160.300 Y155.356 E2.5048
G1 X160.300 Y145.507 E2.7499
G1 X162.602 Y145.507 E2.8072
G1 X162.602 Y142.504 E2.8819
G1 X153.399 Y142.504 E3.1109
G1 X152.130 Y145.427 E3.1902
G1 X150.950 Y142.688 E3.2644
G1 X150.871 Y142.504 F675
; feature outer perimeter
G1 X155.913 Y143.204 F6000
G92 E0.0000
G1 X155.913 Y144.807 E0.0399 F450
G1 X158.224 Y144.807 E0.0974
G1 X158.224 Y154.656 E0.3425
G1 X159.600 Y154.656 E0.3767
G1 X159.600 Y144.807 E0.6218
G1 X161.902 Y144.807 E0.6791
G1 X161.902 Y143.204 E0.7189
G1 X156.113 Y143.204 E0.8630
G1 X155.913 Y143.204 F450
G92 E0.0000
G1 E-4.0000 F3000
; feature internal single extrusion
; tool H0.180 W0.405
G1 Z0.480 F1002
G1 X148.763 Y144.757 F6000
G1 Z0.180 F1002
G1 E0.0000 F3000
G92 E0.0000
G1 X148.693 Y144.424 E0.0106 F450
; tool H0.180 W0.348
G1 X148.664 Y144.285 E0.0144
; tool H0.180 W0.290
G1 X148.635 Y144.147 E0.0175
; tool H0.180 W0.232
G1 X148.606 Y144.009 E0.0200
; tool H0.180 W0.175
G1 X148.577 Y143.871 E0.0219
G1 X148.575 Y143.860 E0.0221
G1 X148.548 Y143.733 F450
G1 X148.534 Y143.664
G92 E0.0000
G1 E-4.0000 F3000
; tool H0.180 W0.382
G1 Z0.480 F1002
