; G-Code generated by Simplify3D(R) Version 4.1.2
; Oct 3, 2020 at 12:13:16 PM
; Settings Summary
;   processName,Tevo Tornado 001
;   applyToModels,SupportHaut4020
;   profileName,A04-04-15 Tevo Tornado
;   profileVersion,2020-07-01 20:14:39
;   baseProfile,Creality CR-10(2)
;   printMaterial,PLA
;   printQuality,Medium
;   printExtruders,
;   extruderName,Primary Extruder
;   extruderToolheadNumber,0
;   extruderDiameter,0.4
;   extruderAutoWidth,0
;   extruderWidth,0.35
;   extrusionMultiplier,0.95
;   extruderUseRetract,1
;   extruderRetractionDistance,4
;   extruderExtraRestartDistance,0
;   extruderRetractionZLift,0.3
;   extruderRetractionSpeed,3000
;   extruderUseCoasting,1
;   extruderCoastingDistance,0.8
;   extruderUseWipe,0
;   extruderWipeDistance,4
;   primaryExtruder,0
;   layerHeight,0.15
;   topSolidLayers,4
;   bottomSolidLayers,3
;   perimeterOutlines,3
;   printPerimetersInsideOut,0
;   startPointOption,1
;   startPointOriginX,0
;   startPointOriginY,300
;   sequentialIslands,0
;   spiralVaseMode,0
;   firstLayerHeightPercentage,120
;   firstLayerWidthPercentage,100
;   firstLayerUnderspeed,0.5
;   useRaft,0
;   raftExtruder,0
;   raftTopLayers,3
;   raftBaseLayers,2
;   raftOffset,3
;   raftSeparationDistance,0.14
;   raftTopInfill,100
;   aboveRaftSpeedMultiplier,0.3
;   useSkirt,1
;   skirtExtruder,0
;   skirtLayers,1
;   skirtOutlines,3
;   skirtOffset,2
;   usePrimePillar,0
;   primePillarExtruder,999
;   primePillarWidth,12
;   primePillarLocation,7
;   primePillarSpeedMultiplier,1
;   useOozeShield,0
;   oozeShieldExtruder,999
;   oozeShieldOffset,2
;   oozeShieldOutlines,1
;   oozeShieldSidewallShape,1
;   oozeShieldSidewallAngle,30
;   oozeShieldSpeedMultiplier,1
;   infillExtruder,0
;   internalInfillPattern,Rectilinear
;   externalInfillPattern,Rectilinear
;   infillPercentage,15
;   outlineOverlapPercentage,15
;   infillExtrusionWidthPercentage,100
;   minInfillLength,5
;   infillLayerInterval,1
;   internalInfillAngles,45,-45
;   overlapInternalInfillAngles,0
;   externalInfillAngles,45,-45
;   generateSupport,0
;   supportExtruder,0
;   supportInfillPercentage,30
;   supportExtraInflation,0
;   supportBaseLayers,0
;   denseSupportExtruder,0
;   denseSupportLayers,0
;   denseSupportInfillPercentage,70
;   supportLayerInterval,1
;   supportHorizontalPartOffset,0.4
;   supportUpperSeparationLayers,1
;   supportLowerSeparationLayers,1
;   supportType,0
;   supportGridSpacing,4.5
;   maxOverhangAngle,45
;   supportAngles,0
;   temperatureName,Primary Extruder,Heated Bed
;   temperatureNumber,0,0
;   temperatureSetpointCount,1,1
;   temperatureSetpointLayers,1,1
;   temperatureSetpointTemperatures,215,55
;   temperatureStabilizeAtStartup,1,1
;   temperatureHeatedBed,0,1
;   fanLayers,1,2
;   fanSpeeds,0,100
;   blipFanToFullPower,0
;   adjustSpeedForCooling,1
;   minSpeedLayerTime,15
;   minCoolingSpeedSlowdown,50
;   increaseFanForCooling,1
;   minFanLayerTime,25
;   maxCoolingFanSpeed,100
;   increaseFanForBridging,1
;   bridgingFanSpeed,100
;   use5D,1
;   relativeEdistances,0
;   allowEaxisZeroing,1
;   independentExtruderAxes,0
;   includeM10123,0
;   stickySupport,1
;   applyToolheadOffsets,0
;   gcodeXoffset,0
;   gcodeYoffset,0
;   gcodeZoffset,0
;   overrideMachineDefinition,1
;   machineTypeOverride,0
;   strokeXoverride,300
;   strokeYoverride,300
;   strokeZoverride,400
;   originOffsetXoverride,0
;   originOffsetYoverride,0
;   originOffsetZoverride,0
;   homeXdirOverride,-1
;   homeYdirOverride,-1
;   homeZdirOverride,-1
;   flipXoverride,1
;   flipYoverride,-1
;   flipZoverride,1
;   toolheadOffsets,0,0|0,0|0,0|0,0|0,0|0,0
;   overrideFirmwareConfiguration,1
;   firmwareTypeOverride,RepRap (Marlin/Repetier/Sprinter)
;   GPXconfigOverride,r2
;   baudRateOverride,250000
;   overridePrinterModels,1
;   printerModelsOverride
;   startingGcode,;,; -]H.P.B[- MarshMalloW  ,; $VER: StartScript 1.02 (26.12.2019) MarshMalloW,;,; Begin Startcode,;,M117 *Preheat*     	; Preheat,;extruder0_temperature,M104 S[extruder0_temperature]  ,M109 S[extruder0_temperature] ,M109 R[extruder0_temperature] ,;,M117 *Auto-leveling*     	; Auto-leveling,M107                   	; Turn layer fan off,G21                    	; Set to metric [change to G20 if you want Imperial],G90                    	; Force coordinates to be absolute relative to the origin,G28                    	; Home X/Y/Z axis,G29                    	; Auto-leveling (BL-Touch),;,M117 *Start Clean*     	; Indicate nozzle clean in progress on LCD,G92 E0                 	; Set Extruder to 0 ,G1 X0 Y0 F2000         	; Move X and Y to 0 with speed 2000 (mm/min),G1 Z0.1 F1000          	; Move Z to   0.1 with speed 1000 (mm/min),G1 X8.0 F2000          	; Move X to   8.0 with speed 2000 (mm/min),G1 Y60.0 E4.0 F1000.0  	; Move Y to  60 and Extruder with 4.0 with speed 1000 (mm/min),G1 Y100.0 E8.5 F1000.0 	; Move Y to 100 and Extruder with 8.5 with speed 1000 (mm/min),G92 E0                 	; Set extruder to 0,G1 X16.0 F3000         	; Move X to 16.0 with speed 3000 (mm/min),G1 Y60.0 F3000         	; Move Y to 60.0 with speed 3000 (mm/min),M117 *End Clean*       	; Indicate nozzle clean in progress on LCD,G1 Z5 F3000            	; Move Z to  5.0 with speed 3000 (mm/min),G1 X20.0 F3000         	; Move X to 20.0 with speed 3000 (mm/min),G1 Y20.0 F3000         	; Move Y to 20.0 with speed 3000 (mm/min),; ,M117 *Printing...*     	; Start printing msg on LCD,;,; End Startcode,;,; Begin printing with sliced GCode after here,;
;   layerChangeGcode,
;   retractionGcode,
;   toolChangeGcode,
;   endingGcode,;,; init 181010,;,;M107 			; Fan off,;G1 E-1 F300 			; Retract the filament a bit before lifting the nozzle,;M104 S0 			; Turn off extruder,;M140 S0 			; Turn off bed,;G91			; Relative positioning,;G28 X0 Y0 			; Move X/Y to min endstops so the head is out of teh way,;M84 			; Disable motors,;G90 			; Absolute positioning,;M117 Print ready...,,;,; // From Cura 181010,; // End_gcode,G92 E0			; Zero the extruded length,;G1 E-30 F300		; Retract E -30,M106 S0			; Turn off cooling fan,M104 S0			; Turn off temperature,M140 S0		     	; Turn off bed,G91			; Relative positioning,G1 E-1 F300			; Retract the filament a bit before lifting the nozzle to release some of the pressure,G1 Z+20 E-5 X-20 Y-20 F7200	; Move Z up a bit and retract filament even more,G1 X0 Y150 F10000		; Move right min,M107			; Turn off layer fan,M84			; Disable motors,G90			; Absolute positioning,M117 *The-End* 		; End msg,;,
;   exportFileFormat,gcode
;   celebration,0
;   celebrationSong,Star Wars
;   postProcessing,|{REPLACE "; layer " "M117 INDICATOR-Layer"}|{REPLACE ", Z = " "\n; Z="}
;   defaultSpeed,1800
;   outlineUnderspeed,0.5
;   solidInfillUnderspeed,0.8
;   supportUnderspeed,0.8
;   rapidXYspeed,6000
;   rapidZspeed,1002
;   minBridgingArea,50
;   bridgingExtraInflation,0.2
;   bridgingExtrusionMultiplier,1
;   bridgingSpeedMultiplier,0.6
;   useFixedBridgingAngle,0
;   fixedBridgingAngle,0
;   applyBridgingToPerimeters,0
;   filamentDiameters,1.75|1.75|1.75|1.75|1.75|1.75
;   filamentPricesPerKg,30|46|46|46|46|46
;   filamentDensities,1.25|1.25|1.25|1.25|1.25|1.25
;   useMinPrintHeight,0
;   minPrintHeight,0
;   useMaxPrintHeight,0
;   maxPrintHeight,50
;   useDiaphragm,0
;   diaphragmLayerInterval,20
;   robustSlicing,1
;   mergeAllIntoSolid,0
;   onlyRetractWhenCrossingOutline,1
;   retractBetweenLayers,0
;   useRetractionMinTravel,0
;   retractionMinTravel,3
;   retractWhileWiping,0
;   onlyWipeOutlines,1
;   avoidCrossingOutline,1
;   maxMovementDetourFactor,3
;   toolChangeRetractionDistance,12
;   toolChangeExtraRestartDistance,-0.5
;   toolChangeRetractionSpeed,600
;   externalThinWallType,1
;   internalThinWallType,1
;   thinWallAllowedOverlapPercentage,10
;   singleExtrusionMinLength,1
;   singleExtrusionMinPrintingWidthPercentage,50
;   singleExtrusionMaxPrintingWidthPercentage,200
;   singleExtrusionEndpointExtension,0.2
;   horizontalSizeCompensation,0
G90
M82
M106 S0
M140 S55
M190 S55
;
; -]H.P.B[- MarshMalloW  
; $VER: StartScript 1.02 (26.12.2019) MarshMalloW
;
; Begin Startcode
;
M117 *Preheat*     	; Preheat
;extruder0_temperature
M104 S215  
M109 S215 
M109 R215 
;
M117 *Auto-leveling*     	; Auto-leveling
M107                   	; Turn layer fan off
G21                    	; Set to metric [change to G20 if you want Imperial]
G90                    	; Force coordinates to be absolute relative to the origin
G28                    	; Home X/Y/Z axis
G29                    	; Auto-leveling (BL-Touch)
;
M117 *Start Clean*     	; Indicate nozzle clean in progress on LCD
G92 E0                 	; Set Extruder to 0 
G1 X0 Y0 F2000         	; Move X and Y to 0 with speed 2000 (mm/min)
G1 Z0.1 F1000          	; Move Z to   0.1 with speed 1000 (mm/min)
G1 X8.0 F2000          	; Move X to   8.0 with speed 2000 (mm/min)
G1 Y60.0 E4.0 F1000.0  	; Move Y to  60 and Extruder with 4.0 with speed 1000 (mm/min)
G1 Y100.0 E8.5 F1000.0 	; Move Y to 100 and Extruder with 8.5 with speed 1000 (mm/min)
G92 E0                 	; Set extruder to 0
G1 X16.0 F3000         	; Move X to 16.0 with speed 3000 (mm/min)
G1 Y60.0 F3000         	; Move Y to 60.0 with speed 3000 (mm/min)
M117 *End Clean*       	; Indicate nozzle clean in progress on LCD
G1 Z5 F3000            	; Move Z to  5.0 with speed 3000 (mm/min)
G1 X20.0 F3000         	; Move X to 20.0 with speed 3000 (mm/min)
G1 Y20.0 F3000         	; Move Y to 20.0 with speed 3000 (mm/min)
; 
M117 *Printing...*     	; Start printing msg on LCD
;
; End Startcode
;
; Begin printing with sliced GCode after here
;
; process Tevo Tornado 001
M117 INDICATOR-Layer1
; Z=0.180
T0
G92 E0.0000
G1 E-4.0000 F3000
; feature skirt
; tool H0.180 W0.350
G1 Z0.300 F1002
G1 X174.960 Y60.603 F6000
G1 Z0.180 F1002
G1 E0.0000 F3000
G92 E0.0000
G1 X175.712 Y60.919 E0.0203 F900
G1 X176.175 Y61.230 E0.0342
G1 X176.752 Y61.807 E0.0545
G1 X177.078 Y62.306 E0.0693
G1 X177.369 Y63.052 E0.0893
G1 X177.469 Y63.579 E0.1026
G1 X177.469 Y91.116 E0.7878
G1 X177.369 Y91.643 E0.8011
G1 X177.078 Y92.390 E0.8211
G1 X176.752 Y92.888 E0.8359
G1 X176.175 Y93.465 E0.8562
G1 X175.711 Y93.777 E0.8701
G1 X174.959 Y94.093 E0.8904
G1 X174.397 Y94.206 E0.9047
G1 X126.823 Y94.206 E2.0884
G1 X126.261 Y94.093 E2.1027
G1 X125.509 Y93.777 E2.1230
G1 X125.045 Y93.465 E2.1369
G1 X124.468 Y92.888 E2.1572
G1 X124.142 Y92.389 E2.1720
G1 X123.851 Y91.643 E2.1920
G1 X123.752 Y91.116 E2.2053
G1 X123.752 Y63.579 E2.8905
G1 X123.851 Y63.052 E2.9039
G1 X124.142 Y62.306 E2.9238
G1 X124.468 Y61.807 E2.9386
G1 X125.045 Y61.230 E2.9589
G1 X125.509 Y60.919 E2.9728
G1 X126.261 Y60.603 E2.9931
G1 X126.823 Y60.489 E3.0074
G1 X174.397 Y60.489 E4.1912
G1 X174.960 Y60.603 E4.2055
G92 E0.0000
G1 E-4.0000 F3000
G1 Z0.480 F1002
G1 X174.075 Y63.539 F6000
G1 X170.482 Y63.539
G1 X162.973 Y68.464
G1 X163.022 Y68.862
G1 X162.908 Y69.802
G1 X162.572 Y70.687
G1 X162.034 Y71.466
G1 X161.326 Y72.094
G1 X160.488 Y72.534
G1 X159.569 Y72.760
G1 X158.622 Y72.760
G1 X157.703 Y72.534
G1 X157.184 Y72.261
G1 X142.434 Y81.935
G1 X141.652 Y81.935
G1 X140.733 Y82.162
G1 X139.894 Y82.602
G1 X139.186 Y83.229
G1 X138.648 Y84.008
G1 X138.441 Y84.554
G1 X128.375 Y91.156
G1 X127.145 Y91.156
G1 X126.980 Y91.087
G1 X125.268 Y93.194
G1 Z0.180 F1002
G1 E0.0000 F3000
G92 E0.0000
G1 X124.741 Y92.667 E0.0185 F900
G1 X124.455 Y92.228 E0.0316
G1 X124.189 Y91.546 E0.0498
G1 X124.102 Y91.083 E0.0615
G1 X124.102 Y63.612 E0.7451
G1 X124.189 Y63.149 E0.7568
G1 X124.455 Y62.467 E0.7750
G1 X124.741 Y62.029 E0.7880
G1 X125.268 Y61.502 E0.8066
G1 X125.676 Y61.228 E0.8188
G1 X126.364 Y60.939 E0.8374
G1 X126.858 Y60.839 E0.8499
G1 X174.362 Y60.839 E2.0319
G1 X174.856 Y60.939 E2.0445
G1 X175.545 Y61.228 E2.0631
G1 X175.952 Y61.502 E2.0753
G1 X176.479 Y62.029 E2.0938
G1 X176.765 Y62.467 E2.1068
G1 X177.031 Y63.149 E2.1251
G1 X177.119 Y63.612 E2.1368
G1 X177.119 Y91.083 E2.8203
G1 X177.031 Y91.547 E2.8321
G1 X176.765 Y92.228 E2.8503
G1 X176.479 Y92.667 E2.8633
G1 X175.952 Y93.194 E2.8819
G1 X175.545 Y93.467 E2.8941
G1 X174.856 Y93.757 E2.9127
G1 X174.362 Y93.856 E2.9252
G1 X126.858 Y93.856 E4.1072
G1 X126.364 Y93.757 E4.1198
G1 X125.676 Y93.467 E4.1383
G1 X125.268 Y93.194 E4.1506
G92 E0.0000
G1 E-4.0000 F3000
G1 Z0.480 F1002
G1 X126.980 Y91.087 F6000
G1 X127.145 Y91.156
G1 X128.819 Y91.156
G1 X138.206 Y85.770
G1 X138.313 Y84.893
G1 X138.648 Y84.008
G1 X139.186 Y83.229
G1 X139.894 Y82.602
G1 X140.733 Y82.162
G1 X141.652 Y81.935
G1 X142.599 Y81.935
G1 X143.542 Y82.175
G1 X144.028 Y82.430
G1 X174.419 Y64.993
G1 X174.419 Y63.881
G1 X176.769 Y63.645
G1 Z0.180 F1002
G1 E0.0000 F3000
G92 E0.0000
G1 X176.769 Y91.051 E0.6819 F900
G1 X176.693 Y91.450 E0.6920
G1 X176.452 Y92.067 E0.7085
G1 X176.206 Y92.445 E0.7198
G1 X175.729 Y92.922 E0.7365
G1 X175.378 Y93.158 E0.7471
G1 X174.753 Y93.420 E0.7639
G1 X174.327 Y93.506 E0.7747
G1 X126.893 Y93.506 E1.9550
G1 X126.468 Y93.420 E1.9658
G1 X125.843 Y93.158 E1.9827
G1 X125.492 Y92.922 E1.9932
G1 X125.015 Y92.445 E2.0100
G1 X124.768 Y92.067 E2.0212
G1 X124.527 Y91.450 E2.0377
G1 X124.452 Y91.051 E2.0478
G1 X124.452 Y63.645 E2.7298
G1 X124.527 Y63.246 E2.7399
G1 X124.768 Y62.628 E2.7564
G1 X125.015 Y62.251 E2.7676
G1 X125.492 Y61.773 E2.7844
G1 X125.843 Y61.538 E2.7949
G1 X126.467 Y61.275 E2.8118
G1 X126.893 Y61.189 E2.8226
G1 X174.327 Y61.189 E4.0029
G1 X174.753 Y61.275 E4.0137
G1 X175.378 Y61.538 E4.0305
G1 X175.728 Y61.773 E4.0410
G1 X176.206 Y62.251 E4.0578
G1 X176.452 Y62.628 E4.0691
G1 X176.693 Y63.246 E4.0856
G1 X176.769 Y63.645 E4.0957
G92 E0.0000
G1 E-4.0000 F3000
; feature outer perimeter
G1 Z0.480 F1002
G1 X174.419 Y63.881 F6000
G1 X174.359 Y63.727
G1 X174.281 Y63.649
G1 X126.862 Y63.727
G1 Z0.180 F1002
G1 E0.0000 F3000
G92 E0.0000
G1 X126.980 Y63.609 E0.0042 F450
G1 X127.145 Y63.539 E0.0086
G1 X174.075 Y63.539 E1.1764
G1 X174.241 Y63.609 E1.1808
G1 X174.359 Y63.727 E1.1850
G1 X174.419 Y63.881 E1.1891
G1 X174.419 Y90.815 E1.8593
G1 X174.359 Y90.969 E1.8634
G1 X174.241 Y91.087 E1.8675
G1 X174.075 Y91.156 E1.8720
G1 X127.145 Y91.156 E3.0398
G1 X126.980 Y91.087 E3.0442
G1 X126.862 Y90.969 E3.0484
G1 X126.802 Y90.815 E3.0525
G1 X126.802 Y64.516 E3.7069
G1 X126.802 Y63.881 F450
G1 X126.862 Y63.727
; feature inner perimeter
G1 X127.152 Y63.889 F6000
G92 E0.0000
G1 X174.069 Y63.889 E1.1674 F675
G1 X174.069 Y90.806 E1.8372
G1 X127.152 Y90.806 E3.0046
G1 X127.152 Y64.689 E3.6545
G1 X127.152 Y63.889 F675
G1 X127.502 Y64.239 F6000
G92 E0.0000
G1 X140.525 Y64.239 E0.3240 F675
G1 X140.584 Y64.479 E0.3302
G1 X139.494 Y65.051 E0.3608
G1 X138.658 Y65.791 E0.3886
G1 X138.024 Y66.710 E0.4164
G1 X137.628 Y67.754 E0.4442
G1 X137.493 Y68.862 E0.4719
G1 X137.628 Y69.971 E0.4997
G1 X138.024 Y71.015 E0.5275
G1 X138.658 Y71.934 E0.5553
G1 X139.494 Y72.674 E0.5831
G1 X140.483 Y73.193 E0.6109
G1 X141.567 Y73.460 E0.6386
G1 X142.683 Y73.460 E0.6664
G1 X143.738 Y73.200 E0.6934
G1 X144.753 Y72.676 E0.7219
G1 X145.591 Y71.934 E0.7497
G1 X146.226 Y71.015 E0.7775
G1 X146.622 Y69.971 E0.8053
G1 X146.756 Y68.862 E0.8331
G1 X146.622 Y67.754 E0.8609
G1 X146.226 Y66.710 E0.8887
G1 X145.591 Y65.791 E0.9164
G1 X144.756 Y65.051 E0.9442
G1 X143.666 Y64.479 E0.9748
G1 X143.725 Y64.239 E0.9810
G1 X157.495 Y64.239 E1.3236
G1 X157.554 Y64.479 E1.3298
G1 X156.464 Y65.051 E1.3604
G1 X155.651 Y65.771 E1.3874
G1 X154.996 Y66.707 E1.4159
G1 X154.599 Y67.754 E1.4437
G1 X154.464 Y68.862 E1.4715
G1 X154.599 Y69.971 E1.4993
G1 X154.994 Y71.015 E1.5271
G1 X155.629 Y71.934 E1.5549
G1 X156.464 Y72.674 E1.5826
G1 X157.453 Y73.193 E1.6104
G1 X158.537 Y73.460 E1.6382
G1 X159.654 Y73.460 E1.6660
G1 X160.738 Y73.193 E1.6938
G1 X161.726 Y72.674 E1.7215
G1 X162.562 Y71.934 E1.7493
G1 X163.196 Y71.015 E1.7771
G1 X163.592 Y69.971 E1.8049
G1 X163.727 Y68.862 E1.8327
G1 X163.592 Y67.754 E1.8605
G1 X163.196 Y66.710 E1.8882
G1 X162.562 Y65.791 E1.9160
G1 X161.726 Y65.051 E1.9438
G1 X160.636 Y64.479 E1.9744
G1 X160.696 Y64.239 E1.9806
G1 X173.719 Y64.239 E2.3046
G1 X173.719 Y90.456 E2.9570
G1 X160.695 Y90.456 E3.2810
G1 X160.636 Y90.217 E3.2872
