; G-Code generated by Simplify3D(R) Version 4.1.2
; Oct 3, 2020 at 11:45:34 PM
; Settings Summary
;   processName,Tevo Tornado 001
;   applyToModels,SupportHaut4020(2)
;   profileName,A04-04-15 Tevo Tornado
;   profileVersion,2020-07-01 20:14:39
;   baseProfile,Creality CR-10(2)
;   printMaterial,PLA
;   printQuality,Medium
;   printExtruders,
;   extruderName,Primary Extruder
;   extruderToolheadNumber,0
;   extruderDiameter,0.4
;   extruderAutoWidth,0
;   extruderWidth,0.35
;   extrusionMultiplier,0.95
;   extruderUseRetract,1
;   extruderRetractionDistance,4
;   extruderExtraRestartDistance,0
;   extruderRetractionZLift,0.3
;   extruderRetractionSpeed,3000
;   extruderUseCoasting,1
;   extruderCoastingDistance,0.8
;   extruderUseWipe,0
;   extruderWipeDistance,4
;   primaryExtruder,0
;   layerHeight,0.15
;   topSolidLayers,4
;   bottomSolidLayers,3
;   perimeterOutlines,3
;   printPerimetersInsideOut,0
;   startPointOption,1
;   startPointOriginX,0
;   startPointOriginY,300
;   sequentialIslands,0
;   spiralVaseMode,0
;   firstLayerHeightPercentage,120
;   firstLayerWidthPercentage,100
;   firstLayerUnderspeed,0.5
;   useRaft,0
;   raftExtruder,0
;   raftTopLayers,3
;   raftBaseLayers,2
;   raftOffset,3
;   raftSeparationDistance,0.14
;   raftTopInfill,100
;   aboveRaftSpeedMultiplier,0.3
;   useSkirt,1
;   skirtExtruder,0
;   skirtLayers,1
;   skirtOutlines,3
;   skirtOffset,2
;   usePrimePillar,0
;   primePillarExtruder,999
;   primePillarWidth,12
;   primePillarLocation,7
;   primePillarSpeedMultiplier,1
;   useOozeShield,0
;   oozeShieldExtruder,999
;   oozeShieldOffset,2
;   oozeShieldOutlines,1
;   oozeShieldSidewallShape,1
;   oozeShieldSidewallAngle,30
;   oozeShieldSpeedMultiplier,1
;   infillExtruder,0
;   internalInfillPattern,Rectilinear
;   externalInfillPattern,Rectilinear
;   infillPercentage,15
;   outlineOverlapPercentage,15
;   infillExtrusionWidthPercentage,100
;   minInfillLength,5
;   infillLayerInterval,1
;   internalInfillAngles,45,-45
;   overlapInternalInfillAngles,0
;   externalInfillAngles,45,-45
;   generateSupport,0
;   supportExtruder,0
;   supportInfillPercentage,30
;   supportExtraInflation,0
;   supportBaseLayers,0
;   denseSupportExtruder,0
;   denseSupportLayers,0
;   denseSupportInfillPercentage,70
;   supportLayerInterval,1
;   supportHorizontalPartOffset,0.4
;   supportUpperSeparationLayers,1
;   supportLowerSeparationLayers,1
;   supportType,0
;   supportGridSpacing,4.5
;   maxOverhangAngle,45
;   supportAngles,0
;   temperatureName,Primary Extruder,Heated Bed
;   temperatureNumber,0,0
;   temperatureSetpointCount,1,1
;   temperatureSetpointLayers,1,1
;   temperatureSetpointTemperatures,215,55
;   temperatureStabilizeAtStartup,1,1
;   temperatureHeatedBed,0,1
;   fanLayers,1,2
;   fanSpeeds,0,100
;   blipFanToFullPower,0
;   adjustSpeedForCooling,1
;   minSpeedLayerTime,15
;   minCoolingSpeedSlowdown,50
;   increaseFanForCooling,1
;   minFanLayerTime,25
;   maxCoolingFanSpeed,100
;   increaseFanForBridging,1
;   bridgingFanSpeed,100
;   use5D,1
;   relativeEdistances,0
;   allowEaxisZeroing,1
;   independentExtruderAxes,0
;   includeM10123,0
;   stickySupport,1
;   applyToolheadOffsets,0
;   gcodeXoffset,0
;   gcodeYoffset,0
;   gcodeZoffset,0
;   overrideMachineDefinition,1
;   machineTypeOverride,0
;   strokeXoverride,300
;   strokeYoverride,300
;   strokeZoverride,400
;   originOffsetXoverride,0
;   originOffsetYoverride,0
;   originOffsetZoverride,0
;   homeXdirOverride,-1
;   homeYdirOverride,-1
;   homeZdirOverride,-1
;   flipXoverride,1
;   flipYoverride,-1
;   flipZoverride,1
;   toolheadOffsets,0,0|0,0|0,0|0,0|0,0|0,0
;   overrideFirmwareConfiguration,1
;   firmwareTypeOverride,RepRap (Marlin/Repetier/Sprinter)
;   GPXconfigOverride,r2
;   baudRateOverride,250000
;   overridePrinterModels,1
;   printerModelsOverride
;   startingGcode,;,; -]H.P.B[- MarshMalloW  ,; $VER: StartScript 1.02 (26.12.2019) MarshMalloW,;,; Begin Startcode,;,M117 *Preheat*     	; Preheat,;extruder0_temperature,M104 S[extruder0_temperature]  ,M109 S[extruder0_temperature] ,M109 R[extruder0_temperature] ,;,M117 *Auto-leveling*     	; Auto-leveling,M107                   	; Turn layer fan off,G21                    	; Set to metric [change to G20 if you want Imperial],G90                    	; Force coordinates to be absolute relative to the origin,G28                    	; Home X/Y/Z axis,G29                    	; Auto-leveling (BL-Touch),;,M117 *Start Clean*     	; Indicate nozzle clean in progress on LCD,G92 E0                 	; Set Extruder to 0 ,G1 X0 Y0 F2000         	; Move X and Y to 0 with speed 2000 (mm/min),G1 Z0.1 F1000          	; Move Z to   0.1 with speed 1000 (mm/min),G1 X8.0 F2000          	; Move X to   8.0 with speed 2000 (mm/min),G1 Y60.0 E4.0 F1000.0  	; Move Y to  60 and Extruder with 4.0 with speed 1000 (mm/min),G1 Y100.0 E8.5 F1000.0 	; Move Y to 100 and Extruder with 8.5 with speed 1000 (mm/min),G92 E0                 	; Set extruder to 0,G1 X16.0 F3000         	; Move X to 16.0 with speed 3000 (mm/min),G1 Y60.0 F3000         	; Move Y to 60.0 with speed 3000 (mm/min),M117 *End Clean*       	; Indicate nozzle clean in progress on LCD,G1 Z5 F3000            	; Move Z to  5.0 with speed 3000 (mm/min),G1 X20.0 F3000         	; Move X to 20.0 with speed 3000 (mm/min),G1 Y20.0 F3000         	; Move Y to 20.0 with speed 3000 (mm/min),; ,M117 *Printing...*     	; Start printing msg on LCD,;,; End Startcode,;,; Begin printing with sliced GCode after here,;
;   layerChangeGcode,
;   retractionGcode,
;   toolChangeGcode,
;   endingGcode,;,; init 181010,;,;M107 			; Fan off,;G1 E-1 F300 			; Retract the filament a bit before lifting the nozzle,;M104 S0 			; Turn off extruder,;M140 S0 			; Turn off bed,;G91			; Relative positioning,;G28 X0 Y0 			; Move X/Y to min endstops so the head is out of teh way,;M84 			; Disable motors,;G90 			; Absolute positioning,;M117 Print ready...,,;,; // From Cura 181010,; // End_gcode,G92 E0			; Zero the extruded length,;G1 E-30 F300		; Retract E -30,M106 S0			; Turn off cooling fan,M104 S0			; Turn off temperature,M140 S0		     	; Turn off bed,G91			; Relative positioning,G1 E-1 F300			; Retract the filament a bit before lifting the nozzle to release some of the pressure,G1 Z+20 E-5 X-20 Y-20 F7200	; Move Z up a bit and retract filament even more,G1 X0 Y150 F10000		; Move right min,M107			; Turn off layer fan,M84			; Disable motors,G90			; Absolute positioning,M117 *The-End* 		; End msg,;,
;   exportFileFormat,gcode
;   celebration,0
;   celebrationSong,Star Wars
;   postProcessing,|{REPLACE "; layer " "M117 INDICATOR-Layer"}|{REPLACE ", Z = " "\n; Z="}
;   defaultSpeed,1800
;   outlineUnderspeed,0.5
;   solidInfillUnderspeed,0.8
;   supportUnderspeed,0.8
;   rapidXYspeed,6000
;   rapidZspeed,1002
;   minBridgingArea,50
;   bridgingExtraInflation,0.2
;   bridgingExtrusionMultiplier,1
;   bridgingSpeedMultiplier,0.6
;   useFixedBridgingAngle,0
;   fixedBridgingAngle,0
;   applyBridgingToPerimeters,0
;   filamentDiameters,1.75|1.75|1.75|1.75|1.75|1.75
;   filamentPricesPerKg,30|46|46|46|46|46
;   filamentDensities,1.25|1.25|1.25|1.25|1.25|1.25
;   useMinPrintHeight,0
;   minPrintHeight,0
;   useMaxPrintHeight,0
;   maxPrintHeight,50
;   useDiaphragm,0
;   diaphragmLayerInterval,20
;   robustSlicing,1
;   mergeAllIntoSolid,0
;   onlyRetractWhenCrossingOutline,1
;   retractBetweenLayers,0
;   useRetractionMinTravel,0
;   retractionMinTravel,3
;   retractWhileWiping,0
;   onlyWipeOutlines,1
;   avoidCrossingOutline,1
;   maxMovementDetourFactor,3
;   toolChangeRetractionDistance,12
;   toolChangeExtraRestartDistance,-0.5
;   toolChangeRetractionSpeed,600
;   externalThinWallType,1
;   internalThinWallType,1
;   thinWallAllowedOverlapPercentage,10
;   singleExtrusionMinLength,1
;   singleExtrusionMinPrintingWidthPercentage,50
;   singleExtrusionMaxPrintingWidthPercentage,200
;   singleExtrusionEndpointExtension,0.2
;   horizontalSizeCompensation,0
G90
M82
M106 S0
M140 S55
M190 S55
;
; -]H.P.B[- MarshMalloW  
; $VER: StartScript 1.02 (26.12.2019) MarshMalloW
;
; Begin Startcode
;
M117 *Preheat*     	; Preheat
;extruder0_temperature
M104 S215  
M109 S215 
M109 R215 
;
M117 *Auto-leveling*     	; Auto-leveling
M107                   	; Turn layer fan off
G21                    	; Set to metric [change to G20 if you want Imperial]
G90                    	; Force coordinates to be absolute relative to the origin
G28                    	; Home X/Y/Z axis
G29                    	; Auto-leveling (BL-Touch)
;
M117 *Start Clean*     	; Indicate nozzle clean in progress on LCD
G92 E0                 	; Set Extruder to 0 
G1 X0 Y0 F2000         	; Move X and Y to 0 with speed 2000 (mm/min)
G1 Z0.1 F1000          	; Move Z to   0.1 with speed 1000 (mm/min)
G1 X8.0 F2000          	; Move X to   8.0 with speed 2000 (mm/min)
G1 Y60.0 E4.0 F1000.0  	; Move Y to  60 and Extruder with 4.0 with speed 1000 (mm/min)
G1 Y100.0 E8.5 F1000.0 	; Move Y to 100 and Extruder with 8.5 with speed 1000 (mm/min)
G92 E0                 	; Set extruder to 0
G1 X16.0 F3000         	; Move X to 16.0 with speed 3000 (mm/min)
G1 Y60.0 F3000         	; Move Y to 60.0 with speed 3000 (mm/min)
M117 *End Clean*       	; Indicate nozzle clean in progress on LCD
G1 Z5 F3000            	; Move Z to  5.0 with speed 3000 (mm/min)
G1 X20.0 F3000         	; Move X to 20.0 with speed 3000 (mm/min)
G1 Y20.0 F3000         	; Move Y to 20.0 with speed 3000 (mm/min)
; 
M117 *Printing...*     	; Start printing msg on LCD
;
; End Startcode
;
; Begin printing with sliced GCode after here
;
; process Tevo Tornado 001
M117 INDICATOR-Layer1
; Z=0.180
T0
G92 E0.0000
G1 E-4.0000 F3000
; feature skirt
; tool H0.180 W0.350
G1 Z0.300 F1002
G1 X174.241 Y60.232 F6000
G1 Z0.180 F1002
G1 E0.0000 F3000
G92 E0.0000
G1 X174.993 Y60.548 E0.0203 F900
G1 X175.457 Y60.859 E0.0342
G1 X176.034 Y61.436 E0.0545
G1 X176.360 Y61.935 E0.0693
G1 X176.651 Y62.681 E0.0893
G1 X176.750 Y63.208 E0.1026
G1 X176.750 Y90.745 E0.7878
G1 X176.651 Y91.272 E0.8011
G1 X176.360 Y92.019 E0.8211
G1 X176.034 Y92.518 E0.8359
G1 X175.457 Y93.094 E0.8562
G1 X174.993 Y93.406 E0.8701
G1 X174.241 Y93.722 E0.8904
G1 X173.679 Y93.835 E0.9047
G1 X126.105 Y93.835 E2.0884
G1 X125.542 Y93.722 E2.1027
G1 X124.790 Y93.406 E2.1230
G1 X124.326 Y93.094 E2.1369
G1 X123.750 Y92.518 E2.1572
G1 X123.424 Y92.019 E2.1720
G1 X123.133 Y91.272 E2.1920
G1 X123.033 Y90.745 E2.2053
G1 X123.033 Y63.208 E2.8905
G1 X123.133 Y62.681 E2.9039
G1 X123.424 Y61.935 E2.9238
G1 X123.750 Y61.436 E2.9386
G1 X124.326 Y60.859 E2.9589
G1 X124.790 Y60.548 E2.9728
G1 X125.542 Y60.232 E2.9931
G1 X126.105 Y60.118 E3.0074
G1 X173.679 Y60.118 E4.1912
G1 X174.241 Y60.232 E4.2055
G92 E0.0000
G1 E-4.0000 F3000
G1 Z0.480 F1002
G1 X173.356 Y63.168 F6000
G1 X169.764 Y63.168
G1 X162.486 Y67.941
G1 X162.553 Y68.491
G1 X162.432 Y69.491
G1 X162.075 Y70.432
G1 X161.503 Y71.261
G1 X160.749 Y71.928
G1 X159.858 Y72.396
G1 X158.880 Y72.637
G1 X157.874 Y72.637
G1 X156.896 Y72.396
G1 X156.228 Y72.046
G1 X142.043 Y81.350
G1 X141.910 Y81.316
G1 X140.903 Y81.316
G1 X139.926 Y81.557
G1 X139.034 Y82.025
G1 X138.280 Y82.693
G1 X137.709 Y83.521
G1 X137.370 Y84.414
G1 X127.656 Y90.785
G1 X126.427 Y90.785
G1 X126.261 Y90.716
G1 X124.550 Y92.823
G1 Z0.180 F1002
G1 E0.0000 F3000
G92 E0.0000
G1 X124.023 Y92.296 E0.0185 F900
G1 X123.737 Y91.858 E0.0316
G1 X123.470 Y91.176 E0.0498
G1 X123.383 Y90.712 E0.0615
G1 X123.383 Y63.241 E0.7451
G1 X123.470 Y62.778 E0.7568
G1 X123.737 Y62.096 E0.7750
G1 X124.023 Y61.658 E0.7880
G1 X124.550 Y61.131 E0.8066
G1 X124.957 Y60.857 E0.8188
G1 X125.646 Y60.568 E0.8374
G1 X126.140 Y60.468 E0.8499
G1 X173.644 Y60.468 E2.0319
G1 X174.138 Y60.568 E2.0445
G1 X174.826 Y60.857 E2.0631
G1 X175.234 Y61.131 E2.0753
G1 X175.760 Y61.658 E2.0938
G1 X176.047 Y62.096 E2.1068
G1 X176.313 Y62.778 E2.1251
G1 X176.400 Y63.241 E2.1368
G1 X176.400 Y90.712 E2.8203
G1 X176.313 Y91.175 E2.8321
G1 X176.047 Y91.857 E2.8503
G1 X175.760 Y92.296 E2.8633
G1 X175.234 Y92.823 E2.8819
G1 X174.826 Y93.096 E2.8941
G1 X174.138 Y93.386 E2.9126
G1 X173.644 Y93.485 E2.9252
G1 X126.140 Y93.485 E4.1072
G1 X125.646 Y93.386 E4.1198
G1 X124.957 Y93.096 E4.1383
G1 X124.550 Y92.823 E4.1506
G92 E0.0000
G1 E-4.0000 F3000
G1 Z0.480 F1002
G1 X126.261 Y90.716 F6000
G1 X126.427 Y90.785
G1 X128.101 Y90.785
G1 X137.240 Y85.542
G1 X137.230 Y85.462
G1 X137.352 Y84.463
G1 X137.709 Y83.521
G1 X138.280 Y82.693
G1 X139.034 Y82.025
G1 X139.926 Y81.557
G1 X140.903 Y81.316
G1 X141.910 Y81.316
G1 X142.910 Y81.569
G1 X143.565 Y81.913
G1 X173.700 Y64.622
G1 X173.700 Y63.510
G1 X176.050 Y63.274
G1 Z0.180 F1002
G1 E0.0000 F3000
G92 E0.0000
G1 X176.050 Y90.680 E0.6819 F900
G1 X175.975 Y91.079 E0.6920
G1 X175.734 Y91.696 E0.7085
G1 X175.487 Y92.074 E0.7198
G1 X175.010 Y92.551 E0.7365
G1 X174.659 Y92.787 E0.7471
G1 X174.034 Y93.049 E0.7639
G1 X173.609 Y93.135 E0.7747
G1 X126.175 Y93.135 E1.9550
G1 X125.749 Y93.049 E1.9658
G1 X125.124 Y92.787 E1.9827
G1 X124.773 Y92.551 E1.9932
G1 X124.296 Y92.074 E2.0100
G1 X124.050 Y91.696 E2.0212
G1 X123.808 Y91.079 E2.0377
G1 X123.733 Y90.680 E2.0478
G1 X123.733 Y63.274 E2.7298
G1 X123.808 Y62.875 E2.7399
G1 X124.050 Y62.257 E2.7564
G1 X124.296 Y61.880 E2.7676
G1 X124.773 Y61.402 E2.7844
G1 X125.124 Y61.167 E2.7949
G1 X125.749 Y60.904 E2.8118
G1 X126.175 Y60.818 E2.8226
G1 X173.609 Y60.818 E4.0029
G1 X174.034 Y60.904 E4.0137
G1 X174.659 Y61.167 E4.0305
G1 X175.010 Y61.402 E4.0410
G1 X175.487 Y61.880 E4.0578
G1 X175.734 Y62.257 E4.0691
G1 X175.975 Y62.875 E4.0856
G1 X176.050 Y63.274 E4.0957
G92 E0.0000
G1 E-4.0000 F3000
; feature outer perimeter
G1 Z0.480 F1002
G1 X173.700 Y63.510 F6000
G1 X173.640 Y63.356
G1 X173.562 Y63.278
G1 X126.143 Y63.356
G1 Z0.180 F1002
G1 E0.0000 F3000
G92 E0.0000
G1 X126.261 Y63.238 E0.0042 F450
G1 X126.427 Y63.168 E0.0086
G1 X173.356 Y63.168 E1.1764
G1 X173.522 Y63.238 E1.1808
G1 X173.640 Y63.356 E1.1850
G1 X173.700 Y63.510 E1.1891
G1 X173.700 Y90.444 E1.8593
G1 X173.640 Y90.598 E1.8634
G1 X173.522 Y90.716 E1.8675
G1 X173.356 Y90.785 E1.8720
G1 X126.427 Y90.785 E3.0398
G1 X126.261 Y90.716 E3.0442
G1 X126.143 Y90.598 E3.0484
G1 X126.083 Y90.444 E3.0525
G1 X126.083 Y64.145 E3.7069
G1 X126.083 Y63.510 F450
G1 X126.143 Y63.356
; feature inner perimeter
G1 X126.433 Y63.518 F6000
G92 E0.0000
G1 X173.350 Y63.518 E1.1674 F675
G1 X173.350 Y90.435 E1.8372
G1 X126.433 Y90.435 E3.0046
G1 X126.433 Y64.318 E3.6545
G1 X126.433 Y63.518 F675
G1 X126.783 Y63.868 F6000
G92 E0.0000
G1 X139.272 Y63.868 E0.3108 F675
G1 X139.331 Y64.108 E0.3169
G1 X138.633 Y64.474 E0.3365
G1 X137.753 Y65.254 E0.3658
G1 X137.084 Y66.223 E0.3951
G1 X136.667 Y67.323 E0.4244
G1 X136.525 Y68.491 E0.4536
G1 X136.667 Y69.660 E0.4829
G1 X137.084 Y70.760 E0.5122
G1 X137.753 Y71.728 E0.5415
G1 X138.633 Y72.509 E0.5708
G1 X139.675 Y73.056 E0.6000
G1 X139.834 Y73.095 E0.6041
G1 X139.800 Y73.372 E0.6111
G1 X139.454 Y73.372 E0.6197
G1 X138.604 Y73.581 E0.6415
G1 X137.829 Y73.988 E0.6632
G1 X137.174 Y74.569 E0.6850
G1 X136.676 Y75.289 E0.7068
G1 X136.366 Y76.108 E0.7286
G1 X136.260 Y76.977 E0.7504
G1 X136.366 Y77.846 E0.7722
G1 X136.674 Y78.657 E0.7937
G1 X137.173 Y79.384 E0.8157
G1 X137.829 Y79.965 E0.8375
G1 X138.604 Y80.372 E0.8593
G1 X139.454 Y80.582 E0.8811
G1 X139.800 Y80.582 E0.8897
G1 X139.834 Y80.859 E0.8966
G1 X139.675 Y80.898 E0.9007
G1 X138.633 Y81.445 E0.9300
G1 X137.753 Y82.225 E0.9593
G1 X137.084 Y83.194 E0.9885
G1 X136.667 Y84.294 E1.0178
G1 X136.525 Y85.462 E1.0471
G1 X136.667 Y86.630 E1.0764
G1 X137.084 Y87.730 E1.1057
G1 X137.753 Y88.699 E1.1349
G1 X138.633 Y89.479 E1.1642
G1 X139.331 Y89.846 E1.1838
G1 X139.272 Y90.085 E1.1900
G1 X126.783 Y90.085 E1.5007
G1 X126.783 Y64.668 E2.1332
G1 X126.783 Y63.868 F675
G1 X143.482 Y64.108 F6000
G92 E0.0000
G1 X143.541 Y63.868 E0.0061 F675
G1 X156.243 Y63.868 E0.3222
G1 X156.302 Y64.108 E0.3283
G1 X155.628 Y64.461 E0.3473
G1 X154.725 Y65.252 E0.3772
G1 X154.055 Y66.223 E0.4065
G1 X153.637 Y67.323 E0.4358
G1 X153.496 Y68.491 E0.4651
G1 X153.637 Y69.660 E0.4944
