; G-Code generated by Simplify3D(R) Version 4.1.2
; Oct 4, 2020 at 7:20:37 PM
; Settings Summary
;   processName,Process1
;   applyToModels,SupportHaut4020
;   profileName,A04-04-15 Tevo Tornado
;   profileVersion,2020-07-01 20:14:39
;   baseProfile,Creality CR-10(2)
;   printMaterial,PLA
;   printQuality,Medium
;   printExtruders,
;   extruderName,Primary Extruder
;   extruderToolheadNumber,0
;   extruderDiameter,0.4
;   extruderAutoWidth,0
;   extruderWidth,0.35
;   extrusionMultiplier,0.95
;   extruderUseRetract,1
;   extruderRetractionDistance,4
;   extruderExtraRestartDistance,0
;   extruderRetractionZLift,0.3
;   extruderRetractionSpeed,3000
;   extruderUseCoasting,1
;   extruderCoastingDistance,0.8
;   extruderUseWipe,0
;   extruderWipeDistance,4
;   primaryExtruder,0
;   layerHeight,0.15
;   topSolidLayers,4
;   bottomSolidLayers,3
;   perimeterOutlines,3
;   printPerimetersInsideOut,0
;   startPointOption,1
;   startPointOriginX,0
;   startPointOriginY,300
;   sequentialIslands,0
;   spiralVaseMode,0
;   firstLayerHeightPercentage,120
;   firstLayerWidthPercentage,100
;   firstLayerUnderspeed,0.5
;   useRaft,0
;   raftExtruder,0
;   raftTopLayers,3
;   raftBaseLayers,2
;   raftOffset,3
;   raftSeparationDistance,0.14
;   raftTopInfill,100
;   aboveRaftSpeedMultiplier,0.3
;   useSkirt,1
;   skirtExtruder,0
;   skirtLayers,1
;   skirtOutlines,3
;   skirtOffset,2
;   usePrimePillar,0
;   primePillarExtruder,999
;   primePillarWidth,12
;   primePillarLocation,7
;   primePillarSpeedMultiplier,1
;   useOozeShield,0
;   oozeShieldExtruder,999
;   oozeShieldOffset,2
;   oozeShieldOutlines,1
;   oozeShieldSidewallShape,1
;   oozeShieldSidewallAngle,30
;   oozeShieldSpeedMultiplier,1
;   infillExtruder,0
;   internalInfillPattern,Rectilinear
;   externalInfillPattern,Rectilinear
;   infillPercentage,15
;   outlineOverlapPercentage,15
;   infillExtrusionWidthPercentage,100
;   minInfillLength,5
;   infillLayerInterval,1
;   internalInfillAngles,45,-45
;   overlapInternalInfillAngles,0
;   externalInfillAngles,45,-45
;   generateSupport,0
;   supportExtruder,0
;   supportInfillPercentage,30
;   supportExtraInflation,0
;   supportBaseLayers,0
;   denseSupportExtruder,0
;   denseSupportLayers,0
;   denseSupportInfillPercentage,70
;   supportLayerInterval,1
;   supportHorizontalPartOffset,0.4
;   supportUpperSeparationLayers,1
;   supportLowerSeparationLayers,1
;   supportType,0
;   supportGridSpacing,4.5
;   maxOverhangAngle,45
;   supportAngles,0
;   temperatureName,Primary Extruder,Heated Bed
;   temperatureNumber,0,0
;   temperatureSetpointCount,1,1
;   temperatureSetpointLayers,1,1
;   temperatureSetpointTemperatures,215,55
;   temperatureStabilizeAtStartup,1,1
;   temperatureHeatedBed,0,1
;   fanLayers,1,2
;   fanSpeeds,0,100
;   blipFanToFullPower,0
;   adjustSpeedForCooling,1
;   minSpeedLayerTime,15
;   minCoolingSpeedSlowdown,50
;   increaseFanForCooling,1
;   minFanLayerTime,25
;   maxCoolingFanSpeed,100
;   increaseFanForBridging,1
;   bridgingFanSpeed,100
;   use5D,1
;   relativeEdistances,0
;   allowEaxisZeroing,1
;   independentExtruderAxes,0
;   includeM10123,0
;   stickySupport,1
;   applyToolheadOffsets,0
;   gcodeXoffset,0
;   gcodeYoffset,0
;   gcodeZoffset,0
;   overrideMachineDefinition,1
;   machineTypeOverride,0
;   strokeXoverride,300
;   strokeYoverride,300
;   strokeZoverride,400
;   originOffsetXoverride,0
;   originOffsetYoverride,0
;   originOffsetZoverride,0
;   homeXdirOverride,-1
;   homeYdirOverride,-1
;   homeZdirOverride,-1
;   flipXoverride,1
;   flipYoverride,-1
;   flipZoverride,1
;   toolheadOffsets,0,0|0,0|0,0|0,0|0,0|0,0
;   overrideFirmwareConfiguration,1
;   firmwareTypeOverride,RepRap (Marlin/Repetier/Sprinter)
;   GPXconfigOverride,r2
;   baudRateOverride,250000
;   overridePrinterModels,1
;   printerModelsOverride
;   startingGcode,;,; -]H.P.B[- MarshMalloW  ,; $VER: StartScript 1.02 (26.12.2019) MarshMalloW,;,; Begin Startcode,;,M117 *Preheat*     	; Preheat,;extruder0_temperature,M104 S[extruder0_temperature]  ,M109 S[extruder0_temperature] ,M109 R[extruder0_temperature] ,;,M117 *Auto-leveling*     	; Auto-leveling,M107                   	; Turn layer fan off,G21                    	; Set to metric [change to G20 if you want Imperial],G90                    	; Force coordinates to be absolute relative to the origin,G28                    	; Home X/Y/Z axis,G29                    	; Auto-leveling (BL-Touch),;,M117 *Start Clean*     	; Indicate nozzle clean in progress on LCD,G92 E0                 	; Set Extruder to 0 ,G1 X0 Y0 F2000         	; Move X and Y to 0 with speed 2000 (mm/min),G1 Z0.1 F1000          	; Move Z to   0.1 with speed 1000 (mm/min),G1 X8.0 F2000          	; Move X to   8.0 with speed 2000 (mm/min),G1 Y60.0 E4.0 F1000.0  	; Move Y to  60 and Extruder with 4.0 with speed 1000 (mm/min),G1 Y100.0 E8.5 F1000.0 	; Move Y to 100 and Extruder with 8.5 with speed 1000 (mm/min),G92 E0                 	; Set extruder to 0,G1 X16.0 F3000         	; Move X to 16.0 with speed 3000 (mm/min),G1 Y60.0 F3000         	; Move Y to 60.0 with speed 3000 (mm/min),M117 *End Clean*       	; Indicate nozzle clean in progress on LCD,G1 Z5 F3000            	; Move Z to  5.0 with speed 3000 (mm/min),G1 X20.0 F3000         	; Move X to 20.0 with speed 3000 (mm/min),G1 Y20.0 F3000         	; Move Y to 20.0 with speed 3000 (mm/min),; ,M117 *Printing...*     	; Start printing msg on LCD,;,; End Startcode,;,; Begin printing with sliced GCode after here,;
;   layerChangeGcode,
;   retractionGcode,
;   toolChangeGcode,
;   endingGcode,;,; init 181010,;,;M107 			; Fan off,;G1 E-1 F300 			; Retract the filament a bit before lifting the nozzle,;M104 S0 			; Turn off extruder,;M140 S0 			; Turn off bed,;G91			; Relative positioning,;G28 X0 Y0 			; Move X/Y to min endstops so the head is out of teh way,;M84 			; Disable motors,;G90 			; Absolute positioning,;M117 Print ready...,,;,; // From Cura 181010,; // End_gcode,G92 E0			; Zero the extruded length,;G1 E-30 F300		; Retract E -30,M106 S0			; Turn off cooling fan,M104 S0			; Turn off temperature,M140 S0		     	; Turn off bed,G91			; Relative positioning,G1 E-1 F300			; Retract the filament a bit before lifting the nozzle to release some of the pressure,G1 Z+20 E-5 X-20 Y-20 F7200	; Move Z up a bit and retract filament even more,G1 X0 Y150 F10000		; Move right min,M107			; Turn off layer fan,M84			; Disable motors,G90			; Absolute positioning,M117 *The-End* 		; End msg,;,
;   exportFileFormat,gcode
;   celebration,0
;   celebrationSong,Star Wars
;   postProcessing,|{REPLACE "; layer " "M117 INDICATOR-Layer"}|{REPLACE ", Z = " "\n; Z="}
;   defaultSpeed,1800
;   outlineUnderspeed,0.5
;   solidInfillUnderspeed,0.8
;   supportUnderspeed,0.8
;   rapidXYspeed,6000
;   rapidZspeed,1002
;   minBridgingArea,50
;   bridgingExtraInflation,0.2
;   bridgingExtrusionMultiplier,1
;   bridgingSpeedMultiplier,0.6
;   useFixedBridgingAngle,0
;   fixedBridgingAngle,0
;   applyBridgingToPerimeters,0
;   filamentDiameters,1.75|1.75|1.75|1.75|1.75|1.75
;   filamentPricesPerKg,30|46|46|46|46|46
;   filamentDensities,1.25|1.25|1.25|1.25|1.25|1.25
;   useMinPrintHeight,0
;   minPrintHeight,0
;   useMaxPrintHeight,0
;   maxPrintHeight,50
;   useDiaphragm,0
;   diaphragmLayerInterval,20
;   robustSlicing,1
;   mergeAllIntoSolid,0
;   onlyRetractWhenCrossingOutline,1
;   retractBetweenLayers,0
;   useRetractionMinTravel,0
;   retractionMinTravel,3
;   retractWhileWiping,0
;   onlyWipeOutlines,1
;   avoidCrossingOutline,1
;   maxMovementDetourFactor,3
;   toolChangeRetractionDistance,12
;   toolChangeExtraRestartDistance,-0.5
;   toolChangeRetractionSpeed,600
;   externalThinWallType,1
;   internalThinWallType,1
;   thinWallAllowedOverlapPercentage,10
;   singleExtrusionMinLength,1
;   singleExtrusionMinPrintingWidthPercentage,50
;   singleExtrusionMaxPrintingWidthPercentage,200
;   singleExtrusionEndpointExtension,0.2
;   horizontalSizeCompensation,0
G90
M82
M106 S0
M140 S55
M190 S55
;
; -]H.P.B[- MarshMalloW  
; $VER: StartScript 1.02 (26.12.2019) MarshMalloW
;
; Begin Startcode
;
M117 *Preheat*     	; Preheat
;extruder0_temperature
M104 S215  
M109 S215 
M109 R215 
;
M117 *Auto-leveling*     	; Auto-leveling
M107                   	; Turn layer fan off
G21                    	; Set to metric [change to G20 if you want Imperial]
G90                    	; Force coordinates to be absolute relative to the origin
G28                    	; Home X/Y/Z axis
G29                    	; Auto-leveling (BL-Touch)
;
M117 *Start Clean*     	; Indicate nozzle clean in progress on LCD
G92 E0                 	; Set Extruder to 0 
G1 X0 Y0 F2000         	; Move X and Y to 0 with speed 2000 (mm/min)
G1 Z0.1 F1000          	; Move Z to   0.1 with speed 1000 (mm/min)
G1 X8.0 F2000          	; Move X to   8.0 with speed 2000 (mm/min)
G1 Y60.0 E4.0 F1000.0  	; Move Y to  60 and Extruder with 4.0 with speed 1000 (mm/min)
G1 Y100.0 E8.5 F1000.0 	; Move Y to 100 and Extruder with 8.5 with speed 1000 (mm/min)
G92 E0                 	; Set extruder to 0
G1 X16.0 F3000         	; Move X to 16.0 with speed 3000 (mm/min)
G1 Y60.0 F3000         	; Move Y to 60.0 with speed 3000 (mm/min)
M117 *End Clean*       	; Indicate nozzle clean in progress on LCD
G1 Z5 F3000            	; Move Z to  5.0 with speed 3000 (mm/min)
G1 X20.0 F3000         	; Move X to 20.0 with speed 3000 (mm/min)
G1 Y20.0 F3000         	; Move Y to 20.0 with speed 3000 (mm/min)
; 
M117 *Printing...*     	; Start printing msg on LCD
;
; End Startcode
;
; Begin printing with sliced GCode after here
;
; process Process1
M117 INDICATOR-Layer1
; Z=0.180
T0
G92 E0.0000
G1 E-4.0000 F3000
; feature skirt
; tool H0.180 W0.350
G1 Z0.300 F1002
G1 X170.981 Y68.761 F6000
G1 Z0.180 F1002
G1 E0.0000 F3000
G92 E0.0000
G1 X171.733 Y69.077 E0.0203 F900
G1 X172.197 Y69.389 E0.0342
G1 X172.774 Y69.965 E0.0545
G1 X173.100 Y70.464 E0.0693
G1 X173.391 Y71.211 E0.0893
G1 X173.490 Y71.738 E0.1026
G1 X173.490 Y99.274 E0.7878
G1 X173.391 Y99.802 E0.8011
G1 X173.100 Y100.548 E0.8211
G1 X172.774 Y101.047 E0.8359
G1 X172.197 Y101.624 E0.8562
G1 X171.733 Y101.935 E0.8701
G1 X170.981 Y102.251 E0.8904
G1 X170.419 Y102.365 E0.9047
G1 X122.845 Y102.365 E2.0884
G1 X122.282 Y102.251 E2.1027
G1 X121.530 Y101.935 E2.1230
G1 X121.067 Y101.624 E2.1369
G1 X120.490 Y101.047 E2.1572
G1 X120.164 Y100.548 E2.1720
G1 X119.873 Y99.802 E2.1920
G1 X119.773 Y99.275 E2.2053
G1 X119.773 Y71.738 E2.8905
G1 X119.873 Y71.210 E2.9039
G1 X120.164 Y70.464 E2.9238
G1 X120.490 Y69.965 E2.9386
G1 X121.067 Y69.389 E2.9589
G1 X121.530 Y69.077 E2.9728
G1 X122.282 Y68.761 E2.9931
G1 X122.845 Y68.648 E3.0074
G1 X170.419 Y68.648 E4.1912
G1 X170.981 Y68.761 E4.2055
G92 E0.0000
G1 E-4.0000 F3000
G1 Z0.480 F1002
G1 X170.097 Y71.698 F6000
G1 X166.504 Y71.698
G1 X159.319 Y76.410
G1 X159.393 Y77.021
G1 X159.269 Y78.044
G1 X158.904 Y79.008
G1 X158.318 Y79.857
G1 X157.546 Y80.540
G1 X156.634 Y81.019
G1 X155.633 Y81.266
G1 X154.602 Y81.266
G1 X153.601 Y81.019
G1 X152.873 Y80.638
G1 X138.897 Y89.804
G1 X138.662 Y89.746
G1 X137.631 Y89.746
G1 X136.630 Y89.993
G1 X135.717 Y90.472
G1 X134.946 Y91.156
G1 X134.360 Y92.004
G1 X134.004 Y92.944
G1 X133.994 Y93.020
G1 X124.396 Y99.315
G1 X123.167 Y99.315
G1 X123.001 Y99.245
G1 X121.290 Y101.352
G1 Z0.180 F1002
G1 E0.0000 F3000
G92 E0.0000
G1 X120.763 Y100.825 E0.0185 F900
G1 X120.477 Y100.387 E0.0316
G1 X120.211 Y99.705 E0.0498
G1 X120.123 Y99.242 E0.0615
G1 X120.123 Y71.771 E0.7451
G1 X120.211 Y71.307 E0.7568
G1 X120.477 Y70.625 E0.7750
G1 X120.763 Y70.187 E0.7880
G1 X121.290 Y69.660 E0.8066
G1 X121.697 Y69.387 E0.8188
G1 X122.386 Y69.097 E0.8374
G1 X122.880 Y68.998 E0.8499
G1 X170.384 Y68.998 E2.0319
G1 X170.878 Y69.097 E2.0445
G1 X171.566 Y69.387 E2.0631
G1 X171.974 Y69.660 E2.0753
G1 X172.501 Y70.187 E2.0938
G1 X172.787 Y70.625 E2.1068
G1 X173.053 Y71.307 E2.1251
G1 X173.140 Y71.771 E2.1368
G1 X173.140 Y99.242 E2.8203
G1 X173.053 Y99.705 E2.8321
G1 X172.787 Y100.387 E2.8503
G1 X172.501 Y100.825 E2.8633
G1 X171.974 Y101.352 E2.8819
G1 X171.566 Y101.626 E2.8941
G1 X170.878 Y101.915 E2.9126
G1 X170.384 Y102.015 E2.9252
G1 X122.880 Y102.015 E4.1072
G1 X122.386 Y101.915 E4.1198
G1 X121.697 Y101.626 E4.1383
G1 X121.290 Y101.352 E4.1506
G92 E0.0000
G1 E-4.0000 F3000
G1 Z0.480 F1002
G1 X123.001 Y99.245 F6000
G1 X123.167 Y99.315
G1 X124.841 Y99.315
G1 X133.887 Y94.125
G1 X133.870 Y93.991
G1 X134.004 Y92.944
G1 X134.360 Y92.004
G1 X134.946 Y91.156
G1 X135.717 Y90.472
G1 X136.630 Y89.993
G1 X137.631 Y89.746
G1 X138.662 Y89.746
G1 X139.663 Y89.993
G1 X140.407 Y90.384
G1 X170.440 Y73.152
G1 X170.440 Y72.039
G1 X172.790 Y71.803
G1 Z0.180 F1002
G1 E0.0000 F3000
G92 E0.0000
G1 X172.790 Y99.209 E0.6819 F900
G1 X172.715 Y99.608 E0.6920
G1 X172.474 Y100.226 E0.7085
G1 X172.227 Y100.603 E0.7198
G1 X171.750 Y101.081 E0.7365
G1 X171.399 Y101.316 E0.7471
G1 X170.775 Y101.579 E0.7639
G1 X170.349 Y101.665 E0.7747
G1 X122.915 Y101.665 E1.9550
G1 X122.489 Y101.579 E1.9658
G1 X121.864 Y101.316 E1.9827
G1 X121.513 Y101.080 E1.9932
G1 X121.036 Y100.603 E2.0100
G1 X120.790 Y100.226 E2.0212
G1 X120.549 Y99.608 E2.0377
G1 X120.473 Y99.209 E2.0478
G1 X120.473 Y71.803 E2.7298
G1 X120.549 Y71.404 E2.7399
G1 X120.790 Y70.786 E2.7564
G1 X121.036 Y70.409 E2.7676
G1 X121.513 Y69.932 E2.7844
G1 X121.864 Y69.696 E2.7949
G1 X122.489 Y69.433 E2.8118
G1 X122.915 Y69.348 E2.8226
G1 X170.349 Y69.348 E4.0029
G1 X170.775 Y69.433 E4.0137
G1 X171.399 Y69.696 E4.0305
G1 X171.750 Y69.932 E4.0410
G1 X172.227 Y70.409 E4.0578
G1 X172.474 Y70.787 E4.0691
G1 X172.715 Y71.404 E4.0856
G1 X172.790 Y71.803 E4.0957
G92 E0.0000
G1 E-4.0000 F3000
; feature outer perimeter
G1 Z0.480 F1002
G1 X170.440 Y72.039 F6000
G1 X170.380 Y71.885
G1 X170.302 Y71.807
G1 X122.883 Y71.885
G1 Z0.180 F1002
G1 E0.0000 F3000
G92 E0.0000
G1 X123.001 Y71.767 E0.0042 F450
G1 X123.167 Y71.698 E0.0086
G1 X170.097 Y71.698 E1.1764
G1 X170.262 Y71.767 E1.1808
G1 X170.380 Y71.885 E1.1850
G1 X170.440 Y72.039 E1.1891
G1 X170.440 Y98.973 E1.8593
G1 X170.380 Y99.127 E1.8634
G1 X170.262 Y99.245 E1.8675
G1 X170.097 Y99.315 E1.8720
G1 X123.167 Y99.315 E3.0398
G1 X123.001 Y99.245 E3.0442
G1 X122.883 Y99.127 E3.0484
G1 X122.823 Y98.973 E3.0525
G1 X122.823 Y72.674 E3.7069
G1 X122.823 Y72.039 F450
G1 X122.883 Y71.885
; feature inner perimeter
G1 X123.173 Y72.048 F6000
G92 E0.0000
G1 X170.090 Y72.048 E1.1674 F675
G1 X170.090 Y98.965 E1.8372
G1 X123.173 Y98.965 E3.0046
G1 X123.173 Y72.848 E3.6545
G1 X123.173 Y72.048 F675
G1 X123.523 Y72.398 F6000
G92 E0.0000
G1 X135.799 Y72.398 E0.3054 F675
G1 X135.858 Y72.637 E0.3116
G1 X135.317 Y72.921 E0.3268
G1 X134.418 Y73.718 E0.3567
G1 X133.736 Y74.706 E0.3866
G1 X133.320 Y75.803 E0.4157
G1 X133.165 Y77.018 E0.4462
G1 X133.310 Y78.213 E0.4762
G1 X133.736 Y79.336 E0.5061
G1 X134.418 Y80.324 E0.5359
G1 X135.317 Y81.121 E0.5658
G1 X136.609 Y81.799 E0.6021
G1 X135.344 Y82.111 E0.6346
G1 X134.569 Y82.518 E0.6564
G1 X133.914 Y83.098 E0.6781
G1 X133.416 Y83.819 E0.6999
G1 X133.106 Y84.637 E0.7217
G1 X133.000 Y85.506 E0.7435
G1 X133.106 Y86.375 E0.7653
G1 X133.416 Y87.194 E0.7871
G1 X133.914 Y87.914 E0.8088
G1 X134.569 Y88.495 E0.8306
G1 X135.344 Y88.902 E0.8524
G1 X136.609 Y89.213 E0.8848
G1 X135.317 Y89.892 E0.9212
G1 X134.418 Y90.688 E0.9510
G1 X133.736 Y91.676 E0.9809
G1 X133.320 Y92.773 E1.0101
G1 X133.165 Y93.989 E1.0406
G1 X133.310 Y95.184 E1.0705
G1 X133.736 Y96.306 E1.1004
G1 X134.418 Y97.295 E1.1303
G1 X135.317 Y98.091 E1.1602
G1 X135.858 Y98.375 E1.1754
G1 X135.799 Y98.615 E1.1815
G1 X123.523 Y98.615 E1.4870
G1 X123.523 Y73.198 E2.1194
G1 X123.523 Y72.398 F675
G1 X140.435 Y72.637 F6000
G92 E0.0000
G1 X140.494 Y72.398 E0.0061 F675
G1 X152.769 Y72.398 E0.3116
G1 X152.829 Y72.637 E0.3177
G1 X152.312 Y72.908 E0.3322
G1 X151.390 Y73.715 E0.3627
G1 X150.706 Y74.706 E0.3927
G1 X150.280 Y75.829 E0.4226
G1 X150.136 Y77.021 E0.4524
G1 X150.280 Y78.213 E0.4823
G1 X150.706 Y79.336 E0.5122
G1 X151.389 Y80.324 E0.5421
G1 X152.287 Y81.121 E0.5720
G1 X153.351 Y81.679 E0.6018
G1 X154.517 Y81.966 E0.6317
