; G-Code generated by Simplify3D(R) Version 4.1.2
; Oct 4, 2020 at 11:55:48 AM
; Settings Summary
;   processName,Process1
;   applyToModels,TestRessort_8x4
;   profileName,A04-04-15 Tevo Tornado
;   profileVersion,2020-07-01 20:14:39
;   baseProfile,Creality CR-10(2)
;   printMaterial,PLA
;   printQuality,Medium
;   printExtruders,
;   extruderName,Primary Extruder
;   extruderToolheadNumber,0
;   extruderDiameter,0.4
;   extruderAutoWidth,0
;   extruderWidth,0.35
;   extrusionMultiplier,0.95
;   extruderUseRetract,1
;   extruderRetractionDistance,4
;   extruderExtraRestartDistance,0
;   extruderRetractionZLift,0.3
;   extruderRetractionSpeed,3000
;   extruderUseCoasting,1
;   extruderCoastingDistance,0.8
;   extruderUseWipe,0
;   extruderWipeDistance,4
;   primaryExtruder,0
;   layerHeight,0.15
;   topSolidLayers,4
;   bottomSolidLayers,3
;   perimeterOutlines,3
;   printPerimetersInsideOut,0
;   startPointOption,1
;   startPointOriginX,0
;   startPointOriginY,300
;   sequentialIslands,0
;   spiralVaseMode,0
;   firstLayerHeightPercentage,120
;   firstLayerWidthPercentage,100
;   firstLayerUnderspeed,0.5
;   useRaft,0
;   raftExtruder,0
;   raftTopLayers,3
;   raftBaseLayers,2
;   raftOffset,3
;   raftSeparationDistance,0.14
;   raftTopInfill,100
;   aboveRaftSpeedMultiplier,0.3
;   useSkirt,1
;   skirtExtruder,0
;   skirtLayers,1
;   skirtOutlines,3
;   skirtOffset,2
;   usePrimePillar,0
;   primePillarExtruder,999
;   primePillarWidth,12
;   primePillarLocation,7
;   primePillarSpeedMultiplier,1
;   useOozeShield,0
;   oozeShieldExtruder,999
;   oozeShieldOffset,2
;   oozeShieldOutlines,1
;   oozeShieldSidewallShape,1
;   oozeShieldSidewallAngle,30
;   oozeShieldSpeedMultiplier,1
;   infillExtruder,0
;   internalInfillPattern,Rectilinear
;   externalInfillPattern,Rectilinear
;   infillPercentage,15
;   outlineOverlapPercentage,15
;   infillExtrusionWidthPercentage,100
;   minInfillLength,5
;   infillLayerInterval,1
;   internalInfillAngles,45,-45
;   overlapInternalInfillAngles,0
;   externalInfillAngles,45,-45
;   generateSupport,0
;   supportExtruder,0
;   supportInfillPercentage,30
;   supportExtraInflation,0
;   supportBaseLayers,0
;   denseSupportExtruder,0
;   denseSupportLayers,0
;   denseSupportInfillPercentage,70
;   supportLayerInterval,1
;   supportHorizontalPartOffset,0.4
;   supportUpperSeparationLayers,1
;   supportLowerSeparationLayers,1
;   supportType,0
;   supportGridSpacing,4.5
;   maxOverhangAngle,45
;   supportAngles,0
;   temperatureName,Primary Extruder,Heated Bed
;   temperatureNumber,0,0
;   temperatureSetpointCount,1,1
;   temperatureSetpointLayers,1,1
;   temperatureSetpointTemperatures,215,55
;   temperatureStabilizeAtStartup,1,1
;   temperatureHeatedBed,0,1
;   fanLayers,1,2
;   fanSpeeds,0,100
;   blipFanToFullPower,0
;   adjustSpeedForCooling,1
;   minSpeedLayerTime,15
;   minCoolingSpeedSlowdown,50
;   increaseFanForCooling,1
;   minFanLayerTime,25
;   maxCoolingFanSpeed,100
;   increaseFanForBridging,1
;   bridgingFanSpeed,100
;   use5D,1
;   relativeEdistances,0
;   allowEaxisZeroing,1
;   independentExtruderAxes,0
;   includeM10123,0
;   stickySupport,1
;   applyToolheadOffsets,0
;   gcodeXoffset,0
;   gcodeYoffset,0
;   gcodeZoffset,0
;   overrideMachineDefinition,1
;   machineTypeOverride,0
;   strokeXoverride,300
;   strokeYoverride,300
;   strokeZoverride,400
;   originOffsetXoverride,0
;   originOffsetYoverride,0
;   originOffsetZoverride,0
;   homeXdirOverride,-1
;   homeYdirOverride,-1
;   homeZdirOverride,-1
;   flipXoverride,1
;   flipYoverride,-1
;   flipZoverride,1
;   toolheadOffsets,0,0|0,0|0,0|0,0|0,0|0,0
;   overrideFirmwareConfiguration,1
;   firmwareTypeOverride,RepRap (Marlin/Repetier/Sprinter)
;   GPXconfigOverride,r2
;   baudRateOverride,250000
;   overridePrinterModels,1
;   printerModelsOverride
;   startingGcode,;,; -]H.P.B[- MarshMalloW  ,; $VER: StartScript 1.02 (26.12.2019) MarshMalloW,;,; Begin Startcode,;,M117 *Preheat*     	; Preheat,;extruder0_temperature,M104 S[extruder0_temperature]  ,M109 S[extruder0_temperature] ,M109 R[extruder0_temperature] ,;,M117 *Auto-leveling*     	; Auto-leveling,M107                   	; Turn layer fan off,G21                    	; Set to metric [change to G20 if you want Imperial],G90                    	; Force coordinates to be absolute relative to the origin,G28                    	; Home X/Y/Z axis,G29                    	; Auto-leveling (BL-Touch),;,M117 *Start Clean*     	; Indicate nozzle clean in progress on LCD,G92 E0                 	; Set Extruder to 0 ,G1 X0 Y0 F2000         	; Move X and Y to 0 with speed 2000 (mm/min),G1 Z0.1 F1000          	; Move Z to   0.1 with speed 1000 (mm/min),G1 X8.0 F2000          	; Move X to   8.0 with speed 2000 (mm/min),G1 Y60.0 E4.0 F1000.0  	; Move Y to  60 and Extruder with 4.0 with speed 1000 (mm/min),G1 Y100.0 E8.5 F1000.0 	; Move Y to 100 and Extruder with 8.5 with speed 1000 (mm/min),G92 E0                 	; Set extruder to 0,G1 X16.0 F3000         	; Move X to 16.0 with speed 3000 (mm/min),G1 Y60.0 F3000         	; Move Y to 60.0 with speed 3000 (mm/min),M117 *End Clean*       	; Indicate nozzle clean in progress on LCD,G1 Z5 F3000            	; Move Z to  5.0 with speed 3000 (mm/min),G1 X20.0 F3000         	; Move X to 20.0 with speed 3000 (mm/min),G1 Y20.0 F3000         	; Move Y to 20.0 with speed 3000 (mm/min),; ,M117 *Printing...*     	; Start printing msg on LCD,;,; End Startcode,;,; Begin printing with sliced GCode after here,;
;   layerChangeGcode,
;   retractionGcode,
;   toolChangeGcode,
;   endingGcode,;,; init 181010,;,;M107 			; Fan off,;G1 E-1 F300 			; Retract the filament a bit before lifting the nozzle,;M104 S0 			; Turn off extruder,;M140 S0 			; Turn off bed,;G91			; Relative positioning,;G28 X0 Y0 			; Move X/Y to min endstops so the head is out of teh way,;M84 			; Disable motors,;G90 			; Absolute positioning,;M117 Print ready...,,;,; // From Cura 181010,; // End_gcode,G92 E0			; Zero the extruded length,;G1 E-30 F300		; Retract E -30,M106 S0			; Turn off cooling fan,M104 S0			; Turn off temperature,M140 S0		     	; Turn off bed,G91			; Relative positioning,G1 E-1 F300			; Retract the filament a bit before lifting the nozzle to release some of the pressure,G1 Z+20 E-5 X-20 Y-20 F7200	; Move Z up a bit and retract filament even more,G1 X0 Y150 F10000		; Move right min,M107			; Turn off layer fan,M84			; Disable motors,G90			; Absolute positioning,M117 *The-End* 		; End msg,;,
;   exportFileFormat,gcode
;   celebration,0
;   celebrationSong,Star Wars
;   postProcessing,|{REPLACE "; layer " "M117 INDICATOR-Layer"}|{REPLACE ", Z = " "\n; Z="}
;   defaultSpeed,1800
;   outlineUnderspeed,0.5
;   solidInfillUnderspeed,0.8
;   supportUnderspeed,0.8
;   rapidXYspeed,6000
;   rapidZspeed,1002
;   minBridgingArea,50
;   bridgingExtraInflation,0.2
;   bridgingExtrusionMultiplier,1
;   bridgingSpeedMultiplier,0.6
;   useFixedBridgingAngle,0
;   fixedBridgingAngle,0
;   applyBridgingToPerimeters,0
;   filamentDiameters,1.75|1.75|1.75|1.75|1.75|1.75
;   filamentPricesPerKg,30|46|46|46|46|46
;   filamentDensities,1.25|1.25|1.25|1.25|1.25|1.25
;   useMinPrintHeight,0
;   minPrintHeight,0
;   useMaxPrintHeight,0
;   maxPrintHeight,50
;   useDiaphragm,0
;   diaphragmLayerInterval,20
;   robustSlicing,1
;   mergeAllIntoSolid,0
;   onlyRetractWhenCrossingOutline,1
;   retractBetweenLayers,0
;   useRetractionMinTravel,0
;   retractionMinTravel,3
;   retractWhileWiping,0
;   onlyWipeOutlines,1
;   avoidCrossingOutline,1
;   maxMovementDetourFactor,3
;   toolChangeRetractionDistance,12
;   toolChangeExtraRestartDistance,-0.5
;   toolChangeRetractionSpeed,600
;   externalThinWallType,1
;   internalThinWallType,1
;   thinWallAllowedOverlapPercentage,10
;   singleExtrusionMinLength,1
;   singleExtrusionMinPrintingWidthPercentage,50
;   singleExtrusionMaxPrintingWidthPercentage,200
;   singleExtrusionEndpointExtension,0.2
;   horizontalSizeCompensation,0
G90
M82
M106 S0
M140 S55
M190 S55
;
; -]H.P.B[- MarshMalloW  
; $VER: StartScript 1.02 (26.12.2019) MarshMalloW
;
; Begin Startcode
;
M117 *Preheat*     	; Preheat
;extruder0_temperature
M104 S215  
M109 S215 
M109 R215 
;
M117 *Auto-leveling*     	; Auto-leveling
M107                   	; Turn layer fan off
G21                    	; Set to metric [change to G20 if you want Imperial]
G90                    	; Force coordinates to be absolute relative to the origin
G28                    	; Home X/Y/Z axis
G29                    	; Auto-leveling (BL-Touch)
;
M117 *Start Clean*     	; Indicate nozzle clean in progress on LCD
G92 E0                 	; Set Extruder to 0 
G1 X0 Y0 F2000         	; Move X and Y to 0 with speed 2000 (mm/min)
G1 Z0.1 F1000          	; Move Z to   0.1 with speed 1000 (mm/min)
G1 X8.0 F2000          	; Move X to   8.0 with speed 2000 (mm/min)
G1 Y60.0 E4.0 F1000.0  	; Move Y to  60 and Extruder with 4.0 with speed 1000 (mm/min)
G1 Y100.0 E8.5 F1000.0 	; Move Y to 100 and Extruder with 8.5 with speed 1000 (mm/min)
G92 E0                 	; Set extruder to 0
G1 X16.0 F3000         	; Move X to 16.0 with speed 3000 (mm/min)
G1 Y60.0 F3000         	; Move Y to 60.0 with speed 3000 (mm/min)
M117 *End Clean*       	; Indicate nozzle clean in progress on LCD
G1 Z5 F3000            	; Move Z to  5.0 with speed 3000 (mm/min)
G1 X20.0 F3000         	; Move X to 20.0 with speed 3000 (mm/min)
G1 Y20.0 F3000         	; Move Y to 20.0 with speed 3000 (mm/min)
; 
M117 *Printing...*     	; Start printing msg on LCD
;
; End Startcode
;
; Begin printing with sliced GCode after here
;
; process Process1
M117 INDICATOR-Layer1
; Z=0.180
T0
G92 E0.0000
G1 E-4.0000 F3000
; feature skirt
; tool H0.180 W0.350
G1 Z0.300 F1002
G1 X146.758 Y73.640 F6000
G1 Z0.180 F1002
G1 E0.0000 F3000
G92 E0.0000
G1 X146.758 Y91.021 E0.4325 F900
G1 X145.074 Y92.706 E0.4918
G1 X127.692 Y92.706 E0.9243
G1 X126.008 Y91.021 E0.9835
G1 X126.008 Y73.640 E1.4160
G1 X127.692 Y71.956 E1.4753
G1 X145.074 Y71.956 E1.9078
G1 X146.758 Y73.640 E1.9671
G92 E0.0000
G1 E-4.0000 F3000
G1 Z0.480 F1002
G1 X143.708 Y75.006 F6000
G1 X143.708 Y76.217
G1 X139.598 Y79.690
G1 X137.748 Y81.121
G1 X137.805 Y81.204
G1 X135.029 Y83.550
G1 X135.018 Y83.540
G1 X133.234 Y85.067
G1 X129.058 Y88.595
G1 X129.058 Y89.656
G1 X126.358 Y90.876
G1 Z0.180 F1002
G1 E0.0000 F3000
G92 E0.0000
G1 X126.358 Y73.785 E0.4253 F900
G1 X127.837 Y72.306 E0.4773
G1 X144.929 Y72.306 E0.9026
G1 X146.408 Y73.785 E0.9547
G1 X146.408 Y90.876 E1.3800
G1 X144.929 Y92.356 E1.4320
G1 X127.837 Y92.356 E1.8573
G1 X126.358 Y90.876 E1.9094
G92 E0.0000
G1 E-4.0000 F3000
G1 Z0.480 F1002
G1 X146.058 Y90.731 F6000
G1 Z0.180 F1002
G1 E0.0000 F3000
G92 E0.0000
G1 X144.784 Y92.006 E0.0448 F900
G1 X127.982 Y92.006 E0.4629
G1 X126.708 Y90.731 E0.5077
G1 X126.708 Y73.930 E0.9258
G1 X127.982 Y72.656 E0.9707
G1 X144.784 Y72.656 E1.3887
G1 X146.058 Y73.930 E1.4336
G1 X146.058 Y90.731 E1.8516
G92 E0.0000
G1 E-4.0000 F3000
; feature outer perimeter
G1 Z0.480 F1002
G1 X143.708 Y75.006 F6000
G1 Z0.180 F1002
G1 E0.0000 F3000
G92 E0.0000
G1 X143.708 Y89.656 E0.3645 F450
G1 X129.058 Y89.656 E0.7291
G1 X129.058 Y75.006 E1.0936
G1 X142.908 Y75.006 E1.4382
G1 X143.708 Y75.006 F450
; feature inner perimeter
G1 X143.358 Y75.356 F6000
G92 E0.0000
G1 X143.358 Y89.306 E0.3471 F675
G1 X129.408 Y89.306 E0.6942
G1 X129.408 Y75.356 E1.0413
G1 X142.558 Y75.356 E1.3686
G1 X143.358 Y75.356 F675
G1 X143.008 Y75.706 F6000
G92 E0.0000
G1 X143.008 Y88.956 E0.3297 F675
G1 X129.758 Y88.956 E0.6594
G1 X129.758 Y75.706 E0.9891
G1 X142.208 Y75.706 E1.2989
G1 X143.008 Y75.706 F675
; feature outer perimeter
G1 X139.509 Y79.561 F6000
G92 E0.0000
G1 X138.755 Y78.894 E0.0251 F450
G1 X137.864 Y78.426 E0.0501
G1 X136.886 Y78.185 E0.0752
G1 X135.880 Y78.185 E0.1002
G1 X134.902 Y78.426 E0.1253
G1 X134.011 Y78.894 E0.1503
G1 X133.279 Y79.542 E0.1746
G1 X132.685 Y80.389 E0.2004
G1 X132.328 Y81.331 E0.2254
G1 X132.207 Y82.331 E0.2505
G1 X132.328 Y83.330 E0.2755
G1 X132.685 Y84.271 E0.3006
G1 X133.257 Y85.100 E0.3257
G1 X134.011 Y85.768 E0.3507
G1 X134.902 Y86.235 E0.3758
G1 X135.880 Y86.476 E0.4008
G1 X136.886 Y86.476 E0.4259
G1 X137.864 Y86.235 E0.4509
G1 X138.755 Y85.768 E0.4760
G1 X139.509 Y85.100 E0.5010
G1 X140.081 Y84.271 E0.5261
G1 X140.438 Y83.330 E0.5511
G1 X140.559 Y82.331 E0.5762
G1 X140.438 Y81.331 E0.6012
G1 X140.081 Y80.390 E0.6263
G1 X139.964 Y80.220 E0.6314
G1 X139.509 Y79.561 F450
; feature inner perimeter
G1 X139.773 Y79.327 F6000
G92 E0.0000
G1 X138.956 Y78.603 E0.0272 F675
G1 X137.989 Y78.096 E0.0543
G1 X136.929 Y77.835 E0.0815
G1 X135.837 Y77.835 E0.1087
G1 X134.777 Y78.096 E0.1358
G1 X133.810 Y78.603 E0.1630
G1 X133.016 Y79.307 E0.1894
G1 X132.374 Y80.224 E0.2173
G1 X131.986 Y81.247 E0.2445
G1 X131.854 Y82.331 E0.2716
G1 X131.986 Y83.414 E0.2988
G1 X132.373 Y84.435 E0.3260
G1 X132.993 Y85.334 E0.3531
G1 X133.810 Y86.058 E0.3803
G1 X134.777 Y86.565 E0.4075
G1 X135.837 Y86.826 E0.4346
G1 X136.929 Y86.826 E0.4618
G1 X137.989 Y86.565 E0.4890
G1 X138.956 Y86.058 E0.5161
G1 X139.773 Y85.334 E0.5433
G1 X140.393 Y84.435 E0.5705
G1 X140.780 Y83.414 E0.5976
G1 X140.912 Y82.331 E0.6248
G1 X140.780 Y81.247 E0.6520
G1 X140.393 Y80.226 E0.6791
G1 X140.227 Y79.986 E0.6864
G1 X139.773 Y79.327 F675
G1 X140.037 Y79.094 F6000
G92 E0.0000
G1 X139.156 Y78.313 E0.0293 F675
G1 X138.114 Y77.766 E0.0586
G1 X136.971 Y77.485 E0.0878
G1 X135.795 Y77.485 E0.1171
G1 X134.652 Y77.766 E0.1464
G1 X133.610 Y78.313 E0.1757
G1 X132.753 Y79.072 E0.2042
G1 X132.062 Y80.059 E0.2342
G1 X131.643 Y81.162 E0.2635
G1 X131.502 Y82.331 E0.2928
G1 X131.643 Y83.499 E0.3221
G1 X132.061 Y84.599 E0.3514
G1 X132.729 Y85.568 E0.3806
G1 X133.610 Y86.348 E0.4099
G1 X134.652 Y86.895 E0.4392
G1 X135.795 Y87.176 E0.4685
G1 X136.971 Y87.176 E0.4978
G1 X138.114 Y86.895 E0.5270
G1 X139.156 Y86.348 E0.5563
G1 X140.037 Y85.568 E0.5856
G1 X140.705 Y84.599 E0.6149
G1 X141.123 Y83.499 E0.6442
G1 X141.264 Y82.331 E0.6735
G1 X141.123 Y81.162 E0.7027
G1 X140.705 Y80.062 E0.7320
G1 X140.491 Y79.752 E0.7414
G1 X140.037 Y79.094 F675
; feature solid layer
G1 X141.313 Y80.826 F6000
G92 E0.0000
G1 X142.711 Y82.223 E0.0492 F720
G1 X142.711 Y82.718 E0.0615
G1 X141.459 Y81.467 E0.1055
G1 X141.528 Y82.031 E0.1196
G1 X142.711 Y83.213 E0.1613
G1 X142.711 Y83.708 E0.1736
G1 X141.539 Y82.537 E0.2148
G1 X141.486 Y82.978 E0.2259
G1 X142.711 Y84.203 E0.2690
G1 X142.711 Y84.698 E0.2813
G1 X141.432 Y83.420 E0.3263
G1 X141.414 Y83.570 E0.3301
G1 X141.324 Y83.807 E0.3363
G1 X142.711 Y85.193 E0.3851
G1 X142.711 Y85.688 E0.3975
G1 X141.188 Y84.166 E0.4510
G1 X141.052 Y84.524 E0.4606
G1 X142.711 Y86.183 E0.5190
G1 X142.711 Y86.678 E0.5313
G1 X140.889 Y84.857 E0.5954
G1 X140.687 Y85.149 E0.6042
G1 X142.711 Y87.173 E0.6754
G1 X142.711 Y87.668 E0.6878
G1 X140.485 Y85.442 E0.7661
G1 X140.283 Y85.735 E0.7749
G1 X142.711 Y88.163 E0.8604
G1 X142.711 Y88.658 E0.8727
G1 X140.027 Y85.974 E0.9671
G1 X139.764 Y86.207 E0.9759
G1 X142.216 Y88.658 E1.0621
G1 X141.721 Y88.658 E1.0744
G1 X139.502 Y86.439 E1.1525
G1 X139.326 Y86.595 E1.1584
G1 X139.219 Y86.651 E1.1614
G1 X141.226 Y88.658 E1.2320
G1 X140.731 Y88.658 E1.2443
G1 X138.894 Y86.821 E1.3090
G1 X138.569 Y86.992 E1.3181
G1 X140.236 Y88.658 E1.3767
G1 X139.741 Y88.658 E1.3890
G1 X138.245 Y87.162 E1.4417
G1 X138.220 Y87.175 E1.4424
G1 X137.853 Y87.265 E1.4518
G1 X139.246 Y88.658 E1.5008
G1 X138.751 Y88.658 E1.5131
G1 X137.456 Y87.363 E1.5586
G1 X137.059 Y87.461 E1.5688
G1 X138.256 Y88.658 E1.6109
G1 X137.761 Y88.658 E1.6233
G1 X136.577 Y87.474 E1.6649
G1 X136.082 Y87.474 E1.6772
G1 X137.266 Y88.658 E1.7189
G1 X136.771 Y88.658 E1.7312
G1 X135.531 Y87.418 E1.7749
G1 X134.874 Y87.256 E1.7917
G1 X136.276 Y88.658 E1.8411
G1 X135.781 Y88.658 E1.8534
G1 X134.590 Y87.467 E1.8953
G1 X134.024 Y86.901 F720
G1 X130.336 Y88.658 F6000
G92 E0.0000
G1 X130.056 Y88.377 E0.0099 F720
G1 X130.056 Y87.882 E0.0222
G1 X130.831 Y88.658 E0.0495
G1 X131.326 Y88.658 E0.0618
G1 X130.056 Y87.387 E0.1065
G1 X130.056 Y86.892 E0.1188
G1 X131.821 Y88.658 E0.1810
G1 X132.316 Y88.658 E0.1933
