; G-Code generated by Simplify3D(R) Version 4.1.2
; Oct 4, 2020 at 3:37:03 PM
; Settings Summary
;   processName,Process1
;   applyToModels,SupportHaut4020
;   profileName,A04-04-15 Tevo Tornado
;   profileVersion,2020-07-01 20:14:39
;   baseProfile,Creality CR-10(2)
;   printMaterial,PLA
;   printQuality,Medium
;   printExtruders,
;   extruderName,Primary Extruder
;   extruderToolheadNumber,0
;   extruderDiameter,0.4
;   extruderAutoWidth,0
;   extruderWidth,0.35
;   extrusionMultiplier,0.95
;   extruderUseRetract,1
;   extruderRetractionDistance,4
;   extruderExtraRestartDistance,0
;   extruderRetractionZLift,0.3
;   extruderRetractionSpeed,3000
;   extruderUseCoasting,1
;   extruderCoastingDistance,0.8
;   extruderUseWipe,0
;   extruderWipeDistance,4
;   primaryExtruder,0
;   layerHeight,0.15
;   topSolidLayers,4
;   bottomSolidLayers,3
;   perimeterOutlines,3
;   printPerimetersInsideOut,0
;   startPointOption,1
;   startPointOriginX,0
;   startPointOriginY,300
;   sequentialIslands,0
;   spiralVaseMode,0
;   firstLayerHeightPercentage,120
;   firstLayerWidthPercentage,100
;   firstLayerUnderspeed,0.5
;   useRaft,0
;   raftExtruder,0
;   raftTopLayers,3
;   raftBaseLayers,2
;   raftOffset,3
;   raftSeparationDistance,0.14
;   raftTopInfill,100
;   aboveRaftSpeedMultiplier,0.3
;   useSkirt,1
;   skirtExtruder,0
;   skirtLayers,1
;   skirtOutlines,3
;   skirtOffset,2
;   usePrimePillar,0
;   primePillarExtruder,999
;   primePillarWidth,12
;   primePillarLocation,7
;   primePillarSpeedMultiplier,1
;   useOozeShield,0
;   oozeShieldExtruder,999
;   oozeShieldOffset,2
;   oozeShieldOutlines,1
;   oozeShieldSidewallShape,1
;   oozeShieldSidewallAngle,30
;   oozeShieldSpeedMultiplier,1
;   infillExtruder,0
;   internalInfillPattern,Rectilinear
;   externalInfillPattern,Rectilinear
;   infillPercentage,15
;   outlineOverlapPercentage,15
;   infillExtrusionWidthPercentage,100
;   minInfillLength,5
;   infillLayerInterval,1
;   internalInfillAngles,45,-45
;   overlapInternalInfillAngles,0
;   externalInfillAngles,45,-45
;   generateSupport,0
;   supportExtruder,0
;   supportInfillPercentage,30
;   supportExtraInflation,0
;   supportBaseLayers,0
;   denseSupportExtruder,0
;   denseSupportLayers,0
;   denseSupportInfillPercentage,70
;   supportLayerInterval,1
;   supportHorizontalPartOffset,0.4
;   supportUpperSeparationLayers,1
;   supportLowerSeparationLayers,1
;   supportType,0
;   supportGridSpacing,4.5
;   maxOverhangAngle,45
;   supportAngles,0
;   temperatureName,Primary Extruder,Heated Bed
;   temperatureNumber,0,0
;   temperatureSetpointCount,1,1
;   temperatureSetpointLayers,1,1
;   temperatureSetpointTemperatures,215,55
;   temperatureStabilizeAtStartup,1,1
;   temperatureHeatedBed,0,1
;   fanLayers,1,2
;   fanSpeeds,0,100
;   blipFanToFullPower,0
;   adjustSpeedForCooling,1
;   minSpeedLayerTime,15
;   minCoolingSpeedSlowdown,50
;   increaseFanForCooling,1
;   minFanLayerTime,25
;   maxCoolingFanSpeed,100
;   increaseFanForBridging,1
;   bridgingFanSpeed,100
;   use5D,1
;   relativeEdistances,0
;   allowEaxisZeroing,1
;   independentExtruderAxes,0
;   includeM10123,0
;   stickySupport,1
;   applyToolheadOffsets,0
;   gcodeXoffset,0
;   gcodeYoffset,0
;   gcodeZoffset,0
;   overrideMachineDefinition,1
;   machineTypeOverride,0
;   strokeXoverride,300
;   strokeYoverride,300
;   strokeZoverride,400
;   originOffsetXoverride,0
;   originOffsetYoverride,0
;   originOffsetZoverride,0
;   homeXdirOverride,-1
;   homeYdirOverride,-1
;   homeZdirOverride,-1
;   flipXoverride,1
;   flipYoverride,-1
;   flipZoverride,1
;   toolheadOffsets,0,0|0,0|0,0|0,0|0,0|0,0
;   overrideFirmwareConfiguration,1
;   firmwareTypeOverride,RepRap (Marlin/Repetier/Sprinter)
;   GPXconfigOverride,r2
;   baudRateOverride,250000
;   overridePrinterModels,1
;   printerModelsOverride
;   startingGcode,;,; -]H.P.B[- MarshMalloW  ,; $VER: StartScript 1.02 (26.12.2019) MarshMalloW,;,; Begin Startcode,;,M117 *Preheat*     	; Preheat,;extruder0_temperature,M104 S[extruder0_temperature]  ,M109 S[extruder0_temperature] ,M109 R[extruder0_temperature] ,;,M117 *Auto-leveling*     	; Auto-leveling,M107                   	; Turn layer fan off,G21                    	; Set to metric [change to G20 if you want Imperial],G90                    	; Force coordinates to be absolute relative to the origin,G28                    	; Home X/Y/Z axis,G29                    	; Auto-leveling (BL-Touch),;,M117 *Start Clean*     	; Indicate nozzle clean in progress on LCD,G92 E0                 	; Set Extruder to 0 ,G1 X0 Y0 F2000         	; Move X and Y to 0 with speed 2000 (mm/min),G1 Z0.1 F1000          	; Move Z to   0.1 with speed 1000 (mm/min),G1 X8.0 F2000          	; Move X to   8.0 with speed 2000 (mm/min),G1 Y60.0 E4.0 F1000.0  	; Move Y to  60 and Extruder with 4.0 with speed 1000 (mm/min),G1 Y100.0 E8.5 F1000.0 	; Move Y to 100 and Extruder with 8.5 with speed 1000 (mm/min),G92 E0                 	; Set extruder to 0,G1 X16.0 F3000         	; Move X to 16.0 with speed 3000 (mm/min),G1 Y60.0 F3000         	; Move Y to 60.0 with speed 3000 (mm/min),M117 *End Clean*       	; Indicate nozzle clean in progress on LCD,G1 Z5 F3000            	; Move Z to  5.0 with speed 3000 (mm/min),G1 X20.0 F3000         	; Move X to 20.0 with speed 3000 (mm/min),G1 Y20.0 F3000         	; Move Y to 20.0 with speed 3000 (mm/min),; ,M117 *Printing...*     	; Start printing msg on LCD,;,; End Startcode,;,; Begin printing with sliced GCode after here,;
;   layerChangeGcode,
;   retractionGcode,
;   toolChangeGcode,
;   endingGcode,;,; init 181010,;,;M107 			; Fan off,;G1 E-1 F300 			; Retract the filament a bit before lifting the nozzle,;M104 S0 			; Turn off extruder,;M140 S0 			; Turn off bed,;G91			; Relative positioning,;G28 X0 Y0 			; Move X/Y to min endstops so the head is out of teh way,;M84 			; Disable motors,;G90 			; Absolute positioning,;M117 Print ready...,,;,; // From Cura 181010,; // End_gcode,G92 E0			; Zero the extruded length,;G1 E-30 F300		; Retract E -30,M106 S0			; Turn off cooling fan,M104 S0			; Turn off temperature,M140 S0		     	; Turn off bed,G91			; Relative positioning,G1 E-1 F300			; Retract the filament a bit before lifting the nozzle to release some of the pressure,G1 Z+20 E-5 X-20 Y-20 F7200	; Move Z up a bit and retract filament even more,G1 X0 Y150 F10000		; Move right min,M107			; Turn off layer fan,M84			; Disable motors,G90			; Absolute positioning,M117 *The-End* 		; End msg,;,
;   exportFileFormat,gcode
;   celebration,0
;   celebrationSong,Star Wars
;   postProcessing,|{REPLACE "; layer " "M117 INDICATOR-Layer"}|{REPLACE ", Z = " "\n; Z="}
;   defaultSpeed,1800
;   outlineUnderspeed,0.5
;   solidInfillUnderspeed,0.8
;   supportUnderspeed,0.8
;   rapidXYspeed,6000
;   rapidZspeed,1002
;   minBridgingArea,50
;   bridgingExtraInflation,0.2
;   bridgingExtrusionMultiplier,1
;   bridgingSpeedMultiplier,0.6
;   useFixedBridgingAngle,0
;   fixedBridgingAngle,0
;   applyBridgingToPerimeters,0
;   filamentDiameters,1.75|1.75|1.75|1.75|1.75|1.75
;   filamentPricesPerKg,30|46|46|46|46|46
;   filamentDensities,1.25|1.25|1.25|1.25|1.25|1.25
;   useMinPrintHeight,0
;   minPrintHeight,0
;   useMaxPrintHeight,0
;   maxPrintHeight,50
;   useDiaphragm,0
;   diaphragmLayerInterval,20
;   robustSlicing,1
;   mergeAllIntoSolid,0
;   onlyRetractWhenCrossingOutline,1
;   retractBetweenLayers,0
;   useRetractionMinTravel,0
;   retractionMinTravel,3
;   retractWhileWiping,0
;   onlyWipeOutlines,1
;   avoidCrossingOutline,1
;   maxMovementDetourFactor,3
;   toolChangeRetractionDistance,12
;   toolChangeExtraRestartDistance,-0.5
;   toolChangeRetractionSpeed,600
;   externalThinWallType,1
;   internalThinWallType,1
;   thinWallAllowedOverlapPercentage,10
;   singleExtrusionMinLength,1
;   singleExtrusionMinPrintingWidthPercentage,50
;   singleExtrusionMaxPrintingWidthPercentage,200
;   singleExtrusionEndpointExtension,0.2
;   horizontalSizeCompensation,0
G90
M82
M106 S0
M140 S55
M190 S55
;
; -]H.P.B[- MarshMalloW  
; $VER: StartScript 1.02 (26.12.2019) MarshMalloW
;
; Begin Startcode
;
M117 *Preheat*     	; Preheat
;extruder0_temperature
M104 S215  
M109 S215 
M109 R215 
;
M117 *Auto-leveling*     	; Auto-leveling
M107                   	; Turn layer fan off
G21                    	; Set to metric [change to G20 if you want Imperial]
G90                    	; Force coordinates to be absolute relative to the origin
G28                    	; Home X/Y/Z axis
G29                    	; Auto-leveling (BL-Touch)
;
M117 *Start Clean*     	; Indicate nozzle clean in progress on LCD
G92 E0                 	; Set Extruder to 0 
G1 X0 Y0 F2000         	; Move X and Y to 0 with speed 2000 (mm/min)
G1 Z0.1 F1000          	; Move Z to   0.1 with speed 1000 (mm/min)
G1 X8.0 F2000          	; Move X to   8.0 with speed 2000 (mm/min)
G1 Y60.0 E4.0 F1000.0  	; Move Y to  60 and Extruder with 4.0 with speed 1000 (mm/min)
G1 Y100.0 E8.5 F1000.0 	; Move Y to 100 and Extruder with 8.5 with speed 1000 (mm/min)
G92 E0                 	; Set extruder to 0
G1 X16.0 F3000         	; Move X to 16.0 with speed 3000 (mm/min)
G1 Y60.0 F3000         	; Move Y to 60.0 with speed 3000 (mm/min)
M117 *End Clean*       	; Indicate nozzle clean in progress on LCD
G1 Z5 F3000            	; Move Z to  5.0 with speed 3000 (mm/min)
G1 X20.0 F3000         	; Move X to 20.0 with speed 3000 (mm/min)
G1 Y20.0 F3000         	; Move Y to 20.0 with speed 3000 (mm/min)
; 
M117 *Printing...*     	; Start printing msg on LCD
;
; End Startcode
;
; Begin printing with sliced GCode after here
;
; process Process1
M117 INDICATOR-Layer1
; Z=0.180
T0
G92 E0.0000
G1 E-4.0000 F3000
; feature skirt
; tool H0.180 W0.350
G1 Z0.300 F1002
G1 X175.343 Y65.891 F6000
G1 Z0.180 F1002
G1 E0.0000 F3000
G92 E0.0000
G1 X176.095 Y66.207 E0.0203 F900
G1 X176.559 Y66.519 E0.0342
G1 X177.136 Y67.095 E0.0545
G1 X177.462 Y67.594 E0.0693
G1 X177.753 Y68.341 E0.0893
G1 X177.852 Y68.868 E0.1026
G1 X177.852 Y96.404 E0.7878
G1 X177.753 Y96.932 E0.8011
G1 X177.462 Y97.678 E0.8211
G1 X177.136 Y98.177 E0.8359
G1 X176.559 Y98.754 E0.8562
G1 X176.095 Y99.065 E0.8701
G1 X175.343 Y99.381 E0.8904
G1 X174.781 Y99.495 E0.9047
G1 X127.207 Y99.495 E2.0884
G1 X126.645 Y99.381 E2.1027
G1 X125.893 Y99.065 E2.1230
G1 X125.429 Y98.754 E2.1369
G1 X124.852 Y98.177 E2.1572
G1 X124.526 Y97.678 E2.1720
G1 X124.235 Y96.932 E2.1920
G1 X124.135 Y96.404 E2.2053
G1 X124.135 Y68.868 E2.8905
G1 X124.235 Y68.341 E2.9039
G1 X124.526 Y67.594 E2.9238
G1 X124.852 Y67.095 E2.9386
G1 X125.429 Y66.519 E2.9589
G1 X125.893 Y66.207 E2.9728
G1 X126.645 Y65.891 E2.9931
G1 X127.207 Y65.778 E3.0074
G1 X174.781 Y65.778 E4.1912
G1 X175.343 Y65.891 E4.2055
G92 E0.0000
G1 E-4.0000 F3000
G1 Z0.480 F1002
G1 X174.459 Y68.828 F6000
G1 X170.866 Y68.828
G1 X163.681 Y73.540
G1 X163.756 Y74.151
G1 X163.631 Y75.174
G1 X163.266 Y76.138
G1 X162.680 Y76.987
G1 X161.908 Y77.670
G1 X160.996 Y78.149
G1 X159.995 Y78.396
G1 X158.964 Y78.396
G1 X157.963 Y78.149
G1 X157.235 Y77.767
G1 X143.259 Y86.934
G1 X143.024 Y86.876
G1 X141.993 Y86.876
G1 X140.992 Y87.123
G1 X140.079 Y87.602
G1 X139.308 Y88.286
G1 X138.722 Y89.134
G1 X138.366 Y90.074
G1 X138.356 Y90.150
G1 X128.758 Y96.445
G1 X127.529 Y96.445
G1 X127.364 Y96.375
G1 X125.652 Y98.482
G1 Z0.180 F1002
G1 E0.0000 F3000
G92 E0.0000
G1 X125.125 Y97.955 E0.0185 F900
G1 X124.839 Y97.517 E0.0316
G1 X124.573 Y96.835 E0.0498
G1 X124.485 Y96.372 E0.0615
G1 X124.485 Y68.901 E0.7451
G1 X124.573 Y68.437 E0.7568
G1 X124.839 Y67.755 E0.7750
G1 X125.125 Y67.317 E0.7880
G1 X125.652 Y66.790 E0.8066
G1 X126.060 Y66.517 E0.8188
G1 X126.748 Y66.227 E0.8374
G1 X127.242 Y66.128 E0.8499
G1 X174.746 Y66.128 E2.0319
G1 X175.240 Y66.227 E2.0445
G1 X175.928 Y66.517 E2.0631
G1 X176.336 Y66.790 E2.0753
G1 X176.863 Y67.317 E2.0938
G1 X177.149 Y67.755 E2.1068
G1 X177.415 Y68.437 E2.1251
G1 X177.502 Y68.901 E2.1368
G1 X177.502 Y96.372 E2.8203
G1 X177.415 Y96.835 E2.8321
G1 X177.149 Y97.517 E2.8503
G1 X176.863 Y97.955 E2.8633
G1 X176.336 Y98.482 E2.8819
G1 X175.928 Y98.756 E2.8941
G1 X175.240 Y99.045 E2.9126
G1 X174.746 Y99.145 E2.9252
G1 X127.242 Y99.145 E4.1072
G1 X126.748 Y99.045 E4.1198
G1 X126.059 Y98.756 E4.1383
G1 X125.652 Y98.482 E4.1506
G92 E0.0000
G1 E-4.0000 F3000
G1 Z0.480 F1002
G1 X127.364 Y96.375 F6000
G1 X127.529 Y96.445
G1 X129.203 Y96.445
G1 X138.249 Y91.255
G1 X138.232 Y91.121
G1 X138.366 Y90.074
G1 X138.722 Y89.134
G1 X139.308 Y88.286
G1 X140.079 Y87.602
G1 X140.992 Y87.123
G1 X141.993 Y86.876
G1 X143.024 Y86.876
G1 X144.025 Y87.123
G1 X144.769 Y87.513
G1 X174.802 Y70.282
G1 X174.802 Y69.169
G1 X177.152 Y68.933
G1 Z0.180 F1002
G1 E0.0000 F3000
G92 E0.0000
G1 X177.152 Y96.339 E0.6819 F900
G1 X177.077 Y96.738 E0.6920
G1 X176.836 Y97.356 E0.7085
G1 X176.589 Y97.733 E0.7198
G1 X176.112 Y98.210 E0.7365
G1 X175.761 Y98.446 E0.7471
G1 X175.137 Y98.709 E0.7639
G1 X174.711 Y98.795 E0.7747
G1 X127.277 Y98.795 E1.9550
G1 X126.851 Y98.709 E1.9658
G1 X126.226 Y98.446 E1.9827
G1 X125.876 Y98.210 E1.9932
G1 X125.398 Y97.733 E2.0100
G1 X125.152 Y97.356 E2.0212
G1 X124.911 Y96.738 E2.0377
G1 X124.835 Y96.339 E2.0478
G1 X124.835 Y68.933 E2.7298
G1 X124.911 Y68.534 E2.7399
G1 X125.152 Y67.916 E2.7564
G1 X125.398 Y67.539 E2.7676
G1 X125.876 Y67.062 E2.7844
G1 X126.227 Y66.826 E2.7949
G1 X126.851 Y66.563 E2.8118
G1 X127.277 Y66.478 E2.8226
G1 X174.711 Y66.478 E4.0029
G1 X175.137 Y66.563 E4.0137
G1 X175.761 Y66.826 E4.0305
G1 X176.112 Y67.062 E4.0410
G1 X176.589 Y67.539 E4.0578
G1 X176.836 Y67.916 E4.0691
G1 X177.077 Y68.534 E4.0856
G1 X177.152 Y68.933 E4.0957
G92 E0.0000
G1 E-4.0000 F3000
; feature outer perimeter
G1 Z0.480 F1002
G1 X174.802 Y69.169 F6000
G1 X174.742 Y69.015
G1 X174.664 Y68.937
G1 X127.246 Y69.015
G1 Z0.180 F1002
G1 E0.0000 F3000
G92 E0.0000
G1 X127.364 Y68.897 E0.0042 F450
G1 X127.529 Y68.828 E0.0086
G1 X174.459 Y68.828 E1.1764
G1 X174.624 Y68.897 E1.1808
G1 X174.742 Y69.015 E1.1850
G1 X174.802 Y69.169 E1.1891
G1 X174.802 Y96.103 E1.8593
G1 X174.742 Y96.257 E1.8634
G1 X174.624 Y96.375 E1.8675
G1 X174.459 Y96.445 E1.8720
G1 X127.529 Y96.445 E3.0398
G1 X127.364 Y96.375 E3.0442
G1 X127.246 Y96.257 E3.0484
G1 X127.185 Y96.103 E3.0525
G1 X127.185 Y69.804 E3.7069
G1 X127.185 Y69.169 F450
G1 X127.246 Y69.015
; feature inner perimeter
G1 X127.535 Y69.178 F6000
G92 E0.0000
G1 X174.452 Y69.178 E1.1674 F675
G1 X174.452 Y96.095 E1.8372
G1 X127.535 Y96.095 E3.0046
G1 X127.535 Y69.978 E3.6545
G1 X127.535 Y69.178 F675
G1 X127.885 Y69.528 F6000
G92 E0.0000
G1 X140.161 Y69.528 E0.3054 F675
G1 X140.220 Y69.767 E0.3116
G1 X139.679 Y70.051 E0.3268
G1 X138.780 Y70.848 E0.3567
G1 X138.098 Y71.836 E0.3866
G1 X137.682 Y72.933 E0.4157
G1 X137.527 Y74.148 E0.4462
G1 X137.672 Y75.343 E0.4762
G1 X138.098 Y76.466 E0.5061
G1 X138.780 Y77.454 E0.5359
G1 X139.679 Y78.251 E0.5658
G1 X140.971 Y78.929 E0.6021
G1 X139.706 Y79.241 E0.6346
G1 X138.931 Y79.648 E0.6564
G1 X138.276 Y80.228 E0.6781
G1 X137.778 Y80.949 E0.6999
G1 X137.468 Y81.767 E0.7217
G1 X137.363 Y82.636 E0.7435
G1 X137.468 Y83.505 E0.7653
G1 X137.776 Y84.317 E0.7869
G1 X138.275 Y85.044 E0.8088
G1 X138.931 Y85.625 E0.8306
G1 X139.706 Y86.032 E0.8524
G1 X140.971 Y86.343 E0.8848
G1 X139.679 Y87.022 E0.9211
G1 X138.780 Y87.818 E0.9510
G1 X138.098 Y88.806 E0.9809
G1 X137.682 Y89.903 E1.0101
G1 X137.527 Y91.119 E1.0406
G1 X137.672 Y92.314 E1.0705
G1 X138.098 Y93.436 E1.1004
G1 X138.780 Y94.425 E1.1303
G1 X139.679 Y95.221 E1.1602
G1 X140.220 Y95.505 E1.1754
G1 X140.161 Y95.745 E1.1815
G1 X127.885 Y95.745 E1.4870
G1 X127.885 Y70.328 E2.1194
G1 X127.885 Y69.528 F675
G1 X144.797 Y69.767 F6000
G92 E0.0000
G1 X144.856 Y69.528 E0.0061 F675
G1 X157.131 Y69.528 E0.3116
G1 X157.191 Y69.767 E0.3177
G1 X156.674 Y70.038 E0.3322
G1 X155.752 Y70.845 E0.3627
G1 X155.068 Y71.836 E0.3927
G1 X154.643 Y72.959 E0.4225
G1 X154.498 Y74.151 E0.4524
G1 X154.643 Y75.343 E0.4823
G1 X155.068 Y76.466 E0.5122
G1 X155.751 Y77.454 E0.5421
G1 X156.649 Y78.251 E0.5720
G1 X157.713 Y78.809 E0.6018
G1 X158.879 Y79.096 E0.6317
G1 X159.466 Y79.096 E0.6463
