; G-Code generated by Simplify3D(R) Version 4.1.2
; Oct 7, 2020 at 7:22:30 PM
; Settings Summary
;   processName,Process1
;   applyToModels,SupportBas4020
;   profileName,A04-04-15 Tevo Tornado
;   profileVersion,2020-07-01 20:14:39
;   baseProfile,Creality CR-10(2)
;   printMaterial,PLA
;   printQuality,Medium
;   printExtruders,
;   extruderName,Primary Extruder
;   extruderToolheadNumber,0
;   extruderDiameter,0.4
;   extruderAutoWidth,0
;   extruderWidth,0.35
;   extrusionMultiplier,0.95
;   extruderUseRetract,1
;   extruderRetractionDistance,4
;   extruderExtraRestartDistance,0
;   extruderRetractionZLift,0.3
;   extruderRetractionSpeed,3000
;   extruderUseCoasting,1
;   extruderCoastingDistance,0.8
;   extruderUseWipe,0
;   extruderWipeDistance,4
;   primaryExtruder,0
;   layerHeight,0.15
;   topSolidLayers,4
;   bottomSolidLayers,3
;   perimeterOutlines,3
;   printPerimetersInsideOut,0
;   startPointOption,1
;   startPointOriginX,0
;   startPointOriginY,300
;   sequentialIslands,0
;   spiralVaseMode,0
;   firstLayerHeightPercentage,120
;   firstLayerWidthPercentage,100
;   firstLayerUnderspeed,0.5
;   useRaft,0
;   raftExtruder,0
;   raftTopLayers,3
;   raftBaseLayers,2
;   raftOffset,3
;   raftSeparationDistance,0.14
;   raftTopInfill,100
;   aboveRaftSpeedMultiplier,0.3
;   useSkirt,1
;   skirtExtruder,0
;   skirtLayers,1
;   skirtOutlines,3
;   skirtOffset,2
;   usePrimePillar,0
;   primePillarExtruder,999
;   primePillarWidth,12
;   primePillarLocation,7
;   primePillarSpeedMultiplier,1
;   useOozeShield,0
;   oozeShieldExtruder,999
;   oozeShieldOffset,2
;   oozeShieldOutlines,1
;   oozeShieldSidewallShape,1
;   oozeShieldSidewallAngle,30
;   oozeShieldSpeedMultiplier,1
;   infillExtruder,0
;   internalInfillPattern,Rectilinear
;   externalInfillPattern,Rectilinear
;   infillPercentage,15
;   outlineOverlapPercentage,15
;   infillExtrusionWidthPercentage,100
;   minInfillLength,5
;   infillLayerInterval,1
;   internalInfillAngles,45,-45
;   overlapInternalInfillAngles,0
;   externalInfillAngles,45,-45
;   generateSupport,0
;   supportExtruder,0
;   supportInfillPercentage,30
;   supportExtraInflation,0
;   supportBaseLayers,0
;   denseSupportExtruder,0
;   denseSupportLayers,0
;   denseSupportInfillPercentage,70
;   supportLayerInterval,1
;   supportHorizontalPartOffset,0.4
;   supportUpperSeparationLayers,1
;   supportLowerSeparationLayers,1
;   supportType,0
;   supportGridSpacing,4.5
;   maxOverhangAngle,45
;   supportAngles,0
;   temperatureName,Primary Extruder,Heated Bed
;   temperatureNumber,0,0
;   temperatureSetpointCount,1,1
;   temperatureSetpointLayers,1,1
;   temperatureSetpointTemperatures,215,55
;   temperatureStabilizeAtStartup,1,1
;   temperatureHeatedBed,0,1
;   fanLayers,1,2
;   fanSpeeds,0,100
;   blipFanToFullPower,0
;   adjustSpeedForCooling,1
;   minSpeedLayerTime,15
;   minCoolingSpeedSlowdown,50
;   increaseFanForCooling,1
;   minFanLayerTime,25
;   maxCoolingFanSpeed,100
;   increaseFanForBridging,1
;   bridgingFanSpeed,100
;   use5D,1
;   relativeEdistances,0
;   allowEaxisZeroing,1
;   independentExtruderAxes,0
;   includeM10123,0
;   stickySupport,1
;   applyToolheadOffsets,0
;   gcodeXoffset,0
;   gcodeYoffset,0
;   gcodeZoffset,0
;   overrideMachineDefinition,1
;   machineTypeOverride,0
;   strokeXoverride,300
;   strokeYoverride,300
;   strokeZoverride,400
;   originOffsetXoverride,0
;   originOffsetYoverride,0
;   originOffsetZoverride,0
;   homeXdirOverride,-1
;   homeYdirOverride,-1
;   homeZdirOverride,-1
;   flipXoverride,1
;   flipYoverride,-1
;   flipZoverride,1
;   toolheadOffsets,0,0|0,0|0,0|0,0|0,0|0,0
;   overrideFirmwareConfiguration,1
;   firmwareTypeOverride,RepRap (Marlin/Repetier/Sprinter)
;   GPXconfigOverride,r2
;   baudRateOverride,250000
;   overridePrinterModels,1
;   printerModelsOverride
;   startingGcode,;,; -]H.P.B[- MarshMalloW  ,; $VER: StartScript 1.02 (26.12.2019) MarshMalloW,;,; Begin Startcode,;,M117 *Preheat*     	; Preheat,;extruder0_temperature,M104 S[extruder0_temperature]  ,M109 S[extruder0_temperature] ,M109 R[extruder0_temperature] ,;,M117 *Auto-leveling*     	; Auto-leveling,M107                   	; Turn layer fan off,G21                    	; Set to metric [change to G20 if you want Imperial],G90                    	; Force coordinates to be absolute relative to the origin,G28                    	; Home X/Y/Z axis,G29                    	; Auto-leveling (BL-Touch),;,M117 *Start Clean*     	; Indicate nozzle clean in progress on LCD,G92 E0                 	; Set Extruder to 0 ,G1 X0 Y0 F2000         	; Move X and Y to 0 with speed 2000 (mm/min),G1 Z0.1 F1000          	; Move Z to   0.1 with speed 1000 (mm/min),G1 X8.0 F2000          	; Move X to   8.0 with speed 2000 (mm/min),G1 Y60.0 E4.0 F1000.0  	; Move Y to  60 and Extruder with 4.0 with speed 1000 (mm/min),G1 Y100.0 E8.5 F1000.0 	; Move Y to 100 and Extruder with 8.5 with speed 1000 (mm/min),G92 E0                 	; Set extruder to 0,G1 X16.0 F3000         	; Move X to 16.0 with speed 3000 (mm/min),G1 Y60.0 F3000         	; Move Y to 60.0 with speed 3000 (mm/min),M117 *End Clean*       	; Indicate nozzle clean in progress on LCD,G1 Z5 F3000            	; Move Z to  5.0 with speed 3000 (mm/min),G1 X20.0 F3000         	; Move X to 20.0 with speed 3000 (mm/min),G1 Y20.0 F3000         	; Move Y to 20.0 with speed 3000 (mm/min),; ,M117 *Printing...*     	; Start printing msg on LCD,;,; End Startcode,;,; Begin printing with sliced GCode after here,;
;   layerChangeGcode,
;   retractionGcode,
;   toolChangeGcode,
;   endingGcode,;,; init 181010,;,;M107 			; Fan off,;G1 E-1 F300 			; Retract the filament a bit before lifting the nozzle,;M104 S0 			; Turn off extruder,;M140 S0 			; Turn off bed,;G91			; Relative positioning,;G28 X0 Y0 			; Move X/Y to min endstops so the head is out of teh way,;M84 			; Disable motors,;G90 			; Absolute positioning,;M117 Print ready...,,;,; // From Cura 181010,; // End_gcode,G92 E0			; Zero the extruded length,;G1 E-30 F300		; Retract E -30,M106 S0			; Turn off cooling fan,M104 S0			; Turn off temperature,M140 S0		     	; Turn off bed,G91			; Relative positioning,G1 E-1 F300			; Retract the filament a bit before lifting the nozzle to release some of the pressure,G1 Z+20 E-5 X-20 Y-20 F7200	; Move Z up a bit and retract filament even more,G1 X0 Y150 F10000		; Move right min,M107			; Turn off layer fan,M84			; Disable motors,G90			; Absolute positioning,M117 *The-End* 		; End msg,;,
;   exportFileFormat,gcode
;   celebration,0
;   celebrationSong,Star Wars
;   postProcessing,|{REPLACE "; layer " "M117 INDICATOR-Layer"}|{REPLACE ", Z = " "\n; Z="}
;   defaultSpeed,1800
;   outlineUnderspeed,0.5
;   solidInfillUnderspeed,0.8
;   supportUnderspeed,0.8
;   rapidXYspeed,6000
;   rapidZspeed,1002
;   minBridgingArea,50
;   bridgingExtraInflation,0.2
;   bridgingExtrusionMultiplier,1
;   bridgingSpeedMultiplier,0.6
;   useFixedBridgingAngle,0
;   fixedBridgingAngle,0
;   applyBridgingToPerimeters,0
;   filamentDiameters,1.75|1.75|1.75|1.75|1.75|1.75
;   filamentPricesPerKg,30|46|46|46|46|46
;   filamentDensities,1.25|1.25|1.25|1.25|1.25|1.25
;   useMinPrintHeight,0
;   minPrintHeight,0
;   useMaxPrintHeight,0
;   maxPrintHeight,50
;   useDiaphragm,0
;   diaphragmLayerInterval,20
;   robustSlicing,1
;   mergeAllIntoSolid,0
;   onlyRetractWhenCrossingOutline,1
;   retractBetweenLayers,0
;   useRetractionMinTravel,0
;   retractionMinTravel,3
;   retractWhileWiping,0
;   onlyWipeOutlines,1
;   avoidCrossingOutline,1
;   maxMovementDetourFactor,3
;   toolChangeRetractionDistance,12
;   toolChangeExtraRestartDistance,-0.5
;   toolChangeRetractionSpeed,600
;   externalThinWallType,1
;   internalThinWallType,1
;   thinWallAllowedOverlapPercentage,10
;   singleExtrusionMinLength,1
;   singleExtrusionMinPrintingWidthPercentage,50
;   singleExtrusionMaxPrintingWidthPercentage,200
;   singleExtrusionEndpointExtension,0.2
;   horizontalSizeCompensation,0
G90
M82
M106 S0
M140 S55
M190 S55
;
; -]H.P.B[- MarshMalloW  
; $VER: StartScript 1.02 (26.12.2019) MarshMalloW
;
; Begin Startcode
;
M117 *Preheat*     	; Preheat
;extruder0_temperature
M104 S215  
M109 S215 
M109 R215 
;
M117 *Auto-leveling*     	; Auto-leveling
M107                   	; Turn layer fan off
G21                    	; Set to metric [change to G20 if you want Imperial]
G90                    	; Force coordinates to be absolute relative to the origin
G28                    	; Home X/Y/Z axis
G29                    	; Auto-leveling (BL-Touch)
;
M117 *Start Clean*     	; Indicate nozzle clean in progress on LCD
G92 E0                 	; Set Extruder to 0 
G1 X0 Y0 F2000         	; Move X and Y to 0 with speed 2000 (mm/min)
G1 Z0.1 F1000          	; Move Z to   0.1 with speed 1000 (mm/min)
G1 X8.0 F2000          	; Move X to   8.0 with speed 2000 (mm/min)
G1 Y60.0 E4.0 F1000.0  	; Move Y to  60 and Extruder with 4.0 with speed 1000 (mm/min)
G1 Y100.0 E8.5 F1000.0 	; Move Y to 100 and Extruder with 8.5 with speed 1000 (mm/min)
G92 E0                 	; Set extruder to 0
G1 X16.0 F3000         	; Move X to 16.0 with speed 3000 (mm/min)
G1 Y60.0 F3000         	; Move Y to 60.0 with speed 3000 (mm/min)
M117 *End Clean*       	; Indicate nozzle clean in progress on LCD
G1 Z5 F3000            	; Move Z to  5.0 with speed 3000 (mm/min)
G1 X20.0 F3000         	; Move X to 20.0 with speed 3000 (mm/min)
G1 Y20.0 F3000         	; Move Y to 20.0 with speed 3000 (mm/min)
; 
M117 *Printing...*     	; Start printing msg on LCD
;
; End Startcode
;
; Begin printing with sliced GCode after here
;
; process Process1
M117 INDICATOR-Layer1
; Z=0.180
T0
G92 E0.0000
G1 E-4.0000 F3000
; feature skirt
; tool H0.180 W0.350
G1 Z0.300 F1002
G1 X152.003 Y47.100 F6000
G1 Z0.180 F1002
G1 E0.0000 F3000
G92 E0.0000
G1 X154.940 Y52.974 E0.1634 F900
G1 X155.051 Y53.277 E0.1714
G1 X160.845 Y76.979 E0.7786
G1 X161.074 Y77.656 E0.7964
G1 X161.900 Y79.244 E0.8409
G1 X162.958 Y80.688 E0.8855
G1 X164.224 Y81.954 E0.9300
G1 X165.668 Y83.013 E0.9746
G1 X167.257 Y83.838 E1.0191
G1 X167.934 Y84.068 E1.0369
G1 X191.636 Y89.862 E1.6440
G1 X191.938 Y89.973 E1.6520
G1 X197.813 Y92.910 E1.8155
G1 X198.672 Y94.299 E1.8561
G1 X198.672 Y103.933 E2.0958
G1 X197.813 Y105.322 E2.1365
G1 X191.938 Y108.260 E2.2999
G1 X191.636 Y108.371 E2.3079
G1 X167.934 Y114.164 E2.9150
G1 X167.257 Y114.394 E2.9328
G1 X165.668 Y115.219 E2.9774
G1 X164.224 Y116.278 E3.0219
G1 X162.958 Y117.544 E3.0665
G1 X161.900 Y118.988 E3.1110
G1 X161.074 Y120.576 E3.1556
G1 X160.845 Y121.253 E3.1734
G1 X155.051 Y144.955 E3.7805
G1 X154.940 Y145.258 E3.7885
G1 X152.003 Y151.132 E3.9519
G1 X150.613 Y151.991 E3.9926
G1 X140.980 Y151.991 E4.2323
G1 X139.590 Y151.132 E4.2729
G1 X136.653 Y145.258 E4.4364
G1 X136.542 Y144.955 E4.4444
G1 X130.748 Y121.253 E5.0515
G1 X130.519 Y120.576 E5.0693
G1 X129.693 Y118.988 E5.1139
G1 X128.635 Y117.544 E5.1584
G1 X127.369 Y116.278 E5.2030
G1 X125.925 Y115.219 E5.2475
G1 X124.337 Y114.394 E5.2921
G1 X123.659 Y114.164 E5.3098
G1 X99.958 Y108.371 E5.9170
G1 X99.655 Y108.260 E5.9250
G1 X93.780 Y105.322 E6.0884
G1 X92.922 Y103.933 E6.1291
G1 X92.922 Y94.299 E6.3688
G1 X93.780 Y92.910 E6.4094
G1 X99.655 Y89.973 E6.5728
G1 X99.958 Y89.862 E6.5809
G1 X123.659 Y84.068 E7.1880
G1 X124.337 Y83.839 E7.2058
G1 X125.925 Y83.013 E7.2503
G1 X127.369 Y81.954 E7.2949
G1 X128.635 Y80.688 E7.3394
G1 X129.693 Y79.244 E7.3840
G1 X130.519 Y77.656 E7.4285
G1 X130.748 Y76.979 E7.4463
G1 X136.542 Y53.277 E8.0534
G1 X136.653 Y52.974 E8.0615
G1 X139.590 Y47.100 E8.2249
G1 X140.980 Y46.241 E8.2655
G1 X150.613 Y46.241 E8.5052
G1 X152.003 Y47.100 E8.5459
G92 E0.0000
G1 E-4.0000 F3000
G1 Z0.480 F1002
G1 X149.689 Y49.291 F6000
G1 X150.755 Y51.424
G1 X131.886 Y116.820
G1 X132.292 Y117.373
G1 X133.333 Y119.377
G1 X130.842 Y120.439
G1 Z0.180 F1002
G1 E0.0000 F3000
G92 E0.0000
G1 X129.992 Y118.803 E0.0459 F900
G1 X128.901 Y117.315 E0.0918
G1 X127.598 Y116.011 E0.1376
G1 X126.110 Y114.921 E0.1835
G1 X124.474 Y114.071 E0.2294
G1 X123.757 Y113.828 E0.2482
G1 X100.060 Y108.035 E0.8553
G1 X99.794 Y107.938 E0.8623
G1 X94.026 Y105.054 E1.0228
G1 X93.272 Y103.833 E1.0585
G1 X93.272 Y94.399 E1.2932
G1 X94.026 Y93.178 E1.3289
G1 X99.794 Y90.294 E1.4894
G1 X100.060 Y90.197 E1.4964
G1 X123.757 Y84.404 E2.1035
G1 X124.474 Y84.161 E2.1223
G1 X126.110 Y83.311 E2.1682
G1 X127.598 Y82.221 E2.2141
G1 X128.902 Y80.917 E2.2599
G1 X129.992 Y79.430 E2.3058
G1 X130.842 Y77.794 E2.3517
G1 X131.085 Y77.077 E2.3705
G1 X136.878 Y53.379 E2.9776
G1 X136.975 Y53.113 E2.9846
G1 X139.859 Y47.345 E3.1451
G1 X141.079 Y46.591 E3.1808
G1 X150.514 Y46.591 E3.4155
G1 X151.734 Y47.345 E3.4512
G1 X154.618 Y53.113 E3.6117
G1 X154.716 Y53.379 E3.6187
G1 X160.509 Y77.077 E4.2258
G1 X160.751 Y77.794 E4.2446
G1 X161.602 Y79.430 E4.2905
G1 X162.692 Y80.917 E4.3364
G1 X163.996 Y82.221 E4.3822
G1 X165.483 Y83.311 E4.4281
G1 X167.119 Y84.161 E4.4740
G1 X167.836 Y84.404 E4.4928
G1 X191.534 Y90.197 E5.0999
G1 X191.799 Y90.294 E5.1069
G1 X197.567 Y93.178 E5.2674
G1 X198.322 Y94.399 E5.3031
G1 X198.322 Y103.833 E5.5378
G1 X197.567 Y105.054 E5.5735
G1 X191.799 Y107.938 E5.7340
G1 X191.534 Y108.035 E5.7410
G1 X167.836 Y113.828 E6.3481
G1 X167.119 Y114.071 E6.3669
G1 X165.483 Y114.921 E6.4128
G1 X163.996 Y116.011 E6.4587
G1 X162.692 Y117.315 E6.5045
G1 X161.602 Y118.802 E6.5504
G1 X160.751 Y120.439 E6.5963
G1 X160.509 Y121.156 E6.6151
G1 X154.716 Y144.853 E7.2222
G1 X154.618 Y145.119 E7.2292
G1 X151.734 Y150.887 E7.3897
G1 X150.514 Y151.641 E7.4254
G1 X141.079 Y151.641 E7.6601
G1 X139.859 Y150.887 E7.6958
G1 X136.975 Y145.119 E7.8563
G1 X136.878 Y144.853 E7.8633
G1 X131.085 Y121.156 E8.4704
G1 X130.842 Y120.439 E8.4892
G92 E0.0000
G1 E-4.0000 F3000
G1 Z0.480 F1002
G1 X188.406 Y92.212 F6000
G1 X190.736 Y92.781
G1 X191.660 Y90.616
G1 Z0.180 F1002
G1 E0.0000 F3000
G92 E0.0000
G1 X197.322 Y93.447 E0.1575 F900
G1 X197.972 Y94.498 E0.1883
G1 X197.972 Y103.734 E0.4181
G1 X197.322 Y104.785 E0.4488
G1 X191.660 Y107.616 E0.6063
G1 X191.432 Y107.700 E0.6124
G1 X167.738 Y113.492 E1.2193
G1 X166.982 Y113.748 E1.2392
G1 X165.298 Y114.623 E1.2864
G1 X163.767 Y115.745 E1.3336
G1 X162.425 Y117.087 E1.3808
G1 X161.304 Y118.617 E1.4280
G1 X160.428 Y120.301 E1.4753
G1 X160.172 Y121.058 E1.4951
G1 X154.381 Y144.751 E2.1021
G1 X154.297 Y144.980 E2.1081
G1 X151.466 Y150.641 E2.2656
G1 X150.415 Y151.291 E2.2964
G1 X141.179 Y151.291 E2.5262
G1 X140.128 Y150.641 E2.5569
G1 X137.297 Y144.980 E2.7144
G1 X137.213 Y144.751 E2.7205
G1 X131.421 Y121.058 E3.3274
G1 X131.165 Y120.301 E3.3473
G1 X130.290 Y118.617 E3.3945
G1 X129.168 Y117.087 E3.4417
G1 X127.826 Y115.745 E3.4890
G1 X126.296 Y114.623 E3.5362
G1 X124.612 Y113.748 E3.5834
G1 X123.855 Y113.492 E3.6033
G1 X100.162 Y107.700 E4.2102
G1 X99.933 Y107.616 E4.2162
G1 X94.271 Y104.785 E4.3737
G1 X93.622 Y103.734 E4.4045
G1 X93.622 Y94.498 E4.6343
G1 X94.271 Y93.447 E4.6651
G1 X99.933 Y90.616 E4.8226
G1 X100.162 Y90.532 E4.8286
G1 X123.855 Y84.741 E5.4355
G1 X124.612 Y84.484 E5.4554
G1 X126.296 Y83.609 E5.5026
G1 X127.826 Y82.487 E5.5499
G1 X129.168 Y81.145 E5.5971
G1 X130.290 Y79.615 E5.6443
G1 X131.165 Y77.931 E5.6915
G1 X131.421 Y77.174 E5.7114
G1 X137.213 Y53.481 E6.3183
G1 X137.297 Y53.252 E6.3244
G1 X140.128 Y47.591 E6.4819
G1 X141.179 Y46.941 E6.5126
G1 X150.415 Y46.941 E6.7424
G1 X151.466 Y47.591 E6.7732
G1 X154.297 Y53.252 E6.9307
G1 X154.381 Y53.481 E6.9367
G1 X160.172 Y77.174 E7.5437
G1 X160.428 Y77.931 E7.5635
G1 X161.304 Y79.615 E7.6108
G1 X162.425 Y81.145 E7.6580
G1 X163.767 Y82.487 E7.7052
G1 X165.298 Y83.609 E7.7524
G1 X166.982 Y84.484 E7.7996
G1 X167.738 Y84.741 E7.8195
G1 X191.432 Y90.532 E8.4264
G1 X191.660 Y90.616 E8.4325
G92 E0.0000
G1 E-4.0000 F3000
; feature outer perimeter
G1 Z0.480 F1002
G1 X190.736 Y92.781 F6000
G1 X178.700 Y89.839
G1 X125.536 Y86.652
G1 Z0.180 F1002
G1 E0.0000 F3000
G92 E0.0000
G1 X127.539 Y85.611 E0.0562 F450
G1 X129.360 Y84.276 E0.1124
G1 X130.957 Y82.680 E0.1685
G1 X132.292 Y80.859 E0.2247
G1 X133.333 Y78.855 E0.2809
G1 X133.680 Y77.832 E0.3078
