; G-Code generated by Simplify3D(R) Version 4.1.2
; Nov 13, 2020 at 3:38:19 PM
; Settings Summary
;   processName,Process1
;   applyToModels,Pieds Table Salon
;   profileName,A04-04-35 Tevo Tornado
;   profileVersion,2020-08-20 21:18:05
;   baseProfile,Creality CR-10(2)
;   printMaterial,PLA
;   printQuality,Medium
;   printExtruders,
;   extruderName,Primary Extruder
;   extruderToolheadNumber,0
;   extruderDiameter,0.4
;   extruderAutoWidth,0
;   extruderWidth,0.35
;   extrusionMultiplier,0.95
;   extruderUseRetract,1
;   extruderRetractionDistance,4
;   extruderExtraRestartDistance,0
;   extruderRetractionZLift,0.3
;   extruderRetractionSpeed,3000
;   extruderUseCoasting,1
;   extruderCoastingDistance,0.8
;   extruderUseWipe,0
;   extruderWipeDistance,4
;   primaryExtruder,0
;   layerHeight,0.15
;   topSolidLayers,4
;   bottomSolidLayers,3
;   perimeterOutlines,3
;   printPerimetersInsideOut,0
;   startPointOption,1
;   startPointOriginX,0
;   startPointOriginY,300
;   sequentialIslands,0
;   spiralVaseMode,0
;   firstLayerHeightPercentage,120
;   firstLayerWidthPercentage,100
;   firstLayerUnderspeed,0.35
;   useRaft,0
;   raftExtruder,0
;   raftTopLayers,3
;   raftBaseLayers,2
;   raftOffset,3
;   raftSeparationDistance,0.14
;   raftTopInfill,100
;   aboveRaftSpeedMultiplier,0.3
;   useSkirt,1
;   skirtExtruder,0
;   skirtLayers,1
;   skirtOutlines,3
;   skirtOffset,2
;   usePrimePillar,0
;   primePillarExtruder,999
;   primePillarWidth,12
;   primePillarLocation,7
;   primePillarSpeedMultiplier,1
;   useOozeShield,0
;   oozeShieldExtruder,999
;   oozeShieldOffset,2
;   oozeShieldOutlines,1
;   oozeShieldSidewallShape,1
;   oozeShieldSidewallAngle,30
;   oozeShieldSpeedMultiplier,1
;   infillExtruder,0
;   internalInfillPattern,Rectilinear
;   externalInfillPattern,Rectilinear
;   infillPercentage,35
;   outlineOverlapPercentage,15
;   infillExtrusionWidthPercentage,100
;   minInfillLength,5
;   infillLayerInterval,1
;   internalInfillAngles,45,-45
;   overlapInternalInfillAngles,0
;   externalInfillAngles,45,-45
;   generateSupport,0
;   supportExtruder,0
;   supportInfillPercentage,30
;   supportExtraInflation,0
;   supportBaseLayers,0
;   denseSupportExtruder,0
;   denseSupportLayers,0
;   denseSupportInfillPercentage,70
;   supportLayerInterval,1
;   supportHorizontalPartOffset,0.4
;   supportUpperSeparationLayers,1
;   supportLowerSeparationLayers,1
;   supportType,0
;   supportGridSpacing,4.5
;   maxOverhangAngle,45
;   supportAngles,0
;   temperatureName,Primary Extruder,Heated Bed
;   temperatureNumber,0,0
;   temperatureSetpointCount,1,1
;   temperatureSetpointLayers,1,1
;   temperatureSetpointTemperatures,215,55
;   temperatureStabilizeAtStartup,1,1
;   temperatureHeatedBed,0,1
;   fanLayers,1,2
;   fanSpeeds,0,100
;   blipFanToFullPower,0
;   adjustSpeedForCooling,1
;   minSpeedLayerTime,15
;   minCoolingSpeedSlowdown,50
;   increaseFanForCooling,1
;   minFanLayerTime,25
;   maxCoolingFanSpeed,100
;   increaseFanForBridging,1
;   bridgingFanSpeed,100
;   use5D,1
;   relativeEdistances,0
;   allowEaxisZeroing,1
;   independentExtruderAxes,0
;   includeM10123,0
;   stickySupport,1
;   applyToolheadOffsets,0
;   gcodeXoffset,0
;   gcodeYoffset,0
;   gcodeZoffset,0
;   overrideMachineDefinition,1
;   machineTypeOverride,0
;   strokeXoverride,300
;   strokeYoverride,300
;   strokeZoverride,400
;   originOffsetXoverride,0
;   originOffsetYoverride,0
;   originOffsetZoverride,0
;   homeXdirOverride,-1
;   homeYdirOverride,-1
;   homeZdirOverride,-1
;   flipXoverride,1
;   flipYoverride,-1
;   flipZoverride,1
;   toolheadOffsets,0,0|0,0|0,0|0,0|0,0|0,0
;   overrideFirmwareConfiguration,1
;   firmwareTypeOverride,RepRap (Marlin/Repetier/Sprinter)
;   GPXconfigOverride,r2
;   baudRateOverride,250000
;   overridePrinterModels,1
;   printerModelsOverride
;   startingGcode,;,; -]H.P.B[- MarshMalloW  ,; $VER: StartScript 1.02 (26.12.2019) MarshMalloW,;,; Begin Startcode,;,M117 *Preheat*     	; Preheat,;extruder0_temperature,M104 S[extruder0_temperature]  ,M109 S[extruder0_temperature] ,M109 R[extruder0_temperature] ,;,M117 *Auto-leveling*     	; Auto-leveling,M107                   	; Turn layer fan off,G21                    	; Set to metric [change to G20 if you want Imperial],G90                    	; Force coordinates to be absolute relative to the origin,G28                    	; Home X/Y/Z axis,G29                    	; Auto-leveling (BL-Touch),;,M117 *Start Clean*     	; Indicate nozzle clean in progress on LCD,G92 E0                 	; Set Extruder to 0 ,G1 X0 Y0 F2000         	; Move X and Y to 0 with speed 2000 (mm/min),G1 Z0.1 F1000          	; Move Z to   0.1 with speed 1000 (mm/min),G1 X8.0 F2000          	; Move X to   8.0 with speed 2000 (mm/min),G1 Y60.0 E4.0 F1000.0  	; Move Y to  60 and Extruder with 4.0 with speed 1000 (mm/min),G1 Y100.0 E8.5 F1000.0 	; Move Y to 100 and Extruder with 8.5 with speed 1000 (mm/min),G92 E0                 	; Set extruder to 0,G1 X16.0 F3000         	; Move X to 16.0 with speed 3000 (mm/min),G1 Y60.0 F3000         	; Move Y to 60.0 with speed 3000 (mm/min),M117 *End Clean*       	; Indicate nozzle clean in progress on LCD,G1 Z5 F3000            	; Move Z to  5.0 with speed 3000 (mm/min),G1 X20.0 F3000         	; Move X to 20.0 with speed 3000 (mm/min),G1 Y20.0 F3000         	; Move Y to 20.0 with speed 3000 (mm/min),; ,M117 *Printing...*     	; Start printing msg on LCD,;,; End Startcode,;,; Begin printing with sliced GCode after here,;
;   layerChangeGcode,
;   retractionGcode,
;   toolChangeGcode,
;   endingGcode,;,; init 181010,;,;M107 			; Fan off,;G1 E-1 F300 			; Retract the filament a bit before lifting the nozzle,;M104 S0 			; Turn off extruder,;M140 S0 			; Turn off bed,;G91			; Relative positioning,;G28 X0 Y0 			; Move X/Y to min endstops so the head is out of teh way,;M84 			; Disable motors,;G90 			; Absolute positioning,;M117 Print ready...,,;,; // From Cura 181010,; // End_gcode,G92 E0			; Zero the extruded length,;G1 E-30 F300		; Retract E -30,M106 S0			; Turn off cooling fan,M104 S0			; Turn off temperature,M140 S0		     	; Turn off bed,G91			; Relative positioning,G1 E-1 F300			; Retract the filament a bit before lifting the nozzle to release some of the pressure,G1 Z+20 E-5 X-20 Y-20 F7200	; Move Z up a bit and retract filament even more,G1 X0 Y150 F10000		; Move right min,M107			; Turn off layer fan,M84			; Disable motors,G90			; Absolute positioning,M117 *The-End* 		; End msg,;,
;   exportFileFormat,gcode
;   celebration,0
;   celebrationSong,Star Wars
;   postProcessing,|{REPLACE "; layer " "M117 INDICATOR-Layer"}|{REPLACE ", Z = " "\n; Z="}
;   defaultSpeed,1800
;   outlineUnderspeed,0.5
;   solidInfillUnderspeed,0.8
;   supportUnderspeed,0.8
;   rapidXYspeed,6000
;   rapidZspeed,1002
;   minBridgingArea,50
;   bridgingExtraInflation,0.2
;   bridgingExtrusionMultiplier,1
;   bridgingSpeedMultiplier,0.6
;   useFixedBridgingAngle,0
;   fixedBridgingAngle,0
;   applyBridgingToPerimeters,0
;   filamentDiameters,1.75|1.75|1.75|1.75|1.75|1.75
;   filamentPricesPerKg,30|46|46|46|46|46
;   filamentDensities,1.25|1.25|1.25|1.25|1.25|1.25
;   useMinPrintHeight,0
;   minPrintHeight,0
;   useMaxPrintHeight,0
;   maxPrintHeight,9
;   useDiaphragm,0
;   diaphragmLayerInterval,20
;   robustSlicing,1
;   mergeAllIntoSolid,0
;   onlyRetractWhenCrossingOutline,1
;   retractBetweenLayers,0
;   useRetractionMinTravel,0
;   retractionMinTravel,3
;   retractWhileWiping,0
;   onlyWipeOutlines,1
;   avoidCrossingOutline,1
;   maxMovementDetourFactor,3
;   toolChangeRetractionDistance,12
;   toolChangeExtraRestartDistance,-0.5
;   toolChangeRetractionSpeed,600
;   externalThinWallType,1
;   internalThinWallType,1
;   thinWallAllowedOverlapPercentage,10
;   singleExtrusionMinLength,1
;   singleExtrusionMinPrintingWidthPercentage,50
;   singleExtrusionMaxPrintingWidthPercentage,200
;   singleExtrusionEndpointExtension,0.2
;   horizontalSizeCompensation,0
G90
M82
M106 S96
M140 S55
M190 S55
;
; -]H.P.B[- MarshMalloW  
; $VER: StartScript 1.02 (26.12.2019) MarshMalloW
;
; Begin Startcode
;
M117 *Preheat*     	; Preheat
;extruder0_temperature
M104 S215  
M109 S215 
M109 R215 
;
M117 *Auto-leveling*     	; Auto-leveling
M107                   	; Turn layer fan off
G21                    	; Set to metric [change to G20 if you want Imperial]
G90                    	; Force coordinates to be absolute relative to the origin
G28                    	; Home X/Y/Z axis
G29                    	; Auto-leveling (BL-Touch)
;
M117 *Start Clean*     	; Indicate nozzle clean in progress on LCD
G92 E0                 	; Set Extruder to 0 
G1 X0 Y0 F2000         	; Move X and Y to 0 with speed 2000 (mm/min)
G1 Z0.1 F1000          	; Move Z to   0.1 with speed 1000 (mm/min)
G1 X8.0 F2000          	; Move X to   8.0 with speed 2000 (mm/min)
G1 Y60.0 E4.0 F1000.0  	; Move Y to  60 and Extruder with 4.0 with speed 1000 (mm/min)
G1 Y100.0 E8.5 F1000.0 	; Move Y to 100 and Extruder with 8.5 with speed 1000 (mm/min)
G92 E0                 	; Set extruder to 0
G1 X16.0 F3000         	; Move X to 16.0 with speed 3000 (mm/min)
G1 Y60.0 F3000         	; Move Y to 60.0 with speed 3000 (mm/min)
M117 *End Clean*       	; Indicate nozzle clean in progress on LCD
G1 Z5 F3000            	; Move Z to  5.0 with speed 3000 (mm/min)
G1 X20.0 F3000         	; Move X to 20.0 with speed 3000 (mm/min)
G1 Y20.0 F3000         	; Move Y to 20.0 with speed 3000 (mm/min)
; 
M117 *Printing...*     	; Start printing msg on LCD
;
; End Startcode
;
; Begin printing with sliced GCode after here
;
; process Process1
M117 INDICATOR-Layer1
; Z=0.180
T0
G92 E0.0000
G1 E-4.0000 F3000
; feature skirt
; tool H0.180 W0.350
G1 Z0.300 F1002
G1 X157.717 Y57.598 F6000
G1 Z0.180 F1002
G1 E0.0000 F3000
G92 E0.0000
G1 X158.244 Y57.658 E0.0132 F630
G1 X158.559 Y57.730 E0.0212
G1 X159.136 Y57.932 E0.0365
G1 X159.427 Y58.072 E0.0445
G1 X159.945 Y58.397 E0.0597
G1 X160.198 Y58.598 E0.0677
G1 X160.630 Y59.031 E0.0830
G1 X160.831 Y59.283 E0.0910
G1 X161.157 Y59.801 E0.1062
G1 X161.297 Y60.092 E0.1142
G1 X161.499 Y60.669 E0.1295
G1 X161.570 Y60.984 E0.1375
G1 X161.630 Y61.511 E0.1507
G1 X161.639 Y61.672 E0.1547
G1 X161.639 Y62.834 E0.1836
G1 X161.630 Y62.995 E0.1876
G1 X161.570 Y63.522 E0.2008
G1 X161.499 Y63.837 E0.2089
G1 X161.297 Y64.414 E0.2241
G1 X161.157 Y64.705 E0.2321
G1 X160.831 Y65.223 E0.2473
G1 X160.630 Y65.475 E0.2554
G1 X160.198 Y65.907 E0.2706
G1 X159.945 Y66.109 E0.2786
G1 X159.726 Y66.246 E0.2850
G1 X159.712 Y66.445 E0.2900
G1 X159.615 Y66.873 E0.3009
G1 X159.381 Y67.463 E0.3167
G1 X159.141 Y67.865 E0.3284
G1 X158.805 Y68.263 E0.3413
G1 X158.553 Y68.497 E0.3499
G1 X157.978 Y68.917 E0.3676
G1 X157.436 Y69.161 E0.3824
G1 X156.742 Y69.316 E0.4001
G1 X156.274 Y69.342 E0.4117
G1 X155.629 Y69.272 E0.4279
G1 X155.177 Y69.148 E0.4396
G1 X154.588 Y68.876 E0.4557
G1 X154.200 Y68.613 E0.4674
G1 X153.975 Y68.401 E0.4750
G1 X153.751 Y68.613 E0.4827
G1 X153.363 Y68.876 E0.4944
G1 X152.774 Y69.148 E0.5105
G1 X152.322 Y69.272 E0.5222
G1 X151.677 Y69.342 E0.5383
G1 X151.209 Y69.316 E0.5500
G1 X150.575 Y69.175 E0.5661
G1 X150.141 Y69.001 E0.5778
G1 X149.585 Y68.665 E0.5939
G1 X149.229 Y68.361 E0.6056
G1 X148.810 Y67.865 E0.6218
G1 X148.569 Y67.463 E0.6334
G1 X148.338 Y66.878 E0.6491
G1 X148.241 Y66.458 E0.6598
G1 X148.224 Y66.246 E0.6651
G1 X148.006 Y66.109 E0.6715
G1 X147.753 Y65.907 E0.6795
G1 X147.321 Y65.475 E0.6948
G1 X147.119 Y65.223 E0.7028
G1 X146.794 Y64.705 E0.7180
G1 X146.654 Y64.414 E0.7261
G1 X146.452 Y63.837 E0.7413
G1 X146.380 Y63.522 E0.7493
G1 X146.321 Y62.995 E0.7625
G1 X146.312 Y62.834 E0.7665
G1 X146.312 Y61.672 E0.7954
G1 X146.321 Y61.511 E0.7994
G1 X146.380 Y60.984 E0.8126
G1 X146.452 Y60.669 E0.8207
G1 X146.654 Y60.092 E0.8359
G1 X146.794 Y59.801 E0.8439
G1 X147.119 Y59.283 E0.8591
G1 X147.321 Y59.031 E0.8672
G1 X147.753 Y58.598 E0.8824
G1 X148.006 Y58.397 E0.8904
G1 X148.523 Y58.072 E0.9056
G1 X148.814 Y57.932 E0.9137
G1 X149.391 Y57.730 E0.9289
G1 X149.706 Y57.658 E0.9369
G1 X150.234 Y57.598 E0.9501
G1 X150.395 Y57.589 E0.9541
G1 X157.556 Y57.589 E1.1323
G1 X157.717 Y57.598 E1.1363
G92 E0.0000
G1 E-4.0000 F3000
G1 Z0.480 F1002
G1 X157.465 Y60.639 F6000
G1 X156.102 Y60.639
G1 X154.601 Y63.468
G1 X154.450 Y63.421
G1 X154.223 Y63.380
G1 X153.975 Y63.365
G1 X153.727 Y63.380
G1 X153.500 Y63.421
G1 X153.246 Y63.500
G1 X153.051 Y63.586
G1 X152.808 Y63.732
G1 X152.654 Y63.852
G1 X152.440 Y64.063
G1 X152.328 Y64.202
G1 X152.162 Y64.474
G1 X152.093 Y64.622
G1 X151.963 Y65.074
G1 X151.942 Y65.551
G1 X152.011 Y65.931
G1 X151.994 Y66.022
G1 X151.935 Y66.132
G1 X151.846 Y66.217
G1 X151.735 Y66.268
G1 X151.613 Y66.281
G1 X151.668 Y68.991
G1 Z0.180 F1002
G1 E0.0000 F3000
G92 E0.0000
G1 X151.257 Y68.968 E0.0102 F630
G1 X150.679 Y68.839 E0.0250
G1 X150.297 Y68.686 E0.0352
G1 X149.791 Y68.380 E0.0499
G1 X149.478 Y68.113 E0.0602
G1 X149.096 Y67.661 E0.0749
G1 X148.884 Y67.308 E0.0851
G1 X148.673 Y66.773 E0.0994
G1 X148.588 Y66.405 E0.1089
G1 X148.560 Y66.044 E0.1179
G1 X148.208 Y65.823 E0.1282
G1 X147.987 Y65.646 E0.1352
G1 X147.582 Y65.241 E0.1495
G1 X147.405 Y65.020 E0.1565
G1 X147.101 Y64.535 E0.1708
G1 X146.978 Y64.280 E0.1778
G1 X146.789 Y63.740 E0.1921
G1 X146.726 Y63.463 E0.1991
G1 X146.670 Y62.965 E0.2116
G1 X146.662 Y62.824 E0.2151
G1 X146.662 Y61.682 E0.2435
G1 X146.670 Y61.541 E0.2471
G1 X146.726 Y61.043 E0.2595
G1 X146.789 Y60.766 E0.2666
G1 X146.978 Y60.226 E0.2808
G1 X147.101 Y59.970 E0.2879
G1 X147.405 Y59.486 E0.3021
G1 X147.582 Y59.264 E0.3092
G1 X147.987 Y58.860 E0.3234
G1 X148.208 Y58.683 E0.3305
G1 X148.693 Y58.378 E0.3447
G1 X148.948 Y58.255 E0.3518
G1 X149.488 Y58.066 E0.3660
G1 X149.765 Y58.003 E0.3731
G1 X150.263 Y57.947 E0.3855
G1 X150.404 Y57.939 E0.3891
G1 X157.546 Y57.939 E0.5668
G1 X157.688 Y57.947 E0.5703
G1 X158.186 Y58.003 E0.5828
G1 X158.462 Y58.066 E0.5898
G1 X159.002 Y58.255 E0.6041
G1 X159.258 Y58.378 E0.6111
G1 X159.742 Y58.683 E0.6253
G1 X159.964 Y58.860 E0.6324
G1 X160.369 Y59.264 E0.6466
G1 X160.545 Y59.486 E0.6537
G1 X160.850 Y59.970 E0.6679
G1 X160.973 Y60.226 E0.6750
G1 X161.162 Y60.766 E0.6892
G1 X161.225 Y61.043 E0.6963
G1 X161.281 Y61.541 E0.7088
G1 X161.289 Y61.682 E0.7123
G1 X161.289 Y62.824 E0.7407
G1 X161.281 Y62.965 E0.7442
G1 X161.225 Y63.463 E0.7567
G1 X161.162 Y63.740 E0.7637
G1 X160.973 Y64.280 E0.7780
G1 X160.850 Y64.535 E0.7850
G1 X160.545 Y65.020 E0.7993
G1 X160.369 Y65.241 E0.8063
G1 X159.964 Y65.646 E0.8206
G1 X159.742 Y65.823 E0.8276
G1 X159.390 Y66.044 E0.8380
G1 X159.365 Y66.393 E0.8467
G1 X159.279 Y66.770 E0.8563
G1 X159.066 Y67.308 E0.8707
G1 X158.855 Y67.661 E0.8809
G1 X158.551 Y68.021 E0.8927
G1 X158.330 Y68.227 E0.9002
G1 X157.801 Y68.613 E0.9165
G1 X157.325 Y68.828 E0.9295
G1 X156.694 Y68.968 E0.9455
G1 X156.283 Y68.991 E0.9558
G1 X155.694 Y68.928 E0.9705
G1 X155.298 Y68.818 E0.9808
G1 X154.760 Y68.570 E0.9955
G1 X154.420 Y68.339 E1.0057
G1 X153.990 Y67.933 E1.0204
G1 X153.975 Y67.914 E1.0210
G1 X153.961 Y67.933 E1.0216
G1 X153.531 Y68.339 E1.0363
G1 X153.190 Y68.570 E1.0466
G1 X152.653 Y68.818 E1.0613
G1 X152.256 Y68.928 E1.0715
G1 X151.668 Y68.991 E1.0863
G92 E0.0000
G1 E-4.0000 F3000
G1 Z0.480 F1002
G1 X151.613 Y66.281 F6000
G1 X151.735 Y66.268
G1 X151.846 Y66.217
G1 X151.935 Y66.132
G1 X151.994 Y66.022
G1 X152.011 Y65.931
G1 X151.942 Y65.551
G1 X151.963 Y65.074
G1 X152.093 Y64.622
G1 X152.162 Y64.474
G1 X152.328 Y64.202
G1 X152.440 Y64.063
G1 X152.654 Y63.852
G1 X152.808 Y63.732
G1 X153.051 Y63.586
G1 X153.246 Y63.500
G1 X153.500 Y63.421
G1 X153.727 Y63.380
G1 X153.975 Y63.365
G1 X154.223 Y63.380
G1 X154.450 Y63.421
G1 X154.704 Y63.500
G1 X154.899 Y63.586
G1 X155.142 Y63.732
G1 X155.297 Y63.852
G1 X155.511 Y64.063
G1 X155.622 Y64.202
G1 X155.789 Y64.474
G1 X155.857 Y64.619
G1 X155.962 Y64.947
G1 X156.014 Y65.439
G1 X155.939 Y65.929
G1 X155.957 Y66.022
G1 X156.015 Y66.132
G1 X156.104 Y66.217
G1 X156.183 Y66.253
G1 X156.690 Y65.945
G1 X156.735 Y65.311
G1 X156.655 Y64.734
G1 X156.539 Y64.375
G1 X156.309 Y63.867
G1 X157.465 Y63.866
G1 X157.723 Y63.837
