; G-Code generated by Simplify3D(R) Version 4.1.2
; Nov 13, 2020 at 7:55:37 PM
; Settings Summary
;   processName,Process1
;   applyToModels,Pieds Table Salon(3),Pieds Table Salon(4),Pieds Table Salon(5),Pieds Table Salon
;   profileName,A04-04-35 Tevo Tornado
;   profileVersion,2020-08-20 21:18:05
;   baseProfile,Creality CR-10(2)
;   printMaterial,PLA
;   printQuality,Medium
;   printExtruders,
;   extruderName,Primary Extruder
;   extruderToolheadNumber,0
;   extruderDiameter,0.4
;   extruderAutoWidth,0
;   extruderWidth,0.35
;   extrusionMultiplier,0.95
;   extruderUseRetract,1
;   extruderRetractionDistance,4
;   extruderExtraRestartDistance,0
;   extruderRetractionZLift,0.3
;   extruderRetractionSpeed,3000
;   extruderUseCoasting,1
;   extruderCoastingDistance,0.8
;   extruderUseWipe,0
;   extruderWipeDistance,4
;   primaryExtruder,0
;   layerHeight,0.15
;   topSolidLayers,4
;   bottomSolidLayers,3
;   perimeterOutlines,3
;   printPerimetersInsideOut,0
;   startPointOption,1
;   startPointOriginX,0
;   startPointOriginY,300
;   sequentialIslands,0
;   spiralVaseMode,0
;   firstLayerHeightPercentage,120
;   firstLayerWidthPercentage,100
;   firstLayerUnderspeed,0.35
;   useRaft,0
;   raftExtruder,0
;   raftTopLayers,3
;   raftBaseLayers,2
;   raftOffset,3
;   raftSeparationDistance,0.14
;   raftTopInfill,100
;   aboveRaftSpeedMultiplier,0.3
;   useSkirt,1
;   skirtExtruder,0
;   skirtLayers,1
;   skirtOutlines,3
;   skirtOffset,2
;   usePrimePillar,0
;   primePillarExtruder,999
;   primePillarWidth,12
;   primePillarLocation,7
;   primePillarSpeedMultiplier,1
;   useOozeShield,0
;   oozeShieldExtruder,999
;   oozeShieldOffset,2
;   oozeShieldOutlines,1
;   oozeShieldSidewallShape,1
;   oozeShieldSidewallAngle,30
;   oozeShieldSpeedMultiplier,1
;   infillExtruder,0
;   internalInfillPattern,Rectilinear
;   externalInfillPattern,Rectilinear
;   infillPercentage,35
;   outlineOverlapPercentage,15
;   infillExtrusionWidthPercentage,100
;   minInfillLength,5
;   infillLayerInterval,1
;   internalInfillAngles,45,-45
;   overlapInternalInfillAngles,0
;   externalInfillAngles,45,-45
;   generateSupport,0
;   supportExtruder,0
;   supportInfillPercentage,30
;   supportExtraInflation,0
;   supportBaseLayers,0
;   denseSupportExtruder,0
;   denseSupportLayers,0
;   denseSupportInfillPercentage,70
;   supportLayerInterval,1
;   supportHorizontalPartOffset,0.4
;   supportUpperSeparationLayers,1
;   supportLowerSeparationLayers,1
;   supportType,0
;   supportGridSpacing,4.5
;   maxOverhangAngle,45
;   supportAngles,0
;   temperatureName,Primary Extruder,Heated Bed
;   temperatureNumber,0,0
;   temperatureSetpointCount,1,1
;   temperatureSetpointLayers,1,1
;   temperatureSetpointTemperatures,215,55
;   temperatureStabilizeAtStartup,1,1
;   temperatureHeatedBed,0,1
;   fanLayers,1,2
;   fanSpeeds,0,100
;   blipFanToFullPower,0
;   adjustSpeedForCooling,1
;   minSpeedLayerTime,15
;   minCoolingSpeedSlowdown,50
;   increaseFanForCooling,1
;   minFanLayerTime,25
;   maxCoolingFanSpeed,100
;   increaseFanForBridging,1
;   bridgingFanSpeed,100
;   use5D,1
;   relativeEdistances,0
;   allowEaxisZeroing,1
;   independentExtruderAxes,0
;   includeM10123,0
;   stickySupport,1
;   applyToolheadOffsets,0
;   gcodeXoffset,0
;   gcodeYoffset,0
;   gcodeZoffset,0
;   overrideMachineDefinition,1
;   machineTypeOverride,0
;   strokeXoverride,300
;   strokeYoverride,300
;   strokeZoverride,400
;   originOffsetXoverride,0
;   originOffsetYoverride,0
;   originOffsetZoverride,0
;   homeXdirOverride,-1
;   homeYdirOverride,-1
;   homeZdirOverride,-1
;   flipXoverride,1
;   flipYoverride,-1
;   flipZoverride,1
;   toolheadOffsets,0,0|0,0|0,0|0,0|0,0|0,0
;   overrideFirmwareConfiguration,1
;   firmwareTypeOverride,RepRap (Marlin/Repetier/Sprinter)
;   GPXconfigOverride,r2
;   baudRateOverride,250000
;   overridePrinterModels,1
;   printerModelsOverride
;   startingGcode,;,; -]H.P.B[- MarshMalloW  ,; $VER: StartScript 1.02 (26.12.2019) MarshMalloW,;,; Begin Startcode,;,M117 *Preheat*     	; Preheat,;extruder0_temperature,M104 S[extruder0_temperature]  ,M109 S[extruder0_temperature] ,M109 R[extruder0_temperature] ,;,M117 *Auto-leveling*     	; Auto-leveling,M107                   	; Turn layer fan off,G21                    	; Set to metric [change to G20 if you want Imperial],G90                    	; Force coordinates to be absolute relative to the origin,G28                    	; Home X/Y/Z axis,G29                    	; Auto-leveling (BL-Touch),;,M117 *Start Clean*     	; Indicate nozzle clean in progress on LCD,G92 E0                 	; Set Extruder to 0 ,G1 X0 Y0 F2000         	; Move X and Y to 0 with speed 2000 (mm/min),G1 Z0.1 F1000          	; Move Z to   0.1 with speed 1000 (mm/min),G1 X8.0 F2000          	; Move X to   8.0 with speed 2000 (mm/min),G1 Y60.0 E4.0 F1000.0  	; Move Y to  60 and Extruder with 4.0 with speed 1000 (mm/min),G1 Y100.0 E8.5 F1000.0 	; Move Y to 100 and Extruder with 8.5 with speed 1000 (mm/min),G92 E0                 	; Set extruder to 0,G1 X16.0 F3000         	; Move X to 16.0 with speed 3000 (mm/min),G1 Y60.0 F3000         	; Move Y to 60.0 with speed 3000 (mm/min),M117 *End Clean*       	; Indicate nozzle clean in progress on LCD,G1 Z5 F3000            	; Move Z to  5.0 with speed 3000 (mm/min),G1 X20.0 F3000         	; Move X to 20.0 with speed 3000 (mm/min),G1 Y20.0 F3000         	; Move Y to 20.0 with speed 3000 (mm/min),; ,M117 *Printing...*     	; Start printing msg on LCD,;,; End Startcode,;,; Begin printing with sliced GCode after here,;
;   layerChangeGcode,
;   retractionGcode,
;   toolChangeGcode,
;   endingGcode,;,; init 181010,;,;M107 			; Fan off,;G1 E-1 F300 			; Retract the filament a bit before lifting the nozzle,;M104 S0 			; Turn off extruder,;M140 S0 			; Turn off bed,;G91			; Relative positioning,;G28 X0 Y0 			; Move X/Y to min endstops so the head is out of teh way,;M84 			; Disable motors,;G90 			; Absolute positioning,;M117 Print ready...,,;,; // From Cura 181010,; // End_gcode,G92 E0			; Zero the extruded length,;G1 E-30 F300		; Retract E -30,M106 S0			; Turn off cooling fan,M104 S0			; Turn off temperature,M140 S0		     	; Turn off bed,G91			; Relative positioning,G1 E-1 F300			; Retract the filament a bit before lifting the nozzle to release some of the pressure,G1 Z+20 E-5 X-20 Y-20 F7200	; Move Z up a bit and retract filament even more,G1 X0 Y150 F10000		; Move right min,M107			; Turn off layer fan,M84			; Disable motors,G90			; Absolute positioning,M117 *The-End* 		; End msg,;,
;   exportFileFormat,gcode
;   celebration,0
;   celebrationSong,Star Wars
;   postProcessing,|{REPLACE "; layer " "M117 INDICATOR-Layer"}|{REPLACE ", Z = " "\n; Z="}
;   defaultSpeed,1800
;   outlineUnderspeed,0.5
;   solidInfillUnderspeed,0.8
;   supportUnderspeed,0.8
;   rapidXYspeed,6000
;   rapidZspeed,1002
;   minBridgingArea,50
;   bridgingExtraInflation,0.2
;   bridgingExtrusionMultiplier,1
;   bridgingSpeedMultiplier,0.6
;   useFixedBridgingAngle,0
;   fixedBridgingAngle,0
;   applyBridgingToPerimeters,0
;   filamentDiameters,1.75|1.75|1.75|1.75|1.75|1.75
;   filamentPricesPerKg,30|46|46|46|46|46
;   filamentDensities,1.25|1.25|1.25|1.25|1.25|1.25
;   useMinPrintHeight,0
;   minPrintHeight,0
;   useMaxPrintHeight,0
;   maxPrintHeight,9
;   useDiaphragm,0
;   diaphragmLayerInterval,20
;   robustSlicing,1
;   mergeAllIntoSolid,0
;   onlyRetractWhenCrossingOutline,1
;   retractBetweenLayers,0
;   useRetractionMinTravel,0
;   retractionMinTravel,3
;   retractWhileWiping,0
;   onlyWipeOutlines,1
;   avoidCrossingOutline,1
;   maxMovementDetourFactor,3
;   toolChangeRetractionDistance,12
;   toolChangeExtraRestartDistance,-0.5
;   toolChangeRetractionSpeed,600
;   externalThinWallType,1
;   internalThinWallType,1
;   thinWallAllowedOverlapPercentage,10
;   singleExtrusionMinLength,1
;   singleExtrusionMinPrintingWidthPercentage,50
;   singleExtrusionMaxPrintingWidthPercentage,200
;   singleExtrusionEndpointExtension,0.2
;   horizontalSizeCompensation,0
G90
M82
M106 S0
M140 S55
M190 S55
;
; -]H.P.B[- MarshMalloW  
; $VER: StartScript 1.02 (26.12.2019) MarshMalloW
;
; Begin Startcode
;
M117 *Preheat*     	; Preheat
;extruder0_temperature
M104 S215  
M109 S215 
M109 R215 
;
M117 *Auto-leveling*     	; Auto-leveling
M107                   	; Turn layer fan off
G21                    	; Set to metric [change to G20 if you want Imperial]
G90                    	; Force coordinates to be absolute relative to the origin
G28                    	; Home X/Y/Z axis
G29                    	; Auto-leveling (BL-Touch)
;
M117 *Start Clean*     	; Indicate nozzle clean in progress on LCD
G92 E0                 	; Set Extruder to 0 
G1 X0 Y0 F2000         	; Move X and Y to 0 with speed 2000 (mm/min)
G1 Z0.1 F1000          	; Move Z to   0.1 with speed 1000 (mm/min)
G1 X8.0 F2000          	; Move X to   8.0 with speed 2000 (mm/min)
G1 Y60.0 E4.0 F1000.0  	; Move Y to  60 and Extruder with 4.0 with speed 1000 (mm/min)
G1 Y100.0 E8.5 F1000.0 	; Move Y to 100 and Extruder with 8.5 with speed 1000 (mm/min)
G92 E0                 	; Set extruder to 0
G1 X16.0 F3000         	; Move X to 16.0 with speed 3000 (mm/min)
G1 Y60.0 F3000         	; Move Y to 60.0 with speed 3000 (mm/min)
M117 *End Clean*       	; Indicate nozzle clean in progress on LCD
G1 Z5 F3000            	; Move Z to  5.0 with speed 3000 (mm/min)
G1 X20.0 F3000         	; Move X to 20.0 with speed 3000 (mm/min)
G1 Y20.0 F3000         	; Move Y to 20.0 with speed 3000 (mm/min)
; 
M117 *Printing...*     	; Start printing msg on LCD
;
; End Startcode
;
; Begin printing with sliced GCode after here
;
; process Process1
M117 INDICATOR-Layer1
; Z=0.180
T0
G92 E0.0000
G1 E-4.0000 F3000
; feature skirt
; tool H0.180 W0.350
G1 Z0.300 F1002
G1 X126.985 Y57.330 F6000
G1 Z0.180 F1002
G1 E0.0000 F3000
G92 E0.0000
G1 X127.559 Y57.395 E0.0144 F630
G1 X127.874 Y57.467 E0.0224
G1 X128.496 Y57.684 E0.0388
G1 X128.787 Y57.824 E0.0468
G1 X129.345 Y58.175 E0.0632
G1 X129.597 Y58.376 E0.0713
G1 X130.063 Y58.842 E0.0877
G1 X130.264 Y59.094 E0.0957
G1 X130.615 Y59.652 E0.1121
G1 X130.755 Y59.943 E0.1201
G1 X130.973 Y60.565 E0.1365
G1 X131.045 Y60.880 E0.1446
G1 X131.109 Y61.454 E0.1589
G1 X131.118 Y61.615 E0.1630
G1 X131.118 Y62.777 E0.1919
G1 X131.109 Y62.938 E0.1959
G1 X131.045 Y63.512 E0.2102
G1 X130.973 Y63.827 E0.2183
G1 X130.755 Y64.449 E0.2347
G1 X130.615 Y64.740 E0.2427
G1 X130.265 Y65.297 E0.2591
G1 X130.063 Y65.550 E0.2671
G1 X129.597 Y66.016 E0.2835
G1 X129.345 Y66.217 E0.2916
G1 X128.787 Y66.568 E0.3080
G1 X128.496 Y66.708 E0.3160
G1 X127.874 Y66.925 E0.3324
G1 X127.559 Y66.997 E0.3404
G1 X126.985 Y67.062 E0.3548
G1 X126.824 Y67.071 E0.3588
G1 X126.515 Y67.071 E0.3665
G1 X126.251 Y67.982 E0.3901
G1 X126.052 Y68.402 E0.4017
G1 X125.699 Y68.912 E0.4171
G1 X125.469 Y69.173 E0.4258
G1 X125.048 Y69.546 E0.4398
G1 X124.761 Y69.743 E0.4484
G1 X124.263 Y70.005 E0.4624
G1 X123.938 Y70.128 E0.4711
G1 X123.392 Y70.263 E0.4851
G1 X123.047 Y70.304 E0.4937
G1 X122.485 Y70.304 E0.5077
G1 X122.139 Y70.263 E0.5164
G1 X121.593 Y70.128 E0.5304
G1 X121.268 Y70.005 E0.5390
G1 X120.770 Y69.743 E0.5530
G1 X120.743 Y69.725 E0.5538
G1 X120.716 Y69.743 E0.5546
G1 X120.218 Y70.005 E0.5686
G1 X119.893 Y70.128 E0.5773
G1 X119.347 Y70.263 E0.5913
G1 X119.002 Y70.304 E0.5999
G1 X118.440 Y70.304 E0.6139
G1 X118.094 Y70.263 E0.6226
G1 X117.548 Y70.128 E0.6366
G1 X117.223 Y70.005 E0.6452
G1 X116.725 Y69.743 E0.6592
G1 X116.439 Y69.546 E0.6679
G1 X116.018 Y69.173 E0.6819
G1 X115.787 Y68.912 E0.6905
G1 X115.435 Y68.402 E0.7060
G1 X115.236 Y67.982 E0.7175
G1 X114.972 Y67.071 E0.7411
G1 X114.663 Y67.071 E0.7488
G1 X114.502 Y67.062 E0.7528
G1 X113.927 Y66.997 E0.7672
G1 X113.612 Y66.925 E0.7752
G1 X112.991 Y66.708 E0.7916
G1 X112.700 Y66.568 E0.7997
G1 X112.142 Y66.217 E0.8161
G1 X111.889 Y66.016 E0.8241
G1 X111.423 Y65.550 E0.8405
G1 X111.222 Y65.297 E0.8485
G1 X110.872 Y64.740 E0.8649
G1 X110.732 Y64.449 E0.8730
G1 X110.514 Y63.827 E0.8893
G1 X110.442 Y63.512 E0.8974
G1 X110.377 Y62.938 E0.9118
G1 X110.368 Y62.777 E0.9158
G1 X110.368 Y61.615 E0.9447
G1 X110.377 Y61.454 E0.9487
G1 X110.442 Y60.880 E0.9631
G1 X110.514 Y60.565 E0.9711
G1 X110.732 Y59.943 E0.9875
G1 X110.872 Y59.652 E0.9955
G1 X111.222 Y59.094 E1.0119
G1 X111.424 Y58.842 E1.0200
G1 X111.889 Y58.376 E1.0364
G1 X112.142 Y58.175 E1.0444
G1 X112.700 Y57.824 E1.0608
G1 X112.991 Y57.684 E1.0688
G1 X113.612 Y57.467 E1.0852
G1 X113.927 Y57.395 E1.0932
G1 X114.502 Y57.330 E1.1076
G1 X114.663 Y57.321 E1.1116
G1 X126.824 Y57.321 E1.4143
G1 X126.985 Y57.330 E1.4183
G92 E0.0000
G1 E-4.0000 F3000
G1 Z0.480 F1002
G1 X126.734 Y60.371 F6000
G1 X124.853 Y60.371
G1 X122.161 Y64.210
G1 X121.941 Y63.968
G1 X121.582 Y63.724
G1 X121.175 Y63.571
G1 X120.743 Y63.520
G1 X120.312 Y63.571
G1 X119.905 Y63.724
G1 X119.545 Y63.968
G1 X119.254 Y64.290
G1 X119.046 Y64.672
G1 X118.935 Y65.092
G1 X118.926 Y65.526
G1 X119.020 Y65.950
G1 X119.212 Y66.340
G1 X119.428 Y66.600
G1 X119.414 Y66.717
G1 X119.353 Y66.878
G1 X119.255 Y67.019
G1 X119.126 Y67.133
G1 X118.974 Y67.213
G1 X118.807 Y67.254
G1 X118.635 Y67.254
G1 X118.158 Y69.918
G1 Z0.180 F1002
G1 E0.0000 F3000
G92 E0.0000
G1 X117.653 Y69.793 E0.0129 F630
G1 X117.367 Y69.685 E0.0205
G1 X116.907 Y69.443 E0.0335
G1 X116.655 Y69.270 E0.0411
G1 X116.266 Y68.925 E0.0540
G1 X116.063 Y68.696 E0.0616
G1 X115.739 Y68.226 E0.0758
G1 X115.564 Y67.857 E0.0860
G1 X115.246 Y66.759 E0.1144
G1 X115.237 Y66.721 E0.1154
G1 X114.672 Y66.721 E0.1295
G1 X114.531 Y66.713 E0.1330
G1 X113.986 Y66.652 E0.1466
G1 X113.709 Y66.588 E0.1537
G1 X113.125 Y66.384 E0.1691
G1 X112.869 Y66.261 E0.1762
G1 X112.345 Y65.931 E0.1916
G1 X112.123 Y65.754 E0.1986
G1 X111.685 Y65.316 E0.2141
G1 X111.508 Y65.095 E0.2211
G1 X111.178 Y64.570 E0.2365
G1 X111.055 Y64.315 E0.2436
G1 X110.851 Y63.730 E0.2590
G1 X110.788 Y63.453 E0.2661
G1 X110.726 Y62.908 E0.2797
G1 X110.718 Y62.767 E0.2832
G1 X110.718 Y61.625 E0.3116
G1 X110.726 Y61.484 E0.3152
G1 X110.788 Y60.939 E0.3288
G1 X110.851 Y60.662 E0.3359
G1 X111.055 Y60.077 E0.3513
G1 X111.178 Y59.822 E0.3583
G1 X111.508 Y59.297 E0.3738
G1 X111.685 Y59.076 E0.3808
G1 X112.123 Y58.638 E0.3962
G1 X112.345 Y58.461 E0.4033
G1 X112.869 Y58.131 E0.4187
G1 X113.125 Y58.008 E0.4258
G1 X113.709 Y57.803 E0.4412
G1 X113.986 Y57.740 E0.4482
G1 X114.531 Y57.679 E0.4619
G1 X114.672 Y57.671 E0.4654
G1 X126.814 Y57.671 E0.7675
G1 X126.956 Y57.679 E0.7711
G1 X127.501 Y57.740 E0.7847
G1 X127.777 Y57.803 E0.7918
G1 X128.362 Y58.008 E0.8072
G1 X128.617 Y58.131 E0.8142
G1 X129.142 Y58.461 E0.8296
G1 X129.364 Y58.638 E0.8367
G1 X129.802 Y59.076 E0.8521
G1 X129.979 Y59.297 E0.8592
G1 X130.308 Y59.822 E0.8746
G1 X130.431 Y60.077 E0.8816
G1 X130.636 Y60.662 E0.8971
G1 X130.699 Y60.939 E0.9041
G1 X130.760 Y61.484 E0.9178
G1 X130.768 Y61.625 E0.9213
G1 X130.768 Y62.767 E0.9497
G1 X130.760 Y62.908 E0.9532
G1 X130.699 Y63.453 E0.9669
G1 X130.636 Y63.730 E0.9739
G1 X130.431 Y64.315 E0.9893
G1 X130.308 Y64.570 E0.9964
G1 X129.979 Y65.095 E1.0118
G1 X129.802 Y65.316 E1.0189
G1 X129.364 Y65.754 E1.0343
G1 X129.142 Y65.931 E1.0413
G1 X128.617 Y66.261 E1.0568
G1 X128.362 Y66.384 E1.0638
G1 X127.777 Y66.588 E1.0792
G1 X127.501 Y66.652 E1.0863
G1 X126.956 Y66.713 E1.0999
G1 X126.814 Y66.721 E1.1035
G1 X126.249 Y66.721 E1.1175
G1 X126.240 Y66.759 E1.1185
G1 X125.923 Y67.857 E1.1469
G1 X125.748 Y68.226 E1.1571
G1 X125.423 Y68.696 E1.1713
G1 X125.221 Y68.925 E1.1789
G1 X124.831 Y69.270 E1.1918
G1 X124.580 Y69.443 E1.1994
G1 X124.120 Y69.685 E1.2124
G1 X123.834 Y69.793 E1.2200
G1 X123.329 Y69.918 E1.2329
G1 X123.026 Y69.954 E1.2405
G1 X122.506 Y69.954 E1.2535
G1 X122.203 Y69.918 E1.2611
G1 X121.698 Y69.793 E1.2740
G1 X121.412 Y69.685 E1.2816
G1 X120.952 Y69.443 E1.2945
G1 X120.743 Y69.300 E1.3008
G1 X120.535 Y69.443 E1.3071
G1 X120.075 Y69.685 E1.3201
G1 X119.789 Y69.793 E1.3277
G1 X119.284 Y69.918 E1.3406
G1 X118.981 Y69.954 E1.3482
G1 X118.461 Y69.954 E1.3612
G1 X118.158 Y69.918 E1.3688
G92 E0.0000
G1 E-4.0000 F3000
G1 Z0.480 F1002
