; G-Code generated by Simplify3D(R) Version 4.1.2
; Dec 21, 2020 at 5:11:21 PM
; Settings Summary
;   processName,Process1
;   applyToModels,Pieds Table Salon2(2)
;   profileName,A10-04-25s Tevo Tornado
;   profileVersion,2020-12-06 16:18:07
;   baseProfile,Creality CR-10(2)
;   printMaterial,PLA
;   printQuality,Medium
;   printExtruders,
;   extruderName,Primary Extruder
;   extruderToolheadNumber,0
;   extruderDiameter,0.4
;   extruderAutoWidth,0
;   extruderWidth,0.35
;   extrusionMultiplier,0.95
;   extruderUseRetract,1
;   extruderRetractionDistance,4
;   extruderExtraRestartDistance,0
;   extruderRetractionZLift,0.1
;   extruderRetractionSpeed,6000
;   extruderUseCoasting,1
;   extruderCoastingDistance,0.4
;   extruderUseWipe,1
;   extruderWipeDistance,5
;   primaryExtruder,0
;   layerHeight,0.15
;   topSolidLayers,5
;   bottomSolidLayers,4
;   perimeterOutlines,3
;   printPerimetersInsideOut,0
;   startPointOption,1
;   startPointOriginX,0
;   startPointOriginY,300
;   sequentialIslands,0
;   spiralVaseMode,0
;   firstLayerHeightPercentage,120
;   firstLayerWidthPercentage,100
;   firstLayerUnderspeed,0.4
;   useRaft,0
;   raftExtruder,0
;   raftTopLayers,3
;   raftBaseLayers,2
;   raftOffset,3
;   raftSeparationDistance,0.14
;   raftTopInfill,100
;   aboveRaftSpeedMultiplier,0.3
;   useSkirt,1
;   skirtExtruder,0
;   skirtLayers,1
;   skirtOutlines,2
;   skirtOffset,3
;   usePrimePillar,0
;   primePillarExtruder,999
;   primePillarWidth,12
;   primePillarLocation,7
;   primePillarSpeedMultiplier,1
;   useOozeShield,0
;   oozeShieldExtruder,999
;   oozeShieldOffset,2
;   oozeShieldOutlines,1
;   oozeShieldSidewallShape,1
;   oozeShieldSidewallAngle,30
;   oozeShieldSpeedMultiplier,1
;   infillExtruder,0
;   internalInfillPattern,Rectilinear
;   externalInfillPattern,Rectilinear
;   infillPercentage,25
;   outlineOverlapPercentage,15
;   infillExtrusionWidthPercentage,100
;   minInfillLength,5
;   infillLayerInterval,1
;   internalInfillAngles,45,-45
;   overlapInternalInfillAngles,0
;   externalInfillAngles,45,-45
;   generateSupport,1
;   supportExtruder,0
;   supportInfillPercentage,30
;   supportExtraInflation,0
;   supportBaseLayers,0
;   denseSupportExtruder,0
;   denseSupportLayers,0
;   denseSupportInfillPercentage,70
;   supportLayerInterval,1
;   supportHorizontalPartOffset,0.4
;   supportUpperSeparationLayers,1
;   supportLowerSeparationLayers,1
;   supportType,0
;   supportGridSpacing,4.5
;   maxOverhangAngle,45
;   supportAngles,0
;   temperatureName,Primary Extruder,Heated Bed
;   temperatureNumber,0,0
;   temperatureSetpointCount,2,2
;   temperatureSetpointLayers,1,2,1,2
;   temperatureSetpointTemperatures,215,210,55,50
;   temperatureStabilizeAtStartup,1,1
;   temperatureHeatedBed,0,1
;   fanLayers,1,2
;   fanSpeeds,0,100
;   blipFanToFullPower,0
;   adjustSpeedForCooling,1
;   minSpeedLayerTime,15
;   minCoolingSpeedSlowdown,20
;   increaseFanForCooling,1
;   minFanLayerTime,25
;   maxCoolingFanSpeed,100
;   increaseFanForBridging,1
;   bridgingFanSpeed,100
;   use5D,1
;   relativeEdistances,0
;   allowEaxisZeroing,1
;   independentExtruderAxes,0
;   includeM10123,0
;   stickySupport,1
;   applyToolheadOffsets,0
;   gcodeXoffset,0
;   gcodeYoffset,0
;   gcodeZoffset,0
;   overrideMachineDefinition,1
;   machineTypeOverride,0
;   strokeXoverride,300
;   strokeYoverride,300
;   strokeZoverride,400
;   originOffsetXoverride,0
;   originOffsetYoverride,0
;   originOffsetZoverride,0
;   homeXdirOverride,-1
;   homeYdirOverride,-1
;   homeZdirOverride,-1
;   flipXoverride,1
;   flipYoverride,-1
;   flipZoverride,1
;   toolheadOffsets,0,0|0,0|0,0|0,0|0,0|0,0
;   overrideFirmwareConfiguration,1
;   firmwareTypeOverride,RepRap (Marlin/Repetier/Sprinter)
;   GPXconfigOverride,r2
;   baudRateOverride,250000
;   overridePrinterModels,1
;   printerModelsOverride
;   startingGcode,;,; -]H.P.B[- MarshMalloW  ,; $VER: StartScript 1.02 (26.12.2019) MarshMalloW,;,; Begin Startcode,;,M117 *Preheat*     	; Preheat,;extruder0_temperature,M104 S[extruder0_temperature]  ,M109 S[extruder0_temperature] ,M109 R[extruder0_temperature] ,;,M117 *Auto-leveling*     	; Auto-leveling,M107                   	; Turn layer fan off,G21                    	; Set to metric [change to G20 if you want Imperial],G90                    	; Force coordinates to be absolute relative to the origin,G28                    	; Home X/Y/Z axis,G29                    	; Auto-leveling (BL-Touch),;,M117 *Start Clean*     	; Indicate nozzle clean in progress on LCD,G92 E0                 	; Set Extruder to 0 ,G1 X0 Y0 F2000         	; Move X and Y to 0 with speed 2000 (mm/min),G1 Z0.1 F1000          	; Move Z to   0.1 with speed 1000 (mm/min),G1 X8.0 F2000          	; Move X to   8.0 with speed 2000 (mm/min),G1 Y60.0 E4.0 F1000.0  	; Move Y to  60 and Extruder with 4.0 with speed 1000 (mm/min),G1 Y100.0 E8.5 F1000.0 	; Move Y to 100 and Extruder with 8.5 with speed 1000 (mm/min),G92 E0                 	; Set extruder to 0,G1 X16.0 F3000         	; Move X to 16.0 with speed 3000 (mm/min),G1 Y60.0 F3000         	; Move Y to 60.0 with speed 3000 (mm/min),M117 *End Clean*       	; Indicate nozzle clean in progress on LCD,G1 Z5 F3000            	; Move Z to  5.0 with speed 3000 (mm/min),G1 X20.0 F3000         	; Move X to 20.0 with speed 3000 (mm/min),G1 Y20.0 F3000         	; Move Y to 20.0 with speed 3000 (mm/min),; ,M117 *Printing...*     	; Start printing msg on LCD,;,; End Startcode,;,; Begin printing with sliced GCode after here,;
;   layerChangeGcode,
;   retractionGcode,
;   toolChangeGcode,
;   endingGcode,;,; init 181010,;,;M107 			; Fan off,;G1 E-1 F300 			; Retract the filament a bit before lifting the nozzle,;M104 S0 			; Turn off extruder,;M140 S0 			; Turn off bed,;G91			; Relative positioning,;G28 X0 Y0 			; Move X/Y to min endstops so the head is out of teh way,;M84 			; Disable motors,;G90 			; Absolute positioning,;M117 Print ready...,,;,; // From Cura 181010,; // End_gcode,G92 E0			; Zero the extruded length,;G1 E-30 F300		; Retract E -30,M106 S0			; Turn off cooling fan,M104 S0			; Turn off temperature,M140 S0		     	; Turn off bed,G91			; Relative positioning,G1 E-1 F300			; Retract the filament a bit before lifting the nozzle to release some of the pressure,G1 Z+20 E-5 X-20 Y-20 F7200	; Move Z up a bit and retract filament even more,G1 X0 Y150 F10000		; Move right min,M107			; Turn off layer fan,M84			; Disable motors,G90			; Absolute positioning,M117 *The-End* 		; End msg,;,
;   exportFileFormat,gcode
;   celebration,0
;   celebrationSong,Star Wars
;   postProcessing,|{REPLACE "; layer " "M117 INDICATOR-Layer"}|{REPLACE ", Z = " "\n; Z="}
;   defaultSpeed,2400
;   outlineUnderspeed,0.6
;   solidInfillUnderspeed,0.8
;   supportUnderspeed,0.8
;   rapidXYspeed,3600
;   rapidZspeed,900
;   minBridgingArea,50
;   bridgingExtraInflation,0.2
;   bridgingExtrusionMultiplier,1
;   bridgingSpeedMultiplier,0.6
;   useFixedBridgingAngle,0
;   fixedBridgingAngle,0
;   applyBridgingToPerimeters,0
;   filamentDiameters,1.75|1.75|1.75|1.75|1.75|1.75
;   filamentPricesPerKg,30|46|46|46|46|46
;   filamentDensities,1.25|1.25|1.25|1.25|1.25|1.25
;   useMinPrintHeight,0
;   minPrintHeight,0
;   useMaxPrintHeight,0
;   maxPrintHeight,50
;   useDiaphragm,0
;   diaphragmLayerInterval,20
;   robustSlicing,1
;   mergeAllIntoSolid,0
;   onlyRetractWhenCrossingOutline,1
;   retractBetweenLayers,1
;   useRetractionMinTravel,0
;   retractionMinTravel,3
;   retractWhileWiping,1
;   onlyWipeOutlines,1
;   avoidCrossingOutline,1
;   maxMovementDetourFactor,3
;   toolChangeRetractionDistance,12
;   toolChangeExtraRestartDistance,-0.5
;   toolChangeRetractionSpeed,600
;   externalThinWallType,1
;   internalThinWallType,1
;   thinWallAllowedOverlapPercentage,20
;   singleExtrusionMinLength,1
;   singleExtrusionMinPrintingWidthPercentage,50
;   singleExtrusionMaxPrintingWidthPercentage,200
;   singleExtrusionEndpointExtension,0.2
;   horizontalSizeCompensation,0
G90
M82
M106 S102
M140 S55
M190 S55
;
; -]H.P.B[- MarshMalloW  
; $VER: StartScript 1.02 (26.12.2019) MarshMalloW
;
; Begin Startcode
;
M117 *Preheat*     	; Preheat
;extruder0_temperature
M104 S215  
M109 S215 
M109 R215 
;
M117 *Auto-leveling*     	; Auto-leveling
M107                   	; Turn layer fan off
G21                    	; Set to metric [change to G20 if you want Imperial]
G90                    	; Force coordinates to be absolute relative to the origin
G28                    	; Home X/Y/Z axis
G29                    	; Auto-leveling (BL-Touch)
;
M117 *Start Clean*     	; Indicate nozzle clean in progress on LCD
G92 E0                 	; Set Extruder to 0 
G1 X0 Y0 F2000         	; Move X and Y to 0 with speed 2000 (mm/min)
G1 Z0.1 F1000          	; Move Z to   0.1 with speed 1000 (mm/min)
G1 X8.0 F2000          	; Move X to   8.0 with speed 2000 (mm/min)
G1 Y60.0 E4.0 F1000.0  	; Move Y to  60 and Extruder with 4.0 with speed 1000 (mm/min)
G1 Y100.0 E8.5 F1000.0 	; Move Y to 100 and Extruder with 8.5 with speed 1000 (mm/min)
G92 E0                 	; Set extruder to 0
G1 X16.0 F3000         	; Move X to 16.0 with speed 3000 (mm/min)
G1 Y60.0 F3000         	; Move Y to 60.0 with speed 3000 (mm/min)
M117 *End Clean*       	; Indicate nozzle clean in progress on LCD
G1 Z5 F3000            	; Move Z to  5.0 with speed 3000 (mm/min)
G1 X20.0 F3000         	; Move X to 20.0 with speed 3000 (mm/min)
G1 Y20.0 F3000         	; Move Y to 20.0 with speed 3000 (mm/min)
; 
M117 *Printing...*     	; Start printing msg on LCD
;
; End Startcode
;
; Begin printing with sliced GCode after here
;
; process Process1
M117 INDICATOR-Layer1
; Z=0.180
T0
G92 E0.0000
G1 E-4.0000 F6000
; feature skirt
; tool H0.180 W0.350
G1 Z0.180 F900
G1 X128.287 Y69.846 F3600
G1 E0.0000 F6000
G92 E0.0000
G1 X129.027 Y69.929 E0.0185 F960
G1 X129.413 Y70.017 E0.0284
G1 X130.211 Y70.297 E0.0494
G1 X130.571 Y70.470 E0.0594
G1 X131.288 Y70.923 E0.0805
G1 X131.595 Y71.168 E0.0902
G1 X132.187 Y71.760 E0.1111
G1 X132.434 Y72.070 E0.1209
G1 X132.883 Y72.784 E0.1419
G1 X133.055 Y73.141 E0.1518
G1 X133.333 Y73.937 E0.1728
G1 X133.421 Y74.323 E0.1826
G1 X133.434 Y74.439 E0.1855
G1 X133.736 Y74.741 E0.1961
G1 X133.736 Y81.101 E0.3544
G1 X131.671 Y83.166 E0.4270
G1 X125.311 Y83.166 E0.5853
G1 X125.147 Y83.002 E0.5910
G1 X125.024 Y83.012 E0.5941
G1 X124.357 Y82.985 E0.6107
G1 X123.936 Y82.917 E0.6214
G1 X123.295 Y82.731 E0.6380
G1 X122.903 Y82.564 E0.6486
G1 X122.491 Y82.326 E0.6604
G1 X122.079 Y82.564 E0.6722
G1 X121.687 Y82.731 E0.6828
G1 X121.046 Y82.917 E0.6995
G1 X120.625 Y82.985 E0.7101
G1 X119.958 Y83.012 E0.7267
G1 X119.834 Y83.002 E0.7298
G1 X119.671 Y83.166 E0.7355
G1 X113.311 Y83.166 E0.8938
G1 X111.246 Y81.101 E0.9664
G1 X111.246 Y74.741 E1.1247
G1 X111.540 Y74.447 E1.1350
G1 X111.540 Y74.441 E1.1352
G1 X111.635 Y73.975 E1.1470
G1 X111.927 Y73.141 E1.1690
G1 X112.099 Y72.784 E1.1788
G1 X112.548 Y72.070 E1.1998
G1 X112.795 Y71.760 E1.2097
G1 X113.391 Y71.164 E1.2307
G1 X113.701 Y70.917 E1.2405
G1 X114.415 Y70.468 E1.2615
G1 X114.772 Y70.296 E1.2714
G1 X115.568 Y70.017 E1.2924
G1 X115.954 Y69.929 E1.3022
G1 X116.695 Y69.846 E1.3208
G1 X116.892 Y69.835 E1.3257
G1 X128.090 Y69.835 E1.6043
G1 X128.287 Y69.846 E1.6092
G92 E0.0000
G1 E-4.0000 F6000
G1 Z0.280 F900
G1 X127.981 Y73.535 F3600
G1 X126.166 Y73.535
G1 X124.363 Y76.671
G1 X124.215 Y76.252
G1 X123.954 Y75.857
G1 X123.605 Y75.538
G1 X123.188 Y75.314
G1 X122.729 Y75.198
G1 X122.253 Y75.198
G1 X121.794 Y75.314
G1 X121.377 Y75.538
G1 X121.030 Y75.854
G1 X120.766 Y76.251
G1 X120.609 Y76.698
G1 X120.566 Y77.169
G1 X120.638 Y77.637
G1 X120.901 Y78.256
G1 X120.932 Y78.452
G1 X120.916 Y78.650
G1 X120.854 Y78.838
G1 X120.747 Y79.006
G1 X120.604 Y79.143
G1 X120.432 Y79.243
G1 X120.242 Y79.298
G1 X120.969 Y82.575
G1 Z0.180 F900
G1 E0.0000 F6000
G92 E0.0000
G1 X120.590 Y82.637 E0.0096 F960
G1 X119.965 Y82.662 E0.0251
G1 X119.701 Y82.641 E0.0317
G1 X119.526 Y82.816 E0.0379
G1 X113.456 Y82.816 E0.1889
G1 X111.596 Y80.956 E0.2544
G1 X111.596 Y74.886 E0.4054
G1 X111.880 Y74.602 E0.4154
G1 X111.888 Y74.488 E0.4182
G1 X111.974 Y74.068 E0.4289
G1 X112.251 Y73.275 E0.4498
G1 X112.406 Y72.954 E0.4587
G1 X112.834 Y72.273 E0.4787
G1 X113.056 Y71.994 E0.4876
G1 X113.625 Y71.425 E0.5076
G1 X113.904 Y71.203 E0.5164
G1 X114.585 Y70.775 E0.5365
G1 X114.906 Y70.620 E0.5453
G1 X115.666 Y70.354 E0.5654
G1 X116.013 Y70.275 E0.5742
G1 X116.724 Y70.195 E0.5920
G1 X116.902 Y70.185 E0.5965
G1 X128.080 Y70.185 E0.8746
G1 X128.258 Y70.195 E0.8790
G1 X128.969 Y70.275 E0.8968
G1 X129.316 Y70.354 E0.9057
G1 X130.077 Y70.621 E0.9258
G1 X130.401 Y70.777 E0.9347
G1 X131.085 Y71.208 E0.9548
G1 X131.361 Y71.429 E0.9636
G1 X131.926 Y71.994 E0.9835
G1 X132.148 Y72.273 E0.9924
G1 X132.576 Y72.954 E1.0124
G1 X132.731 Y73.275 E1.0213
G1 X132.996 Y74.034 E1.0413
G1 X133.076 Y74.382 E1.0502
G1 X133.100 Y74.600 E1.0556
G1 X133.386 Y74.886 E1.0657
G1 X133.386 Y80.956 E1.2167
G1 X131.526 Y82.816 E1.2822
G1 X125.456 Y82.816 E1.4332
G1 X125.281 Y82.641 E1.4394
G1 X125.017 Y82.662 E1.4459
G1 X124.392 Y82.637 E1.4615
G1 X124.013 Y82.575 E1.4711
G1 X123.413 Y82.401 E1.4866
G1 X123.059 Y82.251 E1.4962
G1 X122.518 Y81.938 E1.5117
G1 X122.491 Y81.918 E1.5126
G1 X122.464 Y81.938 E1.5134
G1 X121.922 Y82.251 E1.5290
G1 X121.569 Y82.401 E1.5385
G1 X120.969 Y82.575 E1.5541
G92 E0.0000
G1 E-4.0000 F6000
; feature outer perimeter
G1 Z0.280 F900
G1 X120.242 Y79.298 F3600
G1 X120.432 Y79.243
G1 X120.604 Y79.143
G1 X120.747 Y79.006
G1 X120.854 Y78.838
G1 X120.916 Y78.650
G1 X120.932 Y78.452
G1 X120.901 Y78.256
G1 X120.638 Y77.637
G1 X120.566 Y77.169
G1 X120.609 Y76.698
G1 X120.766 Y76.251
G1 X121.030 Y75.854
G1 X121.377 Y75.538
G1 X121.794 Y75.314
G1 X122.253 Y75.198
G1 X122.729 Y75.198
G1 X123.188 Y75.314
G1 X123.605 Y75.538
G1 X123.954 Y75.857
G1 X124.215 Y76.252
G1 X124.373 Y76.698
G1 X124.416 Y77.169
G1 X124.344 Y77.637
G1 X124.081 Y78.256
G1 X124.049 Y78.452
G1 X124.065 Y78.650
G1 X124.128 Y78.838
G1 X124.234 Y79.006
G1 X124.378 Y79.143
G1 X124.550 Y79.243
G1 X124.740 Y79.298
G1 X124.939 Y79.306
G1 X125.133 Y79.266
G1 X125.296 Y79.189
G1 X125.467 Y79.055
G1 Z0.180 F900
G1 E0.0000 F6000
G92 E0.0000
G1 X125.313 Y79.181 E0.0049 F576
G1 X125.133 Y79.266 E0.0099
G1 X124.939 Y79.306 E0.0148
G1 X124.740 Y79.298 E0.0198
G1 X124.550 Y79.243 E0.0247
G1 X124.378 Y79.143 E0.0296
G1 X124.234 Y79.006 E0.0346
G1 X124.128 Y78.838 E0.0395
G1 X124.065 Y78.650 E0.0445
G1 X124.049 Y78.452 E0.0494
G1 X124.081 Y78.256 E0.0544
G1 X124.344 Y77.637 E0.0711
G1 X124.416 Y77.169 E0.0829
G1 X124.373 Y76.698 E0.0946
G1 X124.215 Y76.252 E0.1064
G1 X123.954 Y75.857 E0.1182
G1 X123.605 Y75.538 E0.1300
G1 X123.188 Y75.314 E0.1417
G1 X122.729 Y75.198 E0.1535
G1 X122.253 Y75.198 E0.1654
G1 X121.794 Y75.314 E0.1771
G1 X121.377 Y75.538 E0.1889
G1 X121.030 Y75.854 E0.2006
G1 X120.766 Y76.251 E0.2124
G1 X120.609 Y76.698 E0.2242
G1 X120.566 Y77.169 E0.2360
G1 X120.638 Y77.637 E0.2478
G1 X120.901 Y78.256 E0.2645
G1 X120.932 Y78.452 E0.2694
G1 X120.916 Y78.650 E0.2744
G1 X120.854 Y78.838 E0.2793
G1 X120.747 Y79.006 E0.2843
G1 X120.604 Y79.143 E0.2892
G1 X120.432 Y79.243 E0.2941
G1 X120.241 Y79.298 E0.2991
G1 X120.043 Y79.306 E0.3040
G1 X119.849 Y79.266 E0.3090
G1 X119.669 Y79.181 E0.3139
G1 X119.515 Y79.055 E0.3189
G1 X119.391 Y78.890 E0.3240
G1 X119.292 Y78.705 E0.3292
G1 X119.100 Y78.253 E0.3414
G1 X116.886 Y76.185 E0.4168
G1 X115.763 Y76.185 E0.4448
G1 X115.166 Y75.587 E0.4658
G1 X115.166 Y75.372 E0.4711
G1 X115.213 Y74.954 E0.4816
G1 X115.348 Y74.569 E0.4918
G1 X115.565 Y74.223 E0.5019
G1 X115.854 Y73.934 E0.5121
G1 X116.200 Y73.717 E0.5223
G1 X116.585 Y73.582 E0.5324
G1 X117.001 Y73.535 E0.5428
G1 X127.981 Y73.535 E0.8161
G1 X128.397 Y73.582 E0.8265
G1 X128.782 Y73.717 E0.8366
G1 X129.131 Y73.937 E0.8469
G1 X129.417 Y74.223 E0.8570
G1 X129.634 Y74.569 E0.8671
G1 X129.769 Y74.954 E0.8773
G1 X129.816 Y75.370 E0.8877
G1 X129.816 Y75.587 E0.8931
G1 X129.218 Y76.185 E0.9141
G1 X128.096 Y76.185 E0.9421
G1 X125.881 Y78.253 E1.0175
G1 X125.690 Y78.705 E1.0297
