; G-Code generated by Simplify3D(R) Version 4.1.2
; Dec 21, 2020 at 4:47:51 PM
; Settings Summary
;   processName,Process1
;   applyToModels,Pieds Table Salon2
;   profileName,A10-04-25 Tevo Tornado
;   profileVersion,2020-12-06 16:18:07
;   baseProfile,Creality CR-10(2)
;   printMaterial,PLA
;   printQuality,Medium
;   printExtruders,
;   extruderName,Primary Extruder
;   extruderToolheadNumber,0
;   extruderDiameter,0.4
;   extruderAutoWidth,0
;   extruderWidth,0.35
;   extrusionMultiplier,0.95
;   extruderUseRetract,1
;   extruderRetractionDistance,4
;   extruderExtraRestartDistance,0
;   extruderRetractionZLift,0.1
;   extruderRetractionSpeed,6000
;   extruderUseCoasting,1
;   extruderCoastingDistance,0.4
;   extruderUseWipe,1
;   extruderWipeDistance,5
;   primaryExtruder,0
;   layerHeight,0.15
;   topSolidLayers,5
;   bottomSolidLayers,4
;   perimeterOutlines,3
;   printPerimetersInsideOut,0
;   startPointOption,1
;   startPointOriginX,0
;   startPointOriginY,300
;   sequentialIslands,0
;   spiralVaseMode,0
;   firstLayerHeightPercentage,120
;   firstLayerWidthPercentage,100
;   firstLayerUnderspeed,0.4
;   useRaft,0
;   raftExtruder,0
;   raftTopLayers,3
;   raftBaseLayers,2
;   raftOffset,3
;   raftSeparationDistance,0.14
;   raftTopInfill,100
;   aboveRaftSpeedMultiplier,0.3
;   useSkirt,1
;   skirtExtruder,0
;   skirtLayers,1
;   skirtOutlines,2
;   skirtOffset,3
;   usePrimePillar,0
;   primePillarExtruder,999
;   primePillarWidth,12
;   primePillarLocation,7
;   primePillarSpeedMultiplier,1
;   useOozeShield,0
;   oozeShieldExtruder,999
;   oozeShieldOffset,2
;   oozeShieldOutlines,1
;   oozeShieldSidewallShape,1
;   oozeShieldSidewallAngle,30
;   oozeShieldSpeedMultiplier,1
;   infillExtruder,0
;   internalInfillPattern,Rectilinear
;   externalInfillPattern,Rectilinear
;   infillPercentage,25
;   outlineOverlapPercentage,15
;   infillExtrusionWidthPercentage,100
;   minInfillLength,5
;   infillLayerInterval,1
;   internalInfillAngles,45,-45
;   overlapInternalInfillAngles,0
;   externalInfillAngles,45,-45
;   generateSupport,0
;   supportExtruder,0
;   supportInfillPercentage,30
;   supportExtraInflation,0
;   supportBaseLayers,0
;   denseSupportExtruder,0
;   denseSupportLayers,0
;   denseSupportInfillPercentage,70
;   supportLayerInterval,1
;   supportHorizontalPartOffset,0.4
;   supportUpperSeparationLayers,1
;   supportLowerSeparationLayers,1
;   supportType,0
;   supportGridSpacing,4.5
;   maxOverhangAngle,45
;   supportAngles,0
;   temperatureName,Primary Extruder,Heated Bed
;   temperatureNumber,0,0
;   temperatureSetpointCount,2,2
;   temperatureSetpointLayers,1,2,1,2
;   temperatureSetpointTemperatures,215,210,55,50
;   temperatureStabilizeAtStartup,1,1
;   temperatureHeatedBed,0,1
;   fanLayers,1,2
;   fanSpeeds,0,100
;   blipFanToFullPower,0
;   adjustSpeedForCooling,1
;   minSpeedLayerTime,15
;   minCoolingSpeedSlowdown,20
;   increaseFanForCooling,1
;   minFanLayerTime,25
;   maxCoolingFanSpeed,100
;   increaseFanForBridging,1
;   bridgingFanSpeed,100
;   use5D,1
;   relativeEdistances,0
;   allowEaxisZeroing,1
;   independentExtruderAxes,0
;   includeM10123,0
;   stickySupport,1
;   applyToolheadOffsets,0
;   gcodeXoffset,0
;   gcodeYoffset,0
;   gcodeZoffset,0
;   overrideMachineDefinition,1
;   machineTypeOverride,0
;   strokeXoverride,300
;   strokeYoverride,300
;   strokeZoverride,400
;   originOffsetXoverride,0
;   originOffsetYoverride,0
;   originOffsetZoverride,0
;   homeXdirOverride,-1
;   homeYdirOverride,-1
;   homeZdirOverride,-1
;   flipXoverride,1
;   flipYoverride,-1
;   flipZoverride,1
;   toolheadOffsets,0,0|0,0|0,0|0,0|0,0|0,0
;   overrideFirmwareConfiguration,1
;   firmwareTypeOverride,RepRap (Marlin/Repetier/Sprinter)
;   GPXconfigOverride,r2
;   baudRateOverride,250000
;   overridePrinterModels,1
;   printerModelsOverride
;   startingGcode,;,; -]H.P.B[- MarshMalloW  ,; $VER: StartScript 1.02 (26.12.2019) MarshMalloW,;,; Begin Startcode,;,M117 *Preheat*     	; Preheat,;extruder0_temperature,M104 S[extruder0_temperature]  ,M109 S[extruder0_temperature] ,M109 R[extruder0_temperature] ,;,M117 *Auto-leveling*     	; Auto-leveling,M107                   	; Turn layer fan off,G21                    	; Set to metric [change to G20 if you want Imperial],G90                    	; Force coordinates to be absolute relative to the origin,G28                    	; Home X/Y/Z axis,G29                    	; Auto-leveling (BL-Touch),;,M117 *Start Clean*     	; Indicate nozzle clean in progress on LCD,G92 E0                 	; Set Extruder to 0 ,G1 X0 Y0 F2000         	; Move X and Y to 0 with speed 2000 (mm/min),G1 Z0.1 F1000          	; Move Z to   0.1 with speed 1000 (mm/min),G1 X8.0 F2000          	; Move X to   8.0 with speed 2000 (mm/min),G1 Y60.0 E4.0 F1000.0  	; Move Y to  60 and Extruder with 4.0 with speed 1000 (mm/min),G1 Y100.0 E8.5 F1000.0 	; Move Y to 100 and Extruder with 8.5 with speed 1000 (mm/min),G92 E0                 	; Set extruder to 0,G1 X16.0 F3000         	; Move X to 16.0 with speed 3000 (mm/min),G1 Y60.0 F3000         	; Move Y to 60.0 with speed 3000 (mm/min),M117 *End Clean*       	; Indicate nozzle clean in progress on LCD,G1 Z5 F3000            	; Move Z to  5.0 with speed 3000 (mm/min),G1 X20.0 F3000         	; Move X to 20.0 with speed 3000 (mm/min),G1 Y20.0 F3000         	; Move Y to 20.0 with speed 3000 (mm/min),; ,M117 *Printing...*     	; Start printing msg on LCD,;,; End Startcode,;,; Begin printing with sliced GCode after here,;
;   layerChangeGcode,
;   retractionGcode,
;   toolChangeGcode,
;   endingGcode,;,; init 181010,;,;M107 			; Fan off,;G1 E-1 F300 			; Retract the filament a bit before lifting the nozzle,;M104 S0 			; Turn off extruder,;M140 S0 			; Turn off bed,;G91			; Relative positioning,;G28 X0 Y0 			; Move X/Y to min endstops so the head is out of teh way,;M84 			; Disable motors,;G90 			; Absolute positioning,;M117 Print ready...,,;,; // From Cura 181010,; // End_gcode,G92 E0			; Zero the extruded length,;G1 E-30 F300		; Retract E -30,M106 S0			; Turn off cooling fan,M104 S0			; Turn off temperature,M140 S0		     	; Turn off bed,G91			; Relative positioning,G1 E-1 F300			; Retract the filament a bit before lifting the nozzle to release some of the pressure,G1 Z+20 E-5 X-20 Y-20 F7200	; Move Z up a bit and retract filament even more,G1 X0 Y150 F10000		; Move right min,M107			; Turn off layer fan,M84			; Disable motors,G90			; Absolute positioning,M117 *The-End* 		; End msg,;,
;   exportFileFormat,gcode
;   celebration,0
;   celebrationSong,Star Wars
;   postProcessing,|{REPLACE "; layer " "M117 INDICATOR-Layer"}|{REPLACE ", Z = " "\n; Z="}
;   defaultSpeed,2400
;   outlineUnderspeed,0.6
;   solidInfillUnderspeed,0.8
;   supportUnderspeed,0.8
;   rapidXYspeed,3600
;   rapidZspeed,900
;   minBridgingArea,50
;   bridgingExtraInflation,0.2
;   bridgingExtrusionMultiplier,1
;   bridgingSpeedMultiplier,0.6
;   useFixedBridgingAngle,0
;   fixedBridgingAngle,0
;   applyBridgingToPerimeters,0
;   filamentDiameters,1.75|1.75|1.75|1.75|1.75|1.75
;   filamentPricesPerKg,30|46|46|46|46|46
;   filamentDensities,1.25|1.25|1.25|1.25|1.25|1.25
;   useMinPrintHeight,0
;   minPrintHeight,0
;   useMaxPrintHeight,0
;   maxPrintHeight,50
;   useDiaphragm,0
;   diaphragmLayerInterval,20
;   robustSlicing,1
;   mergeAllIntoSolid,0
;   onlyRetractWhenCrossingOutline,1
;   retractBetweenLayers,1
;   useRetractionMinTravel,0
;   retractionMinTravel,3
;   retractWhileWiping,1
;   onlyWipeOutlines,1
;   avoidCrossingOutline,1
;   maxMovementDetourFactor,3
;   toolChangeRetractionDistance,12
;   toolChangeExtraRestartDistance,-0.5
;   toolChangeRetractionSpeed,600
;   externalThinWallType,1
;   internalThinWallType,1
;   thinWallAllowedOverlapPercentage,20
;   singleExtrusionMinLength,1
;   singleExtrusionMinPrintingWidthPercentage,50
;   singleExtrusionMaxPrintingWidthPercentage,200
;   singleExtrusionEndpointExtension,0.2
;   horizontalSizeCompensation,0
G90
M82
M106 S102
M140 S55
M190 S55
;
; -]H.P.B[- MarshMalloW  
; $VER: StartScript 1.02 (26.12.2019) MarshMalloW
;
; Begin Startcode
;
M117 *Preheat*     	; Preheat
;extruder0_temperature
M104 S215  
M109 S215 
M109 R215 
;
M117 *Auto-leveling*     	; Auto-leveling
M107                   	; Turn layer fan off
G21                    	; Set to metric [change to G20 if you want Imperial]
G90                    	; Force coordinates to be absolute relative to the origin
G28                    	; Home X/Y/Z axis
G29                    	; Auto-leveling (BL-Touch)
;
M117 *Start Clean*     	; Indicate nozzle clean in progress on LCD
G92 E0                 	; Set Extruder to 0 
G1 X0 Y0 F2000         	; Move X and Y to 0 with speed 2000 (mm/min)
G1 Z0.1 F1000          	; Move Z to   0.1 with speed 1000 (mm/min)
G1 X8.0 F2000          	; Move X to   8.0 with speed 2000 (mm/min)
G1 Y60.0 E4.0 F1000.0  	; Move Y to  60 and Extruder with 4.0 with speed 1000 (mm/min)
G1 Y100.0 E8.5 F1000.0 	; Move Y to 100 and Extruder with 8.5 with speed 1000 (mm/min)
G92 E0                 	; Set extruder to 0
G1 X16.0 F3000         	; Move X to 16.0 with speed 3000 (mm/min)
G1 Y60.0 F3000         	; Move Y to 60.0 with speed 3000 (mm/min)
M117 *End Clean*       	; Indicate nozzle clean in progress on LCD
G1 Z5 F3000            	; Move Z to  5.0 with speed 3000 (mm/min)
G1 X20.0 F3000         	; Move X to 20.0 with speed 3000 (mm/min)
G1 Y20.0 F3000         	; Move Y to 20.0 with speed 3000 (mm/min)
; 
M117 *Printing...*     	; Start printing msg on LCD
;
; End Startcode
;
; Begin printing with sliced GCode after here
;
; process Process1
M117 INDICATOR-Layer1
; Z=0.180
T0
G92 E0.0000
G1 E-4.0000 F6000
; feature skirt
; tool H0.180 W0.350
G1 Z0.180 F900
G1 X139.985 Y62.302 F3600
G1 E0.0000 F6000
G92 E0.0000
G1 X140.824 Y62.848 E0.0249 F522
G1 X141.184 Y63.158 E0.0367
G1 X141.238 Y63.219 E0.0388
G1 X141.400 Y63.320 E0.0435
G1 X141.679 Y63.717 E0.0556
G1 X141.711 Y63.753 E0.0568
G1 X141.731 Y63.790 E0.0578
G1 X142.228 Y64.497 E0.0793
G1 X142.440 Y65.493 E0.1047
G1 X142.479 Y65.852 E0.1137
G1 X142.494 Y68.557 E0.1810
G1 X140.426 Y70.635 E0.2539
G1 X138.778 Y70.635 E0.2949
G1 X138.403 Y71.417 E0.3165
G1 X138.223 Y71.714 E0.3251
G1 X137.845 Y72.216 E0.3408
G1 X137.550 Y72.524 E0.3514
G1 X137.033 Y72.946 E0.3680
G1 X136.673 Y73.174 E0.3786
G1 X136.070 Y73.460 E0.3952
G1 X135.665 Y73.595 E0.4058
G1 X135.011 Y73.728 E0.4224
G1 X134.586 Y73.763 E0.4330
G1 X133.919 Y73.736 E0.4496
G1 X133.498 Y73.668 E0.4603
G1 X132.857 Y73.482 E0.4769
G1 X132.464 Y73.315 E0.4875
G1 X132.053 Y73.077 E0.4993
G1 X131.641 Y73.315 E0.5111
G1 X131.248 Y73.482 E0.5218
G1 X130.607 Y73.668 E0.5384
G1 X130.187 Y73.736 E0.5490
G1 X129.520 Y73.763 E0.5656
G1 X129.094 Y73.728 E0.5762
G1 X128.440 Y73.595 E0.5928
G1 X128.036 Y73.460 E0.6034
G1 X127.433 Y73.174 E0.6200
G1 X127.072 Y72.946 E0.6306
G1 X126.555 Y72.524 E0.6472
G1 X126.260 Y72.216 E0.6579
G1 X125.883 Y71.714 E0.6735
G1 X125.702 Y71.417 E0.6821
G1 X125.327 Y70.635 E0.7037
G1 X123.685 Y70.635 E0.7446
G1 X121.620 Y68.570 E0.8172
G1 X121.620 Y65.767 E0.8870
G1 X121.752 Y65.094 E0.9041
G1 X122.345 Y63.643 E0.9431
G1 X123.411 Y62.613 E0.9800
G1 X124.681 Y62.144 E1.0136
G1 X125.293 Y62.034 E1.0291
G1 X139.001 Y62.012 E1.3702
G1 X139.985 Y62.302 E1.3957
G92 E0.0000
G1 E-4.0000 F6000
G1 Z0.280 F900
G1 X138.442 Y65.713 F3600
G1 X137.274 Y65.714
G1 X131.484 Y73.001
G1 Z0.180 F900
G1 E0.0000 F6000
G92 E0.0000
G1 X131.131 Y73.152 E0.0096 F522
G1 X130.530 Y73.325 E0.0251
G1 X130.151 Y73.387 E0.0347
G1 X129.527 Y73.412 E0.0502
G1 X129.144 Y73.381 E0.0598
G1 X128.531 Y73.256 E0.0753
G1 X128.167 Y73.135 E0.0849
G1 X127.602 Y72.867 E0.1005
G1 X127.277 Y72.661 E0.1100
G1 X126.793 Y72.266 E0.1256
G1 X126.527 Y71.989 E0.1351
G1 X126.173 Y71.518 E0.1498
G1 X126.010 Y71.250 E0.1576
G1 X125.643 Y70.485 E0.1787
G1 X125.566 Y70.285 E0.1840
G1 X123.830 Y70.285 E0.2272
G1 X121.970 Y68.425 E0.2927
G1 X121.970 Y65.801 E0.3580
G1 X122.089 Y65.195 E0.3734
G1 X122.641 Y63.843 E0.4097
G1 X123.601 Y62.916 E0.4429
G1 X124.773 Y62.483 E0.4740
G1 X125.325 Y62.384 E0.4879
G1 X138.951 Y62.362 E0.8270
G1 X139.837 Y62.624 E0.8500
G1 X140.614 Y63.129 E0.8730
G1 X140.938 Y63.408 E0.8837
G1 X141.011 Y63.490 E0.8864
G1 X141.155 Y63.579 E0.8906
G1 X141.404 Y63.934 E0.9014
G1 X141.421 Y63.953 E0.9021
G1 X141.432 Y63.974 E0.9026
G1 X141.900 Y64.640 E0.9229
G1 X142.094 Y65.548 E0.9460
G1 X142.129 Y65.872 E0.9541
G1 X142.143 Y68.413 E1.0173
G1 X140.281 Y70.285 E1.0830
G1 X138.540 Y70.285 E1.1264
G1 X138.462 Y70.485 E1.1317
G1 X138.095 Y71.250 E1.1528
G1 X137.933 Y71.518 E1.1606
G1 X137.578 Y71.989 E1.1753
G1 X137.312 Y72.266 E1.1848
G1 X136.828 Y72.661 E1.2004
G1 X136.503 Y72.867 E1.2099
G1 X135.939 Y73.135 E1.2255
G1 X135.574 Y73.256 E1.2351
G1 X134.962 Y73.381 E1.2506
G1 X134.579 Y73.412 E1.2602
G1 X133.954 Y73.387 E1.2757
G1 X133.575 Y73.325 E1.2853
G1 X132.975 Y73.152 E1.3008
G1 X132.621 Y73.001 E1.3104
G1 X132.080 Y72.688 E1.3260
G1 X132.053 Y72.668 E1.3268
G1 X132.026 Y72.688 E1.3276
G1 X131.484 Y73.001 E1.3432
G92 E0.0000
G1 E-4.0000 F6000
; feature outer perimeter
G1 Z0.280 F900
G1 X129.994 Y69.993 F3600
G1 X130.166 Y69.894
G1 X130.309 Y69.756
G1 X130.415 Y69.588
G1 X130.478 Y69.400
G1 X130.494 Y69.202
G1 X130.462 Y69.006
G1 X130.207 Y68.413
G1 X130.130 Y67.973
G1 X130.156 Y67.526
G1 Z0.180 F900
G1 E0.0000 F6000
G92 E0.0000
G1 X130.130 Y67.973 E0.0111 F313
G1 X130.207 Y68.413 E0.0222
G1 X130.462 Y69.006 E0.0383
G1 X130.494 Y69.202 E0.0433
G1 X130.478 Y69.400 E0.0482
G1 X130.415 Y69.588 E0.0531
G1 X130.309 Y69.756 E0.0581
G1 X130.166 Y69.894 E0.0630
G1 X129.994 Y69.993 E0.0680
G1 X129.803 Y70.048 E0.0729
G1 X129.605 Y70.056 E0.0778
G1 X129.410 Y70.017 E0.0828
G1 X129.231 Y69.931 E0.0877
G1 X129.077 Y69.806 E0.0927
G1 X128.955 Y69.644 E0.0977
G1 X128.722 Y69.157 E0.1112
G1 X128.563 Y68.635 E0.1247
G1 X128.476 Y68.029 E0.1400
G1 X127.454 Y66.935 E0.1772
G1 X125.320 Y66.935 E0.2303
G1 X125.320 Y66.145 E0.2500
G1 X125.467 Y65.783 E0.2597
G1 X125.607 Y65.757 E0.2633
G1 X125.653 Y65.733 E0.2645
G1 X131.653 Y65.723 E0.4138
G1 X131.694 Y65.955 E0.4197
G1 X131.185 Y66.141 E0.4332
G1 X130.815 Y66.385 E0.4442
G1 X130.508 Y66.710 E0.4553
G1 X130.283 Y67.100 E0.4665
G1 X130.270 Y67.143 E0.4676
G1 X130.156 Y67.526 F313
G1 X130.130 Y67.973 F313
G1 X130.207 Y68.413
G1 X130.462 Y69.006
G1 X130.494 Y69.202
G1 X130.478 Y69.400
G1 X130.415 Y69.588
G1 X130.309 Y69.756
G1 X130.166 Y69.894
G1 X129.994 Y69.993
G1 X129.803 Y70.048
G1 X129.605 Y70.056
G1 X129.410 Y70.017
G1 X129.231 Y69.931
G1 X129.077 Y69.806
G1 X128.955 Y69.644
G1 X128.722 Y69.157
G1 X128.567 Y68.647
; feature inner perimeter
G1 X128.906 Y68.559 F3600
G92 E0.0000
G1 X128.807 Y67.870 E0.0173 F418
G1 X127.606 Y66.585 E0.0611
G1 X125.670 Y66.585 E0.1093
G1 X125.670 Y66.213 E0.1185
G1 X125.723 Y66.083 E0.1220
G1 X130.626 Y66.075 E0.2440
G1 X130.225 Y66.499 E0.2586
G1 X129.960 Y66.961 E0.2718
G1 X129.809 Y67.465 E0.2849
G1 X129.778 Y67.993 E0.2981
G1 X129.870 Y68.514 E0.3112
G1 X130.124 Y69.105 E0.3272
G1 X130.142 Y69.216 E0.3300
G1 X130.133 Y69.330 E0.3329
G1 X130.097 Y69.437 E0.3357
G1 X130.036 Y69.533 E0.3385
G1 X129.954 Y69.612 E0.3413
G1 X129.856 Y69.669 E0.3442
G1 X129.747 Y69.700 E0.3470
G1 X129.633 Y69.705 E0.3498
G1 X129.522 Y69.682 E0.3526
G1 X129.419 Y69.634 E0.3555
G1 X129.331 Y69.562 E0.3583
G1 X129.256 Y69.461 E0.3614
G1 X129.049 Y69.029 E0.3733
G1 X129.022 Y68.942 E0.3756
G1 X128.906 Y68.559 F418
G1 X129.176 Y67.976 F3600
G92 E0.0000
G1 X129.138 Y67.712 E0.0067 F418
G1 X127.940 Y66.429 E0.0503
G1 X129.863 Y66.426 E0.0982
G1 X129.636 Y66.821 E0.1095
G1 X129.462 Y67.404 E0.1247
G1 X129.438 Y67.819 E0.1350
G1 X129.429 Y67.966 F418
G1 X129.176 Y67.976
; feature outer perimeter
G1 X130.216 Y67.325 F3600
G1 X130.283 Y67.100
G1 X130.508 Y66.710
G1 X130.815 Y66.385
G1 X131.185 Y66.141
G1 X131.609 Y65.986
G1 X132.056 Y65.935
G1 X132.377 Y65.972
G1 X132.407 Y65.953
G92 E0.0000
G1 X132.448 Y65.722 E0.0058 F313
G1 X138.442 Y65.713 E0.1550
G1 X138.588 Y65.808 E0.1593
G1 X138.633 Y65.858 E0.1610
