; G-Code generated by Simplify3D(R) Version 4.1.2
; Dec 21, 2020 at 3:32:24 PM
; Settings Summary
;   processName,Process1
;   applyToModels,Pieds Table Salon2(2)
;   profileName,A10-04-15 Tevo Tornado
;   profileVersion,2020-12-06 16:18:07
;   baseProfile,Creality CR-10(2)
;   printMaterial,PLA
;   printQuality,Medium
;   printExtruders,
;   extruderName,Primary Extruder
;   extruderToolheadNumber,0
;   extruderDiameter,0.4
;   extruderAutoWidth,0
;   extruderWidth,0.35
;   extrusionMultiplier,0.95
;   extruderUseRetract,1
;   extruderRetractionDistance,4
;   extruderExtraRestartDistance,0
;   extruderRetractionZLift,0.1
;   extruderRetractionSpeed,6000
;   extruderUseCoasting,1
;   extruderCoastingDistance,0.4
;   extruderUseWipe,1
;   extruderWipeDistance,5
;   primaryExtruder,0
;   layerHeight,0.15
;   topSolidLayers,5
;   bottomSolidLayers,4
;   perimeterOutlines,3
;   printPerimetersInsideOut,0
;   startPointOption,1
;   startPointOriginX,0
;   startPointOriginY,300
;   sequentialIslands,0
;   spiralVaseMode,0
;   firstLayerHeightPercentage,120
;   firstLayerWidthPercentage,100
;   firstLayerUnderspeed,0.4
;   useRaft,0
;   raftExtruder,0
;   raftTopLayers,3
;   raftBaseLayers,2
;   raftOffset,3
;   raftSeparationDistance,0.14
;   raftTopInfill,100
;   aboveRaftSpeedMultiplier,0.3
;   useSkirt,1
;   skirtExtruder,0
;   skirtLayers,1
;   skirtOutlines,2
;   skirtOffset,3
;   usePrimePillar,0
;   primePillarExtruder,999
;   primePillarWidth,12
;   primePillarLocation,7
;   primePillarSpeedMultiplier,1
;   useOozeShield,0
;   oozeShieldExtruder,999
;   oozeShieldOffset,2
;   oozeShieldOutlines,1
;   oozeShieldSidewallShape,1
;   oozeShieldSidewallAngle,30
;   oozeShieldSpeedMultiplier,1
;   infillExtruder,0
;   internalInfillPattern,Rectilinear
;   externalInfillPattern,Rectilinear
;   infillPercentage,15
;   outlineOverlapPercentage,15
;   infillExtrusionWidthPercentage,100
;   minInfillLength,5
;   infillLayerInterval,1
;   internalInfillAngles,45,-45
;   overlapInternalInfillAngles,0
;   externalInfillAngles,45,-45
;   generateSupport,0
;   supportExtruder,0
;   supportInfillPercentage,30
;   supportExtraInflation,0
;   supportBaseLayers,0
;   denseSupportExtruder,0
;   denseSupportLayers,0
;   denseSupportInfillPercentage,70
;   supportLayerInterval,1
;   supportHorizontalPartOffset,0.4
;   supportUpperSeparationLayers,1
;   supportLowerSeparationLayers,1
;   supportType,0
;   supportGridSpacing,4.5
;   maxOverhangAngle,45
;   supportAngles,0
;   temperatureName,Primary Extruder,Heated Bed
;   temperatureNumber,0,0
;   temperatureSetpointCount,2,2
;   temperatureSetpointLayers,1,2,1,2
;   temperatureSetpointTemperatures,215,210,55,50
;   temperatureStabilizeAtStartup,1,1
;   temperatureHeatedBed,0,1
;   fanLayers,1,2
;   fanSpeeds,0,100
;   blipFanToFullPower,0
;   adjustSpeedForCooling,1
;   minSpeedLayerTime,15
;   minCoolingSpeedSlowdown,20
;   increaseFanForCooling,1
;   minFanLayerTime,25
;   maxCoolingFanSpeed,100
;   increaseFanForBridging,1
;   bridgingFanSpeed,100
;   use5D,1
;   relativeEdistances,0
;   allowEaxisZeroing,1
;   independentExtruderAxes,0
;   includeM10123,0
;   stickySupport,1
;   applyToolheadOffsets,0
;   gcodeXoffset,0
;   gcodeYoffset,0
;   gcodeZoffset,0
;   overrideMachineDefinition,1
;   machineTypeOverride,0
;   strokeXoverride,300
;   strokeYoverride,300
;   strokeZoverride,400
;   originOffsetXoverride,0
;   originOffsetYoverride,0
;   originOffsetZoverride,0
;   homeXdirOverride,-1
;   homeYdirOverride,-1
;   homeZdirOverride,-1
;   flipXoverride,1
;   flipYoverride,-1
;   flipZoverride,1
;   toolheadOffsets,0,0|0,0|0,0|0,0|0,0|0,0
;   overrideFirmwareConfiguration,1
;   firmwareTypeOverride,RepRap (Marlin/Repetier/Sprinter)
;   GPXconfigOverride,r2
;   baudRateOverride,250000
;   overridePrinterModels,1
;   printerModelsOverride
;   startingGcode,;,; -]H.P.B[- MarshMalloW  ,; $VER: StartScript 1.02 (26.12.2019) MarshMalloW,;,; Begin Startcode,;,M117 *Preheat*     	; Preheat,;extruder0_temperature,M104 S[extruder0_temperature]  ,M109 S[extruder0_temperature] ,M109 R[extruder0_temperature] ,;,M117 *Auto-leveling*     	; Auto-leveling,M107                   	; Turn layer fan off,G21                    	; Set to metric [change to G20 if you want Imperial],G90                    	; Force coordinates to be absolute relative to the origin,G28                    	; Home X/Y/Z axis,G29                    	; Auto-leveling (BL-Touch),;,M117 *Start Clean*     	; Indicate nozzle clean in progress on LCD,G92 E0                 	; Set Extruder to 0 ,G1 X0 Y0 F2000         	; Move X and Y to 0 with speed 2000 (mm/min),G1 Z0.1 F1000          	; Move Z to   0.1 with speed 1000 (mm/min),G1 X8.0 F2000          	; Move X to   8.0 with speed 2000 (mm/min),G1 Y60.0 E4.0 F1000.0  	; Move Y to  60 and Extruder with 4.0 with speed 1000 (mm/min),G1 Y100.0 E8.5 F1000.0 	; Move Y to 100 and Extruder with 8.5 with speed 1000 (mm/min),G92 E0                 	; Set extruder to 0,G1 X16.0 F3000         	; Move X to 16.0 with speed 3000 (mm/min),G1 Y60.0 F3000         	; Move Y to 60.0 with speed 3000 (mm/min),M117 *End Clean*       	; Indicate nozzle clean in progress on LCD,G1 Z5 F3000            	; Move Z to  5.0 with speed 3000 (mm/min),G1 X20.0 F3000         	; Move X to 20.0 with speed 3000 (mm/min),G1 Y20.0 F3000         	; Move Y to 20.0 with speed 3000 (mm/min),; ,M117 *Printing...*     	; Start printing msg on LCD,;,; End Startcode,;,; Begin printing with sliced GCode after here,;
;   layerChangeGcode,
;   retractionGcode,
;   toolChangeGcode,
;   endingGcode,;,; init 181010,;,;M107 			; Fan off,;G1 E-1 F300 			; Retract the filament a bit before lifting the nozzle,;M104 S0 			; Turn off extruder,;M140 S0 			; Turn off bed,;G91			; Relative positioning,;G28 X0 Y0 			; Move X/Y to min endstops so the head is out of teh way,;M84 			; Disable motors,;G90 			; Absolute positioning,;M117 Print ready...,,;,; // From Cura 181010,; // End_gcode,G92 E0			; Zero the extruded length,;G1 E-30 F300		; Retract E -30,M106 S0			; Turn off cooling fan,M104 S0			; Turn off temperature,M140 S0		     	; Turn off bed,G91			; Relative positioning,G1 E-1 F300			; Retract the filament a bit before lifting the nozzle to release some of the pressure,G1 Z+20 E-5 X-20 Y-20 F7200	; Move Z up a bit and retract filament even more,G1 X0 Y150 F10000		; Move right min,M107			; Turn off layer fan,M84			; Disable motors,G90			; Absolute positioning,M117 *The-End* 		; End msg,;,
;   exportFileFormat,gcode
;   celebration,0
;   celebrationSong,Star Wars
;   postProcessing,|{REPLACE "; layer " "M117 INDICATOR-Layer"}|{REPLACE ", Z = " "\n; Z="}
;   defaultSpeed,2400
;   outlineUnderspeed,0.6
;   solidInfillUnderspeed,0.8
;   supportUnderspeed,0.8
;   rapidXYspeed,3600
;   rapidZspeed,900
;   minBridgingArea,50
;   bridgingExtraInflation,0.2
;   bridgingExtrusionMultiplier,1
;   bridgingSpeedMultiplier,0.6
;   useFixedBridgingAngle,0
;   fixedBridgingAngle,0
;   applyBridgingToPerimeters,0
;   filamentDiameters,1.75|1.75|1.75|1.75|1.75|1.75
;   filamentPricesPerKg,30|46|46|46|46|46
;   filamentDensities,1.25|1.25|1.25|1.25|1.25|1.25
;   useMinPrintHeight,0
;   minPrintHeight,0
;   useMaxPrintHeight,0
;   maxPrintHeight,50
;   useDiaphragm,0
;   diaphragmLayerInterval,20
;   robustSlicing,1
;   mergeAllIntoSolid,0
;   onlyRetractWhenCrossingOutline,1
;   retractBetweenLayers,1
;   useRetractionMinTravel,0
;   retractionMinTravel,3
;   retractWhileWiping,1
;   onlyWipeOutlines,1
;   avoidCrossingOutline,1
;   maxMovementDetourFactor,3
;   toolChangeRetractionDistance,12
;   toolChangeExtraRestartDistance,-0.5
;   toolChangeRetractionSpeed,600
;   externalThinWallType,1
;   internalThinWallType,1
;   thinWallAllowedOverlapPercentage,20
;   singleExtrusionMinLength,1
;   singleExtrusionMinPrintingWidthPercentage,50
;   singleExtrusionMaxPrintingWidthPercentage,200
;   singleExtrusionEndpointExtension,0.2
;   horizontalSizeCompensation,0
G90
M82
M106 S0
M140 S55
M190 S55
;
; -]H.P.B[- MarshMalloW  
; $VER: StartScript 1.02 (26.12.2019) MarshMalloW
;
; Begin Startcode
;
M117 *Preheat*     	; Preheat
;extruder0_temperature
M104 S215  
M109 S215 
M109 R215 
;
M117 *Auto-leveling*     	; Auto-leveling
M107                   	; Turn layer fan off
G21                    	; Set to metric [change to G20 if you want Imperial]
G90                    	; Force coordinates to be absolute relative to the origin
G28                    	; Home X/Y/Z axis
G29                    	; Auto-leveling (BL-Touch)
;
M117 *Start Clean*     	; Indicate nozzle clean in progress on LCD
G92 E0                 	; Set Extruder to 0 
G1 X0 Y0 F2000         	; Move X and Y to 0 with speed 2000 (mm/min)
G1 Z0.1 F1000          	; Move Z to   0.1 with speed 1000 (mm/min)
G1 X8.0 F2000          	; Move X to   8.0 with speed 2000 (mm/min)
G1 Y60.0 E4.0 F1000.0  	; Move Y to  60 and Extruder with 4.0 with speed 1000 (mm/min)
G1 Y100.0 E8.5 F1000.0 	; Move Y to 100 and Extruder with 8.5 with speed 1000 (mm/min)
G92 E0                 	; Set extruder to 0
G1 X16.0 F3000         	; Move X to 16.0 with speed 3000 (mm/min)
G1 Y60.0 F3000         	; Move Y to 60.0 with speed 3000 (mm/min)
M117 *End Clean*       	; Indicate nozzle clean in progress on LCD
G1 Z5 F3000            	; Move Z to  5.0 with speed 3000 (mm/min)
G1 X20.0 F3000         	; Move X to 20.0 with speed 3000 (mm/min)
G1 Y20.0 F3000         	; Move Y to 20.0 with speed 3000 (mm/min)
; 
M117 *Printing...*     	; Start printing msg on LCD
;
; End Startcode
;
; Begin printing with sliced GCode after here
;
; process Process1
M117 INDICATOR-Layer1
; Z=0.180
T0
G92 E0.0000
G1 E-4.0000 F6000
; feature skirt
; tool H0.180 W0.350
G1 Z0.180 F900
G1 X142.869 Y83.765 F3600
G1 E0.0000 F6000
G92 E0.0000
G1 X144.447 Y84.627 E0.0447 F960
G1 X144.515 Y84.733 E0.0479
G1 X144.650 Y84.798 E0.0516
G1 X145.726 Y86.516 E0.1020
G1 X145.719 Y102.085 E0.4894
G1 X144.857 Y103.663 E0.5342
G1 X144.751 Y103.731 E0.5373
G1 X144.686 Y103.866 E0.5410
G1 X142.968 Y104.943 E0.5915
G1 X130.151 Y104.937 E0.9104
G1 X129.752 Y104.891 E0.9204
G1 X128.330 Y104.561 E0.9567
G1 X126.896 Y103.108 E1.0075
G1 X126.588 Y101.698 E1.0434
G1 X126.547 Y101.321 E1.0529
G1 X126.541 Y86.516 E1.4213
G1 X127.617 Y84.798 E1.4717
G1 X127.970 Y84.627 E1.4815
G1 X128.727 Y84.068 E1.5049
G1 X129.618 Y83.820 E1.5279
G1 X130.095 Y83.754 E1.5399
G1 X142.869 Y83.765 E1.8577
G92 E0.0000
G1 E-4.0000 F6000
G1 Z0.280 F900
G1 X141.866 Y87.454 F3600
G1 X140.282 Y87.454
G1 X130.616 Y101.237
G1 X130.373 Y101.237
G1 X130.269 Y101.212
G1 X128.508 Y104.243
G1 Z0.180 F900
G1 E0.0000 F6000
G92 E0.0000
G1 X127.216 Y102.934 E0.0458 F960
G1 X126.934 Y101.641 E0.0787
G1 X126.897 Y101.302 E0.0872
G1 X126.891 Y86.617 E0.4526
G1 X127.860 Y85.069 E0.4980
G1 X128.152 Y84.928 E0.5061
G1 X128.883 Y84.388 E0.5287
G1 X129.689 Y84.163 E0.5495
G1 X130.119 Y84.104 E0.5603
G1 X142.780 Y84.115 E0.8754
G1 X144.201 Y84.891 E0.9156
G1 X144.274 Y85.005 E0.9190
G1 X144.406 Y85.069 E0.9227
G1 X145.376 Y86.617 E0.9681
G1 X145.369 Y101.996 E1.3508
G1 X144.593 Y103.417 E1.3911
G1 X144.479 Y103.490 E1.3944
G1 X144.415 Y103.623 E1.3981
G1 X142.867 Y104.593 E1.4436
G1 X130.171 Y104.587 E1.7595
G1 X129.812 Y104.545 E1.7685
G1 X128.508 Y104.243 E1.8018
G92 E0.0000
G1 E-4.0000 F6000
; feature outer perimeter
G1 Z0.280 F900
G1 X130.269 Y101.212 F3600
G1 X130.373 Y101.237
G1 X141.348 Y101.242
G1 X142.029 Y101.083
G1 Z0.180 F900
G1 E0.0000 F6000
G92 E0.0000
G1 X141.875 Y101.182 E0.0046 F576
G1 X141.846 Y101.242 E0.0062
G1 X130.373 Y101.237 E0.2917
G1 X130.247 Y101.207 E0.2949
G1 X130.250 Y92.850 E0.5029
G1 X130.242 Y87.638 E0.6326
G1 X130.302 Y87.609 E0.6342
G1 X130.401 Y87.454 E0.6388
G1 X141.866 Y87.454 E0.9241
G1 X141.965 Y87.609 E0.9286
G1 X142.025 Y87.638 E0.9303
G1 X142.029 Y100.683 E1.2549
G1 X142.029 Y101.083 F576
G1 X141.875 Y101.182 F576
G1 X141.846 Y101.242
G1 X137.096 Y101.240
; feature inner perimeter
G1 X141.679 Y100.892 F3600
G92 E0.0000
G1 X130.597 Y100.887 E0.2758 F768
G1 X130.600 Y92.850 E0.4757
G1 X130.592 Y87.804 E0.6013
G1 X141.675 Y87.804 E0.8771
G1 X141.679 Y100.492 E1.1928
G1 X141.679 Y100.892 F768
G1 X141.329 Y100.542 F3600
G92 E0.0000
G1 X130.947 Y100.537 E0.2583 F768
G1 X130.950 Y92.850 E0.4496
G1 X130.942 Y88.154 E0.5664
G1 X141.326 Y88.154 E0.8248
G1 X141.329 Y100.142 E1.1231
G1 X141.329 Y100.542 F768
; feature solid layer
G1 X131.628 Y100.240 F3600
G92 E0.0000
G1 X131.245 Y99.856 E0.0135 F768
G1 X131.245 Y99.361 E0.0258
G1 X132.124 Y100.240 E0.0567
G1 X132.619 Y100.240 E0.0690
G1 X131.245 Y98.867 E0.1174
G1 X131.245 Y98.372 E0.1297
G1 X133.114 Y100.240 E0.1954
G1 X133.609 Y100.241 E0.2078
G1 X131.246 Y97.877 E0.2910
G1 X131.246 Y97.382 E0.3033
G1 X134.105 Y100.241 E0.4039
G1 X134.600 Y100.241 E0.4162
G1 X131.246 Y96.887 E0.5342
G1 X131.246 Y96.392 E0.5465
G1 X135.095 Y100.241 E0.6820
G1 X135.590 Y100.242 E0.6943
G1 X131.246 Y95.898 E0.8471
G1 X131.246 Y95.403 E0.8595
G1 X136.085 Y100.242 E1.0297
G1 X136.581 Y100.242 E1.0421
G1 X131.246 Y94.908 E1.2298
G1 X131.247 Y94.413 E1.2421
G1 X137.076 Y100.242 E1.4472
G1 X137.571 Y100.243 E1.4595
G1 X131.247 Y93.918 E1.6821
G1 X131.247 Y93.423 E1.6944
G1 X138.066 Y100.243 E1.9344
G1 X138.561 Y100.243 E1.9467
G1 X131.247 Y92.929 E2.2041
G1 X131.247 Y92.850 E2.2060
G1 X131.246 Y92.433 E2.2164
G1 X139.057 Y100.243 E2.4912
G1 X139.552 Y100.244 E2.5036
G1 X131.246 Y91.937 E2.7959
G1 X131.245 Y91.442 E2.8082
G1 X140.047 Y100.244 E3.1179
G1 X140.542 Y100.244 E3.1303
G1 X131.244 Y90.946 E3.4575
G1 X131.243 Y90.450 E3.4698
G1 X141.031 Y100.238 E3.8142
G1 X141.031 Y99.743 E3.8265
G1 X131.243 Y89.954 E4.1710
G1 X131.242 Y89.459 E4.1833
G1 X141.031 Y99.248 E4.5278
G1 X141.031 Y98.753 E4.5401
G1 X131.241 Y88.963 E4.8846
G1 X131.240 Y88.467 E4.8970
G1 X141.031 Y98.258 E5.2415
G1 X141.031 Y97.763 E5.2538
G1 X131.720 Y88.452 E5.5815
G1 X132.215 Y88.452 E5.5938
G1 X141.031 Y97.268 E5.9040
G1 X141.030 Y96.772 E5.9163
G1 X132.710 Y88.452 E6.2091
G1 X133.205 Y88.452 E6.2214
G1 X141.030 Y96.277 E6.4968
G1 X141.030 Y95.782 E6.5091
G1 X133.700 Y88.452 E6.7671
G1 X134.195 Y88.452 E6.7794
G1 X141.030 Y95.287 E7.0199
G1 X141.030 Y94.792 E7.0322
G1 X134.690 Y88.452 E7.2553
G1 X135.185 Y88.452 E7.2676
G1 X141.030 Y94.297 E7.4733
G1 X141.030 Y93.802 E7.4856
G1 X135.680 Y88.452 E7.6739
G1 X136.175 Y88.452 E7.6862
G1 X141.029 Y93.307 E7.8570
G1 X141.029 Y92.811 E7.8694
G1 X136.670 Y88.452 E8.0228
G1 X137.165 Y88.452 E8.0351
G1 X141.029 Y92.316 E8.1711
G1 X141.029 Y91.821 E8.1834
G1 X137.660 Y88.452 E8.3019
G1 X138.155 Y88.452 E8.3143
G1 X141.029 Y91.326 E8.4154
G1 X141.029 Y90.831 E8.4277
G1 X138.650 Y88.452 E8.5114
G1 X139.145 Y88.452 E8.5238
G1 X141.029 Y90.336 E8.5901
G1 X141.028 Y89.841 E8.6024
G1 X139.640 Y88.452 E8.6512
G1 X140.135 Y88.452 E8.6636
G1 X141.028 Y89.346 E8.6950
G1 X141.028 Y88.851 E8.7073
G1 X140.912 Y88.735 E8.7114
G1 X140.630 Y88.452 F768
G92 E0.0000
G1 E-4.0000 F6000
M117 INDICATOR-Layer2
; Z=0.330
M106 S255
M140 S50
M104 S210 T0
; feature outer perimeter
; tool H0.150 W0.350
G1 Z0.330 F900
G1 X131.984 Y87.454 F3600
G1 X130.401 Y87.454
G1 X130.302 Y87.609
G1 X130.242 Y87.638
G1 X129.886 Y87.212
G1 E0.0000 F6000
G92 E0.0000
G1 X129.938 Y87.153 E0.0016 F1440
G1 X130.120 Y87.058 E0.0059
G1 X130.153 Y87.049 E0.0066
G1 X142.114 Y87.049 E0.2546
G1 X142.146 Y87.058 E0.2553
G1 X142.329 Y87.153 E0.2596
G1 X142.382 Y87.214 E0.2613
G1 X142.432 Y87.376 E0.2648
G1 X142.435 Y87.709 E0.2717
G1 X142.417 Y92.851 E0.3783
G1 X142.434 Y101.347 E0.5545
G1 X142.331 Y101.546 E0.5591
G1 X142.271 Y101.598 E0.5608
G1 X142.094 Y101.650 E0.5646
G1 X130.171 Y101.637 E0.8118
G1 X129.944 Y101.594 E0.8166
G1 X129.857 Y101.399 E0.8211
G1 X129.847 Y101.318 E0.8227
G1 X129.850 Y92.850 E0.9983
G1 X129.835 Y87.605 E1.1071
G1 X129.834 Y87.390 F1440
G1 X129.886 Y87.212
G1 X129.938 Y87.153 F1440
G1 X130.120 Y87.058
G1 X130.153 Y87.049
G1 X134.835 Y87.049
; feature inner perimeter
G1 X130.184 Y87.399 F3600
G92 E0.0000
G1 X142.082 Y87.399 E0.2467 F1920
G1 X142.085 Y87.710 E0.2532
