; G-Code generated by Simplify3D(R) Version 4.1.2
; Nov 13, 2020 at 2:04:15 PM
; Settings Summary
;   processName,Process1
;   applyToModels,Pieds Table Salon
;   profileName,A04-04-35 Tevo Tornado
;   profileVersion,2020-08-20 21:18:05
;   baseProfile,Creality CR-10(2)
;   printMaterial,PLA
;   printQuality,Medium
;   printExtruders,
;   extruderName,Primary Extruder
;   extruderToolheadNumber,0
;   extruderDiameter,0.4
;   extruderAutoWidth,0
;   extruderWidth,0.35
;   extrusionMultiplier,0.95
;   extruderUseRetract,1
;   extruderRetractionDistance,4
;   extruderExtraRestartDistance,0
;   extruderRetractionZLift,0.3
;   extruderRetractionSpeed,3000
;   extruderUseCoasting,1
;   extruderCoastingDistance,0.8
;   extruderUseWipe,0
;   extruderWipeDistance,4
;   primaryExtruder,0
;   layerHeight,0.15
;   topSolidLayers,4
;   bottomSolidLayers,3
;   perimeterOutlines,3
;   printPerimetersInsideOut,0
;   startPointOption,1
;   startPointOriginX,0
;   startPointOriginY,300
;   sequentialIslands,0
;   spiralVaseMode,0
;   firstLayerHeightPercentage,120
;   firstLayerWidthPercentage,100
;   firstLayerUnderspeed,0.35
;   useRaft,0
;   raftExtruder,0
;   raftTopLayers,3
;   raftBaseLayers,2
;   raftOffset,3
;   raftSeparationDistance,0.14
;   raftTopInfill,100
;   aboveRaftSpeedMultiplier,0.3
;   useSkirt,1
;   skirtExtruder,0
;   skirtLayers,1
;   skirtOutlines,3
;   skirtOffset,2
;   usePrimePillar,0
;   primePillarExtruder,999
;   primePillarWidth,12
;   primePillarLocation,7
;   primePillarSpeedMultiplier,1
;   useOozeShield,0
;   oozeShieldExtruder,999
;   oozeShieldOffset,2
;   oozeShieldOutlines,1
;   oozeShieldSidewallShape,1
;   oozeShieldSidewallAngle,30
;   oozeShieldSpeedMultiplier,1
;   infillExtruder,0
;   internalInfillPattern,Rectilinear
;   externalInfillPattern,Rectilinear
;   infillPercentage,35
;   outlineOverlapPercentage,15
;   infillExtrusionWidthPercentage,100
;   minInfillLength,5
;   infillLayerInterval,1
;   internalInfillAngles,45,-45
;   overlapInternalInfillAngles,0
;   externalInfillAngles,45,-45
;   generateSupport,0
;   supportExtruder,0
;   supportInfillPercentage,30
;   supportExtraInflation,0
;   supportBaseLayers,0
;   denseSupportExtruder,0
;   denseSupportLayers,0
;   denseSupportInfillPercentage,70
;   supportLayerInterval,1
;   supportHorizontalPartOffset,0.4
;   supportUpperSeparationLayers,1
;   supportLowerSeparationLayers,1
;   supportType,0
;   supportGridSpacing,4.5
;   maxOverhangAngle,45
;   supportAngles,0
;   temperatureName,Primary Extruder,Heated Bed
;   temperatureNumber,0,0
;   temperatureSetpointCount,1,1
;   temperatureSetpointLayers,1,1
;   temperatureSetpointTemperatures,215,55
;   temperatureStabilizeAtStartup,1,1
;   temperatureHeatedBed,0,1
;   fanLayers,1,2
;   fanSpeeds,0,100
;   blipFanToFullPower,0
;   adjustSpeedForCooling,1
;   minSpeedLayerTime,15
;   minCoolingSpeedSlowdown,50
;   increaseFanForCooling,1
;   minFanLayerTime,25
;   maxCoolingFanSpeed,100
;   increaseFanForBridging,1
;   bridgingFanSpeed,100
;   use5D,1
;   relativeEdistances,0
;   allowEaxisZeroing,1
;   independentExtruderAxes,0
;   includeM10123,0
;   stickySupport,1
;   applyToolheadOffsets,0
;   gcodeXoffset,0
;   gcodeYoffset,0
;   gcodeZoffset,0
;   overrideMachineDefinition,1
;   machineTypeOverride,0
;   strokeXoverride,300
;   strokeYoverride,300
;   strokeZoverride,400
;   originOffsetXoverride,0
;   originOffsetYoverride,0
;   originOffsetZoverride,0
;   homeXdirOverride,-1
;   homeYdirOverride,-1
;   homeZdirOverride,-1
;   flipXoverride,1
;   flipYoverride,-1
;   flipZoverride,1
;   toolheadOffsets,0,0|0,0|0,0|0,0|0,0|0,0
;   overrideFirmwareConfiguration,1
;   firmwareTypeOverride,RepRap (Marlin/Repetier/Sprinter)
;   GPXconfigOverride,r2
;   baudRateOverride,250000
;   overridePrinterModels,1
;   printerModelsOverride
;   startingGcode,;,; -]H.P.B[- MarshMalloW  ,; $VER: StartScript 1.02 (26.12.2019) MarshMalloW,;,; Begin Startcode,;,M117 *Preheat*     	; Preheat,;extruder0_temperature,M104 S[extruder0_temperature]  ,M109 S[extruder0_temperature] ,M109 R[extruder0_temperature] ,;,M117 *Auto-leveling*     	; Auto-leveling,M107                   	; Turn layer fan off,G21                    	; Set to metric [change to G20 if you want Imperial],G90                    	; Force coordinates to be absolute relative to the origin,G28                    	; Home X/Y/Z axis,G29                    	; Auto-leveling (BL-Touch),;,M117 *Start Clean*     	; Indicate nozzle clean in progress on LCD,G92 E0                 	; Set Extruder to 0 ,G1 X0 Y0 F2000         	; Move X and Y to 0 with speed 2000 (mm/min),G1 Z0.1 F1000          	; Move Z to   0.1 with speed 1000 (mm/min),G1 X8.0 F2000          	; Move X to   8.0 with speed 2000 (mm/min),G1 Y60.0 E4.0 F1000.0  	; Move Y to  60 and Extruder with 4.0 with speed 1000 (mm/min),G1 Y100.0 E8.5 F1000.0 	; Move Y to 100 and Extruder with 8.5 with speed 1000 (mm/min),G92 E0                 	; Set extruder to 0,G1 X16.0 F3000         	; Move X to 16.0 with speed 3000 (mm/min),G1 Y60.0 F3000         	; Move Y to 60.0 with speed 3000 (mm/min),M117 *End Clean*       	; Indicate nozzle clean in progress on LCD,G1 Z5 F3000            	; Move Z to  5.0 with speed 3000 (mm/min),G1 X20.0 F3000         	; Move X to 20.0 with speed 3000 (mm/min),G1 Y20.0 F3000         	; Move Y to 20.0 with speed 3000 (mm/min),; ,M117 *Printing...*     	; Start printing msg on LCD,;,; End Startcode,;,; Begin printing with sliced GCode after here,;
;   layerChangeGcode,
;   retractionGcode,
;   toolChangeGcode,
;   endingGcode,;,; init 181010,;,;M107 			; Fan off,;G1 E-1 F300 			; Retract the filament a bit before lifting the nozzle,;M104 S0 			; Turn off extruder,;M140 S0 			; Turn off bed,;G91			; Relative positioning,;G28 X0 Y0 			; Move X/Y to min endstops so the head is out of teh way,;M84 			; Disable motors,;G90 			; Absolute positioning,;M117 Print ready...,,;,; // From Cura 181010,; // End_gcode,G92 E0			; Zero the extruded length,;G1 E-30 F300		; Retract E -30,M106 S0			; Turn off cooling fan,M104 S0			; Turn off temperature,M140 S0		     	; Turn off bed,G91			; Relative positioning,G1 E-1 F300			; Retract the filament a bit before lifting the nozzle to release some of the pressure,G1 Z+20 E-5 X-20 Y-20 F7200	; Move Z up a bit and retract filament even more,G1 X0 Y150 F10000		; Move right min,M107			; Turn off layer fan,M84			; Disable motors,G90			; Absolute positioning,M117 *The-End* 		; End msg,;,
;   exportFileFormat,gcode
;   celebration,0
;   celebrationSong,Star Wars
;   postProcessing,|{REPLACE "; layer " "M117 INDICATOR-Layer"}|{REPLACE ", Z = " "\n; Z="}
;   defaultSpeed,1800
;   outlineUnderspeed,0.5
;   solidInfillUnderspeed,0.8
;   supportUnderspeed,0.8
;   rapidXYspeed,6000
;   rapidZspeed,1002
;   minBridgingArea,50
;   bridgingExtraInflation,0.2
;   bridgingExtrusionMultiplier,1
;   bridgingSpeedMultiplier,0.6
;   useFixedBridgingAngle,0
;   fixedBridgingAngle,0
;   applyBridgingToPerimeters,0
;   filamentDiameters,1.75|1.75|1.75|1.75|1.75|1.75
;   filamentPricesPerKg,30|46|46|46|46|46
;   filamentDensities,1.25|1.25|1.25|1.25|1.25|1.25
;   useMinPrintHeight,0
;   minPrintHeight,0
;   useMaxPrintHeight,0
;   maxPrintHeight,9
;   useDiaphragm,0
;   diaphragmLayerInterval,20
;   robustSlicing,1
;   mergeAllIntoSolid,0
;   onlyRetractWhenCrossingOutline,1
;   retractBetweenLayers,0
;   useRetractionMinTravel,0
;   retractionMinTravel,3
;   retractWhileWiping,0
;   onlyWipeOutlines,1
;   avoidCrossingOutline,1
;   maxMovementDetourFactor,3
;   toolChangeRetractionDistance,12
;   toolChangeExtraRestartDistance,-0.5
;   toolChangeRetractionSpeed,600
;   externalThinWallType,1
;   internalThinWallType,1
;   thinWallAllowedOverlapPercentage,10
;   singleExtrusionMinLength,1
;   singleExtrusionMinPrintingWidthPercentage,50
;   singleExtrusionMaxPrintingWidthPercentage,200
;   singleExtrusionEndpointExtension,0.2
;   horizontalSizeCompensation,0
G90
M82
M106 S0
M140 S55
M190 S55
;
; -]H.P.B[- MarshMalloW  
; $VER: StartScript 1.02 (26.12.2019) MarshMalloW
;
; Begin Startcode
;
M117 *Preheat*     	; Preheat
;extruder0_temperature
M104 S215  
M109 S215 
M109 R215 
;
M117 *Auto-leveling*     	; Auto-leveling
M107                   	; Turn layer fan off
G21                    	; Set to metric [change to G20 if you want Imperial]
G90                    	; Force coordinates to be absolute relative to the origin
G28                    	; Home X/Y/Z axis
G29                    	; Auto-leveling (BL-Touch)
;
M117 *Start Clean*     	; Indicate nozzle clean in progress on LCD
G92 E0                 	; Set Extruder to 0 
G1 X0 Y0 F2000         	; Move X and Y to 0 with speed 2000 (mm/min)
G1 Z0.1 F1000          	; Move Z to   0.1 with speed 1000 (mm/min)
G1 X8.0 F2000          	; Move X to   8.0 with speed 2000 (mm/min)
G1 Y60.0 E4.0 F1000.0  	; Move Y to  60 and Extruder with 4.0 with speed 1000 (mm/min)
G1 Y100.0 E8.5 F1000.0 	; Move Y to 100 and Extruder with 8.5 with speed 1000 (mm/min)
G92 E0                 	; Set extruder to 0
G1 X16.0 F3000         	; Move X to 16.0 with speed 3000 (mm/min)
G1 Y60.0 F3000         	; Move Y to 60.0 with speed 3000 (mm/min)
M117 *End Clean*       	; Indicate nozzle clean in progress on LCD
G1 Z5 F3000            	; Move Z to  5.0 with speed 3000 (mm/min)
G1 X20.0 F3000         	; Move X to 20.0 with speed 3000 (mm/min)
G1 Y20.0 F3000         	; Move Y to 20.0 with speed 3000 (mm/min)
; 
M117 *Printing...*     	; Start printing msg on LCD
;
; End Startcode
;
; Begin printing with sliced GCode after here
;
; process Process1
M117 INDICATOR-Layer1
; Z=0.180
T0
G92 E0.0000
G1 E-4.0000 F3000
; feature skirt
; tool H0.180 W0.350
G1 Z0.300 F1002
G1 X159.541 Y82.625 F6000
G1 Z0.180 F1002
G1 E0.0000 F3000
G92 E0.0000
G1 X160.141 Y82.693 E0.0150 F630
G1 X160.456 Y82.765 E0.0231
G1 X161.103 Y82.991 E0.0401
G1 X161.394 Y83.131 E0.0481
G1 X161.974 Y83.495 E0.0652
G1 X162.226 Y83.697 E0.0732
G1 X162.711 Y84.181 E0.0903
G1 X162.912 Y84.434 E0.0983
G1 X163.276 Y85.014 E0.1154
G1 X163.416 Y85.305 E0.1234
G1 X163.643 Y85.951 E0.1404
G1 X163.715 Y86.266 E0.1485
G1 X163.782 Y86.866 E0.1635
G1 X163.791 Y87.028 E0.1675
G1 X163.791 Y89.189 E0.2213
G1 X163.782 Y89.350 E0.2253
G1 X163.715 Y89.951 E0.2404
G1 X163.643 Y90.265 E0.2484
G1 X163.416 Y90.912 E0.2654
G1 X163.276 Y91.203 E0.2735
G1 X162.912 Y91.783 E0.2905
G1 X162.711 Y92.035 E0.2985
G1 X162.226 Y92.520 E0.3156
G1 X161.974 Y92.721 E0.3236
G1 X161.551 Y92.987 E0.3361
G1 X161.591 Y93.596 E0.3512
G1 X161.577 Y93.918 E0.3593
G1 X161.111 Y96.849 E0.4331
G1 X160.321 Y97.257 E0.4552
G1 X160.192 Y97.398 E0.4600
G1 X159.668 Y97.808 E0.4765
G1 X159.261 Y98.032 E0.4881
G1 X158.682 Y98.237 E0.5034
G1 X158.263 Y98.319 E0.5140
G1 X157.670 Y98.345 E0.5288
G1 X157.315 Y98.309 E0.5377
G1 X156.824 Y98.516 E0.5509
G1 X156.296 Y98.076 E0.5681
G1 X155.226 Y98.117 E0.5947
G1 X154.935 Y97.169 E0.6194
G1 X153.064 Y96.284 E0.6709
G1 X152.790 Y96.857 E0.6867
G1 X152.387 Y97.366 E0.7029
G1 X151.606 Y97.993 E0.7278
G1 X150.974 Y98.287 E0.7451
G1 X150.054 Y98.468 E0.7684
G1 X149.533 Y98.475 E0.7814
G1 X148.856 Y98.360 E0.7985
G1 X148.366 Y98.183 E0.8115
G1 X147.557 Y97.709 E0.8348
G1 X147.057 Y97.225 E0.8521
G1 X146.546 Y96.409 E0.8761
G1 X146.343 Y95.874 E0.8903
G1 X146.023 Y93.931 E0.9393
G1 X146.007 Y93.600 E0.9476
G1 X146.035 Y93.182 E0.9580
G1 X145.611 Y92.758 E0.9729
G1 X144.541 Y92.252 E1.0024
G1 X144.590 Y92.071 E1.0070
G1 X143.468 Y91.366 E1.0400
G1 X144.001 Y90.394 E1.0676
G1 X143.956 Y90.265 E1.0710
G1 X143.920 Y90.110 E1.0749
G1 X143.807 Y89.928 E1.0803
G1 X143.807 Y89.270 E1.0966
G1 X143.553 Y87.018 E1.1530
G1 X143.812 Y86.943 E1.1597
G1 X143.816 Y86.866 E1.1616
G1 X143.884 Y86.266 E1.1767
G1 X143.956 Y85.951 E1.1847
G1 X144.182 Y85.305 E1.2018
G1 X144.322 Y85.014 E1.2098
G1 X144.686 Y84.434 E1.2268
G1 X144.888 Y84.181 E1.2349
G1 X145.372 Y83.697 E1.2519
G1 X145.625 Y83.495 E1.2600
G1 X146.205 Y83.131 E1.2770
G1 X146.496 Y82.991 E1.2850
G1 X147.142 Y82.765 E1.3021
G1 X147.457 Y82.693 E1.3101
G1 X148.057 Y82.625 E1.3252
G1 X148.218 Y82.616 E1.3292
G1 X159.380 Y82.616 E1.6069
G1 X159.541 Y82.625 E1.6109
G92 E0.0000
G1 E-4.0000 F3000
G1 Z0.480 F1002
G1 X159.289 Y85.666 F6000
G1 X157.672 Y85.666
G1 X155.134 Y89.795
G1 X155.079 Y89.768
G1 X154.251 Y89.583
G1 X154.185 Y89.568
G1 X153.268 Y89.586
G1 X152.382 Y89.819
G1 X150.944 Y91.415
G1 X153.393 Y92.628
G1 X150.018 Y98.118
G1 Z0.180 F1002
G1 E0.0000 F3000
G92 E0.0000
G1 X149.560 Y98.124 E0.0114 F630
G1 X148.946 Y98.020 E0.0269
G1 X148.516 Y97.864 E0.0383
G1 X147.770 Y97.429 E0.0598
G1 X147.331 Y97.003 E0.0750
G1 X146.861 Y96.253 E0.0970
G1 X146.683 Y95.783 E0.1095
G1 X146.371 Y93.894 E0.1572
G1 X146.357 Y93.603 E0.1644
G1 X146.394 Y93.047 E0.1783
G1 X145.815 Y92.468 E0.1987
G1 X144.956 Y92.061 E0.2223
G1 X144.997 Y91.913 E0.2261
G1 X143.933 Y91.245 E0.2574
G1 X144.382 Y90.425 E0.2806
G1 X144.292 Y90.168 E0.2874
G1 X144.248 Y89.975 E0.2923
G1 X144.157 Y89.828 E0.2967
G1 X144.157 Y89.250 E0.3110
G1 X143.934 Y87.272 E0.3606
G1 X144.157 Y87.208 E0.3663
G1 X144.157 Y87.037 E0.3706
G1 X144.165 Y86.896 E0.3741
G1 X144.229 Y86.325 E0.3884
G1 X144.292 Y86.048 E0.3955
G1 X144.506 Y85.439 E0.4115
G1 X144.629 Y85.183 E0.4186
G1 X144.972 Y84.637 E0.4347
G1 X145.149 Y84.415 E0.4417
G1 X145.606 Y83.958 E0.4578
G1 X145.827 Y83.781 E0.4648
G1 X146.374 Y83.438 E0.4809
G1 X146.630 Y83.315 E0.4880
G1 X147.239 Y83.102 E0.5040
G1 X147.516 Y83.038 E0.5111
G1 X148.087 Y82.974 E0.5254
G1 X148.228 Y82.966 E0.5289
G1 X159.370 Y82.966 E0.8061
G1 X159.512 Y82.974 E0.8097
G1 X160.083 Y83.038 E0.8240
G1 X160.359 Y83.102 E0.8310
G1 X160.969 Y83.315 E0.8471
G1 X161.224 Y83.438 E0.8542
G1 X161.771 Y83.781 E0.8702
G1 X161.993 Y83.958 E0.8773
G1 X162.449 Y84.415 E0.8933
G1 X162.626 Y84.637 E0.9004
G1 X162.970 Y85.183 E0.9165
G1 X163.093 Y85.439 E0.9235
G1 X163.306 Y86.048 E0.9396
G1 X163.369 Y86.325 E0.9466
G1 X163.433 Y86.896 E0.9609
G1 X163.441 Y87.037 E0.9645
G1 X163.441 Y89.179 E1.0178
G1 X163.433 Y89.321 E1.0213
G1 X163.369 Y89.892 E1.0356
G1 X163.306 Y90.168 E1.0427
G1 X163.093 Y90.778 E1.0587
G1 X162.970 Y91.033 E1.0658
G1 X162.626 Y91.580 E1.0818
G1 X162.449 Y91.802 E1.0889
G1 X161.993 Y92.258 E1.1050
G1 X161.771 Y92.435 E1.1120
G1 X161.224 Y92.779 E1.1281
G1 X161.187 Y92.796 E1.1291
G1 X161.241 Y93.600 E1.1491
G1 X161.228 Y93.883 E1.1562
G1 X160.793 Y96.620 E1.2251
G1 X160.106 Y96.975 E1.2444
G1 X159.954 Y97.140 E1.2500
G1 X159.475 Y97.515 E1.2651
G1 X159.117 Y97.711 E1.2753
G1 X158.590 Y97.898 E1.2892
G1 X158.222 Y97.970 E1.2985
G1 X157.680 Y97.995 E1.3120
G1 X157.309 Y97.956 E1.3213
G1 X157.272 Y97.947 E1.3223
G1 X156.884 Y98.111 E1.3327
G1 X156.417 Y97.721 E1.3479
G1 X155.482 Y97.757 E1.3712
G1 X155.225 Y96.919 E1.3930
G1 X152.874 Y95.807 E1.4577
G1 X152.837 Y95.946 E1.4613
G1 X152.492 Y96.671 E1.4813
G1 X152.137 Y97.118 E1.4954
G1 X151.420 Y97.694 E1.5183
G1 X150.865 Y97.952 E1.5336
G1 X150.018 Y98.118 E1.5550
G92 E0.0000
G1 E-4.0000 F3000
G1 Z0.480 F1002
G1 X150.690 Y91.787 F6000
G1 X156.008 Y94.302
G1 X156.343 Y94.089
G1 X157.011 Y94.420
G1 X157.102 Y94.465
G1 X157.591 Y94.076
G1 X157.654 Y93.253
G1 X158.477 Y92.730
G1 X158.466 Y92.569
G1 X158.164 Y91.554
G1 X158.041 Y91.293
G1 X157.464 Y90.482
G1 X159.293 Y90.550
G1 X159.620 Y90.513
G1 X159.924 Y90.406
G1 X160.198 Y90.235
G1 X160.426 Y90.007
G1 X160.597 Y89.733
G1 X160.704 Y89.429
G1 X163.023 Y89.833
G1 Z0.180 F1002
G1 E0.0000 F3000
G92 E0.0000
G1 X162.969 Y90.071 E0.0061 F630
G1 X162.769 Y90.644 E0.0212
G1 X162.663 Y90.864 E0.0272
G1 X162.340 Y91.377 E0.0423
G1 X162.188 Y91.568 E0.0484
G1 X161.759 Y91.997 E0.0635
G1 X161.568 Y92.149 E0.0696
G1 X161.055 Y92.472 E0.0847
G1 X160.834 Y92.578 E0.0907
G1 X160.822 Y92.582 E0.0911
G1 X160.890 Y93.603 E0.1165
G1 X160.879 Y93.847 E0.1226
G1 X160.475 Y96.390 E0.1867
G1 X159.890 Y96.692 E0.2031
G1 X159.715 Y96.882 E0.2095
G1 X159.282 Y97.221 E0.2232
G1 X158.973 Y97.391 E0.2319
G1 X158.497 Y97.560 E0.2445
G1 X158.180 Y97.622 E0.2526
G1 X157.690 Y97.644 E0.2648
