; G-Code generated by Simplify3D(R) Version 4.1.2
; Nov 13, 2020 at 4:11:47 PM
; Settings Summary
;   processName,Process1
;   applyToModels,Pieds Table Salon(2)
;   profileName,A04-04-35 Tevo Tornado
;   profileVersion,2020-08-20 21:18:05
;   baseProfile,Creality CR-10(2)
;   printMaterial,PLA
;   printQuality,Medium
;   printExtruders,
;   extruderName,Primary Extruder
;   extruderToolheadNumber,0
;   extruderDiameter,0.4
;   extruderAutoWidth,0
;   extruderWidth,0.35
;   extrusionMultiplier,0.95
;   extruderUseRetract,1
;   extruderRetractionDistance,4
;   extruderExtraRestartDistance,0
;   extruderRetractionZLift,0.3
;   extruderRetractionSpeed,3000
;   extruderUseCoasting,1
;   extruderCoastingDistance,0.8
;   extruderUseWipe,0
;   extruderWipeDistance,4
;   primaryExtruder,0
;   layerHeight,0.15
;   topSolidLayers,4
;   bottomSolidLayers,3
;   perimeterOutlines,3
;   printPerimetersInsideOut,0
;   startPointOption,1
;   startPointOriginX,0
;   startPointOriginY,300
;   sequentialIslands,0
;   spiralVaseMode,0
;   firstLayerHeightPercentage,120
;   firstLayerWidthPercentage,100
;   firstLayerUnderspeed,0.35
;   useRaft,0
;   raftExtruder,0
;   raftTopLayers,3
;   raftBaseLayers,2
;   raftOffset,3
;   raftSeparationDistance,0.14
;   raftTopInfill,100
;   aboveRaftSpeedMultiplier,0.3
;   useSkirt,1
;   skirtExtruder,0
;   skirtLayers,1
;   skirtOutlines,3
;   skirtOffset,2
;   usePrimePillar,0
;   primePillarExtruder,999
;   primePillarWidth,12
;   primePillarLocation,7
;   primePillarSpeedMultiplier,1
;   useOozeShield,0
;   oozeShieldExtruder,999
;   oozeShieldOffset,2
;   oozeShieldOutlines,1
;   oozeShieldSidewallShape,1
;   oozeShieldSidewallAngle,30
;   oozeShieldSpeedMultiplier,1
;   infillExtruder,0
;   internalInfillPattern,Rectilinear
;   externalInfillPattern,Rectilinear
;   infillPercentage,35
;   outlineOverlapPercentage,15
;   infillExtrusionWidthPercentage,100
;   minInfillLength,5
;   infillLayerInterval,1
;   internalInfillAngles,45,-45
;   overlapInternalInfillAngles,0
;   externalInfillAngles,45,-45
;   generateSupport,0
;   supportExtruder,0
;   supportInfillPercentage,30
;   supportExtraInflation,0
;   supportBaseLayers,0
;   denseSupportExtruder,0
;   denseSupportLayers,0
;   denseSupportInfillPercentage,70
;   supportLayerInterval,1
;   supportHorizontalPartOffset,0.4
;   supportUpperSeparationLayers,1
;   supportLowerSeparationLayers,1
;   supportType,0
;   supportGridSpacing,4.5
;   maxOverhangAngle,45
;   supportAngles,0
;   temperatureName,Primary Extruder,Heated Bed
;   temperatureNumber,0,0
;   temperatureSetpointCount,1,1
;   temperatureSetpointLayers,1,1
;   temperatureSetpointTemperatures,215,55
;   temperatureStabilizeAtStartup,1,1
;   temperatureHeatedBed,0,1
;   fanLayers,1,2
;   fanSpeeds,0,100
;   blipFanToFullPower,0
;   adjustSpeedForCooling,1
;   minSpeedLayerTime,15
;   minCoolingSpeedSlowdown,50
;   increaseFanForCooling,1
;   minFanLayerTime,25
;   maxCoolingFanSpeed,100
;   increaseFanForBridging,1
;   bridgingFanSpeed,100
;   use5D,1
;   relativeEdistances,0
;   allowEaxisZeroing,1
;   independentExtruderAxes,0
;   includeM10123,0
;   stickySupport,1
;   applyToolheadOffsets,0
;   gcodeXoffset,0
;   gcodeYoffset,0
;   gcodeZoffset,0
;   overrideMachineDefinition,1
;   machineTypeOverride,0
;   strokeXoverride,300
;   strokeYoverride,300
;   strokeZoverride,400
;   originOffsetXoverride,0
;   originOffsetYoverride,0
;   originOffsetZoverride,0
;   homeXdirOverride,-1
;   homeYdirOverride,-1
;   homeZdirOverride,-1
;   flipXoverride,1
;   flipYoverride,-1
;   flipZoverride,1
;   toolheadOffsets,0,0|0,0|0,0|0,0|0,0|0,0
;   overrideFirmwareConfiguration,1
;   firmwareTypeOverride,RepRap (Marlin/Repetier/Sprinter)
;   GPXconfigOverride,r2
;   baudRateOverride,250000
;   overridePrinterModels,1
;   printerModelsOverride
;   startingGcode,;,; -]H.P.B[- MarshMalloW  ,; $VER: StartScript 1.02 (26.12.2019) MarshMalloW,;,; Begin Startcode,;,M117 *Preheat*     	; Preheat,;extruder0_temperature,M104 S[extruder0_temperature]  ,M109 S[extruder0_temperature] ,M109 R[extruder0_temperature] ,;,M117 *Auto-leveling*     	; Auto-leveling,M107                   	; Turn layer fan off,G21                    	; Set to metric [change to G20 if you want Imperial],G90                    	; Force coordinates to be absolute relative to the origin,G28                    	; Home X/Y/Z axis,G29                    	; Auto-leveling (BL-Touch),;,M117 *Start Clean*     	; Indicate nozzle clean in progress on LCD,G92 E0                 	; Set Extruder to 0 ,G1 X0 Y0 F2000         	; Move X and Y to 0 with speed 2000 (mm/min),G1 Z0.1 F1000          	; Move Z to   0.1 with speed 1000 (mm/min),G1 X8.0 F2000          	; Move X to   8.0 with speed 2000 (mm/min),G1 Y60.0 E4.0 F1000.0  	; Move Y to  60 and Extruder with 4.0 with speed 1000 (mm/min),G1 Y100.0 E8.5 F1000.0 	; Move Y to 100 and Extruder with 8.5 with speed 1000 (mm/min),G92 E0                 	; Set extruder to 0,G1 X16.0 F3000         	; Move X to 16.0 with speed 3000 (mm/min),G1 Y60.0 F3000         	; Move Y to 60.0 with speed 3000 (mm/min),M117 *End Clean*       	; Indicate nozzle clean in progress on LCD,G1 Z5 F3000            	; Move Z to  5.0 with speed 3000 (mm/min),G1 X20.0 F3000         	; Move X to 20.0 with speed 3000 (mm/min),G1 Y20.0 F3000         	; Move Y to 20.0 with speed 3000 (mm/min),; ,M117 *Printing...*     	; Start printing msg on LCD,;,; End Startcode,;,; Begin printing with sliced GCode after here,;
;   layerChangeGcode,
;   retractionGcode,
;   toolChangeGcode,
;   endingGcode,;,; init 181010,;,;M107 			; Fan off,;G1 E-1 F300 			; Retract the filament a bit before lifting the nozzle,;M104 S0 			; Turn off extruder,;M140 S0 			; Turn off bed,;G91			; Relative positioning,;G28 X0 Y0 			; Move X/Y to min endstops so the head is out of teh way,;M84 			; Disable motors,;G90 			; Absolute positioning,;M117 Print ready...,,;,; // From Cura 181010,; // End_gcode,G92 E0			; Zero the extruded length,;G1 E-30 F300		; Retract E -30,M106 S0			; Turn off cooling fan,M104 S0			; Turn off temperature,M140 S0		     	; Turn off bed,G91			; Relative positioning,G1 E-1 F300			; Retract the filament a bit before lifting the nozzle to release some of the pressure,G1 Z+20 E-5 X-20 Y-20 F7200	; Move Z up a bit and retract filament even more,G1 X0 Y150 F10000		; Move right min,M107			; Turn off layer fan,M84			; Disable motors,G90			; Absolute positioning,M117 *The-End* 		; End msg,;,
;   exportFileFormat,gcode
;   celebration,0
;   celebrationSong,Star Wars
;   postProcessing,|{REPLACE "; layer " "M117 INDICATOR-Layer"}|{REPLACE ", Z = " "\n; Z="}
;   defaultSpeed,1800
;   outlineUnderspeed,0.5
;   solidInfillUnderspeed,0.8
;   supportUnderspeed,0.8
;   rapidXYspeed,6000
;   rapidZspeed,1002
;   minBridgingArea,50
;   bridgingExtraInflation,0.2
;   bridgingExtrusionMultiplier,1
;   bridgingSpeedMultiplier,0.6
;   useFixedBridgingAngle,0
;   fixedBridgingAngle,0
;   applyBridgingToPerimeters,0
;   filamentDiameters,1.75|1.75|1.75|1.75|1.75|1.75
;   filamentPricesPerKg,30|46|46|46|46|46
;   filamentDensities,1.25|1.25|1.25|1.25|1.25|1.25
;   useMinPrintHeight,0
;   minPrintHeight,0
;   useMaxPrintHeight,0
;   maxPrintHeight,9
;   useDiaphragm,0
;   diaphragmLayerInterval,20
;   robustSlicing,1
;   mergeAllIntoSolid,0
;   onlyRetractWhenCrossingOutline,1
;   retractBetweenLayers,0
;   useRetractionMinTravel,0
;   retractionMinTravel,3
;   retractWhileWiping,0
;   onlyWipeOutlines,1
;   avoidCrossingOutline,1
;   maxMovementDetourFactor,3
;   toolChangeRetractionDistance,12
;   toolChangeExtraRestartDistance,-0.5
;   toolChangeRetractionSpeed,600
;   externalThinWallType,1
;   internalThinWallType,1
;   thinWallAllowedOverlapPercentage,10
;   singleExtrusionMinLength,1
;   singleExtrusionMinPrintingWidthPercentage,50
;   singleExtrusionMaxPrintingWidthPercentage,200
;   singleExtrusionEndpointExtension,0.2
;   horizontalSizeCompensation,0
G90
M82
M106 S0
M140 S55
M190 S55
;
; -]H.P.B[- MarshMalloW  
; $VER: StartScript 1.02 (26.12.2019) MarshMalloW
;
; Begin Startcode
;
M117 *Preheat*     	; Preheat
;extruder0_temperature
M104 S215  
M109 S215 
M109 R215 
;
M117 *Auto-leveling*     	; Auto-leveling
M107                   	; Turn layer fan off
G21                    	; Set to metric [change to G20 if you want Imperial]
G90                    	; Force coordinates to be absolute relative to the origin
G28                    	; Home X/Y/Z axis
G29                    	; Auto-leveling (BL-Touch)
;
M117 *Start Clean*     	; Indicate nozzle clean in progress on LCD
G92 E0                 	; Set Extruder to 0 
G1 X0 Y0 F2000         	; Move X and Y to 0 with speed 2000 (mm/min)
G1 Z0.1 F1000          	; Move Z to   0.1 with speed 1000 (mm/min)
G1 X8.0 F2000          	; Move X to   8.0 with speed 2000 (mm/min)
G1 Y60.0 E4.0 F1000.0  	; Move Y to  60 and Extruder with 4.0 with speed 1000 (mm/min)
G1 Y100.0 E8.5 F1000.0 	; Move Y to 100 and Extruder with 8.5 with speed 1000 (mm/min)
G92 E0                 	; Set extruder to 0
G1 X16.0 F3000         	; Move X to 16.0 with speed 3000 (mm/min)
G1 Y60.0 F3000         	; Move Y to 60.0 with speed 3000 (mm/min)
M117 *End Clean*       	; Indicate nozzle clean in progress on LCD
G1 Z5 F3000            	; Move Z to  5.0 with speed 3000 (mm/min)
G1 X20.0 F3000         	; Move X to 20.0 with speed 3000 (mm/min)
G1 Y20.0 F3000         	; Move Y to 20.0 with speed 3000 (mm/min)
; 
M117 *Printing...*     	; Start printing msg on LCD
;
; End Startcode
;
; Begin printing with sliced GCode after here
;
; process Process1
M117 INDICATOR-Layer1
; Z=0.180
T0
G92 E0.0000
G1 E-4.0000 F3000
; feature skirt
; tool H0.180 W0.350
G1 Z0.300 F1002
G1 X146.975 Y53.438 F6000
G1 Z0.180 F1002
G1 E0.0000 F3000
G92 E0.0000
G1 X147.549 Y53.503 E0.0144 F630
G1 X147.864 Y53.574 E0.0224
G1 X148.486 Y53.792 E0.0388
G1 X148.777 Y53.932 E0.0468
G1 X149.335 Y54.283 E0.0632
G1 X149.587 Y54.484 E0.0713
G1 X150.053 Y54.950 E0.0877
G1 X150.254 Y55.202 E0.0957
G1 X150.605 Y55.760 E0.1121
G1 X150.745 Y56.051 E0.1201
G1 X150.963 Y56.673 E0.1365
G1 X151.035 Y56.988 E0.1446
G1 X151.099 Y57.562 E0.1589
G1 X151.108 Y57.723 E0.1630
G1 X151.108 Y58.884 E0.1918
G1 X151.099 Y59.045 E0.1959
G1 X151.035 Y59.620 E0.2102
G1 X150.963 Y59.935 E0.2183
G1 X150.745 Y60.557 E0.2347
G1 X150.605 Y60.847 E0.2427
G1 X150.254 Y61.405 E0.2591
G1 X150.053 Y61.658 E0.2671
G1 X149.587 Y62.124 E0.2835
G1 X149.335 Y62.325 E0.2916
G1 X148.777 Y62.675 E0.3080
G1 X148.486 Y62.816 E0.3160
G1 X147.864 Y63.033 E0.3324
G1 X147.549 Y63.105 E0.3404
G1 X146.975 Y63.170 E0.3548
G1 X146.814 Y63.179 E0.3588
G1 X146.504 Y63.179 E0.3665
G1 X146.241 Y64.090 E0.3901
G1 X146.042 Y64.509 E0.4017
G1 X145.689 Y65.020 E0.4171
G1 X145.459 Y65.281 E0.4258
G1 X145.038 Y65.654 E0.4398
G1 X144.751 Y65.851 E0.4484
G1 X144.253 Y66.112 E0.4624
G1 X143.928 Y66.236 E0.4711
G1 X143.382 Y66.370 E0.4851
G1 X143.037 Y66.412 E0.4937
G1 X142.475 Y66.412 E0.5077
G1 X142.129 Y66.370 E0.5164
G1 X141.583 Y66.236 E0.5304
G1 X141.258 Y66.112 E0.5390
G1 X140.760 Y65.851 E0.5530
G1 X140.733 Y65.833 E0.5538
G1 X140.706 Y65.851 E0.5546
G1 X140.208 Y66.112 E0.5686
G1 X139.883 Y66.236 E0.5773
G1 X139.337 Y66.370 E0.5913
G1 X138.992 Y66.412 E0.5999
G1 X138.430 Y66.412 E0.6139
G1 X138.084 Y66.370 E0.6226
G1 X137.538 Y66.236 E0.6366
G1 X137.213 Y66.112 E0.6452
G1 X136.715 Y65.851 E0.6592
G1 X136.429 Y65.654 E0.6679
G1 X136.008 Y65.281 E0.6819
G1 X135.777 Y65.020 E0.6905
G1 X135.425 Y64.509 E0.7060
G1 X135.226 Y64.090 E0.7175
G1 X134.962 Y63.179 E0.7411
G1 X134.653 Y63.179 E0.7488
G1 X134.492 Y63.170 E0.7528
G1 X133.917 Y63.105 E0.7672
G1 X133.602 Y63.033 E0.7752
G1 X132.981 Y62.816 E0.7916
G1 X132.690 Y62.675 E0.7997
G1 X132.132 Y62.325 E0.8161
G1 X131.879 Y62.124 E0.8241
G1 X131.413 Y61.658 E0.8405
G1 X131.212 Y61.405 E0.8485
G1 X130.862 Y60.847 E0.8649
G1 X130.721 Y60.557 E0.8730
G1 X130.504 Y59.935 E0.8893
G1 X130.432 Y59.620 E0.8974
G1 X130.367 Y59.045 E0.9118
G1 X130.358 Y58.884 E0.9158
G1 X130.358 Y57.723 E0.9447
G1 X130.367 Y57.562 E0.9487
G1 X130.432 Y56.988 E0.9631
G1 X130.504 Y56.673 E0.9711
G1 X130.721 Y56.051 E0.9875
G1 X130.862 Y55.760 E0.9955
G1 X131.212 Y55.202 E1.0119
G1 X131.413 Y54.950 E1.0200
G1 X131.879 Y54.484 E1.0364
G1 X132.132 Y54.283 E1.0444
G1 X132.690 Y53.932 E1.0608
G1 X132.981 Y53.792 E1.0688
G1 X133.602 Y53.574 E1.0852
G1 X133.917 Y53.503 E1.0932
G1 X134.491 Y53.438 E1.1076
G1 X134.653 Y53.429 E1.1116
G1 X146.814 Y53.429 E1.4143
G1 X146.975 Y53.438 E1.4183
G92 E0.0000
G1 E-4.0000 F3000
G1 Z0.480 F1002
G1 X146.723 Y56.479 F6000
G1 X144.843 Y56.479
G1 X142.151 Y60.317
G1 X141.931 Y60.075
G1 X141.572 Y59.831
G1 X141.165 Y59.679
G1 X140.733 Y59.628
G1 X140.302 Y59.679
G1 X139.895 Y59.831
G1 X139.535 Y60.075
G1 X139.243 Y60.398
G1 X139.036 Y60.779
G1 X138.925 Y61.199
G1 X138.916 Y61.634
G1 X139.010 Y62.058
G1 X139.202 Y62.448
G1 X139.418 Y62.708
G1 X139.404 Y62.825
G1 X139.343 Y62.985
G1 X139.245 Y63.127
G1 X139.116 Y63.241
G1 X138.964 Y63.321
G1 X138.797 Y63.362
G1 X138.625 Y63.362
G1 X138.148 Y66.025
G1 Z0.180 F1002
G1 E0.0000 F3000
G92 E0.0000
G1 X137.643 Y65.901 E0.0129 F630
G1 X137.357 Y65.793 E0.0205
G1 X136.897 Y65.551 E0.0335
G1 X136.645 Y65.378 E0.0411
G1 X136.256 Y65.033 E0.0540
G1 X136.053 Y64.804 E0.0616
G1 X135.729 Y64.334 E0.0758
G1 X135.554 Y63.965 E0.0860
G1 X135.236 Y62.867 E0.1144
G1 X135.227 Y62.829 E0.1154
G1 X134.662 Y62.829 E0.1295
G1 X134.521 Y62.821 E0.1330
G1 X133.976 Y62.759 E0.1466
G1 X133.699 Y62.696 E0.1537
G1 X133.115 Y62.492 E0.1691
G1 X132.859 Y62.369 E0.1762
G1 X132.335 Y62.039 E0.1916
G1 X132.113 Y61.862 E0.1986
G1 X131.675 Y61.424 E0.2141
G1 X131.498 Y61.202 E0.2211
G1 X131.168 Y60.678 E0.2365
G1 X131.045 Y60.422 E0.2436
G1 X130.841 Y59.838 E0.2590
G1 X130.778 Y59.561 E0.2661
G1 X130.716 Y59.016 E0.2797
G1 X130.708 Y58.875 E0.2832
G1 X130.708 Y57.733 E0.3116
G1 X130.716 Y57.591 E0.3152
G1 X130.778 Y57.046 E0.3288
G1 X130.841 Y56.770 E0.3359
G1 X131.045 Y56.185 E0.3513
G1 X131.168 Y55.930 E0.3583
G1 X131.498 Y55.405 E0.3738
G1 X131.675 Y55.183 E0.3808
G1 X132.113 Y54.745 E0.3962
G1 X132.335 Y54.568 E0.4033
G1 X132.859 Y54.239 E0.4187
G1 X133.115 Y54.116 E0.4258
G1 X133.699 Y53.911 E0.4412
G1 X133.976 Y53.848 E0.4482
G1 X134.521 Y53.787 E0.4619
G1 X134.662 Y53.779 E0.4654
G1 X146.804 Y53.779 E0.7675
G1 X146.946 Y53.787 E0.7711
G1 X147.491 Y53.848 E0.7847
G1 X147.767 Y53.911 E0.7918
G1 X148.352 Y54.116 E0.8072
G1 X148.607 Y54.239 E0.8142
G1 X149.132 Y54.568 E0.8296
G1 X149.354 Y54.745 E0.8367
G1 X149.792 Y55.183 E0.8521
G1 X149.969 Y55.405 E0.8592
G1 X150.298 Y55.930 E0.8746
G1 X150.421 Y56.185 E0.8816
G1 X150.626 Y56.770 E0.8971
G1 X150.689 Y57.046 E0.9041
G1 X150.750 Y57.591 E0.9178
G1 X150.758 Y57.733 E0.9213
G1 X150.758 Y58.875 E0.9497
G1 X150.750 Y59.016 E0.9532
G1 X150.689 Y59.561 E0.9669
G1 X150.626 Y59.838 E0.9739
G1 X150.421 Y60.422 E0.9893
G1 X150.298 Y60.678 E0.9964
G1 X149.969 Y61.202 E1.0118
G1 X149.792 Y61.424 E1.0189
G1 X149.354 Y61.862 E1.0343
G1 X149.132 Y62.039 E1.0413
G1 X148.607 Y62.369 E1.0568
G1 X148.352 Y62.492 E1.0638
G1 X147.767 Y62.696 E1.0792
G1 X147.491 Y62.759 E1.0863
G1 X146.946 Y62.821 E1.0999
G1 X146.804 Y62.829 E1.1035
G1 X146.239 Y62.829 E1.1175
G1 X146.230 Y62.867 E1.1185
G1 X145.913 Y63.965 E1.1469
G1 X145.738 Y64.334 E1.1571
G1 X145.413 Y64.804 E1.1713
G1 X145.211 Y65.033 E1.1789
G1 X144.821 Y65.378 E1.1918
G1 X144.570 Y65.551 E1.1994
G1 X144.110 Y65.793 E1.2124
G1 X143.824 Y65.901 E1.2200
G1 X143.319 Y66.025 E1.2329
G1 X143.016 Y66.062 E1.2405
G1 X142.496 Y66.062 E1.2535
G1 X142.192 Y66.025 E1.2611
G1 X141.688 Y65.901 E1.2740
G1 X141.402 Y65.793 E1.2816
G1 X140.942 Y65.551 E1.2945
G1 X140.733 Y65.407 E1.3008
G1 X140.525 Y65.551 E1.3071
G1 X140.065 Y65.793 E1.3201
G1 X139.779 Y65.901 E1.3277
G1 X139.274 Y66.025 E1.3406
G1 X138.971 Y66.062 E1.3482
G1 X138.451 Y66.062 E1.3612
G1 X138.148 Y66.025 E1.3688
G92 E0.0000
G1 E-4.0000 F3000
G1 Z0.480 F1002
G1 X150.097 Y60.288 F6000
G1 Z0.180 F1002
G1 E0.0000 F3000
G92 E0.0000
