; G-Code generated by Simplify3D(R) Version 4.0.1
; Dec 12, 2018 at 9:38:15 PM
; Settings Summary
;   processName,Tevo Tornado
;   applyToModels,Cable_rail_clamp_TEVO_TORNADO
;   profileName,007 Tevo Tornado (experimental) 06-03 (modified)
;   profileVersion,2018-12-06 16:04:13
;   baseProfile,Creality CR-10(2)
;   printMaterial,PLA
;   printQuality,Medium
;   printExtruders,
;   extruderName,Primary Extruder
;   extruderToolheadNumber,0
;   extruderDiameter,0.4
;   extruderAutoWidth,0
;   extruderWidth,0.4
;   extrusionMultiplier,1
;   extruderUseRetract,1
;   extruderRetractionDistance,6.5
;   extruderExtraRestartDistance,0
;   extruderRetractionZLift,0
;   extruderRetractionSpeed,1800
;   extruderUseCoasting,0
;   extruderCoastingDistance,0.2
;   extruderUseWipe,0
;   extruderWipeDistance,4
;   primaryExtruder,0
;   layerHeight,0.2
;   topSolidLayers,5
;   bottomSolidLayers,4
;   perimeterOutlines,3
;   printPerimetersInsideOut,1
;   startPointOption,2
;   startPointOriginX,0
;   startPointOriginY,500
;   sequentialIslands,0
;   spiralVaseMode,0
;   firstLayerHeightPercentage,90
;   firstLayerWidthPercentage,110
;   firstLayerUnderspeed,0.25
;   useRaft,0
;   raftExtruder,0
;   raftTopLayers,3
;   raftBaseLayers,2
;   raftOffset,3
;   raftSeparationDistance,0.14
;   raftTopInfill,100
;   aboveRaftSpeedMultiplier,0.3
;   useSkirt,1
;   skirtExtruder,0
;   skirtLayers,1
;   skirtOutlines,3
;   skirtOffset,0
;   usePrimePillar,0
;   primePillarExtruder,999
;   primePillarWidth,12
;   primePillarLocation,7
;   primePillarSpeedMultiplier,1
;   useOozeShield,0
;   oozeShieldExtruder,999
;   oozeShieldOffset,2
;   oozeShieldOutlines,1
;   oozeShieldSidewallShape,1
;   oozeShieldSidewallAngle,30
;   oozeShieldSpeedMultiplier,1
;   infillExtruder,0
;   internalInfillPattern,Rectilinear
;   externalInfillPattern,Rectilinear
;   infillPercentage,50
;   outlineOverlapPercentage,30
;   infillExtrusionWidthPercentage,125
;   minInfillLength,5
;   infillLayerInterval,1
;   internalInfillAngles,45,-45
;   overlapInternalInfillAngles,0
;   externalInfillAngles,45,-45
;   generateSupport,0
;   supportExtruder,0
;   supportInfillPercentage,30
;   supportExtraInflation,0
;   supportBaseLayers,0
;   denseSupportExtruder,0
;   denseSupportLayers,0
;   denseSupportInfillPercentage,70
;   supportLayerInterval,1
;   supportHorizontalPartOffset,0.4
;   supportUpperSeparationLayers,1
;   supportLowerSeparationLayers,1
;   supportType,0
;   supportGridSpacing,4.5
;   maxOverhangAngle,45
;   supportAngles,0
;   temperatureName,Primary Extruder,Heated Bed
;   temperatureNumber,0,0
;   temperatureSetpointCount,3,2
;   temperatureSetpointLayers,1,2,3,1,2
;   temperatureSetpointTemperatures,210,200,190,65,60
;   temperatureStabilizeAtStartup,1,1
;   temperatureHeatedBed,0,1
;   temperatureRelayBetweenLayers,0,0
;   temperatureRelayBetweenLoops,0,0
;   fanLayers,1,2,3
;   fanSpeeds,0,75,100
;   blipFanToFullPower,1
;   adjustSpeedForCooling,1
;   minSpeedLayerTime,15
;   minCoolingSpeedSlowdown,50
;   increaseFanForCooling,0
;   minFanLayerTime,45
;   maxCoolingFanSpeed,100
;   increaseFanForBridging,1
;   bridgingFanSpeed,100
;   use5D,1
;   relativeEdistances,0
;   allowEaxisZeroing,1
;   independentExtruderAxes,0
;   includeM10123,0
;   stickySupport,1
;   applyToolheadOffsets,0
;   gcodeXoffset,0
;   gcodeYoffset,0
;   gcodeZoffset,0
;   overrideMachineDefinition,1
;   machineTypeOverride,0
;   strokeXoverride,300
;   strokeYoverride,300
;   strokeZoverride,400
;   originOffsetXoverride,0
;   originOffsetYoverride,0
;   originOffsetZoverride,0
;   homeXdirOverride,-1
;   homeYdirOverride,-1
;   homeZdirOverride,-1
;   flipXoverride,1
;   flipYoverride,-1
;   flipZoverride,1
;   toolheadOffsets,0,0|0,0|0,0|0,0|0,0|0,0
;   overrideFirmwareConfiguration,0
;   firmwareTypeOverride,RepRap (Marlin/Repetier/Sprinter)
;   GPXconfigOverride,r2
;   baudRateOverride,250000
;   overridePrinterModels,1
;   printerModelsOverride
;   startingGcode,;Init 181010,;G28 ; home all axes,;G1 Z5 F3000 ; lift,;G92 E0 ; reset extrusion distance,,;From Cura 181010,; start_gcode,M117 Start Clean	; Indicate nozzle clean in progress on LCD,;,M104 S[extruder0_temperature] ,M109 S[extruder0_temperature] ,M109 R[extruder0_temperature] ,;,M107		; Turn layer fan off,G21		; Set to metric [change to G20 if you want Imperial],G90	 	; Force coordinates to be absolute relative to the origin,G28		; Home X/Y/Z axis,;,G1 X3 Y1 Z15 F9000	; Move safe Z height to shear strings,G0 X1 Y1 Z0.2 F9000	; Move in 1mm from edge and up [z] 0.2mm,G92 E0		; Set extruder to [0] zero,G1 X100 E12 F500	; Extrude 30mm filiment along X axis 100mm long to prime and clean the nozzle,G92 E0		; Reset extruder to [0] zero end of cleaning run,G1 E-1 F500		; Retract filiment by 1 mm to reduce string effect,G1 X180 F4000		; quick wipe away from the filament line / purge,M117 End Clean		; Indicate nozzle clean in progress on LCD,;,M117 Printing...		; start msg,; Begin printing with sliced GCode after here,;
;   layerChangeGcode,
;   retractionGcode,
;   toolChangeGcode,
;   endingGcode,;,; init 181010,;,;M107 ; Fan off,;G1 E-1 F300 ; Retract the filament a bit before lifting the nozzle,;M104 S0 ; turn off extruder,;M140 S0 ; turn off bed,;G91 ; Relative positioning,;G28 X0 Y0 ; Move X/Y to min endstops so the head is out of teh way,;M84 ; disable motors,;G90 ; Absolute positioning,;M117 Print ready...,,;,;From Cura 181010,;,; end_gcode,G92 E0		; zero the extruded length,G1 E-5 F9000		; retract,M104 S0		; turn off temperature,M140 S0		; turn off bed,G91		; relative positioning,G1 E-1 F300		; retract the filament a bit before lifting the nozzle to release some of the pressure,G1 Z+20 E-5 X-20 Y-20 F7200	; move Z up a bit and retract filament even more,G1 X320 Y150 F10000	; move right mid,M107		; turn off layer fan,M84		; disable motors,G90		; absolute positioning,M117 IMPRESSION TERMINEE	; end msg,;,;EOF
;   exportFileFormat,gcode
;   celebration,0
;   celebrationSong,Star Wars
;   postProcessing,
;   defaultSpeed,4200
;   outlineUnderspeed,0.5
;   solidInfillUnderspeed,0.8
;   supportUnderspeed,0.8
;   rapidXYspeed,6000
;   rapidZspeed,1002
;   minBridgingArea,50
;   bridgingExtraInflation,0
;   bridgingExtrusionMultiplier,0.85
;   bridgingSpeedMultiplier,1.05
;   useFixedBridgingAngle,0
;   fixedBridgingAngle,0
;   applyBridgingToPerimeters,0
;   filamentDiameters,1.75|1.75|1.75|1.75|1.75|1.75
;   filamentPricesPerKg,30|46|46|46|46|46
;   filamentDensities,1.25|1.25|1.25|1.25|1.25|1.25
;   useMinPrintHeight,0
;   minPrintHeight,0
;   useMaxPrintHeight,0
;   maxPrintHeight,9
;   useDiaphragm,0
;   diaphragmLayerInterval,20
;   robustSlicing,1
;   mergeAllIntoSolid,0
;   onlyRetractWhenCrossingOutline,1
;   retractBetweenLayers,1
;   useRetractionMinTravel,1
;   retractionMinTravel,3
;   retractWhileWiping,1
;   onlyWipeOutlines,1
;   avoidCrossingOutline,1
;   maxMovementDetourFactor,3
;   toolChangeRetractionDistance,12
;   toolChangeExtraRestartDistance,-0.5
;   toolChangeRetractionSpeed,600
;   externalThinWallType,0
;   internalThinWallType,2
;   thinWallAllowedOverlapPercentage,15
;   singleExtrusionMinLength,1
;   singleExtrusionMinPrintingWidthPercentage,50
;   singleExtrusionMaxPrintingWidthPercentage,200
;   singleExtrusionEndpointExtension,0.2
;   horizontalSizeCompensation,0
G90
M82
M106 S255
G4 P500
M106 S0
M140 S65
M190 S65
;Init 181010
;G28 ; home all axes
;G1 Z5 F3000 ; lift
;G92 E0 ; reset extrusion distance
;From Cura 181010
; start_gcode
M117 Start Clean	; Indicate nozzle clean in progress on LCD
;
M104 S210 
M109 S210 
M109 R210 
;
M107		; Turn layer fan off
G21		; Set to metric [change to G20 if you want Imperial]
G90	 	; Force coordinates to be absolute relative to the origin
G28		; Home X/Y/Z axis
;
G1 X3 Y1 Z15 F9000	; Move safe Z height to shear strings
G0 X1 Y1 Z0.2 F9000	; Move in 1mm from edge and up [z] 0.2mm
G92 E0		; Set extruder to [0] zero
G1 X100 E12 F500	; Extrude 30mm filiment along X axis 100mm long to prime and clean the nozzle
G92 E0		; Reset extruder to [0] zero end of cleaning run
G1 E-1 F500		; Retract filiment by 1 mm to reduce string effect
G1 X180 F4000		; quick wipe away from the filament line / purge
M117 End Clean		; Indicate nozzle clean in progress on LCD
;
M117 Printing...		; start msg
; Begin printing with sliced GCode after here
;
G92 E0
G1 E-6.5000 F1800
G1 Z0.180 F1002
; process Tevo Tornado
; layer 1, Z = 0.180
T0
; tool H0.200 W0.440
; skirt
G1 X63.640 Y49.640 F6000
G1 E0.0000 F540
G92 E0
G1 X63.719 Y49.536 E0.0048 F1050
G1 X64.543 Y48.713 E0.0474
G1 X64.602 Y48.662 E0.0502
G1 X64.964 Y48.398 E0.0666
G1 X65.083 Y48.334 E0.0716
G1 X65.368 Y48.227 E0.0827
G1 X65.447 Y48.205 E0.0857
G1 X65.665 Y48.161 E0.0939
G1 X65.766 Y48.152 E0.0976
G1 X67.629 Y48.165 E0.1657
G1 X67.811 Y48.200 E0.1725
G1 X68.284 Y48.387 E0.1911
G1 X68.417 Y48.465 E0.1968
G1 X68.741 Y48.728 E0.2120
G1 X68.835 Y48.828 E0.2171
G1 X69.076 Y49.170 E0.2323
G1 X69.144 Y49.307 E0.2380
G1 X69.293 Y49.777 E0.2560
G1 X69.317 Y49.928 E0.2616
G1 X69.326 Y53.968 E0.4094
G1 X69.324 Y54.021 E0.4113
G1 X69.294 Y54.305 E0.4218
G1 X69.273 Y54.406 E0.4256
G1 X69.175 Y54.711 E0.4373
G1 X69.124 Y54.821 E0.4417
G1 X68.911 Y55.166 E0.4565
G1 X68.822 Y55.273 E0.4616
G1 X68.518 Y55.551 E0.4767
G1 X68.407 Y55.628 E0.4816
G1 X67.541 Y56.070 E0.5172
G1 X67.009 Y56.436 E0.5409
G1 X66.784 Y56.628 E0.5517
G1 X66.574 Y56.835 E0.5625
G1 X66.165 Y57.331 E0.5860
G1 X65.838 Y57.864 E0.6089
G1 X65.582 Y58.453 E0.6324
G1 X65.492 Y58.735 E0.6432
G1 X65.423 Y59.022 E0.6540
G1 X65.338 Y59.659 E0.6775
G1 X65.342 Y60.284 E0.7003
G1 X65.435 Y60.919 E0.7238
G1 X65.503 Y61.189 E0.7340
G1 X65.732 Y61.808 E0.7582
G1 X65.855 Y62.057 E0.7683
G1 X66.207 Y62.615 E0.7925
G1 X66.379 Y62.834 E0.8026
G1 X66.839 Y63.307 E0.8268
G1 X67.052 Y63.485 E0.8370
G1 X67.600 Y63.853 E0.8611
G1 X67.846 Y63.983 E0.8713
G1 X68.458 Y64.229 E0.8954
G1 X68.742 Y64.310 E0.9062
G1 X69.031 Y64.371 E0.9170
G1 X69.670 Y64.438 E0.9405
G1 X70.312 Y64.416 E0.9640
G1 X70.587 Y64.377 E0.9742
G1 X71.211 Y64.223 E0.9977
G1 X71.791 Y63.989 E1.0206
G1 X72.333 Y63.678 E1.0435
G1 X72.840 Y63.284 E1.0670
G1 X73.041 Y63.091 E1.0771
G1 X73.455 Y62.600 E1.1006
G1 X73.789 Y62.072 E1.1235
G1 X74.045 Y61.502 E1.1464
G1 X74.221 Y60.902 E1.1692
G1 X74.311 Y60.284 E1.1921
G1 X74.315 Y59.641 E1.2156
G1 X74.288 Y59.364 E1.2258
G1 X74.159 Y58.735 E1.2493
G1 X73.949 Y58.146 E1.2721
G1 X73.660 Y57.592 E1.2950
G1 X73.297 Y57.083 E1.3179
G1 X72.867 Y56.630 E1.3407
G1 X72.365 Y56.229 E1.3643
G1 X72.123 Y56.075 E1.3748
G1 X71.168 Y55.574 E1.4142
G1 X71.037 Y55.475 E1.4202
G1 X70.736 Y55.160 E1.4362
G1 X70.647 Y55.031 E1.4419
G1 X70.430 Y54.581 E1.4602
G1 X70.385 Y54.432 E1.4659
G1 X70.331 Y54.047 E1.4801
G1 X70.326 Y53.978 E1.4826
G1 X70.329 Y50.015 E1.6276
G1 X70.343 Y49.896 E1.6320
G1 X70.458 Y49.425 E1.6497
G1 X70.526 Y49.268 E1.6560
G1 X70.797 Y48.855 E1.6741
G1 X70.887 Y48.752 E1.6791
G1 X71.138 Y48.533 E1.6912
G1 X71.237 Y48.466 E1.6956
G1 X71.585 Y48.286 E1.7100
G1 X71.697 Y48.244 E1.7143
G1 X72.010 Y48.167 E1.7261
G1 X72.126 Y48.153 E1.7304
G1 X73.740 Y48.143 E1.7895
G1 X73.809 Y48.147 E1.7920
G1 X74.167 Y48.195 E1.8052
G1 X74.293 Y48.228 E1.8100
G1 X74.648 Y48.375 E1.8240
G1 X74.748 Y48.431 E1.8282
G1 X74.987 Y48.602 E1.8390
G1 X75.049 Y48.655 E1.8420
G1 X75.973 Y49.577 E1.8897
G1 X76.076 Y49.726 E1.8963
G1 X76.285 Y50.187 E1.9149
G1 X76.329 Y50.435 E1.9241
G1 X76.286 Y51.004 E1.9449
G1 X76.213 Y51.229 E1.9536
G1 X76.006 Y51.570 E1.9682
G1 X75.907 Y51.688 E1.9738
G1 X75.714 Y51.856 E1.9832
G1 X75.584 Y51.938 E1.9888
G1 X75.234 Y52.090 E2.0028
G1 X75.038 Y52.132 E2.0101
G1 X73.831 Y52.143 E2.0543
G1 X73.835 Y52.922 E2.0828
G1 X76.995 Y52.947 E2.1984
G1 X77.176 Y52.982 E2.2051
G1 X77.569 Y53.137 E2.2206
G1 X77.728 Y53.238 E2.2275
G1 X77.959 Y53.453 E2.2391
G1 X78.063 Y53.590 E2.2453
G1 X78.248 Y53.946 E2.2600
G1 X78.304 Y54.165 E2.2683
G1 X78.328 Y54.988 E2.2984
G1 X78.310 Y55.138 E2.3040
G1 X78.179 Y55.603 E2.3216
G1 X78.037 Y55.838 E2.3317
G1 X77.651 Y56.198 E2.3510
G1 X77.441 Y56.316 E2.3598
G1 X77.033 Y56.430 E2.3753
G1 X77.035 Y56.460 E2.3764
G1 X77.236 Y56.928 E2.3950
G1 X77.252 Y56.969 E2.3967
G1 X77.570 Y57.935 E2.4339
G1 X77.587 Y58.002 E2.4364
G1 X77.771 Y59.006 E2.4738
G1 X77.778 Y59.058 E2.4757
G1 X77.819 Y59.596 E2.4954
G1 X77.820 Y59.647 E2.4973
G1 X77.795 Y60.652 E2.5340
G1 X77.791 Y60.703 E2.5359
G1 X77.722 Y61.231 E2.5554
G1 X77.713 Y61.281 E2.5573
G1 X77.481 Y62.267 E2.5943
G1 X77.467 Y62.316 E2.5962
G1 X77.295 Y62.811 E2.6154
G1 X77.282 Y62.843 E2.6166
G1 X77.077 Y63.325 E2.6358
G1 X77.054 Y63.371 E2.6377
G1 X76.559 Y64.264 E2.6750
G1 X76.522 Y64.322 E2.6775
G1 X75.904 Y65.145 E2.7152
G1 X75.859 Y65.197 E2.7177
G1 X75.141 Y65.923 E2.7551
G1 X75.103 Y65.957 E2.7570
G1 X74.698 Y66.289 E2.7761
G1 X74.670 Y66.310 E2.7774
G1 X74.244 Y66.614 E2.7965
G1 X74.200 Y66.641 E2.7984
G1 X73.319 Y67.140 E2.8355
G1 X73.273 Y67.163 E2.8373
G1 X72.785 Y67.376 E2.8568
G1 X72.737 Y67.395 E2.8587
G1 X71.765 Y67.705 E2.8960
G1 X71.698 Y67.722 E2.8986
G1 X70.692 Y67.896 E2.9359
G1 X70.641 Y67.902 E2.9378
G1 X70.118 Y67.938 E2.9570
G1 X70.084 Y67.939 E2.9582
G1 X69.560 Y67.939 E2.9774
G1 X69.509 Y67.937 E2.9793
G1 X68.502 Y67.832 E3.0163
G1 X68.451 Y67.825 E3.0182
G1 X67.930 Y67.716 E3.0377
G1 X67.880 Y67.703 E3.0395
G1 X66.916 Y67.395 E3.0766
G1 X66.867 Y67.376 E3.0785
G1 X66.380 Y67.163 E3.0979
G1 X66.334 Y67.140 E3.0998
G1 X65.445 Y66.637 E3.1372
G1 X65.388 Y66.599 E3.1397
G1 X64.577 Y65.979 E3.1771
G1 X64.537 Y65.946 E3.1789
G1 X64.156 Y65.587 E3.1981
G1 X64.132 Y65.562 E3.1993
G1 X63.776 Y65.178 E3.2185
G1 X63.743 Y65.138 E3.2204
G1 X63.136 Y64.329 E3.2574
G1 X63.107 Y64.286 E3.2593
G1 X62.833 Y63.829 E3.2788
G1 X62.809 Y63.784 E3.2807
G1 X62.380 Y62.867 E3.3177
G1 X62.361 Y62.819 E3.3196
G1 X62.186 Y62.316 E3.3391
G1 X62.172 Y62.267 E3.3410
G1 X61.938 Y61.273 E3.3783
G1 X61.926 Y61.205 E3.3808
G1 X61.831 Y60.189 E3.4182
G1 X61.828 Y60.137 E3.4201
G1 X61.833 Y59.605 E3.4395
G1 X61.836 Y59.554 E3.4414
G1 X61.950 Y58.548 E3.4785
G1 X61.958 Y58.497 E3.4804
G1 X62.072 Y57.977 E3.4998
G1 X62.085 Y57.927 E3.5017
G1 X62.401 Y56.969 E3.5386
G1 X62.416 Y56.928 E3.5402
G1 X62.629 Y56.435 E3.5599
G1 X62.604 Y56.421 E3.5609
G1 X62.232 Y56.324 E3.5750
G1 X62.027 Y56.215 E3.5835
G1 X61.664 Y55.899 E3.6011
G1 X61.519 Y55.686 E3.6105
G1 X61.354 Y55.223 E3.6285
G1 X61.326 Y55.041 E3.6352
G1 X61.348 Y54.184 E3.6666
G1 X61.389 Y53.996 E3.6736
G1 X61.513 Y53.713 E3.6849
G1 X61.595 Y53.582 E3.6906
G1 X61.830 Y53.312 E3.7037
G1 X62.010 Y53.181 E3.7118
G1 X62.454 Y52.988 E3.7295
G1 X62.654 Y52.946 E3.7370
G1 X65.757 Y52.941 E3.8505
G1 X65.804 Y52.935 E3.8523
G1 X65.822 Y52.915 E3.8533
G1 X65.824 Y52.906 E3.8536
G1 X65.825 Y52.146 E3.8814
G1 X64.764 Y52.143 E3.9202
G1 X64.647 Y52.129 E3.9245
G1 X64.277 Y52.039 E3.9385
G1 X64.120 Y51.970 E3.9447
G1 X63.891 Y51.821 E3.9547
G1 X63.766 Y51.704 E3.9610
G1 X63.514 Y51.372 E3.9762
G1 X63.430 Y51.203 E3.9831
G1 X63.347 Y50.905 E3.9944
G1 X63.329 Y50.748 E4.0002
G1 X63.349 Y50.258 E4.0182
G1 X63.417 Y50.026 E4.0270
G1 X63.640 Y49.640 E4.0433
G1 X63.973 Y49.863 F6000
G92 E0
G1 X64.021 Y49.800 E0.0029 F1050
G1 X64.814 Y49.007 E0.0439
G1 X64.850 Y48.976 E0.0457
G1 X65.178 Y48.738 E0.0605
G1 X65.249 Y48.699 E0.0635
G1 X65.493 Y48.607 E0.0730
G1 X65.541 Y48.594 E0.0748
G1 X65.723 Y48.558 E0.0816
G1 X65.784 Y48.552 E0.0838
G1 X67.590 Y48.565 E0.1499
G1 X67.698 Y48.586 E0.1540
G1 X68.109 Y48.748 E0.1701
G1 X68.189 Y48.794 E0.1735
G1 X68.468 Y49.021 E0.1866
G1 X68.524 Y49.081 E0.1897
G1 X68.731 Y49.375 E0.2028
G1 X68.772 Y49.458 E0.2062
G1 X68.903 Y49.869 E0.2220
G1 X68.917 Y49.960 E0.2253
G1 X68.926 Y53.958 E0.3716
G1 X68.925 Y53.990 E0.3728
G1 X68.899 Y54.243 E0.3821
G1 X68.886 Y54.304 E0.3844
G1 X68.802 Y54.565 E0.3944
G1 X68.771 Y54.631 E0.3971
G1 X68.585 Y54.932 E0.4100
G1 X68.532 Y54.996 E0.4130
G1 X68.268 Y55.237 E0.4261
G1 X68.202 Y55.284 E0.4291
G1 X67.336 Y55.725 E0.4647
G1 X66.765 Y56.119 E0.4900
G1 X66.514 Y56.333 E0.5021
