; G-Code generated by Simplify3D(R) Version 4.1.2
; Dec 19, 2020 at 2:03:38 PM
; Settings Summary
;   processName,Process1
;   applyToModels,Tree_123
;   profileName,A10-04-15 Tevo Tornado
;   profileVersion,2020-12-06 16:18:07
;   baseProfile,Creality CR-10(2)
;   printMaterial,PLA
;   printQuality,Medium
;   printExtruders,
;   extruderName,Primary Extruder
;   extruderToolheadNumber,0
;   extruderDiameter,0.4
;   extruderAutoWidth,0
;   extruderWidth,0.35
;   extrusionMultiplier,0.95
;   extruderUseRetract,1
;   extruderRetractionDistance,4
;   extruderExtraRestartDistance,0
;   extruderRetractionZLift,0.1
;   extruderRetractionSpeed,6000
;   extruderUseCoasting,1
;   extruderCoastingDistance,0.4
;   extruderUseWipe,1
;   extruderWipeDistance,5
;   primaryExtruder,0
;   layerHeight,0.15
;   topSolidLayers,5
;   bottomSolidLayers,4
;   perimeterOutlines,3
;   printPerimetersInsideOut,0
;   startPointOption,1
;   startPointOriginX,0
;   startPointOriginY,300
;   sequentialIslands,0
;   spiralVaseMode,0
;   firstLayerHeightPercentage,120
;   firstLayerWidthPercentage,100
;   firstLayerUnderspeed,0.4
;   useRaft,0
;   raftExtruder,0
;   raftTopLayers,3
;   raftBaseLayers,2
;   raftOffset,3
;   raftSeparationDistance,0.14
;   raftTopInfill,100
;   aboveRaftSpeedMultiplier,0.3
;   useSkirt,1
;   skirtExtruder,0
;   skirtLayers,1
;   skirtOutlines,2
;   skirtOffset,3
;   usePrimePillar,0
;   primePillarExtruder,999
;   primePillarWidth,12
;   primePillarLocation,7
;   primePillarSpeedMultiplier,1
;   useOozeShield,0
;   oozeShieldExtruder,999
;   oozeShieldOffset,2
;   oozeShieldOutlines,1
;   oozeShieldSidewallShape,1
;   oozeShieldSidewallAngle,30
;   oozeShieldSpeedMultiplier,1
;   infillExtruder,0
;   internalInfillPattern,Rectilinear
;   externalInfillPattern,Rectilinear
;   infillPercentage,15
;   outlineOverlapPercentage,15
;   infillExtrusionWidthPercentage,100
;   minInfillLength,5
;   infillLayerInterval,1
;   internalInfillAngles,45,-45
;   overlapInternalInfillAngles,0
;   externalInfillAngles,45,-45
;   generateSupport,0
;   supportExtruder,0
;   supportInfillPercentage,30
;   supportExtraInflation,0
;   supportBaseLayers,0
;   denseSupportExtruder,0
;   denseSupportLayers,0
;   denseSupportInfillPercentage,70
;   supportLayerInterval,1
;   supportHorizontalPartOffset,0.4
;   supportUpperSeparationLayers,1
;   supportLowerSeparationLayers,1
;   supportType,0
;   supportGridSpacing,4.5
;   maxOverhangAngle,45
;   supportAngles,0
;   temperatureName,Primary Extruder,Heated Bed
;   temperatureNumber,0,0
;   temperatureSetpointCount,2,2
;   temperatureSetpointLayers,1,2,1,2
;   temperatureSetpointTemperatures,215,210,55,50
;   temperatureStabilizeAtStartup,1,1
;   temperatureHeatedBed,0,1
;   fanLayers,1,2
;   fanSpeeds,0,100
;   blipFanToFullPower,0
;   adjustSpeedForCooling,1
;   minSpeedLayerTime,15
;   minCoolingSpeedSlowdown,20
;   increaseFanForCooling,1
;   minFanLayerTime,25
;   maxCoolingFanSpeed,100
;   increaseFanForBridging,1
;   bridgingFanSpeed,100
;   use5D,1
;   relativeEdistances,0
;   allowEaxisZeroing,1
;   independentExtruderAxes,0
;   includeM10123,0
;   stickySupport,1
;   applyToolheadOffsets,0
;   gcodeXoffset,0
;   gcodeYoffset,0
;   gcodeZoffset,0
;   overrideMachineDefinition,1
;   machineTypeOverride,0
;   strokeXoverride,300
;   strokeYoverride,300
;   strokeZoverride,400
;   originOffsetXoverride,0
;   originOffsetYoverride,0
;   originOffsetZoverride,0
;   homeXdirOverride,-1
;   homeYdirOverride,-1
;   homeZdirOverride,-1
;   flipXoverride,1
;   flipYoverride,-1
;   flipZoverride,1
;   toolheadOffsets,0,0|0,0|0,0|0,0|0,0|0,0
;   overrideFirmwareConfiguration,1
;   firmwareTypeOverride,RepRap (Marlin/Repetier/Sprinter)
;   GPXconfigOverride,r2
;   baudRateOverride,250000
;   overridePrinterModels,1
;   printerModelsOverride
;   startingGcode,;,; -]H.P.B[- MarshMalloW  ,; $VER: StartScript 1.02 (26.12.2019) MarshMalloW,;,; Begin Startcode,;,M117 *Preheat*     	; Preheat,;extruder0_temperature,M104 S[extruder0_temperature]  ,M109 S[extruder0_temperature] ,M109 R[extruder0_temperature] ,;,M117 *Auto-leveling*     	; Auto-leveling,M107                   	; Turn layer fan off,G21                    	; Set to metric [change to G20 if you want Imperial],G90                    	; Force coordinates to be absolute relative to the origin,G28                    	; Home X/Y/Z axis,G29                    	; Auto-leveling (BL-Touch),;,M117 *Start Clean*     	; Indicate nozzle clean in progress on LCD,G92 E0                 	; Set Extruder to 0 ,G1 X0 Y0 F2000         	; Move X and Y to 0 with speed 2000 (mm/min),G1 Z0.1 F1000          	; Move Z to   0.1 with speed 1000 (mm/min),G1 X8.0 F2000          	; Move X to   8.0 with speed 2000 (mm/min),G1 Y60.0 E4.0 F1000.0  	; Move Y to  60 and Extruder with 4.0 with speed 1000 (mm/min),G1 Y100.0 E8.5 F1000.0 	; Move Y to 100 and Extruder with 8.5 with speed 1000 (mm/min),G92 E0                 	; Set extruder to 0,G1 X16.0 F3000         	; Move X to 16.0 with speed 3000 (mm/min),G1 Y60.0 F3000         	; Move Y to 60.0 with speed 3000 (mm/min),M117 *End Clean*       	; Indicate nozzle clean in progress on LCD,G1 Z5 F3000            	; Move Z to  5.0 with speed 3000 (mm/min),G1 X20.0 F3000         	; Move X to 20.0 with speed 3000 (mm/min),G1 Y20.0 F3000         	; Move Y to 20.0 with speed 3000 (mm/min),; ,M117 *Printing...*     	; Start printing msg on LCD,;,; End Startcode,;,; Begin printing with sliced GCode after here,;
;   layerChangeGcode,
;   retractionGcode,
;   toolChangeGcode,
;   endingGcode,;,; init 181010,;,;M107 			; Fan off,;G1 E-1 F300 			; Retract the filament a bit before lifting the nozzle,;M104 S0 			; Turn off extruder,;M140 S0 			; Turn off bed,;G91			; Relative positioning,;G28 X0 Y0 			; Move X/Y to min endstops so the head is out of teh way,;M84 			; Disable motors,;G90 			; Absolute positioning,;M117 Print ready...,,;,; // From Cura 181010,; // End_gcode,G92 E0			; Zero the extruded length,;G1 E-30 F300		; Retract E -30,M106 S0			; Turn off cooling fan,M104 S0			; Turn off temperature,M140 S0		     	; Turn off bed,G91			; Relative positioning,G1 E-1 F300			; Retract the filament a bit before lifting the nozzle to release some of the pressure,G1 Z+20 E-5 X-20 Y-20 F7200	; Move Z up a bit and retract filament even more,G1 X0 Y150 F10000		; Move right min,M107			; Turn off layer fan,M84			; Disable motors,G90			; Absolute positioning,M117 *The-End* 		; End msg,;,
;   exportFileFormat,gcode
;   celebration,0
;   celebrationSong,Star Wars
;   postProcessing,|{REPLACE "; layer " "M117 INDICATOR-Layer"}|{REPLACE ", Z = " "\n; Z="}
;   defaultSpeed,2400
;   outlineUnderspeed,0.6
;   solidInfillUnderspeed,0.8
;   supportUnderspeed,0.8
;   rapidXYspeed,3600
;   rapidZspeed,900
;   minBridgingArea,50
;   bridgingExtraInflation,0.2
;   bridgingExtrusionMultiplier,1
;   bridgingSpeedMultiplier,0.6
;   useFixedBridgingAngle,0
;   fixedBridgingAngle,0
;   applyBridgingToPerimeters,0
;   filamentDiameters,1.75|1.75|1.75|1.75|1.75|1.75
;   filamentPricesPerKg,30|46|46|46|46|46
;   filamentDensities,1.25|1.25|1.25|1.25|1.25|1.25
;   useMinPrintHeight,0
;   minPrintHeight,0
;   useMaxPrintHeight,0
;   maxPrintHeight,50
;   useDiaphragm,0
;   diaphragmLayerInterval,20
;   robustSlicing,1
;   mergeAllIntoSolid,0
;   onlyRetractWhenCrossingOutline,1
;   retractBetweenLayers,1
;   useRetractionMinTravel,0
;   retractionMinTravel,3
;   retractWhileWiping,1
;   onlyWipeOutlines,1
;   avoidCrossingOutline,1
;   maxMovementDetourFactor,3
;   toolChangeRetractionDistance,12
;   toolChangeExtraRestartDistance,-0.5
;   toolChangeRetractionSpeed,600
;   externalThinWallType,1
;   internalThinWallType,1
;   thinWallAllowedOverlapPercentage,20
;   singleExtrusionMinLength,1
;   singleExtrusionMinPrintingWidthPercentage,50
;   singleExtrusionMaxPrintingWidthPercentage,200
;   singleExtrusionEndpointExtension,0.2
;   horizontalSizeCompensation,0
G90
M82
M106 S0
M140 S55
M190 S55
;
; -]H.P.B[- MarshMalloW  
; $VER: StartScript 1.02 (26.12.2019) MarshMalloW
;
; Begin Startcode
;
M117 *Preheat*     	; Preheat
;extruder0_temperature
M104 S215  
M109 S215 
M109 R215 
;
M117 *Auto-leveling*     	; Auto-leveling
M107                   	; Turn layer fan off
G21                    	; Set to metric [change to G20 if you want Imperial]
G90                    	; Force coordinates to be absolute relative to the origin
G28                    	; Home X/Y/Z axis
G29                    	; Auto-leveling (BL-Touch)
;
M117 *Start Clean*     	; Indicate nozzle clean in progress on LCD
G92 E0                 	; Set Extruder to 0 
G1 X0 Y0 F2000         	; Move X and Y to 0 with speed 2000 (mm/min)
G1 Z0.1 F1000          	; Move Z to   0.1 with speed 1000 (mm/min)
G1 X8.0 F2000          	; Move X to   8.0 with speed 2000 (mm/min)
G1 Y60.0 E4.0 F1000.0  	; Move Y to  60 and Extruder with 4.0 with speed 1000 (mm/min)
G1 Y100.0 E8.5 F1000.0 	; Move Y to 100 and Extruder with 8.5 with speed 1000 (mm/min)
G92 E0                 	; Set extruder to 0
G1 X16.0 F3000         	; Move X to 16.0 with speed 3000 (mm/min)
G1 Y60.0 F3000         	; Move Y to 60.0 with speed 3000 (mm/min)
M117 *End Clean*       	; Indicate nozzle clean in progress on LCD
G1 Z5 F3000            	; Move Z to  5.0 with speed 3000 (mm/min)
G1 X20.0 F3000         	; Move X to 20.0 with speed 3000 (mm/min)
G1 Y20.0 F3000         	; Move Y to 20.0 with speed 3000 (mm/min)
; 
M117 *Printing...*     	; Start printing msg on LCD
;
; End Startcode
;
; Begin printing with sliced GCode after here
;
; process Process1
M117 INDICATOR-Layer1
; Z=0.180
T0
G92 E0.0000
G1 E-4.0000 F6000
; feature skirt
; tool H0.180 W0.350
G1 Z0.180 F900
G1 X70.610 Y21.344 F3600
G1 E0.0000 F6000
G92 E0.0000
G1 X70.791 Y21.367 E0.0045 F960
G1 X79.747 Y22.963 E0.2309
G1 X79.826 Y22.979 E0.2329
G1 X101.733 Y27.919 E0.7917
G1 X101.844 Y27.948 E0.7945
G1 X112.381 Y31.056 E1.0679
G1 X112.446 Y31.077 E1.0696
G1 X124.506 Y35.149 E1.3863
G1 X124.561 Y35.169 E1.3878
G1 X135.381 Y39.229 E1.6753
G1 X135.486 Y39.272 E1.6782
G1 X142.229 Y42.312 E1.8622
G1 X142.258 Y42.326 E1.8630
G1 X149.647 Y45.821 E2.0664
G1 X150.682 Y46.183 E2.0937
G1 X155.535 Y36.010 E2.3741
G1 X158.494 Y35.101 E2.4512
G1 X161.291 Y36.736 E2.5318
G1 X164.287 Y31.613 E2.6795
G1 X167.112 Y30.872 E2.7521
G1 X185.173 Y41.432 E3.2727
G1 X185.914 Y44.257 E3.3454
G1 X182.918 Y49.381 E3.4931
G1 X185.803 Y51.067 E3.5762
G1 X186.391 Y54.241 E3.6565
G1 X180.747 Y61.285 E3.8811
G1 X178.672 Y64.031 E3.9668
G1 X194.595 Y76.461 E4.4694
G1 X194.622 Y76.482 E4.4703
G1 X211.124 Y89.898 E4.9994
G1 X211.183 Y89.948 E5.0014
G1 X225.699 Y102.847 E5.4846
G1 X225.774 Y102.918 E5.4871
G1 X236.714 Y113.847 E5.8719
G1 X236.812 Y113.953 E5.8755
G1 X240.508 Y118.305 E6.0176
G1 X240.637 Y118.477 E6.0230
G1 X242.903 Y121.920 E6.1255
G1 X243.097 Y122.313 E6.1364
G1 X244.009 Y124.943 E6.2057
G1 X243.470 Y127.012 E6.2589
G1 X241.389 Y128.864 E6.3282
G1 X240.105 Y129.325 E6.3621
G1 X232.021 Y129.021 E6.5634
G1 X223.500 Y128.766 E6.7755
G1 X214.573 Y129.257 E6.9980
G1 X210.190 Y129.856 E7.1081
G1 X207.818 Y127.927 E7.1842
G1 X207.672 Y125.825 E7.2366
G1 X206.893 Y121.167 E7.3541
G1 X205.675 Y116.654 E7.4704
G1 X204.031 Y112.327 E7.5856
G1 X201.979 Y108.226 E7.6997
G1 X199.539 Y104.393 E7.8127
G1 X196.737 Y100.860 E7.9250
G1 X193.599 Y97.659 E8.0365
G1 X190.154 Y94.823 E8.1475
G1 X186.435 Y92.373 E8.2583
G1 X182.476 Y90.333 E8.3692
G1 X178.314 Y88.723 E8.4802
G1 X173.986 Y87.558 E8.5917
G1 X169.532 Y86.849 E8.7039
G1 X164.995 Y86.603 E8.8170
G1 X160.415 Y86.826 E8.9311
G1 X155.838 Y87.516 E9.0463
G1 X151.307 Y88.669 E9.1626
G1 X146.866 Y90.275 E9.2801
G1 X142.559 Y92.319 E9.3987
G1 X138.428 Y94.785 E9.5185
G1 X134.515 Y97.647 E9.6391
G1 X130.857 Y100.880 E9.7606
G1 X127.494 Y104.450 E9.8826
G1 X124.458 Y108.325 E10.0051
G1 X121.780 Y112.466 E10.1278
G1 X119.485 Y116.831 E10.2505
G1 X117.597 Y121.378 E10.3730
G1 X116.136 Y126.060 E10.4951
G1 X115.112 Y130.833 E10.6165
G1 X114.537 Y135.647 E10.7372
G1 X114.415 Y140.456 E10.8569
G1 X114.747 Y145.212 E10.9755
G1 X115.525 Y149.870 E11.0930
G1 X116.743 Y154.384 E11.2093
G1 X118.387 Y158.711 E11.3245
G1 X120.439 Y162.811 E11.4386
G1 X122.879 Y166.645 E11.5517
G1 X125.681 Y170.178 E11.6639
G1 X128.820 Y173.377 E11.7754
G1 X132.264 Y176.214 E11.8864
G1 X136.282 Y178.859 E12.0061
G1 X136.992 Y179.763 E12.0347
G1 X137.163 Y180.243 E12.0474
G1 X139.220 Y182.650 E12.1262
G1 X144.756 Y188.685 E12.3300
G1 X144.893 Y191.207 E12.3928
G1 X143.174 Y193.546 E12.4650
G1 X142.508 Y194.099 E12.4866
G1 X139.112 Y195.732 E12.5803
G1 X138.891 Y195.821 E12.5863
G1 X127.462 Y199.517 E12.8852
G1 X127.081 Y199.043 E12.9003
G1 X127.006 Y199.171 E12.9040
G1 X125.971 Y199.993 E12.9369
G1 X111.416 Y204.508 E13.3161
G1 X97.723 Y209.553 E13.6792
G1 X91.372 Y212.351 E13.8519
G1 X92.078 Y212.383 E13.8694
G1 X93.838 Y216.396 E13.9785
G1 X83.109 Y229.161 E14.3934
G1 X87.543 Y245.235 E14.8083
G1 X84.270 Y248.149 E14.9173
G1 X68.815 Y241.892 E15.3322
G1 X54.898 Y251.074 E15.7471
G1 X51.115 Y248.862 E15.8561
G1 X52.290 Y232.230 E16.2710
G1 X39.256 Y221.831 E16.6859
G1 X40.191 Y217.550 E16.7950
G1 X56.374 Y213.529 E17.2099
G1 X62.235 Y197.919 E17.6248
G1 X66.595 Y197.485 E17.7338
G1 X67.576 Y199.056 E17.7799
G1 X66.756 Y191.626 E17.9659
G1 X65.504 Y184.025 E18.1576
G1 X61.788 Y168.821 E18.5470
G1 X59.455 Y161.795 E18.7313
G1 X56.770 Y155.166 E18.9092
G1 X56.748 Y155.109 E18.9107
G1 X54.722 Y149.559 E19.0578
G1 X54.636 Y149.228 E19.0663
G1 X54.273 Y146.922 E19.1243
G1 X54.321 Y146.148 E19.1436
G1 X54.973 Y143.896 E19.2020
G1 X56.732 Y142.498 E19.2579
G1 X61.204 Y142.253 E19.3693
G1 X61.425 Y142.255 E19.3748
G1 X67.655 Y142.696 E19.5302
G1 X67.724 Y142.702 E19.5320
G1 X70.457 Y143.005 E19.6004
G1 X68.128 Y136.484 E19.7727
G1 X64.471 Y127.452 E20.0151
G1 X60.501 Y119.693 E20.2320
G1 X56.676 Y113.921 E20.4043
G1 X55.170 Y112.227 E20.4607
G1 X53.781 Y111.127 E20.5048
G1 X52.031 Y109.874 E20.5584
G1 X51.563 Y109.379 E20.5753
G1 X50.330 Y107.433 E20.6326
G1 X50.177 Y105.732 E20.6751
G1 X51.052 Y103.578 E20.7330
G1 X51.955 Y102.619 E20.7657
G1 X53.993 Y101.644 E20.8220
G1 X54.580 Y101.479 E20.8371
G1 X59.773 Y100.952 E20.9670
G1 X60.056 Y100.947 E20.9740
G1 X67.962 Y101.418 E21.1711
G1 X68.137 Y101.437 E21.1755
G1 X75.285 Y102.584 E21.3556
G1 X75.404 Y102.607 E21.3587
G1 X81.556 Y104.035 E21.5158
G1 X79.009 Y97.350 E21.6938
G1 X75.073 Y89.312 E21.9165
G1 X70.426 Y81.299 E22.1470
G1 X65.612 Y74.309 E22.3582
G1 X58.503 Y65.015 E22.6494
G1 X61.283 Y60.826 E22.7744
G1 X74.992 Y64.385 E23.1269
G1 X75.065 Y64.406 E23.1288
G1 X83.833 Y67.091 E23.3569
G1 X82.720 Y63.597 E23.4482
G1 X79.122 Y54.317 E23.6958
G1 X75.236 Y45.780 E23.9292
G1 X71.318 Y38.455 E24.1359
G1 X67.582 Y32.702 E24.3066
G1 X64.570 Y28.546 E24.4343
G1 X64.423 Y28.304 E24.4414
G1 X62.423 Y24.327 E24.5521
G1 X64.704 Y20.912 E24.6543
G1 X70.610 Y21.344 E24.8017
G92 E0.0000
G1 E-4.0000 F6000
G1 Z0.280 F900
G1 X70.241 Y25.027 F3600
G1 X71.866 Y25.317
G1 X76.747 Y40.760
G1 X78.554 Y44.140
G1 X82.533 Y52.880
G1 X86.211 Y62.366
G1 X89.112 Y71.471
G1 X88.709 Y72.630
G1 X87.130 Y71.970
G1 X86.554 Y71.794
G1 X89.331 Y80.579
G1 X89.870 Y81.025
G1 X94.391 Y79.899
G1 X92.714 Y84.127
G1 X95.410 Y88.045
G1 X91.581 Y87.697
G1 X100.389 Y115.569
G1 X100.814 Y115.920
G1 X105.335 Y114.794
G1 X103.658 Y119.022
G1 X106.353 Y122.938
G1 X102.611 Y122.600
G1 X125.375 Y194.630
G1 X124.179 Y196.675
G1 X126.737 Y198.938
G1 Z0.180 F900
G1 E0.0000 F6000
G92 E0.0000
G1 X125.805 Y199.678 E0.0296 F960
G1 X111.303 Y204.176 E0.4074
G1 X97.592 Y209.229 E0.7710
G1 X89.863 Y212.633 E0.9812
G1 X91.844 Y212.723 E1.0305
G1 X93.430 Y216.338 E1.1287
G1 X82.723 Y229.076 E1.5428
G1 X87.147 Y245.118 E1.9569
G1 X84.200 Y247.743 E2.0551
G1 X68.775 Y241.498 E2.4692
G1 X54.887 Y250.662 E2.8832
G1 X51.479 Y248.670 E2.9814
G1 X52.652 Y232.072 E3.3954
G1 X39.644 Y221.694 E3.8095
G1 X40.486 Y217.837 E3.9077
G1 X56.637 Y213.824 E4.3218
G1 X62.486 Y198.246 E4.7359
G1 X66.414 Y197.855 E4.8341
