; G-Code generated by Simplify3D(R) Version 4.1.2
; Dec 19, 2020 at 2:05:56 PM
; Settings Summary
;   processName,Process1
;   applyToModels,hook
;   profileName,A10-04-15 Tevo Tornado
;   profileVersion,2020-12-06 16:18:07
;   baseProfile,Creality CR-10(2)
;   printMaterial,PLA
;   printQuality,Medium
;   printExtruders,
;   extruderName,Primary Extruder
;   extruderToolheadNumber,0
;   extruderDiameter,0.4
;   extruderAutoWidth,0
;   extruderWidth,0.35
;   extrusionMultiplier,0.95
;   extruderUseRetract,1
;   extruderRetractionDistance,4
;   extruderExtraRestartDistance,0
;   extruderRetractionZLift,0.1
;   extruderRetractionSpeed,6000
;   extruderUseCoasting,1
;   extruderCoastingDistance,0.4
;   extruderUseWipe,1
;   extruderWipeDistance,5
;   primaryExtruder,0
;   layerHeight,0.15
;   topSolidLayers,5
;   bottomSolidLayers,4
;   perimeterOutlines,3
;   printPerimetersInsideOut,0
;   startPointOption,1
;   startPointOriginX,0
;   startPointOriginY,300
;   sequentialIslands,0
;   spiralVaseMode,0
;   firstLayerHeightPercentage,120
;   firstLayerWidthPercentage,100
;   firstLayerUnderspeed,0.4
;   useRaft,0
;   raftExtruder,0
;   raftTopLayers,3
;   raftBaseLayers,2
;   raftOffset,3
;   raftSeparationDistance,0.14
;   raftTopInfill,100
;   aboveRaftSpeedMultiplier,0.3
;   useSkirt,1
;   skirtExtruder,0
;   skirtLayers,1
;   skirtOutlines,2
;   skirtOffset,3
;   usePrimePillar,0
;   primePillarExtruder,999
;   primePillarWidth,12
;   primePillarLocation,7
;   primePillarSpeedMultiplier,1
;   useOozeShield,0
;   oozeShieldExtruder,999
;   oozeShieldOffset,2
;   oozeShieldOutlines,1
;   oozeShieldSidewallShape,1
;   oozeShieldSidewallAngle,30
;   oozeShieldSpeedMultiplier,1
;   infillExtruder,0
;   internalInfillPattern,Rectilinear
;   externalInfillPattern,Rectilinear
;   infillPercentage,15
;   outlineOverlapPercentage,15
;   infillExtrusionWidthPercentage,100
;   minInfillLength,5
;   infillLayerInterval,1
;   internalInfillAngles,45,-45
;   overlapInternalInfillAngles,0
;   externalInfillAngles,45,-45
;   generateSupport,0
;   supportExtruder,0
;   supportInfillPercentage,30
;   supportExtraInflation,0
;   supportBaseLayers,0
;   denseSupportExtruder,0
;   denseSupportLayers,0
;   denseSupportInfillPercentage,70
;   supportLayerInterval,1
;   supportHorizontalPartOffset,0.4
;   supportUpperSeparationLayers,1
;   supportLowerSeparationLayers,1
;   supportType,0
;   supportGridSpacing,4.5
;   maxOverhangAngle,45
;   supportAngles,0
;   temperatureName,Primary Extruder,Heated Bed
;   temperatureNumber,0,0
;   temperatureSetpointCount,2,2
;   temperatureSetpointLayers,1,2,1,2
;   temperatureSetpointTemperatures,215,210,55,50
;   temperatureStabilizeAtStartup,1,1
;   temperatureHeatedBed,0,1
;   fanLayers,1,2
;   fanSpeeds,0,100
;   blipFanToFullPower,0
;   adjustSpeedForCooling,1
;   minSpeedLayerTime,15
;   minCoolingSpeedSlowdown,20
;   increaseFanForCooling,1
;   minFanLayerTime,25
;   maxCoolingFanSpeed,100
;   increaseFanForBridging,1
;   bridgingFanSpeed,100
;   use5D,1
;   relativeEdistances,0
;   allowEaxisZeroing,1
;   independentExtruderAxes,0
;   includeM10123,0
;   stickySupport,1
;   applyToolheadOffsets,0
;   gcodeXoffset,0
;   gcodeYoffset,0
;   gcodeZoffset,0
;   overrideMachineDefinition,1
;   machineTypeOverride,0
;   strokeXoverride,300
;   strokeYoverride,300
;   strokeZoverride,400
;   originOffsetXoverride,0
;   originOffsetYoverride,0
;   originOffsetZoverride,0
;   homeXdirOverride,-1
;   homeYdirOverride,-1
;   homeZdirOverride,-1
;   flipXoverride,1
;   flipYoverride,-1
;   flipZoverride,1
;   toolheadOffsets,0,0|0,0|0,0|0,0|0,0|0,0
;   overrideFirmwareConfiguration,1
;   firmwareTypeOverride,RepRap (Marlin/Repetier/Sprinter)
;   GPXconfigOverride,r2
;   baudRateOverride,250000
;   overridePrinterModels,1
;   printerModelsOverride
;   startingGcode,;,; -]H.P.B[- MarshMalloW  ,; $VER: StartScript 1.02 (26.12.2019) MarshMalloW,;,; Begin Startcode,;,M117 *Preheat*     	; Preheat,;extruder0_temperature,M104 S[extruder0_temperature]  ,M109 S[extruder0_temperature] ,M109 R[extruder0_temperature] ,;,M117 *Auto-leveling*     	; Auto-leveling,M107                   	; Turn layer fan off,G21                    	; Set to metric [change to G20 if you want Imperial],G90                    	; Force coordinates to be absolute relative to the origin,G28                    	; Home X/Y/Z axis,G29                    	; Auto-leveling (BL-Touch),;,M117 *Start Clean*     	; Indicate nozzle clean in progress on LCD,G92 E0                 	; Set Extruder to 0 ,G1 X0 Y0 F2000         	; Move X and Y to 0 with speed 2000 (mm/min),G1 Z0.1 F1000          	; Move Z to   0.1 with speed 1000 (mm/min),G1 X8.0 F2000          	; Move X to   8.0 with speed 2000 (mm/min),G1 Y60.0 E4.0 F1000.0  	; Move Y to  60 and Extruder with 4.0 with speed 1000 (mm/min),G1 Y100.0 E8.5 F1000.0 	; Move Y to 100 and Extruder with 8.5 with speed 1000 (mm/min),G92 E0                 	; Set extruder to 0,G1 X16.0 F3000         	; Move X to 16.0 with speed 3000 (mm/min),G1 Y60.0 F3000         	; Move Y to 60.0 with speed 3000 (mm/min),M117 *End Clean*       	; Indicate nozzle clean in progress on LCD,G1 Z5 F3000            	; Move Z to  5.0 with speed 3000 (mm/min),G1 X20.0 F3000         	; Move X to 20.0 with speed 3000 (mm/min),G1 Y20.0 F3000         	; Move Y to 20.0 with speed 3000 (mm/min),; ,M117 *Printing...*     	; Start printing msg on LCD,;,; End Startcode,;,; Begin printing with sliced GCode after here,;
;   layerChangeGcode,
;   retractionGcode,
;   toolChangeGcode,
;   endingGcode,;,; init 181010,;,;M107 			; Fan off,;G1 E-1 F300 			; Retract the filament a bit before lifting the nozzle,;M104 S0 			; Turn off extruder,;M140 S0 			; Turn off bed,;G91			; Relative positioning,;G28 X0 Y0 			; Move X/Y to min endstops so the head is out of teh way,;M84 			; Disable motors,;G90 			; Absolute positioning,;M117 Print ready...,,;,; // From Cura 181010,; // End_gcode,G92 E0			; Zero the extruded length,;G1 E-30 F300		; Retract E -30,M106 S0			; Turn off cooling fan,M104 S0			; Turn off temperature,M140 S0		     	; Turn off bed,G91			; Relative positioning,G1 E-1 F300			; Retract the filament a bit before lifting the nozzle to release some of the pressure,G1 Z+20 E-5 X-20 Y-20 F7200	; Move Z up a bit and retract filament even more,G1 X0 Y150 F10000		; Move right min,M107			; Turn off layer fan,M84			; Disable motors,G90			; Absolute positioning,M117 *The-End* 		; End msg,;,
;   exportFileFormat,gcode
;   celebration,0
;   celebrationSong,Star Wars
;   postProcessing,|{REPLACE "; layer " "M117 INDICATOR-Layer"}|{REPLACE ", Z = " "\n; Z="}
;   defaultSpeed,2400
;   outlineUnderspeed,0.6
;   solidInfillUnderspeed,0.8
;   supportUnderspeed,0.8
;   rapidXYspeed,3600
;   rapidZspeed,900
;   minBridgingArea,50
;   bridgingExtraInflation,0.2
;   bridgingExtrusionMultiplier,1
;   bridgingSpeedMultiplier,0.6
;   useFixedBridgingAngle,0
;   fixedBridgingAngle,0
;   applyBridgingToPerimeters,0
;   filamentDiameters,1.75|1.75|1.75|1.75|1.75|1.75
;   filamentPricesPerKg,30|46|46|46|46|46
;   filamentDensities,1.25|1.25|1.25|1.25|1.25|1.25
;   useMinPrintHeight,0
;   minPrintHeight,0
;   useMaxPrintHeight,0
;   maxPrintHeight,50
;   useDiaphragm,0
;   diaphragmLayerInterval,20
;   robustSlicing,1
;   mergeAllIntoSolid,0
;   onlyRetractWhenCrossingOutline,1
;   retractBetweenLayers,1
;   useRetractionMinTravel,0
;   retractionMinTravel,3
;   retractWhileWiping,1
;   onlyWipeOutlines,1
;   avoidCrossingOutline,1
;   maxMovementDetourFactor,3
;   toolChangeRetractionDistance,12
;   toolChangeExtraRestartDistance,-0.5
;   toolChangeRetractionSpeed,600
;   externalThinWallType,1
;   internalThinWallType,1
;   thinWallAllowedOverlapPercentage,20
;   singleExtrusionMinLength,1
;   singleExtrusionMinPrintingWidthPercentage,50
;   singleExtrusionMaxPrintingWidthPercentage,200
;   singleExtrusionEndpointExtension,0.2
;   horizontalSizeCompensation,0
G90
M82
M106 S41
M140 S55
M190 S55
;
; -]H.P.B[- MarshMalloW  
; $VER: StartScript 1.02 (26.12.2019) MarshMalloW
;
; Begin Startcode
;
M117 *Preheat*     	; Preheat
;extruder0_temperature
M104 S215  
M109 S215 
M109 R215 
;
M117 *Auto-leveling*     	; Auto-leveling
M107                   	; Turn layer fan off
G21                    	; Set to metric [change to G20 if you want Imperial]
G90                    	; Force coordinates to be absolute relative to the origin
G28                    	; Home X/Y/Z axis
G29                    	; Auto-leveling (BL-Touch)
;
M117 *Start Clean*     	; Indicate nozzle clean in progress on LCD
G92 E0                 	; Set Extruder to 0 
G1 X0 Y0 F2000         	; Move X and Y to 0 with speed 2000 (mm/min)
G1 Z0.1 F1000          	; Move Z to   0.1 with speed 1000 (mm/min)
G1 X8.0 F2000          	; Move X to   8.0 with speed 2000 (mm/min)
G1 Y60.0 E4.0 F1000.0  	; Move Y to  60 and Extruder with 4.0 with speed 1000 (mm/min)
G1 Y100.0 E8.5 F1000.0 	; Move Y to 100 and Extruder with 8.5 with speed 1000 (mm/min)
G92 E0                 	; Set extruder to 0
G1 X16.0 F3000         	; Move X to 16.0 with speed 3000 (mm/min)
G1 Y60.0 F3000         	; Move Y to 60.0 with speed 3000 (mm/min)
M117 *End Clean*       	; Indicate nozzle clean in progress on LCD
G1 Z5 F3000            	; Move Z to  5.0 with speed 3000 (mm/min)
G1 X20.0 F3000         	; Move X to 20.0 with speed 3000 (mm/min)
G1 Y20.0 F3000         	; Move Y to 20.0 with speed 3000 (mm/min)
; 
M117 *Printing...*     	; Start printing msg on LCD
;
; End Startcode
;
; Begin printing with sliced GCode after here
;
; process Process1
M117 INDICATOR-Layer1
; Z=0.180
T0
G92 E0.0000
G1 E-4.0000 F6000
; feature skirt
; tool H0.180 W0.350
G1 Z0.180 F900
G1 X145.402 Y53.639 F3600
G1 E0.0000 F6000
G92 E0.0000
G1 X144.615 Y56.065 E0.0635 F960
G1 X144.509 Y56.322 E0.0704
G1 X144.149 Y57.027 E0.0901
G1 X143.889 Y57.406 E0.1015
G1 X143.263 Y58.104 E0.1248
G1 X143.032 Y58.319 E0.1327
G1 X142.395 Y58.814 E0.1528
G1 X141.980 Y59.054 E0.1647
G1 X141.845 Y59.110 E0.1683
G1 X142.141 Y59.227 E0.1763
G1 X142.624 Y59.515 E0.1903
G1 X143.248 Y60.036 E0.2105
G1 X143.533 Y60.336 E0.2208
G1 X143.975 Y60.931 E0.2392
G1 X144.140 Y61.200 E0.2471
G1 X144.457 Y61.836 E0.2648
G1 X144.552 Y62.066 E0.2709
G1 X144.776 Y62.741 E0.2886
G1 X144.832 Y62.953 E0.2941
G1 X145.024 Y63.922 E0.3187
G1 X145.037 Y64.535 E0.3339
G1 X144.782 Y66.209 E0.3761
G1 X144.763 Y66.314 E0.3787
G1 X144.545 Y67.325 E0.4045
G1 X144.517 Y67.439 E0.4074
G1 X144.118 Y68.833 E0.4435
G1 X144.079 Y68.953 E0.4466
G1 X143.752 Y69.849 E0.4703
G1 X143.710 Y69.954 E0.4732
G1 X143.337 Y70.802 E0.4962
G1 X143.258 Y70.959 E0.5006
G1 X142.641 Y72.052 E0.5318
G1 X142.522 Y72.236 E0.5373
G1 X142.040 Y72.885 E0.5574
G1 X141.938 Y73.011 E0.5614
G1 X141.448 Y73.557 E0.5797
G1 X141.325 Y73.682 E0.5840
G1 X140.779 Y74.181 E0.6024
G1 X140.580 Y74.338 E0.6087
G1 X139.756 Y74.900 E0.6336
G1 X139.498 Y75.045 E0.6409
G1 X138.836 Y75.349 E0.6591
G1 X138.589 Y75.440 E0.6656
G1 X137.911 Y75.636 E0.6832
G1 X137.628 Y75.693 E0.6903
G1 X136.919 Y75.776 E0.7081
G1 X136.621 Y75.785 E0.7155
G1 X135.920 Y75.749 E0.7330
G1 X135.655 Y75.714 E0.7396
G1 X135.005 Y75.580 E0.7562
G1 X134.716 Y75.494 E0.7636
G1 X133.903 Y75.174 E0.7854
G1 X133.653 Y75.052 E0.7923
G1 X133.096 Y74.724 E0.8084
G1 X132.934 Y74.616 E0.8132
G1 X132.423 Y74.233 E0.8291
G1 X132.253 Y74.088 E0.8347
G1 X131.585 Y73.440 E0.8579
G1 X131.409 Y73.242 E0.8645
G1 X130.628 Y72.215 E0.8966
G1 X130.469 Y71.965 E0.9039
G1 X129.600 Y70.306 E0.9505
G1 X129.513 Y70.113 E0.9558
G1 X128.948 Y68.622 E0.9955
G1 X128.903 Y68.488 E0.9990
G1 X128.638 Y67.573 E1.0227
G1 X128.610 Y67.460 E1.0256
G1 X128.395 Y66.483 E1.0505
G1 X128.377 Y66.383 E1.0530
G1 X128.209 Y65.333 E1.0795
G1 X128.194 Y65.211 E1.0825
G1 X128.014 Y63.196 E1.1329
G1 X128.008 Y63.079 E1.1358
G1 X127.983 Y61.981 E1.1631
G1 X127.983 Y61.941 E1.1641
G1 X127.985 Y52.799 E1.3916
G1 X130.050 Y50.734 E1.4642
G1 X143.290 Y50.734 E1.7937
G1 X145.402 Y53.639 E1.8830
G92 E0.0000
G1 E-4.0000 F6000
G1 Z0.280 F900
G1 X138.479 Y75.108 F3600
G1 Z0.180 F900
G1 E0.0000 F6000
G92 E0.0000
G1 X137.828 Y75.295 E0.0169 F960
G1 X137.573 Y75.347 E0.0233
G1 X136.893 Y75.426 E0.0404
G1 X136.624 Y75.435 E0.0471
G1 X135.951 Y75.400 E0.0638
G1 X135.713 Y75.369 E0.0698
G1 X135.090 Y75.240 E0.0856
G1 X134.830 Y75.163 E0.0924
G1 X134.044 Y74.853 E0.1134
G1 X133.819 Y74.744 E0.1196
G1 X133.282 Y74.427 E0.1351
G1 X133.136 Y74.330 E0.1395
G1 X132.642 Y73.960 E0.1549
G1 X132.489 Y73.829 E0.1599
G1 X131.838 Y73.198 E0.1825
G1 X131.679 Y73.019 E0.1884
G1 X130.915 Y72.015 E0.2198
G1 X130.772 Y71.790 E0.2264
G1 X129.915 Y70.153 E0.2724
G1 X129.836 Y69.979 E0.2772
G1 X129.278 Y68.505 E0.3164
G1 X129.238 Y68.384 E0.3196
G1 X128.976 Y67.481 E0.3429
G1 X128.950 Y67.380 E0.3455
G1 X128.738 Y66.413 E0.3702
G1 X128.721 Y66.323 E0.3725
G1 X128.556 Y65.283 E0.3986
G1 X128.542 Y65.174 E0.4014
G1 X128.363 Y63.171 E0.4514
G1 X128.358 Y63.066 E0.4541
G1 X128.333 Y61.975 E0.4812
G1 X128.333 Y61.939 E0.4821
G1 X128.335 Y52.944 E0.7059
G1 X130.195 Y51.084 E0.7714
G1 X143.112 Y51.084 E1.0928
G1 X145.014 Y53.701 E1.1733
G1 X144.286 Y55.944 E1.2319
G1 X144.190 Y56.175 E1.2382
G1 X143.848 Y56.848 E1.2569
G1 X143.614 Y57.189 E1.2672
G1 X143.013 Y57.859 E1.2896
G1 X142.805 Y58.052 E1.2967
G1 X142.199 Y58.523 E1.3158
G1 X141.826 Y58.739 E1.3265
G1 X141.151 Y59.016 E1.3447
G1 X140.750 Y59.122 E1.3550
G1 X140.674 Y59.132 E1.3569
G1 X141.206 Y59.233 E1.3703
G1 X141.986 Y59.542 E1.3912
G1 X142.421 Y59.801 E1.4038
G1 X143.008 Y60.291 E1.4228
G1 X143.264 Y60.562 E1.4321
G1 X143.685 Y61.127 E1.4497
G1 X143.834 Y61.369 E1.4567
G1 X144.138 Y61.981 E1.4737
G1 X144.224 Y62.188 E1.4793
G1 X144.440 Y62.840 E1.4964
G1 X144.491 Y63.032 E1.5013
G1 X144.675 Y63.960 E1.5249
G1 X144.687 Y64.512 E1.5386
G1 X144.437 Y66.151 E1.5799
G1 X144.420 Y66.245 E1.5823
G1 X144.204 Y67.246 E1.6077
G1 X144.179 Y67.348 E1.6103
G1 X143.784 Y68.731 E1.6461
G1 X143.748 Y68.839 E1.6490
G1 X143.425 Y69.724 E1.6724
G1 X143.387 Y69.818 E1.6749
G1 X143.020 Y70.653 E1.6976
G1 X142.949 Y70.795 E1.7016
G1 X142.342 Y71.870 E1.7323
G1 X142.234 Y72.036 E1.7372
G1 X141.764 Y72.670 E1.7569
G1 X141.671 Y72.783 E1.7605
G1 X141.193 Y73.317 E1.7783
G1 X141.082 Y73.430 E1.7823
G1 X140.552 Y73.915 E1.8001
G1 X140.373 Y74.056 E1.8058
G1 X139.571 Y74.602 E1.8300
G1 X139.339 Y74.733 E1.8366
G1 X138.702 Y75.025 E1.8540
G1 X138.479 Y75.108 E1.8599
G92 E0.0000
G1 E-4.0000 F6000
; feature outer perimeter
G1 Z0.280 F900
G1 X137.425 Y71.925 F3600
G1 X137.561 Y71.863
G1 X136.512 Y68.155
G1 X136.443 Y68.153
G1 X136.061 Y68.089
G1 X135.804 Y67.980
G1 X135.652 Y67.893
G1 X135.369 Y67.694
G1 X134.977 Y67.315
G1 X134.623 Y66.847
G1 X134.314 Y66.301
G1 X134.058 Y65.686
G1 X133.876 Y65.151
G1 X133.750 Y64.712
G1 X133.622 Y64.060
G1 X133.478 Y62.873
G1 X133.446 Y62.352
G1 X133.440 Y61.866
G1 X133.463 Y61.354
G1 X133.507 Y60.828
G1 X133.572 Y60.317
G1 X133.658 Y59.825
G1 X133.765 Y59.351
G1 X133.891 Y58.896
G1 Z0.180 F900
G1 E0.0000 F6000
G92 E0.0000
G1 X133.765 Y59.351 E0.0117 F576
G1 X133.658 Y59.825 E0.0238
G1 X133.572 Y60.318 E0.0363
G1 X133.507 Y60.828 E0.0491
G1 X133.463 Y61.354 E0.0622
G1 X133.440 Y61.866 E0.0750
G1 X133.446 Y62.352 E0.0871
G1 X133.478 Y62.873 E0.1001
G1 X133.622 Y64.060 E0.1298
G1 X133.750 Y64.712 E0.1463
G1 X133.876 Y65.151 E0.1577
G1 X134.058 Y65.686 E0.1718
G1 X134.314 Y66.300 E0.1883
G1 X134.623 Y66.847 E0.2039
G1 X134.977 Y67.315 E0.2185
G1 X135.369 Y67.694 E0.2321
G1 X135.652 Y67.893 E0.2407
G1 X135.804 Y67.980 E0.2451
G1 X136.061 Y68.089 E0.2520
G1 X136.443 Y68.153 E0.2617
G1 X136.719 Y68.160 E0.2685
G1 X136.973 Y68.134 E0.2749
G1 X137.227 Y68.064 E0.2814
G1 X137.470 Y67.955 E0.2881
G1 X137.701 Y67.808 E0.2949
G1 X137.921 Y67.625 E0.3020
G1 X138.130 Y67.406 E0.3095
G1 X138.329 Y67.154 E0.3175
G1 X138.518 Y66.866 E0.3261
G1 X138.698 Y66.543 E0.3353
G1 X138.866 Y66.198 E0.3449
G1 X139.018 Y65.834 E0.3547
G1 X139.157 Y65.455 E0.3647
G1 X139.386 Y64.663 E0.3852
G1 X139.549 Y63.831 E0.4063
