; G-Code generated by Simplify3D(R) Version 4.1.2
; Dec 19, 2020 at 2:06:55 PM
; Settings Summary
;   processName,Process1
;   applyToModels,Darth1,Darth2
;   profileName,A10-04-15 Tevo Tornado
;   profileVersion,2020-12-06 16:18:07
;   baseProfile,Creality CR-10(2)
;   printMaterial,PLA
;   printQuality,Medium
;   printExtruders,
;   extruderName,Primary Extruder
;   extruderToolheadNumber,0
;   extruderDiameter,0.4
;   extruderAutoWidth,0
;   extruderWidth,0.35
;   extrusionMultiplier,0.95
;   extruderUseRetract,1
;   extruderRetractionDistance,4
;   extruderExtraRestartDistance,0
;   extruderRetractionZLift,0.1
;   extruderRetractionSpeed,6000
;   extruderUseCoasting,1
;   extruderCoastingDistance,0.4
;   extruderUseWipe,1
;   extruderWipeDistance,5
;   primaryExtruder,0
;   layerHeight,0.15
;   topSolidLayers,5
;   bottomSolidLayers,4
;   perimeterOutlines,3
;   printPerimetersInsideOut,0
;   startPointOption,1
;   startPointOriginX,0
;   startPointOriginY,300
;   sequentialIslands,0
;   spiralVaseMode,0
;   firstLayerHeightPercentage,120
;   firstLayerWidthPercentage,100
;   firstLayerUnderspeed,0.4
;   useRaft,0
;   raftExtruder,0
;   raftTopLayers,3
;   raftBaseLayers,2
;   raftOffset,3
;   raftSeparationDistance,0.14
;   raftTopInfill,100
;   aboveRaftSpeedMultiplier,0.3
;   useSkirt,1
;   skirtExtruder,0
;   skirtLayers,1
;   skirtOutlines,2
;   skirtOffset,3
;   usePrimePillar,0
;   primePillarExtruder,999
;   primePillarWidth,12
;   primePillarLocation,7
;   primePillarSpeedMultiplier,1
;   useOozeShield,0
;   oozeShieldExtruder,999
;   oozeShieldOffset,2
;   oozeShieldOutlines,1
;   oozeShieldSidewallShape,1
;   oozeShieldSidewallAngle,30
;   oozeShieldSpeedMultiplier,1
;   infillExtruder,0
;   internalInfillPattern,Rectilinear
;   externalInfillPattern,Rectilinear
;   infillPercentage,15
;   outlineOverlapPercentage,15
;   infillExtrusionWidthPercentage,100
;   minInfillLength,5
;   infillLayerInterval,1
;   internalInfillAngles,45,-45
;   overlapInternalInfillAngles,0
;   externalInfillAngles,45,-45
;   generateSupport,0
;   supportExtruder,0
;   supportInfillPercentage,30
;   supportExtraInflation,0
;   supportBaseLayers,0
;   denseSupportExtruder,0
;   denseSupportLayers,0
;   denseSupportInfillPercentage,70
;   supportLayerInterval,1
;   supportHorizontalPartOffset,0.4
;   supportUpperSeparationLayers,1
;   supportLowerSeparationLayers,1
;   supportType,0
;   supportGridSpacing,4.5
;   maxOverhangAngle,45
;   supportAngles,0
;   temperatureName,Primary Extruder,Heated Bed
;   temperatureNumber,0,0
;   temperatureSetpointCount,2,2
;   temperatureSetpointLayers,1,2,1,2
;   temperatureSetpointTemperatures,215,210,55,50
;   temperatureStabilizeAtStartup,1,1
;   temperatureHeatedBed,0,1
;   fanLayers,1,2
;   fanSpeeds,0,100
;   blipFanToFullPower,0
;   adjustSpeedForCooling,1
;   minSpeedLayerTime,15
;   minCoolingSpeedSlowdown,20
;   increaseFanForCooling,1
;   minFanLayerTime,25
;   maxCoolingFanSpeed,100
;   increaseFanForBridging,1
;   bridgingFanSpeed,100
;   use5D,1
;   relativeEdistances,0
;   allowEaxisZeroing,1
;   independentExtruderAxes,0
;   includeM10123,0
;   stickySupport,1
;   applyToolheadOffsets,0
;   gcodeXoffset,0
;   gcodeYoffset,0
;   gcodeZoffset,0
;   overrideMachineDefinition,1
;   machineTypeOverride,0
;   strokeXoverride,300
;   strokeYoverride,300
;   strokeZoverride,400
;   originOffsetXoverride,0
;   originOffsetYoverride,0
;   originOffsetZoverride,0
;   homeXdirOverride,-1
;   homeYdirOverride,-1
;   homeZdirOverride,-1
;   flipXoverride,1
;   flipYoverride,-1
;   flipZoverride,1
;   toolheadOffsets,0,0|0,0|0,0|0,0|0,0|0,0
;   overrideFirmwareConfiguration,1
;   firmwareTypeOverride,RepRap (Marlin/Repetier/Sprinter)
;   GPXconfigOverride,r2
;   baudRateOverride,250000
;   overridePrinterModels,1
;   printerModelsOverride
;   startingGcode,;,; -]H.P.B[- MarshMalloW  ,; $VER: StartScript 1.02 (26.12.2019) MarshMalloW,;,; Begin Startcode,;,M117 *Preheat*     	; Preheat,;extruder0_temperature,M104 S[extruder0_temperature]  ,M109 S[extruder0_temperature] ,M109 R[extruder0_temperature] ,;,M117 *Auto-leveling*     	; Auto-leveling,M107                   	; Turn layer fan off,G21                    	; Set to metric [change to G20 if you want Imperial],G90                    	; Force coordinates to be absolute relative to the origin,G28                    	; Home X/Y/Z axis,G29                    	; Auto-leveling (BL-Touch),;,M117 *Start Clean*     	; Indicate nozzle clean in progress on LCD,G92 E0                 	; Set Extruder to 0 ,G1 X0 Y0 F2000         	; Move X and Y to 0 with speed 2000 (mm/min),G1 Z0.1 F1000          	; Move Z to   0.1 with speed 1000 (mm/min),G1 X8.0 F2000          	; Move X to   8.0 with speed 2000 (mm/min),G1 Y60.0 E4.0 F1000.0  	; Move Y to  60 and Extruder with 4.0 with speed 1000 (mm/min),G1 Y100.0 E8.5 F1000.0 	; Move Y to 100 and Extruder with 8.5 with speed 1000 (mm/min),G92 E0                 	; Set extruder to 0,G1 X16.0 F3000         	; Move X to 16.0 with speed 3000 (mm/min),G1 Y60.0 F3000         	; Move Y to 60.0 with speed 3000 (mm/min),M117 *End Clean*       	; Indicate nozzle clean in progress on LCD,G1 Z5 F3000            	; Move Z to  5.0 with speed 3000 (mm/min),G1 X20.0 F3000         	; Move X to 20.0 with speed 3000 (mm/min),G1 Y20.0 F3000         	; Move Y to 20.0 with speed 3000 (mm/min),; ,M117 *Printing...*     	; Start printing msg on LCD,;,; End Startcode,;,; Begin printing with sliced GCode after here,;
;   layerChangeGcode,
;   retractionGcode,
;   toolChangeGcode,
;   endingGcode,;,; init 181010,;,;M107 			; Fan off,;G1 E-1 F300 			; Retract the filament a bit before lifting the nozzle,;M104 S0 			; Turn off extruder,;M140 S0 			; Turn off bed,;G91			; Relative positioning,;G28 X0 Y0 			; Move X/Y to min endstops so the head is out of teh way,;M84 			; Disable motors,;G90 			; Absolute positioning,;M117 Print ready...,,;,; // From Cura 181010,; // End_gcode,G92 E0			; Zero the extruded length,;G1 E-30 F300		; Retract E -30,M106 S0			; Turn off cooling fan,M104 S0			; Turn off temperature,M140 S0		     	; Turn off bed,G91			; Relative positioning,G1 E-1 F300			; Retract the filament a bit before lifting the nozzle to release some of the pressure,G1 Z+20 E-5 X-20 Y-20 F7200	; Move Z up a bit and retract filament even more,G1 X0 Y150 F10000		; Move right min,M107			; Turn off layer fan,M84			; Disable motors,G90			; Absolute positioning,M117 *The-End* 		; End msg,;,
;   exportFileFormat,gcode
;   celebration,0
;   celebrationSong,Star Wars
;   postProcessing,|{REPLACE "; layer " "M117 INDICATOR-Layer"}|{REPLACE ", Z = " "\n; Z="}
;   defaultSpeed,2400
;   outlineUnderspeed,0.6
;   solidInfillUnderspeed,0.8
;   supportUnderspeed,0.8
;   rapidXYspeed,3600
;   rapidZspeed,900
;   minBridgingArea,50
;   bridgingExtraInflation,0.2
;   bridgingExtrusionMultiplier,1
;   bridgingSpeedMultiplier,0.6
;   useFixedBridgingAngle,0
;   fixedBridgingAngle,0
;   applyBridgingToPerimeters,0
;   filamentDiameters,1.75|1.75|1.75|1.75|1.75|1.75
;   filamentPricesPerKg,30|46|46|46|46|46
;   filamentDensities,1.25|1.25|1.25|1.25|1.25|1.25
;   useMinPrintHeight,0
;   minPrintHeight,0
;   useMaxPrintHeight,0
;   maxPrintHeight,50
;   useDiaphragm,0
;   diaphragmLayerInterval,20
;   robustSlicing,1
;   mergeAllIntoSolid,0
;   onlyRetractWhenCrossingOutline,1
;   retractBetweenLayers,1
;   useRetractionMinTravel,0
;   retractionMinTravel,3
;   retractWhileWiping,1
;   onlyWipeOutlines,1
;   avoidCrossingOutline,1
;   maxMovementDetourFactor,3
;   toolChangeRetractionDistance,12
;   toolChangeExtraRestartDistance,-0.5
;   toolChangeRetractionSpeed,600
;   externalThinWallType,1
;   internalThinWallType,1
;   thinWallAllowedOverlapPercentage,20
;   singleExtrusionMinLength,1
;   singleExtrusionMinPrintingWidthPercentage,50
;   singleExtrusionMaxPrintingWidthPercentage,200
;   singleExtrusionEndpointExtension,0.2
;   horizontalSizeCompensation,0
G90
M82
M106 S0
M140 S55
M190 S55
;
; -]H.P.B[- MarshMalloW  
; $VER: StartScript 1.02 (26.12.2019) MarshMalloW
;
; Begin Startcode
;
M117 *Preheat*     	; Preheat
;extruder0_temperature
M104 S215  
M109 S215 
M109 R215 
;
M117 *Auto-leveling*     	; Auto-leveling
M107                   	; Turn layer fan off
G21                    	; Set to metric [change to G20 if you want Imperial]
G90                    	; Force coordinates to be absolute relative to the origin
G28                    	; Home X/Y/Z axis
G29                    	; Auto-leveling (BL-Touch)
;
M117 *Start Clean*     	; Indicate nozzle clean in progress on LCD
G92 E0                 	; Set Extruder to 0 
G1 X0 Y0 F2000         	; Move X and Y to 0 with speed 2000 (mm/min)
G1 Z0.1 F1000          	; Move Z to   0.1 with speed 1000 (mm/min)
G1 X8.0 F2000          	; Move X to   8.0 with speed 2000 (mm/min)
G1 Y60.0 E4.0 F1000.0  	; Move Y to  60 and Extruder with 4.0 with speed 1000 (mm/min)
G1 Y100.0 E8.5 F1000.0 	; Move Y to 100 and Extruder with 8.5 with speed 1000 (mm/min)
G92 E0                 	; Set extruder to 0
G1 X16.0 F3000         	; Move X to 16.0 with speed 3000 (mm/min)
G1 Y60.0 F3000         	; Move Y to 60.0 with speed 3000 (mm/min)
M117 *End Clean*       	; Indicate nozzle clean in progress on LCD
G1 Z5 F3000            	; Move Z to  5.0 with speed 3000 (mm/min)
G1 X20.0 F3000         	; Move X to 20.0 with speed 3000 (mm/min)
G1 Y20.0 F3000         	; Move Y to 20.0 with speed 3000 (mm/min)
; 
M117 *Printing...*     	; Start printing msg on LCD
;
; End Startcode
;
; Begin printing with sliced GCode after here
;
; process Process1
M117 INDICATOR-Layer1
; Z=0.180
T0
G92 E0.0000
G1 E-4.0000 F6000
; feature skirt
; tool H0.180 W0.350
G1 Z0.180 F900
G1 X109.951 Y28.253 F3600
G1 E0.0000 F6000
G92 E0.0000
G1 X110.927 Y28.607 E0.0258 F960
G1 X111.062 Y28.662 E0.0295
G1 X112.023 Y29.104 E0.0558
G1 X112.069 Y29.125 E0.0570
G1 X114.586 Y30.371 E0.1269
G1 X114.623 Y30.390 E0.1279
G1 X117.075 Y31.675 E0.1968
G1 X117.126 Y31.702 E0.1983
G1 X118.019 Y32.209 E0.2238
G1 X118.181 Y32.312 E0.2286
G1 X119.585 Y33.324 E0.2717
G1 X121.845 Y33.190 E0.3280
G1 X123.848 Y34.581 E0.3887
G1 X124.779 Y37.615 E0.4676
G1 X125.713 Y37.625 E0.4909
G1 X126.697 Y37.582 E0.5154
G1 X127.621 Y37.501 E0.5385
G1 X128.461 Y37.385 E0.5596
G1 X129.222 Y37.236 E0.5789
G1 X129.910 Y37.058 E0.5966
G1 X130.561 Y36.842 E0.6136
G1 X131.340 Y36.536 E0.6345
G1 X131.534 Y36.054 E0.6474
G1 X132.480 Y34.826 E0.6859
G1 X134.146 Y34.102 E0.7311
G1 X135.627 Y34.243 E0.7682
G1 X136.402 Y34.504 E0.7885
G1 X137.135 Y34.961 E0.8100
G1 X137.378 Y35.143 E0.8176
G1 X137.892 Y35.601 E0.8347
G1 X137.981 Y35.687 E0.8378
G1 X138.520 Y36.240 E0.8570
G1 X138.579 Y36.304 E0.8592
G1 X139.937 Y37.846 E0.9103
G1 X139.988 Y37.906 E0.9122
G1 X140.882 Y39.016 E0.9477
G1 X140.954 Y39.113 E0.9507
G1 X141.675 Y40.145 E0.9821
G1 X141.772 Y40.301 E0.9866
G1 X142.283 Y41.224 E1.0129
G1 X142.391 Y41.458 E1.0193
G1 X142.604 Y42.023 E1.0343
G1 X142.693 Y42.359 E1.0430
G1 X142.802 Y43.022 E1.0597
G1 X142.805 Y43.572 E1.0734
G1 X142.685 Y44.376 E1.0936
G1 X142.644 Y44.572 E1.0986
G1 X142.417 Y45.416 E1.1203
G1 X142.386 Y45.518 E1.1230
G1 X141.687 Y47.602 E1.1777
G1 X141.662 Y47.671 E1.1795
G1 X140.676 Y50.249 E1.2482
G1 X140.655 Y50.302 E1.2496
G1 X139.504 Y53.041 E1.3235
G1 X139.478 Y53.100 E1.3251
G1 X138.822 Y54.516 E1.3640
G1 X138.794 Y54.573 E1.3655
G1 X138.053 Y56.034 E1.4063
G1 X138.026 Y56.084 E1.4077
G1 X137.197 Y57.597 E1.4506
G1 X137.173 Y57.639 E1.4518
G1 X136.256 Y59.209 E1.4971
G1 X136.233 Y59.247 E1.4982
G1 X135.222 Y60.880 E1.5460
G1 X135.200 Y60.914 E1.5470
G1 X134.089 Y62.621 E1.5977
G1 X134.061 Y62.664 E1.5989
G1 X131.164 Y66.843 E1.7255
G1 X130.965 Y67.169 E1.7350
G1 X130.860 Y67.400 E1.7413
G1 X130.738 Y67.791 E1.7515
G1 X130.579 Y68.534 E1.7704
G1 X130.389 Y69.714 E1.8001
G1 X129.564 Y75.942 E1.9564
G1 X129.558 Y75.985 E1.9575
G1 X129.270 Y77.817 E2.0037
G1 X129.259 Y77.880 E2.0052
G1 X128.975 Y79.339 E2.0422
G1 X128.951 Y79.447 E2.0450
G1 X128.662 Y80.557 E2.0735
G1 X128.625 Y80.680 E2.0767
G1 X128.288 Y81.671 E2.1028
G1 X128.254 Y81.764 E2.1053
G1 X127.879 Y82.691 E2.1301
G1 X127.832 Y82.797 E2.1330
G1 X127.404 Y83.684 E2.1575
G1 X127.349 Y83.790 E2.1605
G1 X126.865 Y84.641 E2.1849
G1 X126.801 Y84.744 E2.1879
G1 X126.255 Y85.567 E2.2124
G1 X126.188 Y85.661 E2.2153
G1 X125.578 Y86.462 E2.2404
G1 X125.514 Y86.540 E2.2429
G1 X124.838 Y87.330 E2.2688
G1 X124.780 Y87.395 E2.2709
G1 X124.022 Y88.196 E2.2984
G1 X123.953 Y88.265 E2.3008
G1 X122.786 Y89.369 E2.3407
G1 X122.664 Y89.474 E2.3448
G1 X121.520 Y90.373 E2.3810
G1 X121.347 Y90.493 E2.3862
G1 X120.190 Y91.197 E2.4199
G1 X119.969 Y91.311 E2.4261
G1 X119.304 Y91.596 E2.4441
G1 X119.304 Y97.205 E2.5837
G1 X117.239 Y99.270 E2.6563
G1 X109.319 Y99.270 E2.8534
G1 X109.279 Y99.230 E2.8548
G1 X109.239 Y99.270 E2.8562
G1 X101.319 Y99.270 E3.0533
G1 X99.254 Y97.205 E3.1260
G1 X99.254 Y91.620 E3.2650
G1 X98.897 Y91.474 E3.2745
G1 X98.703 Y91.380 E3.2799
G1 X97.674 Y90.803 E3.3093
G1 X97.535 Y90.716 E3.3133
G1 X96.522 Y90.017 E3.3440
G1 X96.414 Y89.936 E3.3473
G1 X95.425 Y89.135 E3.3790
G1 X95.334 Y89.056 E3.3820
G1 X94.384 Y88.172 E3.4143
G1 X94.299 Y88.088 E3.4173
G1 X93.409 Y87.139 E3.4496
G1 X93.323 Y87.040 E3.4529
G1 X92.515 Y86.040 E3.4849
G1 X92.425 Y85.920 E3.4886
G1 X91.735 Y84.899 E3.5193
G1 X91.658 Y84.774 E3.5229
G1 X91.099 Y83.777 E3.5514
G1 X91.037 Y83.657 E3.5547
G1 X90.557 Y82.624 E3.5831
G1 X90.500 Y82.486 E3.5868
G1 X90.087 Y81.355 E3.6168
G1 X90.046 Y81.229 E3.6201
G1 X89.688 Y79.960 E3.6529
G1 X89.663 Y79.859 E3.6554
G1 X89.342 Y78.398 E3.6927
G1 X89.328 Y78.328 E3.6945
G1 X89.022 Y76.602 E3.7381
G1 X89.013 Y76.541 E3.7396
G1 X88.382 Y72.083 E3.8516
G1 X88.379 Y72.063 E3.8521
G1 X87.781 Y67.461 E3.9676
G1 X85.114 Y63.676 E4.0828
G1 X85.088 Y63.638 E4.0840
G1 X83.601 Y61.407 E4.1507
G1 X83.579 Y61.374 E4.1517
G1 X82.274 Y59.314 E4.2124
G1 X82.244 Y59.266 E4.2138
G1 X81.183 Y57.468 E4.2657
G1 X81.142 Y57.395 E4.2678
G1 X80.303 Y55.804 E4.3125
G1 X80.272 Y55.742 E4.3143
G1 X79.410 Y53.938 E4.3640
G1 X79.390 Y53.894 E4.3652
G1 X78.539 Y51.982 E4.4173
G1 X78.521 Y51.941 E4.4184
G1 X77.725 Y50.020 E4.4702
G1 X77.707 Y49.976 E4.4713
G1 X77.007 Y48.151 E4.5200
G1 X76.988 Y48.098 E4.5214
G1 X76.420 Y46.463 E4.5644
G1 X76.392 Y46.374 E4.5668
G1 X76.001 Y45.019 E4.6019
G1 X75.968 Y44.886 E4.6053
G1 X75.838 Y44.257 E4.6212
G1 X75.810 Y44.063 E4.6261
G1 X75.755 Y43.470 E4.6409
G1 X75.753 Y43.170 E4.6484
G1 X75.802 Y42.544 E4.6640
G1 X75.861 Y42.209 E4.6725
G1 X76.030 Y41.601 E4.6882
G1 X76.138 Y41.312 E4.6959
G1 X76.400 Y40.765 E4.7110
G1 X76.486 Y40.606 E4.7155
G1 X76.824 Y40.055 E4.7315
G1 X76.924 Y39.908 E4.7360
G1 X77.976 Y38.522 E4.7793
G1 X78.048 Y38.434 E4.7821
G1 X79.368 Y36.909 E4.8323
G1 X79.433 Y36.838 E4.8347
G1 X80.641 Y35.586 E4.8780
G1 X80.755 Y35.478 E4.8819
G1 X81.385 Y34.933 E4.9026
G1 X81.807 Y34.661 E4.9151
G1 X83.652 Y33.816 E4.9656
G1 X86.531 Y35.057 E5.0436
G1 X87.003 Y36.448 E5.0802
G1 X88.079 Y36.897 E5.1092
G1 X88.628 Y37.077 E5.1235
G1 X89.273 Y37.241 E5.1401
G1 X90.014 Y37.383 E5.1589
G1 X90.849 Y37.498 E5.1799
G1 X91.778 Y37.584 E5.2031
G1 X92.781 Y37.635 E5.2281
G1 X93.711 Y37.640 E5.2512
G1 X93.989 Y36.712 E5.2753
G1 X94.013 Y36.638 E5.2772
G1 X94.223 Y36.036 E5.2931
G1 X94.299 Y35.851 E5.2981
G1 X94.595 Y35.238 E5.3150
G1 X94.871 Y34.825 E5.3274
G1 X95.470 Y34.156 E5.3497
G1 X96.181 Y33.672 E5.3711
G1 X97.094 Y33.334 E5.3954
G1 X97.812 Y33.226 E5.4134
G1 X98.535 Y33.266 E5.4314
G1 X103.436 Y30.556 E5.5708
G1 X103.489 Y30.528 E5.5723
G1 X106.525 Y28.981 E5.6571
G1 X106.648 Y28.924 E5.6604
G1 X107.534 Y28.555 E5.6843
G1 X107.793 Y28.470 E5.6911
G1 X108.910 Y28.197 E5.7197
G1 X109.951 Y28.253 E5.7457
G92 E0.0000
G1 E-4.0000 F6000
G1 Z0.280 F900
G1 X109.591 Y32.058 F3600
G1 X109.231 Y31.928
G1 X108.992 Y31.986
G1 X104.619 Y49.014
G1 X105.441 Y49.512
G1 X105.935 Y49.877
G1 X106.068 Y50.062
G1 X106.079 Y50.294
G1 X105.810 Y50.556
G1 X105.317 Y50.789
G1 X104.667 Y50.975
G1 X104.088 Y51.082
