; G-Code generated by Simplify3D(R) Version 4.1.2
; Dec 19, 2020 at 2:05:07 PM
; Settings Summary
;   processName,Process1
;   applyToModels,Base_123
;   profileName,A10-04-15 Tevo Tornado
;   profileVersion,2020-12-06 16:18:07
;   baseProfile,Creality CR-10(2)
;   printMaterial,PLA
;   printQuality,Medium
;   printExtruders,
;   extruderName,Primary Extruder
;   extruderToolheadNumber,0
;   extruderDiameter,0.4
;   extruderAutoWidth,0
;   extruderWidth,0.35
;   extrusionMultiplier,0.95
;   extruderUseRetract,1
;   extruderRetractionDistance,4
;   extruderExtraRestartDistance,0
;   extruderRetractionZLift,0.1
;   extruderRetractionSpeed,6000
;   extruderUseCoasting,1
;   extruderCoastingDistance,0.4
;   extruderUseWipe,1
;   extruderWipeDistance,5
;   primaryExtruder,0
;   layerHeight,0.15
;   topSolidLayers,5
;   bottomSolidLayers,4
;   perimeterOutlines,3
;   printPerimetersInsideOut,0
;   startPointOption,1
;   startPointOriginX,0
;   startPointOriginY,300
;   sequentialIslands,0
;   spiralVaseMode,0
;   firstLayerHeightPercentage,120
;   firstLayerWidthPercentage,100
;   firstLayerUnderspeed,0.4
;   useRaft,0
;   raftExtruder,0
;   raftTopLayers,3
;   raftBaseLayers,2
;   raftOffset,3
;   raftSeparationDistance,0.14
;   raftTopInfill,100
;   aboveRaftSpeedMultiplier,0.3
;   useSkirt,1
;   skirtExtruder,0
;   skirtLayers,1
;   skirtOutlines,2
;   skirtOffset,3
;   usePrimePillar,0
;   primePillarExtruder,999
;   primePillarWidth,12
;   primePillarLocation,7
;   primePillarSpeedMultiplier,1
;   useOozeShield,0
;   oozeShieldExtruder,999
;   oozeShieldOffset,2
;   oozeShieldOutlines,1
;   oozeShieldSidewallShape,1
;   oozeShieldSidewallAngle,30
;   oozeShieldSpeedMultiplier,1
;   infillExtruder,0
;   internalInfillPattern,Rectilinear
;   externalInfillPattern,Rectilinear
;   infillPercentage,15
;   outlineOverlapPercentage,15
;   infillExtrusionWidthPercentage,100
;   minInfillLength,5
;   infillLayerInterval,1
;   internalInfillAngles,45,-45
;   overlapInternalInfillAngles,0
;   externalInfillAngles,45,-45
;   generateSupport,0
;   supportExtruder,0
;   supportInfillPercentage,30
;   supportExtraInflation,0
;   supportBaseLayers,0
;   denseSupportExtruder,0
;   denseSupportLayers,0
;   denseSupportInfillPercentage,70
;   supportLayerInterval,1
;   supportHorizontalPartOffset,0.4
;   supportUpperSeparationLayers,1
;   supportLowerSeparationLayers,1
;   supportType,0
;   supportGridSpacing,4.5
;   maxOverhangAngle,45
;   supportAngles,0
;   temperatureName,Primary Extruder,Heated Bed
;   temperatureNumber,0,0
;   temperatureSetpointCount,2,2
;   temperatureSetpointLayers,1,2,1,2
;   temperatureSetpointTemperatures,215,210,55,50
;   temperatureStabilizeAtStartup,1,1
;   temperatureHeatedBed,0,1
;   fanLayers,1,2
;   fanSpeeds,0,100
;   blipFanToFullPower,0
;   adjustSpeedForCooling,1
;   minSpeedLayerTime,15
;   minCoolingSpeedSlowdown,20
;   increaseFanForCooling,1
;   minFanLayerTime,25
;   maxCoolingFanSpeed,100
;   increaseFanForBridging,1
;   bridgingFanSpeed,100
;   use5D,1
;   relativeEdistances,0
;   allowEaxisZeroing,1
;   independentExtruderAxes,0
;   includeM10123,0
;   stickySupport,1
;   applyToolheadOffsets,0
;   gcodeXoffset,0
;   gcodeYoffset,0
;   gcodeZoffset,0
;   overrideMachineDefinition,1
;   machineTypeOverride,0
;   strokeXoverride,300
;   strokeYoverride,300
;   strokeZoverride,400
;   originOffsetXoverride,0
;   originOffsetYoverride,0
;   originOffsetZoverride,0
;   homeXdirOverride,-1
;   homeYdirOverride,-1
;   homeZdirOverride,-1
;   flipXoverride,1
;   flipYoverride,-1
;   flipZoverride,1
;   toolheadOffsets,0,0|0,0|0,0|0,0|0,0|0,0
;   overrideFirmwareConfiguration,1
;   firmwareTypeOverride,RepRap (Marlin/Repetier/Sprinter)
;   GPXconfigOverride,r2
;   baudRateOverride,250000
;   overridePrinterModels,1
;   printerModelsOverride
;   startingGcode,;,; -]H.P.B[- MarshMalloW  ,; $VER: StartScript 1.02 (26.12.2019) MarshMalloW,;,; Begin Startcode,;,M117 *Preheat*     	; Preheat,;extruder0_temperature,M104 S[extruder0_temperature]  ,M109 S[extruder0_temperature] ,M109 R[extruder0_temperature] ,;,M117 *Auto-leveling*     	; Auto-leveling,M107                   	; Turn layer fan off,G21                    	; Set to metric [change to G20 if you want Imperial],G90                    	; Force coordinates to be absolute relative to the origin,G28                    	; Home X/Y/Z axis,G29                    	; Auto-leveling (BL-Touch),;,M117 *Start Clean*     	; Indicate nozzle clean in progress on LCD,G92 E0                 	; Set Extruder to 0 ,G1 X0 Y0 F2000         	; Move X and Y to 0 with speed 2000 (mm/min),G1 Z0.1 F1000          	; Move Z to   0.1 with speed 1000 (mm/min),G1 X8.0 F2000          	; Move X to   8.0 with speed 2000 (mm/min),G1 Y60.0 E4.0 F1000.0  	; Move Y to  60 and Extruder with 4.0 with speed 1000 (mm/min),G1 Y100.0 E8.5 F1000.0 	; Move Y to 100 and Extruder with 8.5 with speed 1000 (mm/min),G92 E0                 	; Set extruder to 0,G1 X16.0 F3000         	; Move X to 16.0 with speed 3000 (mm/min),G1 Y60.0 F3000         	; Move Y to 60.0 with speed 3000 (mm/min),M117 *End Clean*       	; Indicate nozzle clean in progress on LCD,G1 Z5 F3000            	; Move Z to  5.0 with speed 3000 (mm/min),G1 X20.0 F3000         	; Move X to 20.0 with speed 3000 (mm/min),G1 Y20.0 F3000         	; Move Y to 20.0 with speed 3000 (mm/min),; ,M117 *Printing...*     	; Start printing msg on LCD,;,; End Startcode,;,; Begin printing with sliced GCode after here,;
;   layerChangeGcode,
;   retractionGcode,
;   toolChangeGcode,
;   endingGcode,;,; init 181010,;,;M107 			; Fan off,;G1 E-1 F300 			; Retract the filament a bit before lifting the nozzle,;M104 S0 			; Turn off extruder,;M140 S0 			; Turn off bed,;G91			; Relative positioning,;G28 X0 Y0 			; Move X/Y to min endstops so the head is out of teh way,;M84 			; Disable motors,;G90 			; Absolute positioning,;M117 Print ready...,,;,; // From Cura 181010,; // End_gcode,G92 E0			; Zero the extruded length,;G1 E-30 F300		; Retract E -30,M106 S0			; Turn off cooling fan,M104 S0			; Turn off temperature,M140 S0		     	; Turn off bed,G91			; Relative positioning,G1 E-1 F300			; Retract the filament a bit before lifting the nozzle to release some of the pressure,G1 Z+20 E-5 X-20 Y-20 F7200	; Move Z up a bit and retract filament even more,G1 X0 Y150 F10000		; Move right min,M107			; Turn off layer fan,M84			; Disable motors,G90			; Absolute positioning,M117 *The-End* 		; End msg,;,
;   exportFileFormat,gcode
;   celebration,0
;   celebrationSong,Star Wars
;   postProcessing,|{REPLACE "; layer " "M117 INDICATOR-Layer"}|{REPLACE ", Z = " "\n; Z="}
;   defaultSpeed,2400
;   outlineUnderspeed,0.6
;   solidInfillUnderspeed,0.8
;   supportUnderspeed,0.8
;   rapidXYspeed,3600
;   rapidZspeed,900
;   minBridgingArea,50
;   bridgingExtraInflation,0.2
;   bridgingExtrusionMultiplier,1
;   bridgingSpeedMultiplier,0.6
;   useFixedBridgingAngle,0
;   fixedBridgingAngle,0
;   applyBridgingToPerimeters,0
;   filamentDiameters,1.75|1.75|1.75|1.75|1.75|1.75
;   filamentPricesPerKg,30|46|46|46|46|46
;   filamentDensities,1.25|1.25|1.25|1.25|1.25|1.25
;   useMinPrintHeight,0
;   minPrintHeight,0
;   useMaxPrintHeight,0
;   maxPrintHeight,50
;   useDiaphragm,0
;   diaphragmLayerInterval,20
;   robustSlicing,1
;   mergeAllIntoSolid,0
;   onlyRetractWhenCrossingOutline,1
;   retractBetweenLayers,1
;   useRetractionMinTravel,0
;   retractionMinTravel,3
;   retractWhileWiping,1
;   onlyWipeOutlines,1
;   avoidCrossingOutline,1
;   maxMovementDetourFactor,3
;   toolChangeRetractionDistance,12
;   toolChangeExtraRestartDistance,-0.5
;   toolChangeRetractionSpeed,600
;   externalThinWallType,1
;   internalThinWallType,1
;   thinWallAllowedOverlapPercentage,20
;   singleExtrusionMinLength,1
;   singleExtrusionMinPrintingWidthPercentage,50
;   singleExtrusionMaxPrintingWidthPercentage,200
;   singleExtrusionEndpointExtension,0.2
;   horizontalSizeCompensation,0
G90
M82
M106 S0
M140 S55
M190 S55
;
; -]H.P.B[- MarshMalloW  
; $VER: StartScript 1.02 (26.12.2019) MarshMalloW
;
; Begin Startcode
;
M117 *Preheat*     	; Preheat
;extruder0_temperature
M104 S215  
M109 S215 
M109 R215 
;
M117 *Auto-leveling*     	; Auto-leveling
M107                   	; Turn layer fan off
G21                    	; Set to metric [change to G20 if you want Imperial]
G90                    	; Force coordinates to be absolute relative to the origin
G28                    	; Home X/Y/Z axis
G29                    	; Auto-leveling (BL-Touch)
;
M117 *Start Clean*     	; Indicate nozzle clean in progress on LCD
G92 E0                 	; Set Extruder to 0 
G1 X0 Y0 F2000         	; Move X and Y to 0 with speed 2000 (mm/min)
G1 Z0.1 F1000          	; Move Z to   0.1 with speed 1000 (mm/min)
G1 X8.0 F2000          	; Move X to   8.0 with speed 2000 (mm/min)
G1 Y60.0 E4.0 F1000.0  	; Move Y to  60 and Extruder with 4.0 with speed 1000 (mm/min)
G1 Y100.0 E8.5 F1000.0 	; Move Y to 100 and Extruder with 8.5 with speed 1000 (mm/min)
G92 E0                 	; Set extruder to 0
G1 X16.0 F3000         	; Move X to 16.0 with speed 3000 (mm/min)
G1 Y60.0 F3000         	; Move Y to 60.0 with speed 3000 (mm/min)
M117 *End Clean*       	; Indicate nozzle clean in progress on LCD
G1 Z5 F3000            	; Move Z to  5.0 with speed 3000 (mm/min)
G1 X20.0 F3000         	; Move X to 20.0 with speed 3000 (mm/min)
G1 Y20.0 F3000         	; Move Y to 20.0 with speed 3000 (mm/min)
; 
M117 *Printing...*     	; Start printing msg on LCD
;
; End Startcode
;
; Begin printing with sliced GCode after here
;
; process Process1
M117 INDICATOR-Layer1
; Z=0.180
T0
G92 E0.0000
G1 E-4.0000 F6000
; feature skirt
; tool H0.180 W0.350
G1 Z0.180 F900
G1 X153.662 Y37.431 F3600
G1 E0.0000 F6000
G92 E0.0000
G1 X153.888 Y37.460 E0.0057 F960
G1 X161.775 Y39.002 E0.2057
G1 X162.005 Y39.063 E0.2116
G1 X169.425 Y41.588 E0.4066
G1 X169.660 Y41.687 E0.4129
G1 X176.393 Y45.128 E0.6011
G1 X176.630 Y45.274 E0.6080
G1 X182.476 Y49.539 E0.7881
G1 X182.709 Y49.743 E0.7958
G1 X187.484 Y54.719 E0.9674
G1 X187.698 Y54.992 E0.9760
G1 X191.245 Y60.543 E1.1399
G1 X191.415 Y60.885 E1.1494
G1 X193.604 Y66.846 E1.3074
G1 X193.700 Y67.246 E1.3177
G1 X194.441 Y73.423 E1.4725
G1 X194.441 Y73.844 E1.4830
G1 X193.700 Y80.022 E1.6378
G1 X193.604 Y80.421 E1.6480
G1 X191.415 Y86.382 E1.8060
G1 X191.245 Y86.724 E1.8155
G1 X187.698 Y92.276 E1.9794
G1 X187.484 Y92.548 E1.9880
G1 X182.709 Y97.525 E2.1597
G1 X182.476 Y97.729 E2.1674
G1 X176.630 Y101.993 E2.3474
G1 X176.393 Y102.139 E2.3544
G1 X170.440 Y105.182 E2.5207
G1 X169.660 Y105.580 E2.5425
G1 X169.425 Y105.679 E2.5488
G1 X162.005 Y108.204 E2.7439
G1 X161.775 Y108.265 E2.7498
G1 X153.888 Y109.807 E2.9498
G1 X153.662 Y109.836 E2.9554
G1 X145.536 Y110.356 E3.1580
G1 X145.311 Y110.356 E3.1636
G1 X137.185 Y109.836 E3.3662
G1 X136.959 Y109.807 E3.3719
G1 X129.071 Y108.265 E3.5719
G1 X128.842 Y108.204 E3.5778
G1 X121.421 Y105.679 E3.7728
G1 X121.187 Y105.580 E3.7792
G1 X114.454 Y102.139 E3.9673
G1 X114.217 Y101.993 E3.9743
G1 X108.371 Y97.729 E4.1543
G1 X108.138 Y97.525 E4.1620
G1 X103.363 Y92.548 E4.3336
G1 X103.149 Y92.276 E4.3423
G1 X99.602 Y86.724 E4.5062
G1 X99.432 Y86.382 E4.5157
G1 X97.523 Y81.185 E4.6534
G1 X97.242 Y80.421 E4.6737
G1 X97.147 Y80.022 E4.6839
G1 X96.406 Y73.844 E4.8387
G1 X96.406 Y73.423 E4.8492
G1 X97.147 Y67.246 E5.0040
G1 X97.242 Y66.846 E5.0142
G1 X99.432 Y60.885 E5.1723
G1 X99.602 Y60.543 E5.1818
G1 X103.149 Y54.992 E5.3457
G1 X103.363 Y54.719 E5.3543
G1 X108.138 Y49.743 E5.5259
G1 X108.371 Y49.539 E5.5336
G1 X114.217 Y45.274 E5.7137
G1 X114.454 Y45.128 E5.7206
G1 X121.187 Y41.687 E5.9087
G1 X121.421 Y41.588 E5.9151
G1 X128.842 Y39.063 E6.1101
G1 X129.071 Y39.002 E6.1160
G1 X136.959 Y37.460 E6.3160
G1 X137.185 Y37.431 E6.3217
G1 X145.311 Y36.912 E6.5243
G1 X145.536 Y36.912 E6.5299
G1 X153.662 Y37.431 E6.7325
G92 E0.0000
G1 E-4.0000 F6000
G1 Z0.280 F900
G1 X153.301 Y41.115 F3600
G1 X151.960 Y41.030
G1 X122.987 Y102.304
G1 X122.746 Y102.222
G1 X121.546 Y105.352
G1 Z0.180 F900
G1 E0.0000 F6000
G92 E0.0000
G1 X121.335 Y105.263 E0.0057 F960
G1 X114.625 Y101.834 E0.1932
G1 X114.412 Y101.703 E0.1994
G1 X108.590 Y97.455 E0.3788
G1 X108.380 Y97.271 E0.3857
G1 X103.627 Y92.318 E0.5565
G1 X103.434 Y92.073 E0.5643
G1 X99.907 Y86.552 E0.7273
G1 X99.754 Y86.243 E0.7359
G1 X97.853 Y81.068 E0.8731
G1 X97.578 Y80.319 E0.8929
G1 X97.492 Y79.960 E0.9021
G1 X96.756 Y73.823 E1.0559
G1 X96.756 Y73.444 E1.0653
G1 X97.492 Y67.307 E1.2191
G1 X97.578 Y66.948 E1.2283
G1 X99.754 Y61.024 E1.3853
G1 X99.907 Y60.716 E1.3939
G1 X103.434 Y55.194 E1.5569
G1 X103.627 Y54.949 E1.5647
G1 X108.380 Y49.996 E1.7355
G1 X108.590 Y49.812 E1.7425
G1 X114.412 Y45.565 E1.9218
G1 X114.625 Y45.433 E1.9280
G1 X121.335 Y42.005 E2.1155
G1 X121.546 Y41.915 E2.1212
G1 X128.943 Y39.399 E2.3156
G1 X129.150 Y39.343 E2.3210
G1 X137.015 Y37.806 E2.5204
G1 X137.219 Y37.779 E2.5255
G1 X145.322 Y37.262 E2.7275
G1 X145.525 Y37.262 E2.7326
G1 X153.628 Y37.779 E2.9346
G1 X153.832 Y37.806 E2.9397
G1 X161.697 Y39.343 E3.1391
G1 X161.904 Y39.399 E3.1444
G1 X169.301 Y41.915 E3.3389
G1 X169.512 Y42.005 E3.3446
G1 X176.221 Y45.433 E3.5321
G1 X176.435 Y45.565 E3.5383
G1 X182.257 Y49.812 E3.7176
G1 X182.467 Y49.996 E3.7246
G1 X187.220 Y54.949 E3.8954
G1 X187.413 Y55.194 E3.9031
G1 X190.940 Y60.716 E4.0662
G1 X191.093 Y61.024 E4.0747
G1 X193.269 Y66.948 E4.2318
G1 X193.355 Y67.307 E4.2410
G1 X194.091 Y73.444 E4.3948
G1 X194.091 Y73.823 E4.4042
G1 X193.355 Y79.960 E4.5580
G1 X193.269 Y80.320 E4.5672
G1 X191.093 Y86.243 E4.7242
G1 X190.940 Y86.552 E4.7328
G1 X187.413 Y92.073 E4.8958
G1 X187.220 Y92.318 E4.9036
G1 X182.467 Y97.271 E5.0744
G1 X182.257 Y97.455 E5.0813
G1 X176.435 Y101.702 E5.2606
G1 X176.221 Y101.834 E5.2669
G1 X170.282 Y104.869 E5.4328
G1 X169.512 Y105.263 E5.4544
G1 X169.301 Y105.352 E5.4601
G1 X161.904 Y107.869 E5.6545
G1 X161.697 Y107.924 E5.6598
G1 X153.832 Y109.462 E5.8592
G1 X153.628 Y109.488 E5.8643
G1 X145.525 Y110.006 E6.0664
G1 X145.322 Y110.006 E6.0714
G1 X137.219 Y109.488 E6.2735
G1 X137.015 Y109.462 E6.2786
G1 X129.150 Y107.924 E6.4780
G1 X128.943 Y107.869 E6.4833
G1 X121.546 Y105.352 E6.6777
G92 E0.0000
G1 E-4.0000 F6000
; feature outer perimeter
G1 Z0.280 F900
G1 X122.746 Y102.222 F3600
G1 X125.537 Y103.171
G1 X190.053 Y67.910
G1 Z0.180 F900
G1 E0.0000 F6000
G92 E0.0000
G1 X190.739 Y73.634 E0.1434 F576
G1 X190.053 Y79.357 E0.2869
G1 X188.014 Y84.909 E0.4340
G1 X184.683 Y90.123 E0.5880
G1 X180.157 Y94.840 E0.7507
G1 X174.573 Y98.914 E0.9227
G1 X168.758 Y101.886 E1.0852
G1 X168.101 Y102.222 E1.1035
G1 X160.937 Y104.659 E1.2918
G1 X153.301 Y106.152 E1.4854
G1 X145.423 Y106.655 E1.6818
G1 X137.546 Y106.152 E1.8782
G1 X130.686 Y104.811 E2.0522
G1 X129.910 Y104.659 E2.0718
G1 X122.746 Y102.222 E2.2601
G1 X116.274 Y98.914 E2.4410
G1 X110.690 Y94.840 E2.6130
G1 X106.164 Y90.123 E2.7756
G1 X102.833 Y84.909 E2.9296
G1 X101.031 Y80.005 E3.0596
G1 X100.793 Y79.357 E3.0768
G1 X100.108 Y73.634 E3.2202
G1 X100.793 Y67.910 E3.3636
G1 X102.833 Y62.358 E3.5108
G1 X106.164 Y57.144 E3.6648
G1 X110.690 Y52.427 E3.8274
G1 X116.274 Y48.353 E3.9994
G1 X122.746 Y45.046 E4.1803
G1 X129.910 Y42.608 E4.3686
G1 X137.546 Y41.115 E4.5622
G1 X145.423 Y40.612 E4.7586
G1 X153.301 Y41.115 E4.9550
G1 X160.937 Y42.608 E5.1486
G1 X168.101 Y45.046 E5.3369
G1 X174.573 Y48.353 E5.5178
G1 X180.157 Y52.427 E5.6898
G1 X184.683 Y57.144 E5.8524
G1 X188.014 Y62.358 E6.0064
G1 X189.916 Y67.535 E6.1436
G1 X190.053 Y67.910 F576
G1 X190.648 Y72.875 F576
; feature inner perimeter
G1 X190.387 Y73.634 F3600
G92 E0.0000
G1 X189.711 Y79.275 E0.1414 F768
G1 X187.699 Y84.753 E0.2866
G1 X184.406 Y89.906 E0.4387
G1 X179.926 Y94.575 E0.5998
G1 X174.389 Y98.615 E0.7703
G1 X168.599 Y101.574 E0.9321
G1 X167.964 Y101.898 E0.9498
G1 X160.847 Y104.320 E1.1369
G1 X153.256 Y105.804 E1.3294
G1 X145.423 Y106.305 E1.5247
G1 X137.591 Y105.804 E1.7200
G1 X130.920 Y104.500 E1.8891
G1 X130.000 Y104.320 E1.9124
G1 X122.882 Y101.898 E2.0995
G1 X116.458 Y98.615 E2.2790
G1 X110.921 Y94.575 E2.4496
