; G-Code generated by Simplify3D(R) Version 4.1.2
; Nov 1, 2019 at 11:38:59 AM
; Settings Summary
;   processName,Process1
;   applyToModels,HH_1to2_ARM_01cm_Nut,HH_1to2_ARM_01cm_Nut(2),HH_1to2_ARM_01cm_Nut(3)
;   profileName,401s Tevo Tornado (experimental)
;   profileVersion,2019-10-29 11:02:25
;   baseProfile,Creality CR-10(2)
;   printMaterial,PLA
;   printQuality,Medium
;   printExtruders,
;   extruderName,Primary Extruder
;   extruderToolheadNumber,0
;   extruderDiameter,0.4
;   extruderAutoWidth,0
;   extruderWidth,0.35
;   extrusionMultiplier,0.95
;   extruderUseRetract,1
;   extruderRetractionDistance,3.8
;   extruderExtraRestartDistance,0
;   extruderRetractionZLift,0.3
;   extruderRetractionSpeed,3000
;   extruderUseCoasting,0
;   extruderCoastingDistance,0.2
;   extruderUseWipe,0
;   extruderWipeDistance,4
;   primaryExtruder,0
;   layerHeight,0.15
;   topSolidLayers,4
;   bottomSolidLayers,3
;   perimeterOutlines,3
;   printPerimetersInsideOut,0
;   startPointOption,1
;   startPointOriginX,0
;   startPointOriginY,300
;   sequentialIslands,0
;   spiralVaseMode,0
;   firstLayerHeightPercentage,120
;   firstLayerWidthPercentage,100
;   firstLayerUnderspeed,0.5
;   useRaft,0
;   raftExtruder,0
;   raftTopLayers,3
;   raftBaseLayers,2
;   raftOffset,3
;   raftSeparationDistance,0.14
;   raftTopInfill,100
;   aboveRaftSpeedMultiplier,0.3
;   useSkirt,1
;   skirtExtruder,0
;   skirtLayers,1
;   skirtOutlines,3
;   skirtOffset,2
;   usePrimePillar,0
;   primePillarExtruder,999
;   primePillarWidth,12
;   primePillarLocation,7
;   primePillarSpeedMultiplier,1
;   useOozeShield,0
;   oozeShieldExtruder,999
;   oozeShieldOffset,2
;   oozeShieldOutlines,1
;   oozeShieldSidewallShape,1
;   oozeShieldSidewallAngle,30
;   oozeShieldSpeedMultiplier,1
;   infillExtruder,0
;   internalInfillPattern,Grid
;   externalInfillPattern,Concentric
;   infillPercentage,25
;   outlineOverlapPercentage,15
;   infillExtrusionWidthPercentage,100
;   minInfillLength,5
;   infillLayerInterval,1
;   internalInfillAngles,45,-45
;   overlapInternalInfillAngles,1
;   externalInfillAngles,45,-45
;   generateSupport,1
;   supportExtruder,0
;   supportInfillPercentage,30
;   supportExtraInflation,0
;   supportBaseLayers,0
;   denseSupportExtruder,0
;   denseSupportLayers,0
;   denseSupportInfillPercentage,70
;   supportLayerInterval,1
;   supportHorizontalPartOffset,0.4
;   supportUpperSeparationLayers,1
;   supportLowerSeparationLayers,1
;   supportType,0
;   supportGridSpacing,4.5
;   maxOverhangAngle,45
;   supportAngles,0
;   temperatureName,Primary Extruder,Heated Bed
;   temperatureNumber,0,0
;   temperatureSetpointCount,2,1
;   temperatureSetpointLayers,1,2,1
;   temperatureSetpointTemperatures,215,210,60
;   temperatureStabilizeAtStartup,1,1
;   temperatureHeatedBed,0,1
;   fanLayers,1,2
;   fanSpeeds,0,100
;   blipFanToFullPower,0
;   adjustSpeedForCooling,1
;   minSpeedLayerTime,15
;   minCoolingSpeedSlowdown,50
;   increaseFanForCooling,1
;   minFanLayerTime,25
;   maxCoolingFanSpeed,100
;   increaseFanForBridging,1
;   bridgingFanSpeed,100
;   use5D,1
;   relativeEdistances,0
;   allowEaxisZeroing,1
;   independentExtruderAxes,0
;   includeM10123,0
;   stickySupport,1
;   applyToolheadOffsets,0
;   gcodeXoffset,0
;   gcodeYoffset,0
;   gcodeZoffset,0
;   overrideMachineDefinition,1
;   machineTypeOverride,0
;   strokeXoverride,300
;   strokeYoverride,300
;   strokeZoverride,400
;   originOffsetXoverride,0
;   originOffsetYoverride,0
;   originOffsetZoverride,0
;   homeXdirOverride,-1
;   homeYdirOverride,-1
;   homeZdirOverride,-1
;   flipXoverride,1
;   flipYoverride,-1
;   flipZoverride,1
;   toolheadOffsets,0,0|0,0|0,0|0,0|0,0|0,0
;   overrideFirmwareConfiguration,1
;   firmwareTypeOverride,RepRap (Marlin/Repetier/Sprinter)
;   GPXconfigOverride,r2
;   baudRateOverride,250000
;   overridePrinterModels,1
;   printerModelsOverride
;   startingGcode,;Init 181010,;G28 			; Home all axes,;G1 Z5 F3000 		; Lift,;G92 E0			; Reset extrusion distance,,; // From Cura 181010,; // Update 190823 (GueroLoco),; // Update 191005 Autoleveling,; // Update 192029 Modify Cleaning,; // Start_gcode,M117 *Start Clean*		; Indicate nozzle clean in progress on LCD,;,M104 S[extruder0_temperature] ,M109 S[extruder0_temperature] ,M109 R[extruder0_temperature] ,;,M107			; Turn layer fan off,G21			; Set to metric [change to G20 if you want Imperial],G90			; Force coordinates to be absolute relative to the origin,G28			; Home X/Y/Z axis,G29			; Auto-leveling,;,;G1 X3 Y1 Z15 F9000		; Move safe Z height to shear strings,;G0 X1 Y1 Z0.2 F9000		; Move in 1mm from edge and up [z] 0.2mm,;G92 E0			; Set extruder to [0] zero,;G1 X100 E12 F500		; Extrude 30mm filiment along X axis 100mm long to prime and clean the nozzle,;G92 E0			; Reset extruder to [0] zero end of cleaning run,;G1 E-1 F500			; Retract filiment by 1 mm to reduce string effect,;G1 X180 F4000		; Quick wipe away from the filament line / purge,;,G92 E0			; Set Extruder to 0 ,G1 X0 Y0 F2000		; Move X and Y to 0 with speed 2000 (mm/min),G1 Z0.1 F1000		; Move Z to 0.1,G1 X8.0 F2000		; Move X to 8.0,G1 Y60.0 E4.0 F1000.0		; Prime - Move Y to 60 and Extruder with 4.0,G1 Y100.0 E8.5 F1000.0		; Prime - Move Y to 100 and Extruder with 8.5,G92 E0			; Set extruder to 0,M117 *End Clean*		; Indicate nozzle clean in progress on LCD,G1 X16.0 F3000		; Move X to 16.0,G1 Z5 F3000			; Move Z to 5 - Lift,; ,M117 *Printing...*		; start msg,; // Begin printing with sliced GCode after here,;
;   layerChangeGcode,
;   retractionGcode,
;   toolChangeGcode,
;   endingGcode,;,; init 181010,;,;M107 			; Fan off,;G1 E-1 F300 			; Retract the filament a bit before lifting the nozzle,;M104 S0 			; Turn off extruder,;M140 S0 			; Turn off bed,;G91			; Relative positioning,;G28 X0 Y0 			; Move X/Y to min endstops so the head is out of teh way,;M84 			; Disable motors,;G90 			; Absolute positioning,;M117 Print ready...,,;,; // From Cura 181010,; // End_gcode,G92 E0			; Zero the extruded length,;G1 E-30 F300		; Retract E -30,M106 S0			; Turn off cooling fan,M104 S0			; Turn off temperature,M140 S0		     	; Turn off bed,G91			; Relative positioning,G1 E-1 F300			; Retract the filament a bit before lifting the nozzle to release some of the pressure,G1 Z+20 E-5 X-20 Y-20 F7200	; Move Z up a bit and retract filament even more,G1 X0 Y150 F10000		; Move right min,M107			; Turn off layer fan,M84			; Disable motors,G90			; Absolute positioning,M117 *The-End* 		; End msg,;,
;   exportFileFormat,gcode
;   celebration,0
;   celebrationSong,Star Wars
;   postProcessing,
;   defaultSpeed,1800
;   outlineUnderspeed,0.5
;   solidInfillUnderspeed,0.8
;   supportUnderspeed,0.8
;   rapidXYspeed,6000
;   rapidZspeed,1002
;   minBridgingArea,50
;   bridgingExtraInflation,0.2
;   bridgingExtrusionMultiplier,1
;   bridgingSpeedMultiplier,0.6
;   useFixedBridgingAngle,0
;   fixedBridgingAngle,0
;   applyBridgingToPerimeters,0
;   filamentDiameters,1.75|1.75|1.75|1.75|1.75|1.75
;   filamentPricesPerKg,30|46|46|46|46|46
;   filamentDensities,1.25|1.25|1.25|1.25|1.25|1.25
;   useMinPrintHeight,0
;   minPrintHeight,0
;   useMaxPrintHeight,0
;   maxPrintHeight,9
;   useDiaphragm,0
;   diaphragmLayerInterval,20
;   robustSlicing,1
;   mergeAllIntoSolid,0
;   onlyRetractWhenCrossingOutline,1
;   retractBetweenLayers,1
;   useRetractionMinTravel,1
;   retractionMinTravel,3
;   retractWhileWiping,1
;   onlyWipeOutlines,1
;   avoidCrossingOutline,1
;   maxMovementDetourFactor,3
;   toolChangeRetractionDistance,12
;   toolChangeExtraRestartDistance,-0.5
;   toolChangeRetractionSpeed,600
;   externalThinWallType,1
;   internalThinWallType,1
;   thinWallAllowedOverlapPercentage,15
;   singleExtrusionMinLength,1
;   singleExtrusionMinPrintingWidthPercentage,50
;   singleExtrusionMaxPrintingWidthPercentage,200
;   singleExtrusionEndpointExtension,0.2
;   horizontalSizeCompensation,0
G90
M82
M106 S0
M140 S60
M190 S60
;Init 181010
;G28 			; Home all axes
;G1 Z5 F3000 		; Lift
;G92 E0			; Reset extrusion distance
; // From Cura 181010
; // Update 190823 (GueroLoco)
; // Update 191005 Autoleveling
; // Update 192029 Modify Cleaning
; // Start_gcode
M117 *Start Clean*		; Indicate nozzle clean in progress on LCD
;
M104 S215 
M109 S215 
M109 R215 
;
M107			; Turn layer fan off
G21			; Set to metric [change to G20 if you want Imperial]
G90			; Force coordinates to be absolute relative to the origin
G28			; Home X/Y/Z axis
G29			; Auto-leveling
;
;G1 X3 Y1 Z15 F9000		; Move safe Z height to shear strings
;G0 X1 Y1 Z0.2 F9000		; Move in 1mm from edge and up [z] 0.2mm
;G92 E0			; Set extruder to [0] zero
;G1 X100 E12 F500		; Extrude 30mm filiment along X axis 100mm long to prime and clean the nozzle
;G92 E0			; Reset extruder to [0] zero end of cleaning run
;G1 E-1 F500			; Retract filiment by 1 mm to reduce string effect
;G1 X180 F4000		; Quick wipe away from the filament line / purge
;
G92 E0			; Set Extruder to 0 
G1 X0 Y0 F2000		; Move X and Y to 0 with speed 2000 (mm/min)
G1 Z0.1 F1000		; Move Z to 0.1
G1 X8.0 F2000		; Move X to 8.0
G1 Y60.0 E4.0 F1000.0		; Prime - Move Y to 60 and Extruder with 4.0
G1 Y100.0 E8.5 F1000.0		; Prime - Move Y to 100 and Extruder with 8.5
G92 E0			; Set extruder to 0
M117 *End Clean*		; Indicate nozzle clean in progress on LCD
G1 X16.0 F3000		; Move X to 16.0
G1 Z5 F3000			; Move Z to 5 - Lift
; 
M117 *Printing...*		; start msg
; // Begin printing with sliced GCode after here
;
; process Process1
; layer 1, Z = 0.180
T0
G92 E0.0000
G1 E-3.8000 F3000
; feature skirt
; tool H0.180 W0.350
G1 Z0.300 F1002
G1 X99.439 Y75.276 F6000
G1 Z0.180 F1002
G1 E0.0000 F3000
G92 E0.0000
G1 X99.439 Y82.598 E0.1822 F900
G1 X98.951 Y83.086 E0.1994
G1 X98.882 Y85.208 E0.2522
G1 X97.292 Y86.704 E0.3065
G1 X97.101 Y87.259 E0.3211
G1 X97.061 Y87.362 E0.3239
G1 X96.791 Y87.985 E0.3408
G1 X96.503 Y96.906 E0.5629
G1 X96.196 Y97.760 E0.5854
G1 X94.743 Y99.639 E0.6446
G1 X93.601 Y101.257 E0.6938
G1 X93.147 Y101.963 E0.7147
G1 X92.606 Y102.882 E0.7413
G1 X92.288 Y103.509 E0.7588
G1 X92.090 Y109.626 E0.9110
G1 X90.439 Y111.174 E0.9673
G1 X90.439 Y114.098 E1.0401
G1 X88.755 Y115.782 E1.0994
G1 X76.933 Y115.782 E1.3935
G1 X75.249 Y114.098 E1.4528
G1 X75.249 Y106.776 E1.6350
G1 X76.463 Y105.562 E1.6777
G1 X76.546 Y103.001 E1.7415
G1 X76.269 Y102.354 E1.7590
G1 X75.788 Y101.402 E1.7855
G1 X75.381 Y100.669 E1.8064
G1 X74.346 Y98.980 E1.8557
G1 X73.017 Y97.011 E1.9148
G1 X72.766 Y96.139 E1.9373
G1 X73.054 Y87.218 E2.1594
G1 X72.825 Y86.580 E2.1763
G1 X72.792 Y86.474 E2.1791
G1 X72.637 Y85.907 E2.1937
G1 X71.147 Y84.312 E2.2480
G1 X71.307 Y79.355 E2.3714
G1 X73.041 Y77.727 E2.4306
G1 X81.419 Y77.986 E2.6392
G1 X83.051 Y79.724 E2.6985
G1 X82.909 Y84.113 E2.8078
G1 X87.157 Y84.250 E2.9135
G1 X87.299 Y79.861 E3.0228
G1 X88.749 Y78.503 E3.0722
G1 X88.749 Y75.276 E3.1525
G1 X90.433 Y73.592 E3.2118
G1 X97.755 Y73.592 E3.3940
G1 X99.439 Y75.276 E3.4533
G92 E0.0000
G1 E-3.8000 F3000
G1 Z0.480 F1002
G1 X95.950 Y81.516 F6000
G1 X93.891 Y81.447
G1 X90.165 Y85.591
G1 X90.107 Y87.397
G1 X88.586 Y87.348
G1 X78.007 Y99.115
G1 X78.017 Y99.133
G1 X78.484 Y99.975
G1 X76.098 Y101.239
G1 Z0.180 F1002
G1 E0.0000 F3000
G92 E0.0000
G1 X75.684 Y100.493 E0.0212 F900
G1 X74.640 Y98.791 E0.0709
G1 X73.338 Y96.861 E0.1288
G1 X73.117 Y96.095 E0.1487
G1 X73.406 Y87.163 E0.3710
G1 X73.157 Y86.468 E0.3894
G1 X73.128 Y86.376 E0.3918
G1 X72.945 Y85.705 E0.4091
G1 X72.926 Y85.704 E0.4096
G1 X71.501 Y84.179 E0.4615
G1 X71.652 Y79.511 E0.5777
G1 X73.175 Y78.081 E0.6297
G1 X81.263 Y78.331 E0.8311
G1 X82.696 Y79.858 E0.8832
G1 X82.548 Y84.452 E0.9975
G1 X87.495 Y84.611 E1.1207
G1 X87.644 Y80.018 E1.2351
G1 X89.099 Y78.655 E1.2847
G1 X89.099 Y75.421 E1.3651
G1 X90.578 Y73.942 E1.4172
G1 X97.610 Y73.942 E1.5922
G1 X99.089 Y75.421 E1.6442
G1 X99.089 Y82.453 E1.8192
G1 X98.605 Y82.937 E1.8362
G1 X98.537 Y85.052 E1.8889
G1 X97.016 Y86.482 E1.9408
G1 X96.998 Y86.482 E1.9413
G1 X96.772 Y87.139 E1.9586
G1 X96.737 Y87.230 E1.9610
G1 X96.444 Y87.907 E1.9794
G1 X96.155 Y96.840 E2.2017
G1 X95.886 Y97.589 E2.2216
G1 X94.461 Y99.431 E2.2795
G1 X93.310 Y101.062 E2.3292
G1 X92.849 Y101.780 E2.3504
G1 X92.299 Y102.714 E2.3774
G1 X91.941 Y103.420 E2.3971
G1 X91.745 Y109.470 E2.5477
G1 X90.219 Y110.900 E2.5997
G1 X90.089 Y110.896 E2.6030
G1 X90.089 Y113.953 E2.6790
G1 X88.610 Y115.432 E2.7311
G1 X77.078 Y115.432 E3.0180
G1 X75.599 Y113.953 E3.0701
G1 X75.599 Y106.921 E3.2450
G1 X76.809 Y105.712 E3.2876
G1 X76.898 Y102.935 E3.3567
G1 X76.586 Y102.207 E3.3765
G1 X76.098 Y101.239 E3.4034
G92 E0.0000
G1 E-3.8000 F3000
G1 Z0.480 F1002
G1 X78.484 Y99.975 F6000
G1 X78.812 Y100.624
G1 X92.529 Y97.516
G1 X93.471 Y96.298
G1 X95.807 Y96.773
G1 Z0.180 F1002
G1 E0.0000 F3000
G92 E0.0000
G1 X95.575 Y97.419 E0.0171 F900
G1 X94.180 Y99.223 E0.0738
G1 X93.020 Y100.866 E0.1239
G1 X92.551 Y101.596 E0.1455
G1 X91.992 Y102.546 E0.1729
G1 X91.593 Y103.331 E0.1948
G1 X91.400 Y109.313 E0.3437
G1 X90.085 Y110.546 E0.3886
G1 X89.739 Y110.534 E0.3972
G1 X89.739 Y113.808 E0.4786
G1 X88.465 Y115.082 E0.5235
G1 X77.223 Y115.082 E0.8032
G1 X75.949 Y113.808 E0.8480
G1 X75.949 Y107.066 E1.0158
G1 X77.154 Y105.861 E1.0582
G1 X77.251 Y102.868 E1.1327
G1 X76.903 Y102.059 E1.1546
G1 X76.407 Y101.075 E1.1820
G1 X75.986 Y100.316 E1.2036
G1 X74.935 Y98.601 E1.2537
G1 X73.659 Y96.711 E1.3104
G1 X73.469 Y96.052 E1.3275
G1 X73.758 Y87.108 E1.5502
G1 X73.489 Y86.357 E1.5700
G1 X73.464 Y86.277 E1.5721
G1 X73.215 Y85.364 E1.5956
G1 X73.083 Y85.359 E1.5989
G1 X71.856 Y84.046 E1.6436
G1 X71.997 Y79.668 E1.7526
G1 X73.309 Y78.436 E1.7974
G1 X81.107 Y78.677 E1.9916
G1 X82.342 Y79.991 E2.0364
G1 X82.187 Y84.790 E2.1559
G1 X87.834 Y84.972 E2.2965
G1 X87.989 Y80.174 E2.4160
G1 X89.306 Y78.941 E2.4608
G1 X89.449 Y78.946 E2.4644
G1 X89.449 Y75.566 E2.5485
G1 X90.723 Y74.292 E2.5934
G1 X97.465 Y74.292 E2.7611
G1 X98.739 Y75.566 E2.8059
G1 X98.739 Y82.308 E2.9737
G1 X98.260 Y82.787 E2.9906
G1 X98.192 Y84.897 E3.0431
G1 X96.882 Y86.128 E3.0878
G1 X96.751 Y86.124 E3.0911
G1 X96.443 Y87.019 E3.1146
G1 X96.413 Y87.097 E3.1167
G1 X96.096 Y87.829 E3.1366
G1 X95.807 Y96.773 E3.3592
G92 E0.0000
G1 E-3.8000 F3000
G1 Z0.480 F1002
G1 X104.465 Y95.728 F6000
G1 X104.755 Y86.736
G1 X104.520 Y86.117
G1 X104.353 Y85.613
G1 X104.331 Y85.533
G1 X107.792 Y80.967
G1 X108.592 Y80.992
G1 X110.053 Y77.986
G1 Z0.180 F1002
G1 E0.0000 F3000
G92 E0.0000
G1 X111.685 Y79.724 E0.0593 F900
G1 X111.543 Y84.113 E0.1686
G1 X115.791 Y84.250 E0.2743
G1 X115.933 Y79.861 E0.3836
G1 X117.383 Y78.503 E0.4331
G1 X117.383 Y75.276 E0.5134
G1 X119.067 Y73.592 E0.5726
G1 X126.389 Y73.592 E0.7548
G1 X128.073 Y75.276 E0.8141
G1 X128.073 Y82.598 E0.9963
G1 X127.585 Y83.086 E1.0134
G1 X127.516 Y85.208 E1.0663
G1 X125.926 Y86.704 E1.1206
G1 X125.735 Y87.259 E1.1352
G1 X125.695 Y87.362 E1.1380
G1 X125.426 Y87.985 E1.1548
G1 X125.137 Y96.906 E1.3769
G1 X124.830 Y97.760 E1.3995
G1 X123.377 Y99.639 E1.4586
G1 X122.235 Y101.257 E1.5079
G1 X121.782 Y101.963 E1.5288
G1 X121.241 Y102.882 E1.5553
G1 X120.922 Y103.509 E1.5728
G1 X120.724 Y109.626 E1.7251
G1 X119.073 Y111.174 E1.7814
G1 X119.073 Y114.098 E1.8542
G1 X117.389 Y115.782 E1.9134
G1 X105.567 Y115.782 E2.2076
G1 X103.883 Y114.098 E2.2669
G1 X103.883 Y106.776 E2.4490
G1 X105.098 Y105.562 E2.4918
G1 X105.180 Y103.001 E2.5555
G1 X104.903 Y102.355 E2.5730
G1 X104.422 Y101.402 E2.5996
G1 X104.016 Y100.669 E2.6204
G1 X102.980 Y98.980 E2.6697
G1 X101.651 Y97.011 E2.7288
G1 X101.400 Y96.139 E2.7514
G1 X101.688 Y87.218 E2.9735
G1 X101.459 Y86.580 E2.9904
G1 X101.426 Y86.474 E2.9931
G1 X101.271 Y85.907 E3.0078
G1 X99.781 Y84.312 E3.0621
G1 X99.941 Y79.355 E3.1855
G1 X101.676 Y77.727 E3.2447
G1 X110.053 Y77.986 E3.4533
G92 E0.0000
G1 E-3.8000 F3000
G1 Z0.480 F1002
G1 X108.592 Y80.992 F6000
G1 X108.492 Y84.114
G1 X105.240 Y96.876
G1 X105.545 Y97.328
G1 X106.125 Y98.248
G1 X106.651 Y99.133
G1 X104.318 Y100.493
G1 Z0.180 F1002
G1 E0.0000 F3000
G92 E0.0000
G1 X103.274 Y98.791 E0.0497 F900
G1 X101.972 Y96.861 E0.1076
G1 X101.751 Y96.095 E0.1274
G1 X102.040 Y87.163 E0.3498
