; G-Code generated by Simplify3D(R) Version 4.1.2
; Oct 31, 2019 at 4:51:18 PM
; Settings Summary
;   processName,Process1
;   applyToModels,V_1to0_Support_C920
;   profileName,401s Tevo Tornado (experimental)
;   profileVersion,2019-10-29 11:02:25
;   baseProfile,Creality CR-10(2)
;   printMaterial,PLA
;   printQuality,Medium
;   printExtruders,
;   extruderName,Primary Extruder
;   extruderToolheadNumber,0
;   extruderDiameter,0.4
;   extruderAutoWidth,0
;   extruderWidth,0.35
;   extrusionMultiplier,0.95
;   extruderUseRetract,1
;   extruderRetractionDistance,3.8
;   extruderExtraRestartDistance,0
;   extruderRetractionZLift,0.3
;   extruderRetractionSpeed,3000
;   extruderUseCoasting,0
;   extruderCoastingDistance,0.2
;   extruderUseWipe,0
;   extruderWipeDistance,4
;   primaryExtruder,0
;   layerHeight,0.15
;   topSolidLayers,4
;   bottomSolidLayers,3
;   perimeterOutlines,3
;   printPerimetersInsideOut,0
;   startPointOption,1
;   startPointOriginX,0
;   startPointOriginY,300
;   sequentialIslands,0
;   spiralVaseMode,0
;   firstLayerHeightPercentage,120
;   firstLayerWidthPercentage,100
;   firstLayerUnderspeed,0.5
;   useRaft,0
;   raftExtruder,0
;   raftTopLayers,3
;   raftBaseLayers,2
;   raftOffset,3
;   raftSeparationDistance,0.14
;   raftTopInfill,100
;   aboveRaftSpeedMultiplier,0.3
;   useSkirt,1
;   skirtExtruder,0
;   skirtLayers,1
;   skirtOutlines,3
;   skirtOffset,2
;   usePrimePillar,0
;   primePillarExtruder,999
;   primePillarWidth,12
;   primePillarLocation,7
;   primePillarSpeedMultiplier,1
;   useOozeShield,0
;   oozeShieldExtruder,999
;   oozeShieldOffset,2
;   oozeShieldOutlines,1
;   oozeShieldSidewallShape,1
;   oozeShieldSidewallAngle,30
;   oozeShieldSpeedMultiplier,1
;   infillExtruder,0
;   internalInfillPattern,Grid
;   externalInfillPattern,Concentric
;   infillPercentage,25
;   outlineOverlapPercentage,15
;   infillExtrusionWidthPercentage,100
;   minInfillLength,5
;   infillLayerInterval,1
;   internalInfillAngles,45,-45
;   overlapInternalInfillAngles,1
;   externalInfillAngles,45,-45
;   generateSupport,1
;   supportExtruder,0
;   supportInfillPercentage,30
;   supportExtraInflation,0
;   supportBaseLayers,0
;   denseSupportExtruder,0
;   denseSupportLayers,0
;   denseSupportInfillPercentage,70
;   supportLayerInterval,1
;   supportHorizontalPartOffset,0.4
;   supportUpperSeparationLayers,1
;   supportLowerSeparationLayers,1
;   supportType,0
;   supportGridSpacing,4.5
;   maxOverhangAngle,45
;   supportAngles,0
;   temperatureName,Primary Extruder,Heated Bed
;   temperatureNumber,0,0
;   temperatureSetpointCount,2,1
;   temperatureSetpointLayers,1,2,1
;   temperatureSetpointTemperatures,215,210,60
;   temperatureStabilizeAtStartup,1,1
;   temperatureHeatedBed,0,1
;   fanLayers,1,2
;   fanSpeeds,0,100
;   blipFanToFullPower,0
;   adjustSpeedForCooling,1
;   minSpeedLayerTime,15
;   minCoolingSpeedSlowdown,50
;   increaseFanForCooling,1
;   minFanLayerTime,25
;   maxCoolingFanSpeed,100
;   increaseFanForBridging,1
;   bridgingFanSpeed,100
;   use5D,1
;   relativeEdistances,0
;   allowEaxisZeroing,1
;   independentExtruderAxes,0
;   includeM10123,0
;   stickySupport,1
;   applyToolheadOffsets,0
;   gcodeXoffset,0
;   gcodeYoffset,0
;   gcodeZoffset,0
;   overrideMachineDefinition,1
;   machineTypeOverride,0
;   strokeXoverride,300
;   strokeYoverride,300
;   strokeZoverride,400
;   originOffsetXoverride,0
;   originOffsetYoverride,0
;   originOffsetZoverride,0
;   homeXdirOverride,-1
;   homeYdirOverride,-1
;   homeZdirOverride,-1
;   flipXoverride,1
;   flipYoverride,-1
;   flipZoverride,1
;   toolheadOffsets,0,0|0,0|0,0|0,0|0,0|0,0
;   overrideFirmwareConfiguration,1
;   firmwareTypeOverride,RepRap (Marlin/Repetier/Sprinter)
;   GPXconfigOverride,r2
;   baudRateOverride,250000
;   overridePrinterModels,1
;   printerModelsOverride
;   startingGcode,;Init 181010,;G28 			; Home all axes,;G1 Z5 F3000 		; Lift,;G92 E0			; Reset extrusion distance,,; // From Cura 181010,; // Update 190823 (GueroLoco),; // Update 191005 Autoleveling,; // Update 192029 Modify Cleaning,; // Start_gcode,M117 *Start Clean*		; Indicate nozzle clean in progress on LCD,;,M104 S[extruder0_temperature] ,M109 S[extruder0_temperature] ,M109 R[extruder0_temperature] ,;,M107			; Turn layer fan off,G21			; Set to metric [change to G20 if you want Imperial],G90			; Force coordinates to be absolute relative to the origin,G28			; Home X/Y/Z axis,G29			; Auto-leveling,;,;G1 X3 Y1 Z15 F9000		; Move safe Z height to shear strings,;G0 X1 Y1 Z0.2 F9000		; Move in 1mm from edge and up [z] 0.2mm,;G92 E0			; Set extruder to [0] zero,;G1 X100 E12 F500		; Extrude 30mm filiment along X axis 100mm long to prime and clean the nozzle,;G92 E0			; Reset extruder to [0] zero end of cleaning run,;G1 E-1 F500			; Retract filiment by 1 mm to reduce string effect,;G1 X180 F4000		; Quick wipe away from the filament line / purge,;,G92 E0			; Set Extruder to 0 ,G1 X0 Y0 F2000		; Move X and Y to 0 with speed 2000 (mm/min),G1 Z0.1 F1000		; Move Z to 0.1,G1 X8.0 F2000		; Move X to 8.0,G1 Y60.0 E4.0 F1000.0		; Prime - Move Y to 60 and Extruder with 4.0,G1 Y100.0 E8.5 F1000.0		; Prime - Move Y to 100 and Extruder with 8.5,G92 E0			; Set extruder to 0,M117 *End Clean*		; Indicate nozzle clean in progress on LCD,G1 X16.0 F3000		; Move X to 16.0,G1 Z5 F3000			; Move Z to 5 - Lift,; ,M117 *Printing...*		; start msg,; // Begin printing with sliced GCode after here,;
;   layerChangeGcode,
;   retractionGcode,
;   toolChangeGcode,
;   endingGcode,;,; init 181010,;,;M107 			; Fan off,;G1 E-1 F300 			; Retract the filament a bit before lifting the nozzle,;M104 S0 			; Turn off extruder,;M140 S0 			; Turn off bed,;G91			; Relative positioning,;G28 X0 Y0 			; Move X/Y to min endstops so the head is out of teh way,;M84 			; Disable motors,;G90 			; Absolute positioning,;M117 Print ready...,,;,; // From Cura 181010,; // End_gcode,G92 E0			; Zero the extruded length,;G1 E-30 F300		; Retract E -30,M106 S0			; Turn off cooling fan,M104 S0			; Turn off temperature,M140 S0		     	; Turn off bed,G91			; Relative positioning,G1 E-1 F300			; Retract the filament a bit before lifting the nozzle to release some of the pressure,G1 Z+20 E-5 X-20 Y-20 F7200	; Move Z up a bit and retract filament even more,G1 X0 Y150 F10000		; Move right min,M107			; Turn off layer fan,M84			; Disable motors,G90			; Absolute positioning,M117 *The-End* 		; End msg,;,
;   exportFileFormat,gcode
;   celebration,0
;   celebrationSong,Star Wars
;   postProcessing,
;   defaultSpeed,1800
;   outlineUnderspeed,0.5
;   solidInfillUnderspeed,0.8
;   supportUnderspeed,0.8
;   rapidXYspeed,6000
;   rapidZspeed,1002
;   minBridgingArea,50
;   bridgingExtraInflation,0.2
;   bridgingExtrusionMultiplier,1
;   bridgingSpeedMultiplier,0.6
;   useFixedBridgingAngle,0
;   fixedBridgingAngle,0
;   applyBridgingToPerimeters,0
;   filamentDiameters,1.75|1.75|1.75|1.75|1.75|1.75
;   filamentPricesPerKg,30|46|46|46|46|46
;   filamentDensities,1.25|1.25|1.25|1.25|1.25|1.25
;   useMinPrintHeight,0
;   minPrintHeight,0
;   useMaxPrintHeight,0
;   maxPrintHeight,9
;   useDiaphragm,0
;   diaphragmLayerInterval,20
;   robustSlicing,1
;   mergeAllIntoSolid,0
;   onlyRetractWhenCrossingOutline,1
;   retractBetweenLayers,1
;   useRetractionMinTravel,1
;   retractionMinTravel,3
;   retractWhileWiping,1
;   onlyWipeOutlines,1
;   avoidCrossingOutline,1
;   maxMovementDetourFactor,3
;   toolChangeRetractionDistance,12
;   toolChangeExtraRestartDistance,-0.5
;   toolChangeRetractionSpeed,600
;   externalThinWallType,1
;   internalThinWallType,1
;   thinWallAllowedOverlapPercentage,15
;   singleExtrusionMinLength,1
;   singleExtrusionMinPrintingWidthPercentage,50
;   singleExtrusionMaxPrintingWidthPercentage,200
;   singleExtrusionEndpointExtension,0.2
;   horizontalSizeCompensation,0
G90
M82
M106 S0
M140 S60
M190 S60
;Init 181010
;G28 			; Home all axes
;G1 Z5 F3000 		; Lift
;G92 E0			; Reset extrusion distance
; // From Cura 181010
; // Update 190823 (GueroLoco)
; // Update 191005 Autoleveling
; // Update 192029 Modify Cleaning
; // Start_gcode
M117 *Start Clean*		; Indicate nozzle clean in progress on LCD
;
M104 S215 
M109 S215 
M109 R215 
;
M107			; Turn layer fan off
G21			; Set to metric [change to G20 if you want Imperial]
G90			; Force coordinates to be absolute relative to the origin
G28			; Home X/Y/Z axis
G29			; Auto-leveling
;
;G1 X3 Y1 Z15 F9000		; Move safe Z height to shear strings
;G0 X1 Y1 Z0.2 F9000		; Move in 1mm from edge and up [z] 0.2mm
;G92 E0			; Set extruder to [0] zero
;G1 X100 E12 F500		; Extrude 30mm filiment along X axis 100mm long to prime and clean the nozzle
;G92 E0			; Reset extruder to [0] zero end of cleaning run
;G1 E-1 F500			; Retract filiment by 1 mm to reduce string effect
;G1 X180 F4000		; Quick wipe away from the filament line / purge
;
G92 E0			; Set Extruder to 0 
G1 X0 Y0 F2000		; Move X and Y to 0 with speed 2000 (mm/min)
G1 Z0.1 F1000		; Move Z to 0.1
G1 X8.0 F2000		; Move X to 8.0
G1 Y60.0 E4.0 F1000.0		; Prime - Move Y to 60 and Extruder with 4.0
G1 Y100.0 E8.5 F1000.0		; Prime - Move Y to 100 and Extruder with 8.5
G92 E0			; Set extruder to 0
M117 *End Clean*		; Indicate nozzle clean in progress on LCD
G1 X16.0 F3000		; Move X to 16.0
G1 Z5 F3000			; Move Z to 5 - Lift
; 
M117 *Printing...*		; start msg
; // Begin printing with sliced GCode after here
;
; process Process1
; layer 1, Z = 0.180
T0
G92 E0.0000
G1 E-3.8000 F3000
; feature skirt
; tool H0.180 W0.350
G1 Z0.300 F1002
G1 X163.962 Y81.073 F6000
G1 Z0.180 F1002
G1 E0.0000 F3000
G92 E0.0000
G1 X165.538 Y81.251 E0.0395 F900
G1 X165.853 Y81.322 E0.0475
G1 X167.426 Y81.873 E0.0890
G1 X167.717 Y82.013 E0.0970
G1 X169.128 Y82.900 E0.1385
G1 X169.380 Y83.101 E0.1465
G1 X170.559 Y84.279 E0.1880
G1 X170.760 Y84.532 E0.1960
G1 X171.647 Y85.943 E0.2375
G1 X171.787 Y86.234 E0.2455
G1 X172.337 Y87.807 E0.2870
G1 X172.409 Y88.122 E0.2950
G1 X172.587 Y89.697 E0.3345
G1 X172.596 Y89.858 E0.3385
G1 X172.596 Y110.020 E0.8401
G1 X172.587 Y110.181 E0.8442
G1 X172.409 Y111.756 E0.8836
G1 X172.337 Y112.071 E0.8916
G1 X171.787 Y113.644 E0.9331
G1 X171.647 Y113.935 E0.9411
G1 X170.760 Y115.346 E0.9826
G1 X170.559 Y115.599 E0.9906
G1 X169.380 Y116.777 E1.0321
G1 X169.128 Y116.978 E1.0402
G1 X167.717 Y117.865 E1.0816
G1 X167.426 Y118.005 E1.0897
G1 X165.853 Y118.556 E1.1311
G1 X165.538 Y118.627 E1.1392
G1 X163.962 Y118.805 E1.1786
G1 X163.801 Y118.814 E1.1826
G1 X118.640 Y118.814 E2.3064
G1 X118.479 Y118.805 E2.3104
G1 X116.903 Y118.627 E2.3498
G1 X116.588 Y118.556 E2.3579
G1 X115.015 Y118.005 E2.3993
G1 X114.724 Y117.865 E2.4074
G1 X113.313 Y116.978 E2.4488
G1 X113.061 Y116.777 E2.4569
G1 X111.882 Y115.599 E2.4983
G1 X111.681 Y115.346 E2.5064
G1 X110.795 Y113.935 E2.5478
G1 X110.654 Y113.644 E2.5559
G1 X110.104 Y112.071 E2.5973
G1 X110.032 Y111.756 E2.6054
G1 X109.855 Y110.181 E2.6448
G1 X109.846 Y110.020 E2.6488
G1 X109.846 Y89.858 E3.1505
G1 X109.855 Y89.697 E3.1545
G1 X110.032 Y88.122 E3.1940
G1 X110.104 Y87.807 E3.2020
G1 X110.654 Y86.234 E3.2435
G1 X110.795 Y85.943 E3.2515
G1 X111.681 Y84.532 E3.2930
G1 X111.882 Y84.279 E3.3010
G1 X113.061 Y83.101 E3.3425
G1 X113.313 Y82.900 E3.3505
G1 X114.724 Y82.013 E3.3920
G1 X115.015 Y81.873 E3.4000
G1 X116.588 Y81.322 E3.4415
G1 X116.903 Y81.251 E3.4495
G1 X118.479 Y81.073 E3.4890
G1 X118.640 Y81.064 E3.4930
G1 X163.801 Y81.064 E4.6167
G1 X163.962 Y81.073 E4.6208
G92 E0.0000
G1 E-3.8000 F3000
G1 Z0.480 F1002
G1 X163.711 Y84.114 F6000
G1 X159.873 Y84.114
G1 X138.103 Y100.301
G1 X138.047 Y100.759
G1 X137.754 Y101.531
G1 X137.285 Y102.211
G1 X136.667 Y102.759
G1 X135.936 Y103.143
G1 X135.134 Y103.340
G1 X134.308 Y103.340
G1 X134.088 Y103.286
G1 X117.494 Y115.625
G1 X117.425 Y115.617
G1 X116.194 Y115.186
G1 X114.894 Y117.558
G1 Z0.180 F1002
G1 E0.0000 F3000
G92 E0.0000
G1 X113.516 Y116.693 E0.0405 F900
G1 X113.294 Y116.516 E0.0475
G1 X112.144 Y115.365 E0.0880
G1 X111.967 Y115.143 E0.0951
G1 X111.101 Y113.766 E0.1356
G1 X110.978 Y113.510 E0.1426
G1 X110.441 Y111.974 E0.1831
G1 X110.378 Y111.698 E0.1902
G1 X110.204 Y110.151 E0.2289
G1 X110.196 Y110.010 E0.2324
G1 X110.196 Y89.868 E0.7336
G1 X110.204 Y89.727 E0.7371
G1 X110.378 Y88.180 E0.7759
G1 X110.441 Y87.904 E0.7829
G1 X110.978 Y86.368 E0.8234
G1 X111.101 Y86.112 E0.8305
G1 X111.967 Y84.735 E0.8709
G1 X112.144 Y84.513 E0.8780
G1 X113.294 Y83.362 E0.9185
G1 X113.516 Y83.185 E0.9256
G1 X114.894 Y82.320 E0.9660
G1 X115.149 Y82.197 E0.9731
G1 X116.685 Y81.659 E1.0136
G1 X116.962 Y81.596 E1.0206
G1 X118.508 Y81.422 E1.0594
G1 X118.650 Y81.414 E1.0629
G1 X163.791 Y81.414 E2.1861
G1 X163.933 Y81.422 E2.1897
G1 X165.479 Y81.596 E2.2284
G1 X165.756 Y81.659 E2.2354
G1 X167.292 Y82.197 E2.2759
G1 X167.547 Y82.320 E2.2830
G1 X168.925 Y83.185 E2.3235
G1 X169.147 Y83.362 E2.3305
G1 X170.297 Y84.513 E2.3710
G1 X170.474 Y84.735 E2.3781
G1 X171.340 Y86.112 E2.4186
G1 X171.463 Y86.368 E2.4256
G1 X172.000 Y87.904 E2.4661
G1 X172.063 Y88.180 E2.4732
G1 X172.238 Y89.727 E2.5119
G1 X172.246 Y89.868 E2.5154
G1 X172.246 Y110.010 E3.0166
G1 X172.238 Y110.151 E3.0201
G1 X172.063 Y111.698 E3.0589
G1 X172.000 Y111.974 E3.0659
G1 X171.463 Y113.510 E3.1064
G1 X171.340 Y113.766 E3.1135
G1 X170.474 Y115.143 E3.1539
G1 X170.297 Y115.365 E3.1610
G1 X169.147 Y116.516 E3.2015
G1 X168.925 Y116.693 E3.2085
G1 X167.547 Y117.558 E3.2490
G1 X167.292 Y117.681 E3.2561
G1 X165.756 Y118.219 E3.2966
G1 X165.479 Y118.282 E3.3036
G1 X163.933 Y118.456 E3.3424
G1 X163.791 Y118.464 E3.3459
G1 X118.650 Y118.464 E4.4691
G1 X118.508 Y118.456 E4.4727
G1 X116.962 Y118.282 E4.5114
G1 X116.685 Y118.219 E4.5184
G1 X115.149 Y117.681 E4.5589
G1 X114.894 Y117.558 E4.5660
G92 E0.0000
G1 E-3.8000 F3000
G1 Z0.480 F1002
G1 X116.194 Y115.186 F6000
G1 X117.425 Y115.617
G1 X118.436 Y115.731
G1 X169.483 Y89.392
G1 X169.398 Y88.643
G1 X171.718 Y88.239
G1 Z0.180 F1002
G1 E0.0000 F3000
G92 E0.0000
G1 X171.889 Y89.756 E0.0380 F900
G1 X171.896 Y89.878 E0.0410
G1 X171.896 Y110.000 E0.5417
G1 X171.889 Y110.122 E0.5448
G1 X171.718 Y111.639 E0.5827
G1 X171.663 Y111.877 E0.5888
G1 X171.139 Y113.376 E0.6283
G1 X171.033 Y113.596 E0.6344
G1 X170.188 Y114.941 E0.6739
G1 X170.036 Y115.132 E0.6800
G1 X168.913 Y116.254 E0.7195
G1 X168.722 Y116.407 E0.7256
G1 X167.378 Y117.251 E0.7651
G1 X167.158 Y117.357 E0.7712
G1 X165.659 Y117.882 E0.8107
G1 X165.421 Y117.936 E0.8168
G1 X163.903 Y118.107 E0.8548
G1 X163.782 Y118.114 E0.8578
G1 X118.660 Y118.114 E1.9806
G1 X118.538 Y118.107 E1.9836
G1 X117.021 Y117.936 E2.0216
G1 X116.782 Y117.882 E2.0277
G1 X115.284 Y117.357 E2.0672
G1 X115.064 Y117.251 E2.0732
G1 X113.719 Y116.407 E2.1128
G1 X113.528 Y116.254 E2.1188
G1 X112.405 Y115.132 E2.1583
G1 X112.253 Y114.941 E2.1644
G1 X111.408 Y113.596 E2.2039
G1 X111.302 Y113.376 E2.2100
G1 X110.778 Y111.877 E2.2495
G1 X110.723 Y111.639 E2.2556
G1 X110.552 Y110.122 E2.2936
G1 X110.546 Y110.000 E2.2966
G1 X110.546 Y89.878 E2.7973
G1 X110.552 Y89.756 E2.8004
G1 X110.723 Y88.239 E2.8384
G1 X110.778 Y88.001 E2.8444
G1 X111.302 Y86.502 E2.8839
G1 X111.408 Y86.282 E2.8900
G1 X112.253 Y84.938 E2.9295
G1 X112.405 Y84.747 E2.9356
G1 X113.528 Y83.624 E2.9751
G1 X113.719 Y83.471 E2.9812
G1 X115.064 Y82.627 E3.0207
G1 X115.284 Y82.521 E3.0268
G1 X116.782 Y81.996 E3.0663
G1 X117.021 Y81.942 E3.0724
G1 X118.538 Y81.771 E3.1104
G1 X118.660 Y81.764 E3.1134
G1 X163.782 Y81.764 E4.2362
G1 X163.903 Y81.771 E4.2392
G1 X165.421 Y81.942 E4.2772
G1 X165.659 Y81.996 E4.2833
G1 X167.158 Y82.521 E4.3228
G1 X167.378 Y82.627 E4.3289
G1 X168.722 Y83.471 E4.3684
G1 X168.913 Y83.624 E4.3744
G1 X170.036 Y84.747 E4.4140
G1 X170.188 Y84.937 E4.4200
G1 X171.033 Y86.282 E4.4595
G1 X171.139 Y86.502 E4.4656
G1 X171.663 Y88.001 E4.5051
G1 X171.718 Y88.239 E4.5112
G92 E0.0000
G1 E-3.8000 F3000
; feature outer perimeter
G1 Z0.480 F1002
G1 X169.398 Y88.643 F6000
G1 X169.245 Y88.204
G1 X113.473 Y87.412
G1 Z0.180 F1002
G1 E0.0000 F3000
G92 E0.0000
G1 X114.167 Y86.308 E0.0325 F450
G1 X115.089 Y85.386 E0.0649
G1 X116.194 Y84.692 E0.0974
G1 X117.425 Y84.261 E0.1298
