; G-Code generated by Simplify3D(R) Version 4.1.2
; Nov 1, 2019 at 4:18:22 PM
; Settings Summary
;   processName,Process1
;   applyToModels,V_1to0_Support_Sea_Wit
;   profileName,401s_35p Tevo Tornado (experimental) (modified)
;   profileVersion,2019-10-31 17:04:36
;   baseProfile,Creality CR-10(2)
;   printMaterial,PLA
;   printQuality,Medium
;   printExtruders,
;   extruderName,Primary Extruder
;   extruderToolheadNumber,0
;   extruderDiameter,0.4
;   extruderAutoWidth,0
;   extruderWidth,0.35
;   extrusionMultiplier,0.95
;   extruderUseRetract,1
;   extruderRetractionDistance,3.8
;   extruderExtraRestartDistance,0
;   extruderRetractionZLift,0.3
;   extruderRetractionSpeed,3000
;   extruderUseCoasting,0
;   extruderCoastingDistance,0.2
;   extruderUseWipe,0
;   extruderWipeDistance,4
;   primaryExtruder,0
;   layerHeight,0.15
;   topSolidLayers,4
;   bottomSolidLayers,3
;   perimeterOutlines,3
;   printPerimetersInsideOut,0
;   startPointOption,1
;   startPointOriginX,0
;   startPointOriginY,300
;   sequentialIslands,0
;   spiralVaseMode,0
;   firstLayerHeightPercentage,120
;   firstLayerWidthPercentage,100
;   firstLayerUnderspeed,0.5
;   useRaft,0
;   raftExtruder,0
;   raftTopLayers,3
;   raftBaseLayers,2
;   raftOffset,3
;   raftSeparationDistance,0.14
;   raftTopInfill,100
;   aboveRaftSpeedMultiplier,0.3
;   useSkirt,1
;   skirtExtruder,0
;   skirtLayers,1
;   skirtOutlines,3
;   skirtOffset,2
;   usePrimePillar,0
;   primePillarExtruder,999
;   primePillarWidth,12
;   primePillarLocation,7
;   primePillarSpeedMultiplier,1
;   useOozeShield,0
;   oozeShieldExtruder,999
;   oozeShieldOffset,2
;   oozeShieldOutlines,1
;   oozeShieldSidewallShape,1
;   oozeShieldSidewallAngle,30
;   oozeShieldSpeedMultiplier,1
;   infillExtruder,0
;   internalInfillPattern,Grid
;   externalInfillPattern,Concentric
;   infillPercentage,35
;   outlineOverlapPercentage,15
;   infillExtrusionWidthPercentage,100
;   minInfillLength,5
;   infillLayerInterval,1
;   internalInfillAngles,45,-45
;   overlapInternalInfillAngles,1
;   externalInfillAngles,45,-45
;   generateSupport,1
;   supportExtruder,0
;   supportInfillPercentage,30
;   supportExtraInflation,0
;   supportBaseLayers,0
;   denseSupportExtruder,0
;   denseSupportLayers,0
;   denseSupportInfillPercentage,70
;   supportLayerInterval,1
;   supportHorizontalPartOffset,0.4
;   supportUpperSeparationLayers,1
;   supportLowerSeparationLayers,1
;   supportType,0
;   supportGridSpacing,4.5
;   maxOverhangAngle,45
;   supportAngles,0
;   temperatureName,Primary Extruder,Heated Bed
;   temperatureNumber,0,0
;   temperatureSetpointCount,2,1
;   temperatureSetpointLayers,1,2,1
;   temperatureSetpointTemperatures,215,210,60
;   temperatureStabilizeAtStartup,1,1
;   temperatureHeatedBed,0,1
;   fanLayers,1,2
;   fanSpeeds,0,100
;   blipFanToFullPower,0
;   adjustSpeedForCooling,1
;   minSpeedLayerTime,15
;   minCoolingSpeedSlowdown,50
;   increaseFanForCooling,1
;   minFanLayerTime,25
;   maxCoolingFanSpeed,100
;   increaseFanForBridging,1
;   bridgingFanSpeed,100
;   use5D,1
;   relativeEdistances,0
;   allowEaxisZeroing,1
;   independentExtruderAxes,0
;   includeM10123,0
;   stickySupport,1
;   applyToolheadOffsets,0
;   gcodeXoffset,0
;   gcodeYoffset,0
;   gcodeZoffset,0
;   overrideMachineDefinition,1
;   machineTypeOverride,0
;   strokeXoverride,300
;   strokeYoverride,300
;   strokeZoverride,400
;   originOffsetXoverride,0
;   originOffsetYoverride,0
;   originOffsetZoverride,0
;   homeXdirOverride,-1
;   homeYdirOverride,-1
;   homeZdirOverride,-1
;   flipXoverride,1
;   flipYoverride,-1
;   flipZoverride,1
;   toolheadOffsets,0,0|0,0|0,0|0,0|0,0|0,0
;   overrideFirmwareConfiguration,1
;   firmwareTypeOverride,RepRap (Marlin/Repetier/Sprinter)
;   GPXconfigOverride,r2
;   baudRateOverride,250000
;   overridePrinterModels,1
;   printerModelsOverride
;   startingGcode,;Init 181010,;G28 			; Home all axes,;G1 Z5 F3000 		; Lift,;G92 E0			; Reset extrusion distance,,; // From Cura 181010,; // Update 190823 (GueroLoco),; // Update 191005 Autoleveling,; // Update 192029 Modify Cleaning,; // Start_gcode,M117 *Start Clean*		; Indicate nozzle clean in progress on LCD,;,M104 S[extruder0_temperature] ,M109 S[extruder0_temperature] ,M109 R[extruder0_temperature] ,;,M107			; Turn layer fan off,G21			; Set to metric [change to G20 if you want Imperial],G90			; Force coordinates to be absolute relative to the origin,G28			; Home X/Y/Z axis,G29			; Auto-leveling,;,;G1 X3 Y1 Z15 F9000		; Move safe Z height to shear strings,;G0 X1 Y1 Z0.2 F9000		; Move in 1mm from edge and up [z] 0.2mm,;G92 E0			; Set extruder to [0] zero,;G1 X100 E12 F500		; Extrude 30mm filiment along X axis 100mm long to prime and clean the nozzle,;G92 E0			; Reset extruder to [0] zero end of cleaning run,;G1 E-1 F500			; Retract filiment by 1 mm to reduce string effect,;G1 X180 F4000		; Quick wipe away from the filament line / purge,;,G92 E0			; Set Extruder to 0 ,G1 X0 Y0 F2000		; Move X and Y to 0 with speed 2000 (mm/min),G1 Z0.1 F1000		; Move Z to 0.1,G1 X8.0 F2000		; Move X to 8.0,G1 Y60.0 E4.0 F1000.0		; Prime - Move Y to 60 and Extruder with 4.0,G1 Y100.0 E8.5 F1000.0		; Prime - Move Y to 100 and Extruder with 8.5,G92 E0			; Set extruder to 0,M117 *End Clean*		; Indicate nozzle clean in progress on LCD,G1 X16.0 F3000		; Move X to 16.0,G1 Z5 F3000			; Move Z to 5 - Lift,; ,M117 *Printing...*		; start msg,; // Begin printing with sliced GCode after here,;
;   layerChangeGcode,
;   retractionGcode,
;   toolChangeGcode,
;   endingGcode,;,; init 181010,;,;M107 			; Fan off,;G1 E-1 F300 			; Retract the filament a bit before lifting the nozzle,;M104 S0 			; Turn off extruder,;M140 S0 			; Turn off bed,;G91			; Relative positioning,;G28 X0 Y0 			; Move X/Y to min endstops so the head is out of teh way,;M84 			; Disable motors,;G90 			; Absolute positioning,;M117 Print ready...,,;,; // From Cura 181010,; // End_gcode,G92 E0			; Zero the extruded length,;G1 E-30 F300		; Retract E -30,M106 S0			; Turn off cooling fan,M104 S0			; Turn off temperature,M140 S0		     	; Turn off bed,G91			; Relative positioning,G1 E-1 F300			; Retract the filament a bit before lifting the nozzle to release some of the pressure,G1 Z+20 E-5 X-20 Y-20 F7200	; Move Z up a bit and retract filament even more,G1 X0 Y150 F10000		; Move right min,M107			; Turn off layer fan,M84			; Disable motors,G90			; Absolute positioning,M117 *The-End* 		; End msg,;,
;   exportFileFormat,gcode
;   celebration,0
;   celebrationSong,Star Wars
;   postProcessing,
;   defaultSpeed,1800
;   outlineUnderspeed,0.5
;   solidInfillUnderspeed,0.8
;   supportUnderspeed,0.8
;   rapidXYspeed,6000
;   rapidZspeed,1002
;   minBridgingArea,50
;   bridgingExtraInflation,0.2
;   bridgingExtrusionMultiplier,1
;   bridgingSpeedMultiplier,0.6
;   useFixedBridgingAngle,0
;   fixedBridgingAngle,0
;   applyBridgingToPerimeters,0
;   filamentDiameters,1.75|1.75|1.75|1.75|1.75|1.75
;   filamentPricesPerKg,30|46|46|46|46|46
;   filamentDensities,1.25|1.25|1.25|1.25|1.25|1.25
;   useMinPrintHeight,0
;   minPrintHeight,0
;   useMaxPrintHeight,0
;   maxPrintHeight,9
;   useDiaphragm,0
;   diaphragmLayerInterval,20
;   robustSlicing,1
;   mergeAllIntoSolid,0
;   onlyRetractWhenCrossingOutline,1
;   retractBetweenLayers,1
;   useRetractionMinTravel,1
;   retractionMinTravel,3
;   retractWhileWiping,1
;   onlyWipeOutlines,1
;   avoidCrossingOutline,1
;   maxMovementDetourFactor,3
;   toolChangeRetractionDistance,12
;   toolChangeExtraRestartDistance,-0.5
;   toolChangeRetractionSpeed,600
;   externalThinWallType,1
;   internalThinWallType,1
;   thinWallAllowedOverlapPercentage,15
;   singleExtrusionMinLength,1
;   singleExtrusionMinPrintingWidthPercentage,50
;   singleExtrusionMaxPrintingWidthPercentage,200
;   singleExtrusionEndpointExtension,0.2
;   horizontalSizeCompensation,0
G90
M82
M106 S0
M140 S60
M190 S60
;Init 181010
;G28 			; Home all axes
;G1 Z5 F3000 		; Lift
;G92 E0			; Reset extrusion distance
; // From Cura 181010
; // Update 190823 (GueroLoco)
; // Update 191005 Autoleveling
; // Update 192029 Modify Cleaning
; // Start_gcode
M117 *Start Clean*		; Indicate nozzle clean in progress on LCD
;
M104 S215 
M109 S215 
M109 R215 
;
M107			; Turn layer fan off
G21			; Set to metric [change to G20 if you want Imperial]
G90			; Force coordinates to be absolute relative to the origin
G28			; Home X/Y/Z axis
G29			; Auto-leveling
;
;G1 X3 Y1 Z15 F9000		; Move safe Z height to shear strings
;G0 X1 Y1 Z0.2 F9000		; Move in 1mm from edge and up [z] 0.2mm
;G92 E0			; Set extruder to [0] zero
;G1 X100 E12 F500		; Extrude 30mm filiment along X axis 100mm long to prime and clean the nozzle
;G92 E0			; Reset extruder to [0] zero end of cleaning run
;G1 E-1 F500			; Retract filiment by 1 mm to reduce string effect
;G1 X180 F4000		; Quick wipe away from the filament line / purge
;
G92 E0			; Set Extruder to 0 
G1 X0 Y0 F2000		; Move X and Y to 0 with speed 2000 (mm/min)
G1 Z0.1 F1000		; Move Z to 0.1
G1 X8.0 F2000		; Move X to 8.0
G1 Y60.0 E4.0 F1000.0		; Prime - Move Y to 60 and Extruder with 4.0
G1 Y100.0 E8.5 F1000.0		; Prime - Move Y to 100 and Extruder with 8.5
G92 E0			; Set extruder to 0
M117 *End Clean*		; Indicate nozzle clean in progress on LCD
G1 X16.0 F3000		; Move X to 16.0
G1 Z5 F3000			; Move Z to 5 - Lift
; 
M117 *Printing...*		; start msg
; // Begin printing with sliced GCode after here
;
; process Process1
; layer 1, Z = 0.180
T0
G92 E0.0000
G1 E-3.8000 F3000
; feature skirt
; tool H0.180 W0.350
G1 Z0.300 F1002
G1 X127.143 Y52.207 F6000
G1 Z0.180 F1002
G1 E0.0000 F3000
G92 E0.0000
G1 X127.606 Y52.259 E0.0116 F900
G1 X127.921 Y52.331 E0.0196
G1 X128.437 Y52.512 E0.0332
G1 X128.728 Y52.652 E0.0413
G1 X129.191 Y52.943 E0.0549
G1 X129.443 Y53.144 E0.0629
G1 X129.830 Y53.531 E0.0765
G1 X130.031 Y53.783 E0.0846
G1 X130.322 Y54.246 E0.0982
G1 X130.462 Y54.537 E0.1062
G1 X130.643 Y55.054 E0.1198
G1 X130.676 Y55.196 E0.1235
G1 X143.583 Y55.196 E0.4446
G1 X143.583 Y54.912 E0.4517
G1 X145.267 Y53.228 E0.5110
G1 X152.589 Y53.228 E0.6931
G1 X154.273 Y54.912 E0.7524
G1 X154.273 Y71.234 E1.1585
G1 X152.589 Y72.918 E1.2178
G1 X145.267 Y72.918 E1.4000
G1 X143.583 Y71.234 E1.4592
G1 X143.583 Y70.946 E1.4664
G1 X130.676 Y70.946 E1.7875
G1 X130.643 Y71.092 E1.7913
G1 X130.462 Y71.609 E1.8049
G1 X130.322 Y71.900 E1.8129
G1 X130.031 Y72.363 E1.8265
G1 X129.830 Y72.615 E1.8346
G1 X129.443 Y73.002 E1.8482
G1 X129.191 Y73.203 E1.8562
G1 X128.728 Y73.494 E1.8698
G1 X128.437 Y73.634 E1.8778
G1 X127.921 Y73.815 E1.8915
G1 X127.606 Y73.887 E1.8995
G1 X127.143 Y73.939 E1.9111
G1 X126.982 Y73.948 E1.9151
G1 X121.710 Y73.948 E2.0463
G1 X120.026 Y72.264 E2.1055
G1 X120.026 Y70.826 E2.1413
G1 X119.264 Y70.510 E2.1618
G1 X115.464 Y66.710 E2.2956
G1 X115.026 Y65.653 E2.3240
G1 X115.026 Y63.282 E2.3830
G1 X115.235 Y63.073 E2.3904
G1 X115.026 Y62.864 E2.3977
G1 X115.026 Y60.493 E2.4567
G1 X115.464 Y59.436 E2.4852
G1 X119.264 Y55.636 E2.6189
G1 X120.026 Y55.320 E2.6395
G1 X120.026 Y53.882 E2.6752
G1 X121.710 Y52.198 E2.7345
G1 X126.982 Y52.198 E2.8657
G1 X127.143 Y52.207 E2.8697
G92 E0.0000
G1 E-3.8000 F3000
G1 Z0.480 F1002
G1 X126.891 Y55.248 F6000
G1 X127.084 Y55.270
G1 X127.258 Y55.331
G1 X127.415 Y55.429
G1 X127.546 Y55.561
G1 X129.051 Y68.075
G1 X128.951 Y68.110
G1 X128.540 Y68.368
G1 X128.197 Y68.711
G1 X127.939 Y69.123
G1 X127.779 Y69.579
G1 X127.704 Y70.257
G1 X127.643 Y70.431
G1 X127.545 Y70.587
G1 X129.569 Y72.382
G1 Z0.180 F1002
G1 E0.0000 F3000
G92 E0.0000
G1 X129.210 Y72.741 E0.0126 F900
G1 X128.988 Y72.917 E0.0197
G1 X128.558 Y73.187 E0.0323
G1 X128.303 Y73.310 E0.0394
G1 X127.824 Y73.478 E0.0520
G1 X127.547 Y73.541 E0.0591
G1 X127.113 Y73.590 E0.0699
G1 X126.972 Y73.598 E0.0734
G1 X121.855 Y73.598 E0.2008
G1 X120.376 Y72.119 E0.2528
G1 X120.376 Y70.592 E0.2908
G1 X119.462 Y70.214 E0.3154
G1 X115.760 Y66.512 E0.4457
G1 X115.376 Y65.584 E0.4707
G1 X115.376 Y63.427 E0.5243
G1 X115.730 Y63.073 E0.5368
G1 X115.376 Y62.719 E0.5493
G1 X115.376 Y60.562 E0.6029
G1 X115.760 Y59.634 E0.6279
G1 X119.462 Y55.932 E0.7582
G1 X120.376 Y55.554 E0.7828
G1 X120.376 Y54.027 E0.8208
G1 X121.855 Y52.548 E0.8728
G1 X126.972 Y52.548 E1.0001
G1 X127.114 Y52.556 E1.0037
G1 X127.547 Y52.605 E1.0145
G1 X127.824 Y52.668 E1.0216
G1 X128.303 Y52.836 E1.0342
G1 X128.558 Y52.959 E1.0413
G1 X128.988 Y53.229 E1.0539
G1 X129.210 Y53.406 E1.0610
G1 X129.569 Y53.765 E1.0736
G1 X129.745 Y53.986 E1.0807
G1 X130.015 Y54.416 E1.0933
G1 X130.138 Y54.671 E1.1003
G1 X130.306 Y55.151 E1.1130
G1 X130.370 Y55.429 E1.1201
G1 X130.383 Y55.546 E1.1230
G1 X143.933 Y55.546 E1.4602
G1 X143.933 Y55.057 E1.4723
G1 X145.412 Y53.578 E1.5244
G1 X152.444 Y53.578 E1.6994
G1 X153.923 Y55.057 E1.7514
G1 X153.923 Y71.089 E2.1503
G1 X152.444 Y72.568 E2.2024
G1 X145.412 Y72.568 E2.3773
G1 X143.933 Y71.089 E2.4294
G1 X143.933 Y70.596 E2.4417
G1 X130.383 Y70.596 E2.7788
G1 X130.370 Y70.716 E2.7818
G1 X130.306 Y70.995 E2.7889
G1 X130.138 Y71.475 E2.8016
G1 X130.015 Y71.730 E2.8086
G1 X129.745 Y72.160 E2.8213
G1 X129.569 Y72.382 E2.8283
G92 E0.0000
G1 E-3.8000 F3000
G1 Z0.480 F1002
G1 X127.545 Y70.587 F6000
G1 X127.643 Y70.431
G1 X127.704 Y70.257
G1 X127.779 Y69.579
G1 X127.939 Y69.123
G1 X128.197 Y68.711
G1 X128.540 Y68.368
G1 X128.951 Y68.110
G1 X129.410 Y67.949
G1 X129.673 Y67.920
G1 X129.899 Y58.246
G1 X129.881 Y58.246
G1 X129.410 Y58.193
G1 X128.951 Y58.033
G1 X128.540 Y57.775
G1 X128.197 Y57.432
G1 X127.939 Y57.020
G1 X127.779 Y56.564
G1 X127.704 Y55.890
G1 X129.969 Y55.248
G1 Z0.180 F1002
G1 E0.0000 F3000
G92 E0.0000
G1 X130.024 Y55.488 E0.0061 F900
G1 X130.070 Y55.896 E0.0163
G1 X144.283 Y55.896 E0.3700
G1 X144.283 Y55.202 E0.3873
G1 X145.557 Y53.928 E0.4321
G1 X152.299 Y53.928 E0.5999
G1 X153.573 Y55.202 E0.6447
G1 X153.573 Y70.944 E1.0364
G1 X152.299 Y72.218 E1.0812
G1 X145.557 Y72.218 E1.2490
G1 X144.283 Y70.944 E1.2938
G1 X144.283 Y70.246 E1.3112
G1 X130.070 Y70.246 E1.6648
G1 X130.024 Y70.658 E1.6751
G1 X129.970 Y70.898 E1.6813
G1 X129.815 Y71.341 E1.6929
G1 X129.709 Y71.561 E1.6990
G1 X129.460 Y71.957 E1.7107
G1 X129.307 Y72.148 E1.7168
G1 X128.976 Y72.479 E1.7284
G1 X128.785 Y72.632 E1.7345
G1 X128.389 Y72.881 E1.7461
G1 X128.169 Y72.987 E1.7522
G1 X127.727 Y73.141 E1.7639
G1 X127.488 Y73.196 E1.7699
G1 X127.084 Y73.241 E1.7801
G1 X126.962 Y73.248 E1.7831
G1 X122.000 Y73.248 E1.9066
G1 X120.726 Y71.974 E1.9514
G1 X120.726 Y70.248 E1.9944
G1 X120.460 Y70.248 E2.0010
G1 X119.661 Y69.917 E2.0225
G1 X116.057 Y66.314 E2.1493
G1 X115.726 Y65.514 E2.1708
G1 X115.726 Y63.572 E2.2192
G1 X116.225 Y63.073 E2.2367
G1 X115.726 Y62.574 E2.2543
G1 X115.726 Y60.632 E2.3026
G1 X116.057 Y59.833 E2.3241
G1 X119.661 Y56.229 E2.4509
G1 X120.460 Y55.898 E2.4725
G1 X120.726 Y55.898 E2.4791
G1 X120.726 Y54.172 E2.5220
G1 X122.000 Y52.898 E2.5669
G1 X126.962 Y52.898 E2.6903
G1 X127.084 Y52.905 E2.6934
G1 X127.489 Y52.951 E2.7035
G1 X127.727 Y53.005 E2.7096
G1 X128.168 Y53.159 E2.7212
G1 X128.389 Y53.265 E2.7273
G1 X128.785 Y53.515 E2.7390
G1 X128.976 Y53.667 E2.7450
G1 X129.307 Y53.998 E2.7567
G1 X129.460 Y54.189 E2.7628
G1 X129.709 Y54.585 E2.7744
G1 X129.815 Y54.806 E2.7805
G1 X129.969 Y55.248 E2.7922
G92 E0.0000
G1 E-3.8000 F3000
; feature outer perimeter
G1 Z0.480 F1002
G1 X127.704 Y55.890 F6000
G1 X127.779 Y56.564
G1 X127.789 Y56.590
G1 X119.812 Y61.498
G1 Z0.180 F1002
G1 E0.0000 F3000
G92 E0.0000
G1 X118.076 Y61.498 E0.0432 F450
G1 X118.076 Y61.137 E0.0522
G1 X120.965 Y58.248 E0.1538
G1 X121.911 Y58.248 E0.1774
G1 X122.162 Y58.220 E0.1837
G1 X122.413 Y58.132 E0.1903
G1 X122.636 Y57.991 E0.1968
G1 X122.819 Y57.808 E0.2033
G1 X122.962 Y57.581 E0.2100
G1 X123.048 Y57.335 E0.2164
G1 X123.076 Y57.083 E0.2228
G1 X123.076 Y55.248 E0.2684
G1 X126.891 Y55.248 E0.3633
G1 X127.084 Y55.270 E0.3682
G1 X127.258 Y55.331 E0.3728
G1 X127.415 Y55.429 E0.3774
G1 X127.545 Y55.559 E0.3820
G1 X127.643 Y55.716 E0.3865
G1 X127.704 Y55.890 E0.3911
G1 X127.779 Y56.564 E0.4080
G1 X127.939 Y57.020 E0.4200
G1 X128.197 Y57.432 E0.4321
G1 X128.540 Y57.775 E0.4442
G1 X128.951 Y58.033 E0.4563
