; G-Code generated by Simplify3D(R) Version 4.1.2
; Oct 29, 2019 at 11:02:27 AM
; Settings Summary
;   processName,Process01
;   applyToModels,04-ARM-06cm
;   profileName,401s Tevo Tornado (experimental)
;   profileVersion,2019-10-29 10:59:10
;   baseProfile,Creality CR-10(2)
;   printMaterial,PLA
;   printQuality,Medium
;   printExtruders,
;   extruderName,Primary Extruder
;   extruderToolheadNumber,0
;   extruderDiameter,0.4
;   extruderAutoWidth,0
;   extruderWidth,0.35
;   extrusionMultiplier,0.95
;   extruderUseRetract,1
;   extruderRetractionDistance,3.8
;   extruderExtraRestartDistance,0
;   extruderRetractionZLift,0.3
;   extruderRetractionSpeed,3000
;   extruderUseCoasting,0
;   extruderCoastingDistance,0.2
;   extruderUseWipe,0
;   extruderWipeDistance,4
;   primaryExtruder,0
;   layerHeight,0.15
;   topSolidLayers,4
;   bottomSolidLayers,3
;   perimeterOutlines,3
;   printPerimetersInsideOut,0
;   startPointOption,1
;   startPointOriginX,0
;   startPointOriginY,300
;   sequentialIslands,0
;   spiralVaseMode,0
;   firstLayerHeightPercentage,120
;   firstLayerWidthPercentage,100
;   firstLayerUnderspeed,0.5
;   useRaft,0
;   raftExtruder,0
;   raftTopLayers,3
;   raftBaseLayers,2
;   raftOffset,3
;   raftSeparationDistance,0.14
;   raftTopInfill,100
;   aboveRaftSpeedMultiplier,0.3
;   useSkirt,1
;   skirtExtruder,0
;   skirtLayers,1
;   skirtOutlines,3
;   skirtOffset,2
;   usePrimePillar,0
;   primePillarExtruder,999
;   primePillarWidth,12
;   primePillarLocation,7
;   primePillarSpeedMultiplier,1
;   useOozeShield,0
;   oozeShieldExtruder,999
;   oozeShieldOffset,2
;   oozeShieldOutlines,1
;   oozeShieldSidewallShape,1
;   oozeShieldSidewallAngle,30
;   oozeShieldSpeedMultiplier,1
;   infillExtruder,0
;   internalInfillPattern,Grid
;   externalInfillPattern,Concentric
;   infillPercentage,25
;   outlineOverlapPercentage,15
;   infillExtrusionWidthPercentage,100
;   minInfillLength,5
;   infillLayerInterval,1
;   internalInfillAngles,45,-45
;   overlapInternalInfillAngles,1
;   externalInfillAngles,45,-45
;   generateSupport,1
;   supportExtruder,0
;   supportInfillPercentage,30
;   supportExtraInflation,0
;   supportBaseLayers,0
;   denseSupportExtruder,0
;   denseSupportLayers,0
;   denseSupportInfillPercentage,70
;   supportLayerInterval,1
;   supportHorizontalPartOffset,0.4
;   supportUpperSeparationLayers,1
;   supportLowerSeparationLayers,1
;   supportType,0
;   supportGridSpacing,4.5
;   maxOverhangAngle,45
;   supportAngles,0
;   temperatureName,Primary Extruder,Heated Bed
;   temperatureNumber,0,0
;   temperatureSetpointCount,2,1
;   temperatureSetpointLayers,1,2,1
;   temperatureSetpointTemperatures,215,210,60
;   temperatureStabilizeAtStartup,1,1
;   temperatureHeatedBed,0,1
;   fanLayers,1,2
;   fanSpeeds,0,100
;   blipFanToFullPower,0
;   adjustSpeedForCooling,1
;   minSpeedLayerTime,15
;   minCoolingSpeedSlowdown,50
;   increaseFanForCooling,1
;   minFanLayerTime,25
;   maxCoolingFanSpeed,100
;   increaseFanForBridging,1
;   bridgingFanSpeed,100
;   use5D,1
;   relativeEdistances,0
;   allowEaxisZeroing,1
;   independentExtruderAxes,0
;   includeM10123,0
;   stickySupport,1
;   applyToolheadOffsets,0
;   gcodeXoffset,0
;   gcodeYoffset,0
;   gcodeZoffset,0
;   overrideMachineDefinition,1
;   machineTypeOverride,0
;   strokeXoverride,300
;   strokeYoverride,300
;   strokeZoverride,400
;   originOffsetXoverride,0
;   originOffsetYoverride,0
;   originOffsetZoverride,0
;   homeXdirOverride,-1
;   homeYdirOverride,-1
;   homeZdirOverride,-1
;   flipXoverride,1
;   flipYoverride,-1
;   flipZoverride,1
;   toolheadOffsets,0,0|0,0|0,0|0,0|0,0|0,0
;   overrideFirmwareConfiguration,1
;   firmwareTypeOverride,RepRap (Marlin/Repetier/Sprinter)
;   GPXconfigOverride,r2
;   baudRateOverride,250000
;   overridePrinterModels,1
;   printerModelsOverride
;   startingGcode,;Init 181010,;G28 			; Home all axes,;G1 Z5 F3000 		; Lift,;G92 E0			; Reset extrusion distance,,; // From Cura 181010,; // Update 190823 (GueroLoco),; // Update 191005 Autoleveling,; // Update 192029 Modify Cleaning,; // Start_gcode,M117 *Start Clean*		; Indicate nozzle clean in progress on LCD,;,M104 S[extruder0_temperature] ,M109 S[extruder0_temperature] ,M109 R[extruder0_temperature] ,;,M107			; Turn layer fan off,G21			; Set to metric [change to G20 if you want Imperial],G90			; Force coordinates to be absolute relative to the origin,G28			; Home X/Y/Z axis,G29			; Auto-leveling,;,;G1 X3 Y1 Z15 F9000		; Move safe Z height to shear strings,;G0 X1 Y1 Z0.2 F9000		; Move in 1mm from edge and up [z] 0.2mm,;G92 E0			; Set extruder to [0] zero,;G1 X100 E12 F500		; Extrude 30mm filiment along X axis 100mm long to prime and clean the nozzle,;G92 E0			; Reset extruder to [0] zero end of cleaning run,;G1 E-1 F500			; Retract filiment by 1 mm to reduce string effect,;G1 X180 F4000		; Quick wipe away from the filament line / purge,;,G92 E0			; Set Extruder to 0 ,G1 X0 Y0 F2000		; Move X and Y to 0 with speed 2000 (mm/min),G1 Z0.1 F1000		; Move Z to 0.1,G1 X8.0 F2000		; Move X to 8.0,G1 Y60.0 E4.0 F1000.0		; Prime - Move Y to 60 and Extruder with 4.0,G1 Y100.0 E8.5 F1000.0		; Prime - Move Y to 100 and Extruder with 8.5,G92 E0			; Set extruder to 0,M117 *End Clean*		; Indicate nozzle clean in progress on LCD,G1 X16.0 F3000		; Move X to 16.0,G1 Z5 F3000			; Move Z to 5 - Lift,; ,M117 *Printing...*		; start msg,; // Begin printing with sliced GCode after here,;
;   layerChangeGcode,
;   retractionGcode,
;   toolChangeGcode,
;   endingGcode,;,; init 181010,;,;M107 			; Fan off,;G1 E-1 F300 			; Retract the filament a bit before lifting the nozzle,;M104 S0 			; Turn off extruder,;M140 S0 			; Turn off bed,;G91			; Relative positioning,;G28 X0 Y0 			; Move X/Y to min endstops so the head is out of teh way,;M84 			; Disable motors,;G90 			; Absolute positioning,;M117 Print ready...,,;,; // From Cura 181010,; // End_gcode,G92 E0			; Zero the extruded length,;G1 E-30 F300		; Retract E -30,M106 S0			; Turn off cooling fan,M104 S0			; Turn off temperature,M140 S0		     	; Turn off bed,G91			; Relative positioning,G1 E-1 F300			; Retract the filament a bit before lifting the nozzle to release some of the pressure,G1 Z+20 E-5 X-20 Y-20 F7200	; Move Z up a bit and retract filament even more,G1 X0 Y150 F10000		; Move right min,M107			; Turn off layer fan,M84			; Disable motors,G90			; Absolute positioning,M117 *The-End* 		; End msg,;,
;   exportFileFormat,gcode
;   celebration,0
;   celebrationSong,Star Wars
;   postProcessing,
;   defaultSpeed,1800
;   outlineUnderspeed,0.5
;   solidInfillUnderspeed,0.8
;   supportUnderspeed,0.8
;   rapidXYspeed,6000
;   rapidZspeed,1002
;   minBridgingArea,50
;   bridgingExtraInflation,0.2
;   bridgingExtrusionMultiplier,1
;   bridgingSpeedMultiplier,0.6
;   useFixedBridgingAngle,0
;   fixedBridgingAngle,0
;   applyBridgingToPerimeters,0
;   filamentDiameters,1.75|1.75|1.75|1.75|1.75|1.75
;   filamentPricesPerKg,30|46|46|46|46|46
;   filamentDensities,1.25|1.25|1.25|1.25|1.25|1.25
;   useMinPrintHeight,0
;   minPrintHeight,0
;   useMaxPrintHeight,0
;   maxPrintHeight,9
;   useDiaphragm,0
;   diaphragmLayerInterval,20
;   robustSlicing,1
;   mergeAllIntoSolid,0
;   onlyRetractWhenCrossingOutline,1
;   retractBetweenLayers,1
;   useRetractionMinTravel,1
;   retractionMinTravel,3
;   retractWhileWiping,1
;   onlyWipeOutlines,1
;   avoidCrossingOutline,1
;   maxMovementDetourFactor,3
;   toolChangeRetractionDistance,12
;   toolChangeExtraRestartDistance,-0.5
;   toolChangeRetractionSpeed,600
;   externalThinWallType,1
;   internalThinWallType,1
;   thinWallAllowedOverlapPercentage,15
;   singleExtrusionMinLength,1
;   singleExtrusionMinPrintingWidthPercentage,50
;   singleExtrusionMaxPrintingWidthPercentage,200
;   singleExtrusionEndpointExtension,0.2
;   horizontalSizeCompensation,0
G90
M82
M106 S0
M140 S60
M190 S60
;Init 181010
;G28 			; Home all axes
;G1 Z5 F3000 		; Lift
;G92 E0			; Reset extrusion distance
; // From Cura 181010
; // Update 190823 (GueroLoco)
; // Update 191005 Autoleveling
; // Update 192029 Modify Cleaning
; // Start_gcode
M117 *Start Clean*		; Indicate nozzle clean in progress on LCD
;
M104 S215 
M109 S215 
M109 R215 
;
M107			; Turn layer fan off
G21			; Set to metric [change to G20 if you want Imperial]
G90			; Force coordinates to be absolute relative to the origin
G28			; Home X/Y/Z axis
G29			; Auto-leveling
;
;G1 X3 Y1 Z15 F9000		; Move safe Z height to shear strings
;G0 X1 Y1 Z0.2 F9000		; Move in 1mm from edge and up [z] 0.2mm
;G92 E0			; Set extruder to [0] zero
;G1 X100 E12 F500		; Extrude 30mm filiment along X axis 100mm long to prime and clean the nozzle
;G92 E0			; Reset extruder to [0] zero end of cleaning run
;G1 E-1 F500			; Retract filiment by 1 mm to reduce string effect
;G1 X180 F4000		; Quick wipe away from the filament line / purge
;
G92 E0			; Set Extruder to 0 
G1 X0 Y0 F2000		; Move X and Y to 0 with speed 2000 (mm/min)
G1 Z0.1 F1000		; Move Z to 0.1
G1 X8.0 F2000		; Move X to 8.0
G1 Y60.0 E4.0 F1000.0		; Prime - Move Y to 60 and Extruder with 4.0
G1 Y100.0 E8.5 F1000.0		; Prime - Move Y to 100 and Extruder with 8.5
G92 E0			; Set extruder to 0
M117 *End Clean*		; Indicate nozzle clean in progress on LCD
G1 X16.0 F3000		; Move X to 16.0
G1 Z5 F3000			; Move Z to 5 - Lift
; 
M117 *Printing...*		; start msg
; // Begin printing with sliced GCode after here
;
; process Process01
; layer 1, Z = 0.180
T0
G92 E0.0000
G1 E-3.8000 F3000
; feature skirt
; tool H0.180 W0.350
G1 Z0.300 F1002
G1 X120.538 Y16.075 F6000
G1 Z0.180 F1002
G1 E0.0000 F3000
G92 E0.0000
G1 X120.538 Y18.521 E0.0609 F900
G1 X153.675 Y18.521 E0.8854
G1 X153.892 Y18.611 E0.8912
G1 X165.648 Y18.611 E1.1838
G1 X165.928 Y18.891 E1.1936
G1 X172.854 Y18.891 E1.3660
G1 X174.538 Y20.575 E1.4252
G1 X174.538 Y32.397 E1.7194
G1 X172.854 Y34.081 E1.7786
G1 X165.928 Y34.081 E1.9510
G1 X165.648 Y34.361 E1.9608
G1 X153.892 Y34.361 E2.2533
G1 X153.675 Y34.451 E2.2592
G1 X120.538 Y34.451 E3.0837
G1 X120.538 Y36.897 E3.1446
G1 X118.854 Y38.581 E3.2039
G1 X93.532 Y38.581 E3.8339
G1 X91.848 Y36.897 E3.8932
G1 X91.848 Y16.075 E4.4113
G1 X93.532 Y14.391 E4.4706
G1 X118.854 Y14.391 E5.1006
G1 X120.538 Y16.075 E5.1599
G92 E0.0000
G1 E-3.8000 F3000
G1 Z0.480 F1002
G1 X121.624 Y21.571 F6000
G1 X130.737 Y21.571
G1 X148.979 Y31.401
G1 X153.030 Y31.401
G1 X153.822 Y34.011
G1 Z0.180 F1002
G1 E0.0000 F3000
G92 E0.0000
G1 X153.605 Y34.101 E0.0059 F900
G1 X120.188 Y34.101 E0.8374
G1 X120.188 Y36.752 E0.9033
G1 X118.709 Y38.231 E0.9554
G1 X93.677 Y38.231 E1.5782
G1 X92.198 Y36.752 E1.6303
G1 X92.198 Y16.220 E2.1412
G1 X93.677 Y14.741 E2.1932
G1 X118.709 Y14.741 E2.8161
G1 X120.188 Y16.220 E2.8681
G1 X120.188 Y18.871 E2.9341
G1 X153.605 Y18.871 E3.7656
G1 X153.822 Y18.961 E3.7715
G1 X165.503 Y18.961 E4.0621
G1 X165.783 Y19.241 E4.0720
G1 X172.709 Y19.241 E4.2443
G1 X174.188 Y20.720 E4.2963
G1 X174.188 Y32.252 E4.5833
G1 X172.709 Y33.731 E4.6353
G1 X165.783 Y33.731 E4.8077
G1 X165.503 Y34.011 E4.8175
G1 X153.822 Y34.011 E5.1082
G92 E0.0000
G1 E-3.8000 F3000
G1 Z0.480 F1002
G1 X153.753 Y19.311 F6000
G1 Z0.180 F1002
G1 E0.0000 F3000
G92 E0.0000
G1 X165.358 Y19.311 E0.2888 F900
G1 X165.730 Y19.683 E0.3019
G1 X165.822 Y19.591 E0.3051
G1 X172.564 Y19.591 E0.4729
G1 X173.838 Y20.865 E0.5177
G1 X173.838 Y32.107 E0.7974
G1 X172.564 Y33.381 E0.8422
G1 X165.822 Y33.381 E1.0100
G1 X165.730 Y33.289 E1.0132
G1 X165.358 Y33.661 E1.0263
G1 X153.753 Y33.661 E1.3151
G1 X153.536 Y33.751 E1.3209
G1 X120.345 Y33.751 E2.1468
G1 X120.054 Y33.381 E2.1585
G1 X119.838 Y33.381 E2.1639
G1 X119.838 Y36.607 E2.2442
G1 X118.564 Y37.881 E2.2890
G1 X93.822 Y37.881 E2.9047
G1 X92.548 Y36.607 E2.9495
G1 X92.548 Y16.365 E3.4532
G1 X93.822 Y15.091 E3.4980
G1 X118.564 Y15.091 E4.1136
G1 X119.838 Y16.365 E4.1585
G1 X119.838 Y19.591 E4.2387
G1 X120.054 Y19.591 E4.2441
G1 X120.345 Y19.221 E4.2558
G1 X153.536 Y19.221 E5.0817
G1 X153.753 Y19.311 E5.0876
G92 E0.0000
G1 E-3.8000 F3000
; feature outer perimeter
G1 Z0.480 F1002
G1 X153.030 Y21.571 F6000
G1 X132.490 Y21.571
G1 X121.898 Y22.697
G1 Z0.180 F1002
G1 E0.0000 F3000
G92 E0.0000
G1 X121.624 Y21.571 E0.0288 F450
G1 X153.030 Y21.571 E0.8103
G1 X153.120 Y21.661 E0.8135
G1 X164.282 Y21.661 E1.0912
G1 X164.282 Y31.311 E1.3313
G1 X153.120 Y31.311 E1.6091
G1 X153.030 Y31.401 E1.6122
G1 X121.624 Y31.401 E2.3937
G1 X121.898 Y30.275 E2.4225
G1 X122.109 Y29.018 E2.4542
G1 X122.236 Y27.750 E2.4860
G1 X122.278 Y26.476 E2.5177
G1 X122.236 Y25.223 E2.5489
G1 X122.109 Y23.955 E2.5806
G1 X121.898 Y22.697 E2.6123
; feature inner perimeter
G1 X122.241 Y22.627 F6000
G92 E0.0000
G1 X122.070 Y21.921 E0.0181 F675
G1 X152.885 Y21.921 E0.7848
G1 X152.975 Y22.011 E0.7880
G1 X163.932 Y22.011 E1.0606
G1 X163.932 Y30.961 E1.2833
G1 X152.975 Y30.961 E1.5560
G1 X152.885 Y31.051 E1.5591
G1 X122.070 Y31.051 E2.3259
G1 X122.241 Y30.346 E2.3440
G1 X122.456 Y29.064 E2.3763
G1 X122.585 Y27.773 E2.4086
G1 X122.628 Y26.475 E2.4409
G1 X122.585 Y25.200 E2.4727
G1 X122.456 Y23.908 E2.5050
G1 X122.241 Y22.627 E2.5373
G1 X122.584 Y22.556 F6000
G92 E0.0000
G1 X122.515 Y22.271 E0.0073 F675
G1 X152.740 Y22.271 E0.7594
G1 X152.830 Y22.361 E0.7626
G1 X163.582 Y22.361 E1.0301
G1 X163.582 Y30.611 E1.2354
G1 X152.830 Y30.611 E1.5029
G1 X152.740 Y30.701 E1.5061
G1 X122.515 Y30.701 E2.2582
G1 X122.584 Y30.416 E2.2655
G1 X122.803 Y29.111 E2.2984
G1 X122.935 Y27.796 E2.3313
G1 X122.978 Y26.475 E2.3642
G1 X122.935 Y25.176 E2.3965
G1 X122.803 Y23.862 E2.4294
G1 X122.584 Y22.556 E2.4623
; feature solid layer
G1 X122.888 Y22.569 F6000
G92 E0.0000
G1 X152.617 Y22.569 E0.7397 F720
G1 X152.707 Y22.659 E0.7429
G1 X163.285 Y22.659 E1.0061
G1 X163.285 Y30.314 E1.1966
G1 X152.707 Y30.314 E1.4598
G1 X152.617 Y30.404 E1.4629
G1 X122.888 Y30.404 E2.2027
G1 X123.098 Y29.150 E2.2343
G1 X123.232 Y27.816 E2.2677
G1 X123.276 Y26.475 E2.3011
G1 X123.232 Y25.157 E2.3339
G1 X123.098 Y23.822 E2.3673
G1 X122.888 Y22.569 E2.3989
G1 X123.302 Y22.919 F6000
G92 E0.0000
G1 X152.472 Y22.919 E0.7258 F720
G1 X152.562 Y23.009 E0.7290
G1 X162.935 Y23.009 E0.9871
G1 X162.935 Y29.964 E1.1602
G1 X152.562 Y29.964 E1.4183
G1 X152.472 Y30.054 E1.4214
G1 X123.302 Y30.054 E2.1473
G1 X123.446 Y29.197 E2.1689
G1 X123.581 Y27.839 E2.2029
G1 X123.626 Y26.475 E2.2368
G1 X123.581 Y25.133 E2.2702
G1 X123.446 Y23.776 E2.3042
G1 X123.302 Y22.919 E2.3258
G1 X123.715 Y23.269 F6000
G92 E0.0000
G1 X152.327 Y23.269 E0.7119 F720
G1 X152.417 Y23.359 E0.7151
G1 X162.585 Y23.359 E0.9681
G1 X162.585 Y29.614 E1.1237
G1 X152.417 Y29.614 E1.3767
G1 X152.327 Y29.704 E1.3799
G1 X123.715 Y29.704 E2.0918
G1 X123.793 Y29.243 E2.1035
G1 X123.931 Y27.862 E2.1380
G1 X123.976 Y26.475 E2.1725
G1 X123.931 Y25.110 E2.2065
G1 X123.793 Y23.729 E2.2410
G1 X123.715 Y23.269 E2.2527
G1 X124.129 Y23.619 F6000
G92 E0.0000
G1 X152.182 Y23.619 E0.6980 F720
G1 X152.272 Y23.709 E0.7012
G1 X162.235 Y23.709 E0.9491
G1 X162.235 Y29.264 E1.0873
G1 X152.272 Y29.264 E1.3352
G1 X152.182 Y29.354 E1.3384
G1 X124.129 Y29.354 E2.0364
G1 X124.140 Y29.290 E2.0380
G1 X124.280 Y27.885 E2.0732
G1 X124.326 Y26.475 E2.1083
G1 X124.280 Y25.087 E2.1428
G1 X124.140 Y23.683 E2.1779
G1 X124.129 Y23.619 E2.1796
G1 X124.520 Y23.969 F6000
G92 E0.0000
G1 X152.037 Y23.969 E0.6847 F720
G1 X152.127 Y24.059 E0.6879
G1 X161.885 Y24.059 E0.9307
G1 X161.885 Y28.914 E1.0515
G1 X152.127 Y28.914 E1.2943
G1 X152.037 Y29.004 E1.2974
G1 X124.520 Y29.004 E1.9821
G1 X124.630 Y27.908 E2.0095
G1 X124.677 Y26.475 E2.0452
G1 X124.630 Y25.064 E2.0803
G1 X124.520 Y23.969 E2.1077
G1 X124.907 Y24.319 F6000
G92 E0.0000
G1 X151.892 Y24.319 E0.6715 F720
G1 X151.982 Y24.409 E0.6746
G1 X161.535 Y24.409 E0.9123
G1 X161.535 Y28.564 E1.0157
G1 X151.982 Y28.564 E1.2534
G1 X151.892 Y28.654 E1.2566
G1 X124.907 Y28.654 E1.9280
G1 X124.979 Y27.931 E1.9461
G1 X125.027 Y26.475 E1.9824
G1 X124.979 Y25.040 E2.0181
G1 X124.907 Y24.319 E2.0361
G1 X125.294 Y24.669 F6000
G92 E0.0000
G1 X151.747 Y24.669 E0.6582 F720
G1 X151.837 Y24.759 E0.6614
G1 X161.185 Y24.759 E0.8940
G1 X161.185 Y28.214 E0.9800
G1 X151.837 Y28.214 E1.2126
