; G-Code generated by Simplify3D(R) Version 4.1.2
; Oct 30, 2019 at 1:35:28 PM
; Settings Summary
;   processName,Process1
;   applyToModels,HV_1to2_ARM_01cm_Nut
;   profileName,401s Tevo Tornado (experimental)
;   profileVersion,2019-10-29 11:02:25
;   baseProfile,Creality CR-10(2)
;   printMaterial,PLA
;   printQuality,Medium
;   printExtruders,
;   extruderName,Primary Extruder
;   extruderToolheadNumber,0
;   extruderDiameter,0.4
;   extruderAutoWidth,0
;   extruderWidth,0.35
;   extrusionMultiplier,0.95
;   extruderUseRetract,1
;   extruderRetractionDistance,3.8
;   extruderExtraRestartDistance,0
;   extruderRetractionZLift,0.3
;   extruderRetractionSpeed,3000
;   extruderUseCoasting,0
;   extruderCoastingDistance,0.2
;   extruderUseWipe,0
;   extruderWipeDistance,4
;   primaryExtruder,0
;   layerHeight,0.15
;   topSolidLayers,4
;   bottomSolidLayers,3
;   perimeterOutlines,3
;   printPerimetersInsideOut,0
;   startPointOption,1
;   startPointOriginX,0
;   startPointOriginY,300
;   sequentialIslands,0
;   spiralVaseMode,0
;   firstLayerHeightPercentage,120
;   firstLayerWidthPercentage,100
;   firstLayerUnderspeed,0.5
;   useRaft,0
;   raftExtruder,0
;   raftTopLayers,3
;   raftBaseLayers,2
;   raftOffset,3
;   raftSeparationDistance,0.14
;   raftTopInfill,100
;   aboveRaftSpeedMultiplier,0.3
;   useSkirt,1
;   skirtExtruder,0
;   skirtLayers,1
;   skirtOutlines,3
;   skirtOffset,2
;   usePrimePillar,0
;   primePillarExtruder,999
;   primePillarWidth,12
;   primePillarLocation,7
;   primePillarSpeedMultiplier,1
;   useOozeShield,0
;   oozeShieldExtruder,999
;   oozeShieldOffset,2
;   oozeShieldOutlines,1
;   oozeShieldSidewallShape,1
;   oozeShieldSidewallAngle,30
;   oozeShieldSpeedMultiplier,1
;   infillExtruder,0
;   internalInfillPattern,Grid
;   externalInfillPattern,Concentric
;   infillPercentage,25
;   outlineOverlapPercentage,15
;   infillExtrusionWidthPercentage,100
;   minInfillLength,5
;   infillLayerInterval,1
;   internalInfillAngles,45,-45
;   overlapInternalInfillAngles,1
;   externalInfillAngles,45,-45
;   generateSupport,1
;   supportExtruder,0
;   supportInfillPercentage,30
;   supportExtraInflation,0
;   supportBaseLayers,0
;   denseSupportExtruder,0
;   denseSupportLayers,0
;   denseSupportInfillPercentage,70
;   supportLayerInterval,1
;   supportHorizontalPartOffset,0.4
;   supportUpperSeparationLayers,1
;   supportLowerSeparationLayers,1
;   supportType,0
;   supportGridSpacing,4.5
;   maxOverhangAngle,45
;   supportAngles,0
;   temperatureName,Primary Extruder,Heated Bed
;   temperatureNumber,0,0
;   temperatureSetpointCount,2,1
;   temperatureSetpointLayers,1,2,1
;   temperatureSetpointTemperatures,215,210,60
;   temperatureStabilizeAtStartup,1,1
;   temperatureHeatedBed,0,1
;   fanLayers,1,2
;   fanSpeeds,0,100
;   blipFanToFullPower,0
;   adjustSpeedForCooling,1
;   minSpeedLayerTime,15
;   minCoolingSpeedSlowdown,50
;   increaseFanForCooling,1
;   minFanLayerTime,25
;   maxCoolingFanSpeed,100
;   increaseFanForBridging,1
;   bridgingFanSpeed,100
;   use5D,1
;   relativeEdistances,0
;   allowEaxisZeroing,1
;   independentExtruderAxes,0
;   includeM10123,0
;   stickySupport,1
;   applyToolheadOffsets,0
;   gcodeXoffset,0
;   gcodeYoffset,0
;   gcodeZoffset,0
;   overrideMachineDefinition,1
;   machineTypeOverride,0
;   strokeXoverride,300
;   strokeYoverride,300
;   strokeZoverride,400
;   originOffsetXoverride,0
;   originOffsetYoverride,0
;   originOffsetZoverride,0
;   homeXdirOverride,-1
;   homeYdirOverride,-1
;   homeZdirOverride,-1
;   flipXoverride,1
;   flipYoverride,-1
;   flipZoverride,1
;   toolheadOffsets,0,0|0,0|0,0|0,0|0,0|0,0
;   overrideFirmwareConfiguration,1
;   firmwareTypeOverride,RepRap (Marlin/Repetier/Sprinter)
;   GPXconfigOverride,r2
;   baudRateOverride,250000
;   overridePrinterModels,1
;   printerModelsOverride
;   startingGcode,;Init 181010,;G28 			; Home all axes,;G1 Z5 F3000 		; Lift,;G92 E0			; Reset extrusion distance,,; // From Cura 181010,; // Update 190823 (GueroLoco),; // Update 191005 Autoleveling,; // Update 192029 Modify Cleaning,; // Start_gcode,M117 *Start Clean*		; Indicate nozzle clean in progress on LCD,;,M104 S[extruder0_temperature] ,M109 S[extruder0_temperature] ,M109 R[extruder0_temperature] ,;,M107			; Turn layer fan off,G21			; Set to metric [change to G20 if you want Imperial],G90			; Force coordinates to be absolute relative to the origin,G28			; Home X/Y/Z axis,G29			; Auto-leveling,;,;G1 X3 Y1 Z15 F9000		; Move safe Z height to shear strings,;G0 X1 Y1 Z0.2 F9000		; Move in 1mm from edge and up [z] 0.2mm,;G92 E0			; Set extruder to [0] zero,;G1 X100 E12 F500		; Extrude 30mm filiment along X axis 100mm long to prime and clean the nozzle,;G92 E0			; Reset extruder to [0] zero end of cleaning run,;G1 E-1 F500			; Retract filiment by 1 mm to reduce string effect,;G1 X180 F4000		; Quick wipe away from the filament line / purge,;,G92 E0			; Set Extruder to 0 ,G1 X0 Y0 F2000		; Move X and Y to 0 with speed 2000 (mm/min),G1 Z0.1 F1000		; Move Z to 0.1,G1 X8.0 F2000		; Move X to 8.0,G1 Y60.0 E4.0 F1000.0		; Prime - Move Y to 60 and Extruder with 4.0,G1 Y100.0 E8.5 F1000.0		; Prime - Move Y to 100 and Extruder with 8.5,G92 E0			; Set extruder to 0,M117 *End Clean*		; Indicate nozzle clean in progress on LCD,G1 X16.0 F3000		; Move X to 16.0,G1 Z5 F3000			; Move Z to 5 - Lift,; ,M117 *Printing...*		; start msg,; // Begin printing with sliced GCode after here,;
;   layerChangeGcode,
;   retractionGcode,
;   toolChangeGcode,
;   endingGcode,;,; init 181010,;,;M107 			; Fan off,;G1 E-1 F300 			; Retract the filament a bit before lifting the nozzle,;M104 S0 			; Turn off extruder,;M140 S0 			; Turn off bed,;G91			; Relative positioning,;G28 X0 Y0 			; Move X/Y to min endstops so the head is out of teh way,;M84 			; Disable motors,;G90 			; Absolute positioning,;M117 Print ready...,,;,; // From Cura 181010,; // End_gcode,G92 E0			; Zero the extruded length,;G1 E-30 F300		; Retract E -30,M106 S0			; Turn off cooling fan,M104 S0			; Turn off temperature,M140 S0		     	; Turn off bed,G91			; Relative positioning,G1 E-1 F300			; Retract the filament a bit before lifting the nozzle to release some of the pressure,G1 Z+20 E-5 X-20 Y-20 F7200	; Move Z up a bit and retract filament even more,G1 X0 Y150 F10000		; Move right min,M107			; Turn off layer fan,M84			; Disable motors,G90			; Absolute positioning,M117 *The-End* 		; End msg,;,
;   exportFileFormat,gcode
;   celebration,0
;   celebrationSong,Star Wars
;   postProcessing,
;   defaultSpeed,1800
;   outlineUnderspeed,0.5
;   solidInfillUnderspeed,0.8
;   supportUnderspeed,0.8
;   rapidXYspeed,6000
;   rapidZspeed,1002
;   minBridgingArea,50
;   bridgingExtraInflation,0.2
;   bridgingExtrusionMultiplier,1
;   bridgingSpeedMultiplier,0.6
;   useFixedBridgingAngle,0
;   fixedBridgingAngle,0
;   applyBridgingToPerimeters,0
;   filamentDiameters,1.75|1.75|1.75|1.75|1.75|1.75
;   filamentPricesPerKg,30|46|46|46|46|46
;   filamentDensities,1.25|1.25|1.25|1.25|1.25|1.25
;   useMinPrintHeight,0
;   minPrintHeight,0
;   useMaxPrintHeight,0
;   maxPrintHeight,9
;   useDiaphragm,0
;   diaphragmLayerInterval,20
;   robustSlicing,1
;   mergeAllIntoSolid,0
;   onlyRetractWhenCrossingOutline,1
;   retractBetweenLayers,1
;   useRetractionMinTravel,1
;   retractionMinTravel,3
;   retractWhileWiping,1
;   onlyWipeOutlines,1
;   avoidCrossingOutline,1
;   maxMovementDetourFactor,3
;   toolChangeRetractionDistance,12
;   toolChangeExtraRestartDistance,-0.5
;   toolChangeRetractionSpeed,600
;   externalThinWallType,1
;   internalThinWallType,1
;   thinWallAllowedOverlapPercentage,15
;   singleExtrusionMinLength,1
;   singleExtrusionMinPrintingWidthPercentage,50
;   singleExtrusionMaxPrintingWidthPercentage,200
;   singleExtrusionEndpointExtension,0.2
;   horizontalSizeCompensation,0
G90
M82
M106 S0
M140 S60
M190 S60
;Init 181010
;G28 			; Home all axes
;G1 Z5 F3000 		; Lift
;G92 E0			; Reset extrusion distance
; // From Cura 181010
; // Update 190823 (GueroLoco)
; // Update 191005 Autoleveling
; // Update 192029 Modify Cleaning
; // Start_gcode
M117 *Start Clean*		; Indicate nozzle clean in progress on LCD
;
M104 S215 
M109 S215 
M109 R215 
;
M107			; Turn layer fan off
G21			; Set to metric [change to G20 if you want Imperial]
G90			; Force coordinates to be absolute relative to the origin
G28			; Home X/Y/Z axis
G29			; Auto-leveling
;
;G1 X3 Y1 Z15 F9000		; Move safe Z height to shear strings
;G0 X1 Y1 Z0.2 F9000		; Move in 1mm from edge and up [z] 0.2mm
;G92 E0			; Set extruder to [0] zero
;G1 X100 E12 F500		; Extrude 30mm filiment along X axis 100mm long to prime and clean the nozzle
;G92 E0			; Reset extruder to [0] zero end of cleaning run
;G1 E-1 F500			; Retract filiment by 1 mm to reduce string effect
;G1 X180 F4000		; Quick wipe away from the filament line / purge
;
G92 E0			; Set Extruder to 0 
G1 X0 Y0 F2000		; Move X and Y to 0 with speed 2000 (mm/min)
G1 Z0.1 F1000		; Move Z to 0.1
G1 X8.0 F2000		; Move X to 8.0
G1 Y60.0 E4.0 F1000.0		; Prime - Move Y to 60 and Extruder with 4.0
G1 Y100.0 E8.5 F1000.0		; Prime - Move Y to 100 and Extruder with 8.5
G92 E0			; Set extruder to 0
M117 *End Clean*		; Indicate nozzle clean in progress on LCD
G1 X16.0 F3000		; Move X to 16.0
G1 Z5 F3000			; Move Z to 5 - Lift
; 
M117 *Printing...*		; start msg
; // Begin printing with sliced GCode after here
;
; process Process1
; layer 1, Z = 0.180
T0
G92 E0.0000
G1 E-3.8000 F3000
; feature skirt
; tool H0.180 W0.350
G1 Z0.300 F1002
G1 X127.644 Y17.936 F6000
G1 Z0.180 F1002
G1 E0.0000 F3000
G92 E0.0000
G1 X127.760 Y17.945 E0.0029 F900
G1 X128.671 Y18.050 E0.0257
G1 X128.785 Y18.067 E0.0286
G1 X129.678 Y18.243 E0.0512
G1 X129.789 Y18.270 E0.0541
G1 X130.679 Y18.520 E0.0771
G1 X130.790 Y18.556 E0.0800
G1 X131.651 Y18.875 E0.1028
G1 X131.757 Y18.920 E0.1057
G1 X132.582 Y19.303 E0.1283
G1 X132.684 Y19.356 E0.1312
G1 X133.491 Y19.813 E0.1543
G1 X133.595 Y19.877 E0.1573
G1 X133.636 Y19.905 E0.1585
G1 X138.803 Y19.905 E0.2871
G1 X140.310 Y19.254 E0.3279
G1 X140.375 Y19.228 E0.3297
G1 X140.618 Y19.136 E0.3361
G1 X141.849 Y17.905 E0.3795
G1 X154.504 Y17.905 E0.6944
G1 X156.188 Y19.589 E0.7536
G1 X156.188 Y26.771 E0.9323
G1 X156.122 Y26.837 E0.9347
G1 X156.122 Y34.723 E1.1309
G1 X156.188 Y34.789 E1.1332
G1 X156.188 Y41.971 E1.3119
G1 X154.504 Y43.655 E1.3712
G1 X141.849 Y43.655 E1.6861
G1 X140.618 Y42.424 E1.7294
G1 X140.375 Y42.333 E1.7359
G1 X140.310 Y42.306 E1.7376
G1 X138.803 Y41.655 E1.7785
G1 X133.636 Y41.655 E1.9070
G1 X133.595 Y41.683 E1.9083
G1 X133.491 Y41.748 E1.9113
G1 X132.684 Y42.204 E1.9344
G1 X132.582 Y42.257 E1.9372
G1 X131.757 Y42.640 E1.9599
G1 X131.651 Y42.685 E1.9627
G1 X130.790 Y43.004 E1.9856
G1 X130.679 Y43.040 E1.9885
G1 X129.789 Y43.290 E2.0115
G1 X129.678 Y43.317 E2.0143
G1 X128.785 Y43.493 E2.0370
G1 X128.671 Y43.511 E2.0399
G1 X127.759 Y43.615 E2.0627
G1 X127.644 Y43.624 E2.0656
G1 X126.727 Y43.655 E2.0884
G1 X126.611 Y43.654 E2.0913
G1 X125.687 Y43.611 E2.1143
G1 X125.573 Y43.601 E2.1172
G1 X124.670 Y43.487 E2.1398
G1 X124.556 Y43.467 E2.1427
G1 X123.658 Y43.279 E2.1655
G1 X123.546 Y43.251 E2.1684
G1 X122.666 Y42.991 E2.1912
G1 X122.557 Y42.954 E2.1941
G1 X121.701 Y42.625 E2.2169
G1 X121.595 Y42.579 E2.2198
G1 X120.767 Y42.182 E2.2426
G1 X120.665 Y42.128 E2.2455
G1 X119.872 Y41.666 E2.2683
G1 X119.775 Y41.604 E2.2712
G1 X119.022 Y41.080 E2.2940
G1 X118.930 Y41.011 E2.2969
G1 X118.221 Y40.428 E2.3197
G1 X118.135 Y40.351 E2.3226
G1 X117.475 Y39.713 E2.3454
G1 X117.396 Y39.630 E2.3483
G1 X116.789 Y38.942 E2.3711
G1 X116.716 Y38.852 E2.3740
G1 X116.167 Y38.117 E2.3968
G1 X116.101 Y38.022 E2.3997
G1 X115.613 Y37.245 E2.4225
G1 X115.555 Y37.145 E2.4254
G1 X115.130 Y36.332 E2.4482
G1 X115.081 Y36.228 E2.4511
G1 X114.723 Y35.383 E2.4739
G1 X114.682 Y35.275 E2.4768
G1 X114.392 Y34.404 E2.4996
G1 X114.360 Y34.293 E2.5025
G1 X114.142 Y33.402 E2.5254
G1 X114.118 Y33.288 E2.5283
G1 X113.971 Y32.375 E2.5513
G1 X113.958 Y32.261 E2.5541
G1 X113.885 Y31.354 E2.5768
G1 X113.880 Y31.239 E2.5796
G1 X113.880 Y30.321 E2.6025
G1 X113.885 Y30.206 E2.6053
G1 X113.958 Y29.291 E2.6282
G1 X113.972 Y29.177 E2.6310
G1 X114.119 Y28.271 E2.6539
G1 X114.142 Y28.158 E2.6567
G1 X114.360 Y27.267 E2.6796
G1 X114.392 Y27.156 E2.6824
G1 X114.682 Y26.285 E2.7053
G1 X114.723 Y26.177 E2.7081
G1 X115.081 Y25.333 E2.7310
G1 X115.130 Y25.228 E2.7338
G1 X115.555 Y24.415 E2.7567
G1 X115.613 Y24.315 E2.7595
G1 X116.101 Y23.538 E2.7824
G1 X116.167 Y23.443 E2.7852
G1 X116.712 Y22.714 E2.8079
G1 X116.784 Y22.626 E2.8107
G1 X117.395 Y21.931 E2.8337
G1 X117.475 Y21.847 E2.8366
G1 X118.135 Y21.209 E2.8595
G1 X118.221 Y21.132 E2.8624
G1 X118.930 Y20.549 E2.8852
G1 X119.022 Y20.480 E2.8881
G1 X119.775 Y19.956 E2.9109
G1 X119.873 Y19.894 E2.9138
G1 X120.665 Y19.432 E2.9366
G1 X120.767 Y19.378 E2.9395
G1 X121.595 Y18.981 E2.9623
G1 X121.700 Y18.935 E2.9652
G1 X122.557 Y18.606 E2.9880
G1 X122.666 Y18.569 E2.9909
G1 X123.546 Y18.309 E3.0137
G1 X123.658 Y18.281 E3.0166
G1 X124.556 Y18.093 E3.0394
G1 X124.670 Y18.074 E3.0423
G1 X125.573 Y17.959 E3.0649
G1 X125.687 Y17.949 E3.0678
G1 X126.611 Y17.906 E3.0908
G1 X126.727 Y17.905 E3.0937
G1 X127.644 Y17.936 E3.1165
G92 E0.0000
G1 E-3.8000 F3000
G1 Z0.480 F1002
G1 X127.476 Y20.982 F6000
G1 X126.688 Y20.955
G1 X125.933 Y20.991
G1 X117.976 Y35.192
G1 X118.229 Y35.675
G1 X118.648 Y36.343
G1 X116.451 Y37.913
G1 Z0.180 F1002
G1 E0.0000 F3000
G92 E0.0000
G1 X116.394 Y37.829 E0.0025 F900
G1 X115.913 Y37.065 E0.0250
G1 X115.862 Y36.977 E0.0275
G1 X115.444 Y36.176 E0.0500
G1 X115.400 Y36.084 E0.0525
G1 X115.048 Y35.253 E0.0750
G1 X115.012 Y35.158 E0.0775
G1 X114.727 Y34.300 E0.1000
G1 X114.699 Y34.203 E0.1025
G1 X114.483 Y33.325 E0.1250
G1 X114.463 Y33.225 E0.1276
G1 X114.318 Y32.326 E0.1502
G1 X114.306 Y32.226 E0.1527
G1 X114.234 Y31.333 E0.1750
G1 X114.230 Y31.232 E0.1776
G1 X114.230 Y30.328 E0.2000
G1 X114.234 Y30.227 E0.2026
G1 X114.306 Y29.326 E0.2250
G1 X114.319 Y29.226 E0.2276
G1 X114.463 Y28.334 E0.2500
G1 X114.483 Y28.235 E0.2526
G1 X114.699 Y27.357 E0.2750
G1 X114.727 Y27.260 E0.2776
G1 X115.012 Y26.402 E0.3001
G1 X115.048 Y26.308 E0.3026
G1 X115.400 Y25.476 E0.3251
G1 X115.444 Y25.384 E0.3276
G1 X115.862 Y24.583 E0.3501
G1 X115.913 Y24.495 E0.3526
G1 X116.394 Y23.731 E0.3751
G1 X116.451 Y23.647 E0.3776
G1 X116.988 Y22.930 E0.3999
G1 X117.051 Y22.852 E0.4024
G1 X117.653 Y22.168 E0.4250
G1 X117.723 Y22.094 E0.4276
G1 X118.373 Y21.466 E0.4501
G1 X118.449 Y21.398 E0.4526
G1 X119.147 Y20.824 E0.4751
G1 X119.228 Y20.763 E0.4776
G1 X119.969 Y20.247 E0.5001
G1 X120.055 Y20.193 E0.5026
G1 X120.836 Y19.738 E0.5251
G1 X120.925 Y19.690 E0.5276
G1 X121.740 Y19.299 E0.5501
G1 X121.833 Y19.259 E0.5526
G1 X122.676 Y18.935 E0.5751
G1 X122.772 Y18.902 E0.5776
G1 X123.639 Y18.647 E0.6001
G1 X123.737 Y18.622 E0.6026
G1 X124.621 Y18.437 E0.6251
G1 X124.721 Y18.420 E0.6276
G1 X125.610 Y18.307 E0.6499
G1 X125.710 Y18.298 E0.6524
G1 X126.620 Y18.256 E0.6751
G1 X126.722 Y18.255 E0.6776
G1 X127.625 Y18.286 E0.7001
G1 X127.727 Y18.293 E0.7026
G1 X128.624 Y18.396 E0.7251
G1 X128.724 Y18.412 E0.7276
G1 X129.603 Y18.585 E0.7499
G1 X129.701 Y18.609 E0.7524
G1 X130.578 Y18.855 E0.7751
G1 X130.675 Y18.887 E0.7776
G1 X131.523 Y19.201 E0.8001
G1 X131.616 Y19.240 E0.8027
G1 X132.428 Y19.618 E0.8250
G1 X132.518 Y19.664 E0.8275
G1 X133.312 Y20.114 E0.8502
G1 X133.403 Y20.170 E0.8528
G1 X133.527 Y20.255 E0.8566
G1 X138.876 Y20.255 E0.9897
G1 X140.445 Y19.577 E1.0322
G1 X140.502 Y19.554 E1.0337
G1 X140.812 Y19.437 E1.0420
G1 X141.994 Y18.255 E1.0836
G1 X154.359 Y18.255 E1.3912
G1 X155.838 Y19.734 E1.4433
G1 X155.838 Y26.626 E1.6148
G1 X155.772 Y26.693 E1.6171
G1 X155.772 Y34.868 E1.8205
G1 X155.838 Y34.934 E1.8229
G1 X155.838 Y41.826 E1.9944
G1 X154.359 Y43.305 E2.0464
G1 X141.994 Y43.305 E2.3541
G1 X140.812 Y42.123 E2.3957
G1 X140.502 Y42.006 E2.4040
G1 X140.445 Y41.983 E2.4055
G1 X138.876 Y41.305 E2.4480
G1 X133.527 Y41.305 E2.5811
G1 X133.403 Y41.390 E2.5848
G1 X133.313 Y41.447 E2.5875
G1 X132.518 Y41.896 E2.6102
