; G-Code generated by Simplify3D(R) Version 4.1.2
; Nov 2, 2019 at 5:55:53 PM
; Settings Summary
;   processName,Process1
;   applyToModels,HV_1to2_ARM_01cm_Nut
;   profileName,401s Tevo Tornado (experimental)
;   profileVersion,2019-10-29 11:02:25
;   baseProfile,Creality CR-10(2)
;   printMaterial,PLA
;   printQuality,Medium
;   printExtruders,
;   extruderName,Primary Extruder
;   extruderToolheadNumber,0
;   extruderDiameter,0.4
;   extruderAutoWidth,0
;   extruderWidth,0.35
;   extrusionMultiplier,0.95
;   extruderUseRetract,1
;   extruderRetractionDistance,3.8
;   extruderExtraRestartDistance,0
;   extruderRetractionZLift,0.3
;   extruderRetractionSpeed,3000
;   extruderUseCoasting,0
;   extruderCoastingDistance,0.2
;   extruderUseWipe,0
;   extruderWipeDistance,4
;   primaryExtruder,0
;   layerHeight,0.15
;   topSolidLayers,4
;   bottomSolidLayers,3
;   perimeterOutlines,3
;   printPerimetersInsideOut,0
;   startPointOption,1
;   startPointOriginX,0
;   startPointOriginY,300
;   sequentialIslands,0
;   spiralVaseMode,0
;   firstLayerHeightPercentage,120
;   firstLayerWidthPercentage,100
;   firstLayerUnderspeed,0.5
;   useRaft,0
;   raftExtruder,0
;   raftTopLayers,3
;   raftBaseLayers,2
;   raftOffset,3
;   raftSeparationDistance,0.14
;   raftTopInfill,100
;   aboveRaftSpeedMultiplier,0.3
;   useSkirt,1
;   skirtExtruder,0
;   skirtLayers,1
;   skirtOutlines,3
;   skirtOffset,2
;   usePrimePillar,0
;   primePillarExtruder,999
;   primePillarWidth,12
;   primePillarLocation,7
;   primePillarSpeedMultiplier,1
;   useOozeShield,0
;   oozeShieldExtruder,999
;   oozeShieldOffset,2
;   oozeShieldOutlines,1
;   oozeShieldSidewallShape,1
;   oozeShieldSidewallAngle,30
;   oozeShieldSpeedMultiplier,1
;   infillExtruder,0
;   internalInfillPattern,Grid
;   externalInfillPattern,Concentric
;   infillPercentage,25
;   outlineOverlapPercentage,15
;   infillExtrusionWidthPercentage,100
;   minInfillLength,5
;   infillLayerInterval,1
;   internalInfillAngles,45,-45
;   overlapInternalInfillAngles,1
;   externalInfillAngles,45,-45
;   generateSupport,1
;   supportExtruder,0
;   supportInfillPercentage,30
;   supportExtraInflation,0
;   supportBaseLayers,0
;   denseSupportExtruder,0
;   denseSupportLayers,0
;   denseSupportInfillPercentage,70
;   supportLayerInterval,1
;   supportHorizontalPartOffset,0.4
;   supportUpperSeparationLayers,1
;   supportLowerSeparationLayers,1
;   supportType,0
;   supportGridSpacing,4.5
;   maxOverhangAngle,45
;   supportAngles,0
;   temperatureName,Primary Extruder,Heated Bed
;   temperatureNumber,0,0
;   temperatureSetpointCount,2,1
;   temperatureSetpointLayers,1,2,1
;   temperatureSetpointTemperatures,215,210,60
;   temperatureStabilizeAtStartup,1,1
;   temperatureHeatedBed,0,1
;   fanLayers,1,2
;   fanSpeeds,0,100
;   blipFanToFullPower,0
;   adjustSpeedForCooling,1
;   minSpeedLayerTime,15
;   minCoolingSpeedSlowdown,50
;   increaseFanForCooling,1
;   minFanLayerTime,25
;   maxCoolingFanSpeed,100
;   increaseFanForBridging,1
;   bridgingFanSpeed,100
;   use5D,1
;   relativeEdistances,0
;   allowEaxisZeroing,1
;   independentExtruderAxes,0
;   includeM10123,0
;   stickySupport,1
;   applyToolheadOffsets,0
;   gcodeXoffset,0
;   gcodeYoffset,0
;   gcodeZoffset,0
;   overrideMachineDefinition,1
;   machineTypeOverride,0
;   strokeXoverride,300
;   strokeYoverride,300
;   strokeZoverride,400
;   originOffsetXoverride,0
;   originOffsetYoverride,0
;   originOffsetZoverride,0
;   homeXdirOverride,-1
;   homeYdirOverride,-1
;   homeZdirOverride,-1
;   flipXoverride,1
;   flipYoverride,-1
;   flipZoverride,1
;   toolheadOffsets,0,0|0,0|0,0|0,0|0,0|0,0
;   overrideFirmwareConfiguration,1
;   firmwareTypeOverride,RepRap (Marlin/Repetier/Sprinter)
;   GPXconfigOverride,r2
;   baudRateOverride,250000
;   overridePrinterModels,1
;   printerModelsOverride
;   startingGcode,;Init 181010,;G28 			; Home all axes,;G1 Z5 F3000 		; Lift,;G92 E0			; Reset extrusion distance,,; // From Cura 181010,; // Update 190823 (GueroLoco),; // Update 191005 Autoleveling,; // Update 192029 Modify Cleaning,; // Start_gcode,M117 *Start Clean*		; Indicate nozzle clean in progress on LCD,;,M104 S[extruder0_temperature] ,M109 S[extruder0_temperature] ,M109 R[extruder0_temperature] ,;,M107			; Turn layer fan off,G21			; Set to metric [change to G20 if you want Imperial],G90			; Force coordinates to be absolute relative to the origin,G28			; Home X/Y/Z axis,G29			; Auto-leveling,;,;G1 X3 Y1 Z15 F9000		; Move safe Z height to shear strings,;G0 X1 Y1 Z0.2 F9000		; Move in 1mm from edge and up [z] 0.2mm,;G92 E0			; Set extruder to [0] zero,;G1 X100 E12 F500		; Extrude 30mm filiment along X axis 100mm long to prime and clean the nozzle,;G92 E0			; Reset extruder to [0] zero end of cleaning run,;G1 E-1 F500			; Retract filiment by 1 mm to reduce string effect,;G1 X180 F4000		; Quick wipe away from the filament line / purge,;,G92 E0			; Set Extruder to 0 ,G1 X0 Y0 F2000		; Move X and Y to 0 with speed 2000 (mm/min),G1 Z0.1 F1000		; Move Z to 0.1,G1 X8.0 F2000		; Move X to 8.0,G1 Y60.0 E4.0 F1000.0		; Prime - Move Y to 60 and Extruder with 4.0,G1 Y100.0 E8.5 F1000.0		; Prime - Move Y to 100 and Extruder with 8.5,G92 E0			; Set extruder to 0,M117 *End Clean*		; Indicate nozzle clean in progress on LCD,G1 X16.0 F3000		; Move X to 16.0,G1 Z5 F3000			; Move Z to 5 - Lift,; ,M117 *Printing...*		; start msg,; // Begin printing with sliced GCode after here,;
;   layerChangeGcode,
;   retractionGcode,
;   toolChangeGcode,
;   endingGcode,;,; init 181010,;,;M107 			; Fan off,;G1 E-1 F300 			; Retract the filament a bit before lifting the nozzle,;M104 S0 			; Turn off extruder,;M140 S0 			; Turn off bed,;G91			; Relative positioning,;G28 X0 Y0 			; Move X/Y to min endstops so the head is out of teh way,;M84 			; Disable motors,;G90 			; Absolute positioning,;M117 Print ready...,,;,; // From Cura 181010,; // End_gcode,G92 E0			; Zero the extruded length,;G1 E-30 F300		; Retract E -30,M106 S0			; Turn off cooling fan,M104 S0			; Turn off temperature,M140 S0		     	; Turn off bed,G91			; Relative positioning,G1 E-1 F300			; Retract the filament a bit before lifting the nozzle to release some of the pressure,G1 Z+20 E-5 X-20 Y-20 F7200	; Move Z up a bit and retract filament even more,G1 X0 Y150 F10000		; Move right min,M107			; Turn off layer fan,M84			; Disable motors,G90			; Absolute positioning,M117 *The-End* 		; End msg,;,
;   exportFileFormat,gcode
;   celebration,0
;   celebrationSong,Star Wars
;   postProcessing,
;   defaultSpeed,1800
;   outlineUnderspeed,0.5
;   solidInfillUnderspeed,0.8
;   supportUnderspeed,0.8
;   rapidXYspeed,6000
;   rapidZspeed,1002
;   minBridgingArea,50
;   bridgingExtraInflation,0.2
;   bridgingExtrusionMultiplier,1
;   bridgingSpeedMultiplier,0.6
;   useFixedBridgingAngle,0
;   fixedBridgingAngle,0
;   applyBridgingToPerimeters,0
;   filamentDiameters,1.75|1.75|1.75|1.75|1.75|1.75
;   filamentPricesPerKg,30|46|46|46|46|46
;   filamentDensities,1.25|1.25|1.25|1.25|1.25|1.25
;   useMinPrintHeight,0
;   minPrintHeight,0
;   useMaxPrintHeight,0
;   maxPrintHeight,9
;   useDiaphragm,0
;   diaphragmLayerInterval,20
;   robustSlicing,1
;   mergeAllIntoSolid,0
;   onlyRetractWhenCrossingOutline,1
;   retractBetweenLayers,1
;   useRetractionMinTravel,1
;   retractionMinTravel,3
;   retractWhileWiping,1
;   onlyWipeOutlines,1
;   avoidCrossingOutline,1
;   maxMovementDetourFactor,3
;   toolChangeRetractionDistance,12
;   toolChangeExtraRestartDistance,-0.5
;   toolChangeRetractionSpeed,600
;   externalThinWallType,1
;   internalThinWallType,1
;   thinWallAllowedOverlapPercentage,15
;   singleExtrusionMinLength,1
;   singleExtrusionMinPrintingWidthPercentage,50
;   singleExtrusionMaxPrintingWidthPercentage,200
;   singleExtrusionEndpointExtension,0.2
;   horizontalSizeCompensation,0
G90
M82
M106 S0
M140 S60
M190 S60
;Init 181010
;G28 			; Home all axes
;G1 Z5 F3000 		; Lift
;G92 E0			; Reset extrusion distance
; // From Cura 181010
; // Update 190823 (GueroLoco)
; // Update 191005 Autoleveling
; // Update 192029 Modify Cleaning
; // Start_gcode
M117 *Start Clean*		; Indicate nozzle clean in progress on LCD
;
M104 S215 
M109 S215 
M109 R215 
;
M107			; Turn layer fan off
G21			; Set to metric [change to G20 if you want Imperial]
G90			; Force coordinates to be absolute relative to the origin
G28			; Home X/Y/Z axis
G29			; Auto-leveling
;
;G1 X3 Y1 Z15 F9000		; Move safe Z height to shear strings
;G0 X1 Y1 Z0.2 F9000		; Move in 1mm from edge and up [z] 0.2mm
;G92 E0			; Set extruder to [0] zero
;G1 X100 E12 F500		; Extrude 30mm filiment along X axis 100mm long to prime and clean the nozzle
;G92 E0			; Reset extruder to [0] zero end of cleaning run
;G1 E-1 F500			; Retract filiment by 1 mm to reduce string effect
;G1 X180 F4000		; Quick wipe away from the filament line / purge
;
G92 E0			; Set Extruder to 0 
G1 X0 Y0 F2000		; Move X and Y to 0 with speed 2000 (mm/min)
G1 Z0.1 F1000		; Move Z to 0.1
G1 X8.0 F2000		; Move X to 8.0
G1 Y60.0 E4.0 F1000.0		; Prime - Move Y to 60 and Extruder with 4.0
G1 Y100.0 E8.5 F1000.0		; Prime - Move Y to 100 and Extruder with 8.5
G92 E0			; Set extruder to 0
M117 *End Clean*		; Indicate nozzle clean in progress on LCD
G1 X16.0 F3000		; Move X to 16.0
G1 Z5 F3000			; Move Z to 5 - Lift
; 
M117 *Printing...*		; start msg
; // Begin printing with sliced GCode after here
;
; process Process1
; layer 1, Z = 0.180
T0
G92 E0.0000
G1 E-3.8000 F3000
; feature skirt
; tool H0.180 W0.350
G1 Z0.300 F1002
G1 X131.694 Y95.433 F6000
G1 Z0.180 F1002
G1 E0.0000 F3000
G92 E0.0000
G1 X131.809 Y95.442 E0.0029 F900
G1 X132.720 Y95.547 E0.0257
G1 X132.834 Y95.564 E0.0286
G1 X133.727 Y95.740 E0.0512
G1 X133.838 Y95.767 E0.0541
G1 X134.729 Y96.017 E0.0771
G1 X134.839 Y96.053 E0.0800
G1 X135.700 Y96.373 E0.1028
G1 X135.807 Y96.417 E0.1057
G1 X136.632 Y96.801 E0.1283
G1 X136.733 Y96.853 E0.1312
G1 X137.541 Y97.310 E0.1543
G1 X137.644 Y97.374 E0.1573
G1 X137.685 Y97.402 E0.1585
G1 X142.853 Y97.402 E0.2871
G1 X144.359 Y96.751 E0.3279
G1 X144.424 Y96.725 E0.3297
G1 X144.667 Y96.633 E0.3361
G1 X145.898 Y95.402 E0.3795
G1 X158.554 Y95.402 E0.6944
G1 X160.238 Y97.086 E0.7536
G1 X160.238 Y104.268 E0.9323
G1 X160.171 Y104.335 E0.9347
G1 X160.171 Y112.220 E1.1309
G1 X160.238 Y112.286 E1.1332
G1 X160.238 Y119.468 E1.3119
G1 X158.554 Y121.152 E1.3712
G1 X145.898 Y121.152 E1.6861
G1 X144.667 Y119.921 E1.7294
G1 X144.424 Y119.830 E1.7359
G1 X144.359 Y119.804 E1.7376
G1 X142.853 Y119.152 E1.7785
G1 X137.685 Y119.152 E1.9070
G1 X137.644 Y119.180 E1.9083
G1 X137.541 Y119.245 E1.9113
G1 X136.733 Y119.701 E1.9344
G1 X136.632 Y119.754 E1.9372
G1 X135.807 Y120.137 E1.9599
G1 X135.700 Y120.182 E1.9627
G1 X134.839 Y120.501 E1.9856
G1 X134.729 Y120.537 E1.9885
G1 X133.838 Y120.787 E2.0115
G1 X133.727 Y120.814 E2.0143
G1 X132.834 Y120.990 E2.0370
G1 X132.720 Y121.008 E2.0399
G1 X131.809 Y121.112 E2.0627
G1 X131.694 Y121.121 E2.0656
G1 X130.776 Y121.152 E2.0884
G1 X130.660 Y121.152 E2.0913
G1 X129.736 Y121.108 E2.1143
G1 X129.622 Y121.098 E2.1172
G1 X128.719 Y120.984 E2.1398
G1 X128.606 Y120.965 E2.1427
G1 X127.708 Y120.776 E2.1655
G1 X127.596 Y120.748 E2.1684
G1 X126.716 Y120.489 E2.1912
G1 X126.606 Y120.451 E2.1941
G1 X125.750 Y120.122 E2.2169
G1 X125.644 Y120.076 E2.2198
G1 X124.817 Y119.679 E2.2426
G1 X124.715 Y119.625 E2.2455
G1 X123.922 Y119.163 E2.2683
G1 X123.825 Y119.101 E2.2712
G1 X123.071 Y118.577 E2.2940
G1 X122.979 Y118.508 E2.2969
G1 X122.271 Y117.925 E2.3197
G1 X122.184 Y117.848 E2.3226
G1 X121.525 Y117.210 E2.3454
G1 X121.445 Y117.127 E2.3483
G1 X120.838 Y116.439 E2.3711
G1 X120.766 Y116.349 E2.3740
G1 X120.216 Y115.614 E2.3968
G1 X120.151 Y115.519 E2.3997
G1 X119.662 Y114.742 E2.4225
G1 X119.605 Y114.642 E2.4254
G1 X119.180 Y113.829 E2.4482
G1 X119.130 Y113.725 E2.4511
G1 X118.772 Y112.880 E2.4739
G1 X118.731 Y112.772 E2.4768
G1 X118.442 Y111.901 E2.4996
G1 X118.410 Y111.790 E2.5025
G1 X118.191 Y110.899 E2.5254
G1 X118.168 Y110.785 E2.5283
G1 X118.021 Y109.872 E2.5513
G1 X118.007 Y109.758 E2.5541
G1 X117.934 Y108.851 E2.5768
G1 X117.929 Y108.736 E2.5796
G1 X117.929 Y107.818 E2.6025
G1 X117.934 Y107.703 E2.6053
G1 X118.008 Y106.788 E2.6282
G1 X118.021 Y106.674 E2.6310
G1 X118.168 Y105.768 E2.6539
G1 X118.191 Y105.655 E2.6567
G1 X118.410 Y104.764 E2.6796
G1 X118.442 Y104.653 E2.6824
G1 X118.731 Y103.782 E2.7053
G1 X118.772 Y103.674 E2.7081
G1 X119.130 Y102.830 E2.7310
G1 X119.180 Y102.725 E2.7338
G1 X119.605 Y101.912 E2.7567
G1 X119.662 Y101.812 E2.7595
G1 X120.151 Y101.035 E2.7824
G1 X120.216 Y100.940 E2.7852
G1 X120.761 Y100.212 E2.8079
G1 X120.833 Y100.123 E2.8107
G1 X121.444 Y99.428 E2.8337
G1 X121.524 Y99.344 E2.8366
G1 X122.184 Y98.706 E2.8595
G1 X122.271 Y98.629 E2.8624
G1 X122.979 Y98.047 E2.8852
G1 X123.071 Y97.977 E2.8881
G1 X123.825 Y97.453 E2.9109
G1 X123.922 Y97.391 E2.9138
G1 X124.715 Y96.929 E2.9366
G1 X124.817 Y96.875 E2.9395
G1 X125.644 Y96.478 E2.9623
G1 X125.750 Y96.432 E2.9652
G1 X126.606 Y96.103 E2.9880
G1 X126.716 Y96.066 E2.9909
G1 X127.596 Y95.806 E3.0137
G1 X127.708 Y95.778 E3.0166
G1 X128.606 Y95.590 E3.0394
G1 X128.719 Y95.571 E3.0423
G1 X129.622 Y95.456 E3.0649
G1 X129.736 Y95.446 E3.0678
G1 X130.660 Y95.403 E3.0908
G1 X130.776 Y95.402 E3.0937
G1 X131.694 Y95.433 E3.1165
G92 E0.0000
G1 E-3.8000 F3000
G1 Z0.480 F1002
G1 X131.525 Y98.479 F6000
G1 X130.737 Y98.453
G1 X129.982 Y98.488
G1 X122.025 Y112.689
G1 X122.278 Y113.173
G1 X122.698 Y113.840
G1 X120.501 Y115.410
G1 Z0.180 F1002
G1 E0.0000 F3000
G92 E0.0000
G1 X120.443 Y115.327 E0.0025 F900
G1 X119.962 Y114.562 E0.0250
G1 X119.912 Y114.474 E0.0275
G1 X119.493 Y113.673 E0.0500
G1 X119.450 Y113.582 E0.0525
G1 X119.097 Y112.750 E0.0750
G1 X119.061 Y112.655 E0.0775
G1 X118.776 Y111.798 E0.1000
G1 X118.748 Y111.700 E0.1025
G1 X118.532 Y110.822 E0.1250
G1 X118.512 Y110.722 E0.1276
G1 X118.367 Y109.823 E0.1502
G1 X118.355 Y109.723 E0.1527
G1 X118.283 Y108.830 E0.1750
G1 X118.279 Y108.729 E0.1776
G1 X118.279 Y107.825 E0.2000
G1 X118.283 Y107.724 E0.2026
G1 X118.356 Y106.823 E0.2250
G1 X118.368 Y106.723 E0.2276
G1 X118.512 Y105.831 E0.2500
G1 X118.533 Y105.732 E0.2526
G1 X118.748 Y104.854 E0.2750
G1 X118.776 Y104.757 E0.2776
G1 X119.061 Y103.899 E0.3001
G1 X119.097 Y103.805 E0.3026
G1 X119.450 Y102.973 E0.3251
G1 X119.493 Y102.881 E0.3276
G1 X119.912 Y102.080 E0.3501
G1 X119.962 Y101.992 E0.3526
G1 X120.443 Y101.228 E0.3751
G1 X120.501 Y101.144 E0.3776
G1 X121.037 Y100.427 E0.3999
G1 X121.100 Y100.349 E0.4024
G1 X121.702 Y99.665 E0.4250
G1 X121.773 Y99.591 E0.4276
G1 X122.423 Y98.963 E0.4501
G1 X122.498 Y98.895 E0.4526
G1 X123.196 Y98.321 E0.4751
G1 X123.277 Y98.260 E0.4776
G1 X124.019 Y97.744 E0.5001
G1 X124.104 Y97.690 E0.5026
G1 X124.885 Y97.235 E0.5251
G1 X124.974 Y97.187 E0.5276
G1 X125.789 Y96.797 E0.5501
G1 X125.882 Y96.756 E0.5526
G1 X126.725 Y96.432 E0.5751
G1 X126.821 Y96.400 E0.5776
G1 X127.688 Y96.144 E0.6001
G1 X127.786 Y96.119 E0.6026
G1 X128.671 Y95.934 E0.6251
G1 X128.771 Y95.917 E0.6276
G1 X129.659 Y95.804 E0.6499
G1 X129.759 Y95.795 E0.6524
G1 X130.669 Y95.753 E0.6751
G1 X130.771 Y95.752 E0.6776
G1 X131.675 Y95.783 E0.7001
G1 X131.776 Y95.790 E0.7026
G1 X132.674 Y95.894 E0.7251
G1 X132.774 Y95.909 E0.7276
G1 X133.653 Y96.082 E0.7499
G1 X133.750 Y96.106 E0.7524
G1 X134.627 Y96.352 E0.7751
G1 X134.724 Y96.384 E0.7776
G1 X135.572 Y96.698 E0.8001
G1 X135.665 Y96.737 E0.8027
G1 X136.478 Y97.115 E0.8250
G1 X136.567 Y97.161 E0.8275
G1 X137.362 Y97.611 E0.8502
G1 X137.453 Y97.667 E0.8528
G1 X137.577 Y97.752 E0.8566
G1 X142.925 Y97.752 E0.9897
G1 X144.494 Y97.074 E1.0322
G1 X144.551 Y97.051 E1.0337
G1 X144.861 Y96.934 E1.0420
G1 X146.043 Y95.752 E1.0836
G1 X158.409 Y95.752 E1.3912
G1 X159.888 Y97.231 E1.4433
G1 X159.888 Y104.123 E1.6148
G1 X159.821 Y104.190 E1.6171
G1 X159.821 Y112.365 E1.8205
G1 X159.888 Y112.431 E1.8229
G1 X159.888 Y119.323 E1.9944
G1 X158.409 Y120.802 E2.0464
G1 X146.043 Y120.802 E2.3541
G1 X144.861 Y119.620 E2.3957
G1 X144.551 Y119.504 E2.4040
G1 X144.494 Y119.481 E2.4055
G1 X142.925 Y118.802 E2.4480
