; G-Code generated by Simplify3D(R) Version 4.1.2
; Oct 29, 2019 at 11:01:00 AM
; Settings Summary
;   processName,Process01
;   applyToModels,03-ARM-06cm
;   profileName,401s Tevo Tornado (experimental) (modified)
;   profileVersion,2019-10-29 10:59:10
;   baseProfile,Creality CR-10(2)
;   printMaterial,PLA
;   printQuality,Medium
;   printExtruders,
;   extruderName,Primary Extruder
;   extruderToolheadNumber,0
;   extruderDiameter,0.4
;   extruderAutoWidth,0
;   extruderWidth,0.35
;   extrusionMultiplier,0.95
;   extruderUseRetract,1
;   extruderRetractionDistance,3.8
;   extruderExtraRestartDistance,0
;   extruderRetractionZLift,0.3
;   extruderRetractionSpeed,3000
;   extruderUseCoasting,0
;   extruderCoastingDistance,0.2
;   extruderUseWipe,0
;   extruderWipeDistance,4
;   primaryExtruder,0
;   layerHeight,0.15
;   topSolidLayers,4
;   bottomSolidLayers,3
;   perimeterOutlines,3
;   printPerimetersInsideOut,0
;   startPointOption,1
;   startPointOriginX,0
;   startPointOriginY,300
;   sequentialIslands,0
;   spiralVaseMode,0
;   firstLayerHeightPercentage,120
;   firstLayerWidthPercentage,100
;   firstLayerUnderspeed,0.5
;   useRaft,0
;   raftExtruder,0
;   raftTopLayers,3
;   raftBaseLayers,2
;   raftOffset,3
;   raftSeparationDistance,0.14
;   raftTopInfill,100
;   aboveRaftSpeedMultiplier,0.3
;   useSkirt,1
;   skirtExtruder,0
;   skirtLayers,1
;   skirtOutlines,3
;   skirtOffset,2
;   usePrimePillar,0
;   primePillarExtruder,999
;   primePillarWidth,12
;   primePillarLocation,7
;   primePillarSpeedMultiplier,1
;   useOozeShield,0
;   oozeShieldExtruder,999
;   oozeShieldOffset,2
;   oozeShieldOutlines,1
;   oozeShieldSidewallShape,1
;   oozeShieldSidewallAngle,30
;   oozeShieldSpeedMultiplier,1
;   infillExtruder,0
;   internalInfillPattern,Grid
;   externalInfillPattern,Concentric
;   infillPercentage,25
;   outlineOverlapPercentage,15
;   infillExtrusionWidthPercentage,100
;   minInfillLength,5
;   infillLayerInterval,1
;   internalInfillAngles,45,-45
;   overlapInternalInfillAngles,1
;   externalInfillAngles,45,-45
;   generateSupport,1
;   supportExtruder,0
;   supportInfillPercentage,30
;   supportExtraInflation,0
;   supportBaseLayers,0
;   denseSupportExtruder,0
;   denseSupportLayers,0
;   denseSupportInfillPercentage,70
;   supportLayerInterval,1
;   supportHorizontalPartOffset,0.4
;   supportUpperSeparationLayers,1
;   supportLowerSeparationLayers,1
;   supportType,0
;   supportGridSpacing,4.5
;   maxOverhangAngle,45
;   supportAngles,0
;   temperatureName,Primary Extruder,Heated Bed
;   temperatureNumber,0,0
;   temperatureSetpointCount,2,1
;   temperatureSetpointLayers,1,2,1
;   temperatureSetpointTemperatures,215,210,60
;   temperatureStabilizeAtStartup,1,1
;   temperatureHeatedBed,0,1
;   fanLayers,1,2
;   fanSpeeds,0,100
;   blipFanToFullPower,0
;   adjustSpeedForCooling,1
;   minSpeedLayerTime,15
;   minCoolingSpeedSlowdown,50
;   increaseFanForCooling,1
;   minFanLayerTime,25
;   maxCoolingFanSpeed,100
;   increaseFanForBridging,1
;   bridgingFanSpeed,100
;   use5D,1
;   relativeEdistances,0
;   allowEaxisZeroing,1
;   independentExtruderAxes,0
;   includeM10123,0
;   stickySupport,1
;   applyToolheadOffsets,0
;   gcodeXoffset,0
;   gcodeYoffset,0
;   gcodeZoffset,0
;   overrideMachineDefinition,1
;   machineTypeOverride,0
;   strokeXoverride,300
;   strokeYoverride,300
;   strokeZoverride,400
;   originOffsetXoverride,0
;   originOffsetYoverride,0
;   originOffsetZoverride,0
;   homeXdirOverride,-1
;   homeYdirOverride,-1
;   homeZdirOverride,-1
;   flipXoverride,1
;   flipYoverride,-1
;   flipZoverride,1
;   toolheadOffsets,0,0|0,0|0,0|0,0|0,0|0,0
;   overrideFirmwareConfiguration,1
;   firmwareTypeOverride,RepRap (Marlin/Repetier/Sprinter)
;   GPXconfigOverride,r2
;   baudRateOverride,250000
;   overridePrinterModels,1
;   printerModelsOverride
;   startingGcode,;Init 181010,;G28 			; Home all axes,;G1 Z5 F3000 		; Lift,;G92 E0			; Reset extrusion distance,,; // From Cura 181010,; // Update 190823 (GueroLoco),; // Update 191005 Autoleveling,; // Update 192029 Modify Cleaning,; // Start_gcode,M117 *Start Clean*		; Indicate nozzle clean in progress on LCD,;,M104 S[extruder0_temperature] ,M109 S[extruder0_temperature] ,M109 R[extruder0_temperature] ,;,M107			; Turn layer fan off,G21			; Set to metric [change to G20 if you want Imperial],G90			; Force coordinates to be absolute relative to the origin,G28			; Home X/Y/Z axis,G29			; Auto-leveling,;,;G1 X3 Y1 Z15 F9000		; Move safe Z height to shear strings,;G0 X1 Y1 Z0.2 F9000		; Move in 1mm from edge and up [z] 0.2mm,;G92 E0			; Set extruder to [0] zero,;G1 X100 E12 F500		; Extrude 30mm filiment along X axis 100mm long to prime and clean the nozzle,;G92 E0			; Reset extruder to [0] zero end of cleaning run,;G1 E-1 F500			; Retract filiment by 1 mm to reduce string effect,;G1 X180 F4000		; Quick wipe away from the filament line / purge,;,G92 E0			; Set Extruder to 0 ,G1 X0 Y0 F2000		; Move X and Y to 0 with speed 2000 (mm/min),G1 Z0.1 F1000		; Move Z to 0.1,G1 X8.0 F2000		; Move X to 8.0,G1 Y60.0 E4.0 F1000.0		; Prime - Move Y to 60 and Extruder with 4.0,G1 Y100.0 E8.5 F1000.0		; Prime - Move Y to 100 and Extruder with 8.5,G92 E0			; Set extruder to 0,M117 *End Clean*		; Indicate nozzle clean in progress on LCD,G1 X16.0 F3000		; Move X to 16.0,G1 Z5 F3000			; Move Z to 5 - Lift,; ,M117 *Printing...*		; start msg,; // Begin printing with sliced GCode after here,;
;   layerChangeGcode,
;   retractionGcode,
;   toolChangeGcode,
;   endingGcode,;,; init 181010,;,;M107 			; Fan off,;G1 E-1 F300 			; Retract the filament a bit before lifting the nozzle,;M104 S0 			; Turn off extruder,;M140 S0 			; Turn off bed,;G91			; Relative positioning,;G28 X0 Y0 			; Move X/Y to min endstops so the head is out of teh way,;M84 			; Disable motors,;G90 			; Absolute positioning,;M117 Print ready...,,;,; // From Cura 181010,; // End_gcode,G92 E0			; Zero the extruded length,;G1 E-30 F300		; Retract E -30,M106 S0			; Turn off cooling fan,M104 S0			; Turn off temperature,M140 S0		     	; Turn off bed,G91			; Relative positioning,G1 E-1 F300			; Retract the filament a bit before lifting the nozzle to release some of the pressure,G1 Z+20 E-5 X-20 Y-20 F7200	; Move Z up a bit and retract filament even more,G1 X0 Y150 F10000		; Move right min,M107			; Turn off layer fan,M84			; Disable motors,G90			; Absolute positioning,M117 *The-End* 		; End msg,;,
;   exportFileFormat,gcode
;   celebration,0
;   celebrationSong,Star Wars
;   postProcessing,
;   defaultSpeed,1800
;   outlineUnderspeed,0.5
;   solidInfillUnderspeed,0.8
;   supportUnderspeed,0.8
;   rapidXYspeed,6000
;   rapidZspeed,1002
;   minBridgingArea,50
;   bridgingExtraInflation,0.2
;   bridgingExtrusionMultiplier,1
;   bridgingSpeedMultiplier,0.6
;   useFixedBridgingAngle,0
;   fixedBridgingAngle,0
;   applyBridgingToPerimeters,0
;   filamentDiameters,1.75|1.75|1.75|1.75|1.75|1.75
;   filamentPricesPerKg,30|46|46|46|46|46
;   filamentDensities,1.25|1.25|1.25|1.25|1.25|1.25
;   useMinPrintHeight,0
;   minPrintHeight,0
;   useMaxPrintHeight,0
;   maxPrintHeight,9
;   useDiaphragm,0
;   diaphragmLayerInterval,20
;   robustSlicing,1
;   mergeAllIntoSolid,0
;   onlyRetractWhenCrossingOutline,1
;   retractBetweenLayers,1
;   useRetractionMinTravel,1
;   retractionMinTravel,3
;   retractWhileWiping,1
;   onlyWipeOutlines,1
;   avoidCrossingOutline,1
;   maxMovementDetourFactor,3
;   toolChangeRetractionDistance,12
;   toolChangeExtraRestartDistance,-0.5
;   toolChangeRetractionSpeed,600
;   externalThinWallType,1
;   internalThinWallType,1
;   thinWallAllowedOverlapPercentage,15
;   singleExtrusionMinLength,1
;   singleExtrusionMinPrintingWidthPercentage,50
;   singleExtrusionMaxPrintingWidthPercentage,200
;   singleExtrusionEndpointExtension,0.2
;   horizontalSizeCompensation,0
G90
M82
M106 S0
M140 S60
M190 S60
;Init 181010
;G28 			; Home all axes
;G1 Z5 F3000 		; Lift
;G92 E0			; Reset extrusion distance
; // From Cura 181010
; // Update 190823 (GueroLoco)
; // Update 191005 Autoleveling
; // Update 192029 Modify Cleaning
; // Start_gcode
M117 *Start Clean*		; Indicate nozzle clean in progress on LCD
;
M104 S215 
M109 S215 
M109 R215 
;
M107			; Turn layer fan off
G21			; Set to metric [change to G20 if you want Imperial]
G90			; Force coordinates to be absolute relative to the origin
G28			; Home X/Y/Z axis
G29			; Auto-leveling
;
;G1 X3 Y1 Z15 F9000		; Move safe Z height to shear strings
;G0 X1 Y1 Z0.2 F9000		; Move in 1mm from edge and up [z] 0.2mm
;G92 E0			; Set extruder to [0] zero
;G1 X100 E12 F500		; Extrude 30mm filiment along X axis 100mm long to prime and clean the nozzle
;G92 E0			; Reset extruder to [0] zero end of cleaning run
;G1 E-1 F500			; Retract filiment by 1 mm to reduce string effect
;G1 X180 F4000		; Quick wipe away from the filament line / purge
;
G92 E0			; Set Extruder to 0 
G1 X0 Y0 F2000		; Move X and Y to 0 with speed 2000 (mm/min)
G1 Z0.1 F1000		; Move Z to 0.1
G1 X8.0 F2000		; Move X to 8.0
G1 Y60.0 E4.0 F1000.0		; Prime - Move Y to 60 and Extruder with 4.0
G1 Y100.0 E8.5 F1000.0		; Prime - Move Y to 100 and Extruder with 8.5
G92 E0			; Set extruder to 0
M117 *End Clean*		; Indicate nozzle clean in progress on LCD
G1 X16.0 F3000		; Move X to 16.0
G1 Z5 F3000			; Move Z to 5 - Lift
; 
M117 *Printing...*		; start msg
; // Begin printing with sliced GCode after here
;
; process Process01
; layer 1, Z = 0.180
T0
G92 E0.0000
G1 E-3.8000 F3000
; feature skirt
; tool H0.180 W0.350
G1 Z0.300 F1002
G1 X135.072 Y14.658 F6000
G1 Z0.180 F1002
G1 E0.0000 F3000
G92 E0.0000
G1 X146.828 Y14.658 E0.2925 F900
G1 X147.108 Y14.938 E0.3024
G1 X154.034 Y14.938 E0.4747
G1 X155.718 Y16.622 E0.5340
G1 X155.718 Y28.444 E0.8281
G1 X154.034 Y30.128 E0.8874
G1 X147.108 Y30.128 E1.0597
G1 X146.828 Y30.408 E1.0696
G1 X135.072 Y30.408 E1.3621
G1 X134.855 Y30.498 E1.3679
G1 X93.891 Y30.498 E2.3872
G1 X93.674 Y30.408 E2.3931
G1 X81.918 Y30.408 E2.6856
G1 X81.638 Y30.128 E2.6955
G1 X74.712 Y30.128 E2.8678
G1 X73.028 Y28.444 E2.9271
G1 X73.028 Y16.622 E3.2212
G1 X74.712 Y14.938 E3.2805
G1 X81.638 Y14.938 E3.4528
G1 X81.918 Y14.658 E3.4627
G1 X93.674 Y14.658 E3.7552
G1 X93.891 Y14.568 E3.7610
G1 X134.855 Y14.568 E4.7803
G1 X135.072 Y14.658 E4.7862
G92 E0.0000
G1 E-3.8000 F3000
G1 Z0.480 F1002
G1 X134.210 Y17.618 F6000
G1 X124.883 Y17.618
G1 X91.357 Y27.358
G1 X83.284 Y27.358
G1 X82.063 Y30.058
G1 Z0.180 F1002
G1 E0.0000 F3000
G92 E0.0000
G1 X81.783 Y29.778 E0.0099 F900
G1 X74.857 Y29.778 E0.1822
G1 X73.378 Y28.299 E0.2342
G1 X73.378 Y16.767 E0.5212
G1 X74.857 Y15.288 E0.5732
G1 X81.783 Y15.288 E0.7456
G1 X82.063 Y15.008 E0.7554
G1 X93.743 Y15.008 E1.0461
G1 X93.961 Y14.918 E1.0519
G1 X134.785 Y14.918 E2.0677
G1 X135.002 Y15.008 E2.0736
G1 X146.683 Y15.008 E2.3642
G1 X146.963 Y15.288 E2.3741
G1 X153.889 Y15.288 E2.5464
G1 X155.368 Y16.767 E2.5985
G1 X155.368 Y28.299 E2.8854
G1 X153.889 Y29.778 E2.9375
G1 X146.963 Y29.778 E3.1098
G1 X146.683 Y30.058 E3.1196
G1 X135.002 Y30.058 E3.4103
G1 X134.785 Y30.148 E3.4161
G1 X93.961 Y30.148 E4.4320
G1 X93.743 Y30.058 E4.4378
G1 X82.063 Y30.058 E4.7285
G92 E0.0000
G1 E-3.8000 F3000
G1 Z0.480 F1002
G1 X83.284 Y27.358 F6000
G1 X94.445 Y27.358
G1 X94.535 Y27.448
G1 X96.547 Y27.448
G1 X145.462 Y18.634
G1 X145.462 Y17.708
G1 X155.018 Y16.912
G1 Z0.180 F1002
G1 E0.0000 F3000
G92 E0.0000
G1 X155.018 Y28.154 E0.2797 F900
G1 X153.744 Y29.428 E0.3246
G1 X147.002 Y29.428 E0.4923
G1 X146.910 Y29.336 E0.4956
G1 X146.538 Y29.708 E0.5086
G1 X134.933 Y29.708 E0.7974
G1 X134.716 Y29.798 E0.8033
G1 X94.030 Y29.798 E1.8156
G1 X93.813 Y29.708 E1.8215
G1 X82.208 Y29.708 E2.1102
G1 X81.836 Y29.336 E2.1233
G1 X81.744 Y29.428 E2.1266
G1 X75.002 Y29.428 E2.2943
G1 X73.728 Y28.154 E2.3392
G1 X73.728 Y16.912 E2.6189
G1 X75.002 Y15.638 E2.6637
G1 X81.744 Y15.638 E2.8315
G1 X81.836 Y15.730 E2.8347
G1 X82.208 Y15.358 E2.8478
G1 X93.813 Y15.358 E3.1366
G1 X94.030 Y15.268 E3.1424
G1 X134.716 Y15.268 E4.1548
G1 X134.933 Y15.358 E4.1606
G1 X146.538 Y15.358 E4.4494
G1 X146.910 Y15.730 E4.4625
G1 X147.002 Y15.638 E4.4657
G1 X153.744 Y15.638 E4.6335
G1 X155.018 Y16.912 E4.6783
G92 E0.0000
G1 E-3.8000 F3000
; feature outer perimeter
G1 Z0.480 F1002
G1 X145.462 Y17.708 F6000
G1 X134.300 Y17.708
G1 X134.210 Y17.618
G1 X101.295 Y17.618
G1 X94.445 Y17.708
G1 Z0.180 F1002
G1 E0.0000 F3000
G92 E0.0000
G1 X94.535 Y17.618 E0.0032 F450
G1 X134.210 Y17.618 E0.9904
G1 X134.300 Y17.708 E0.9936
G1 X145.462 Y17.708 E1.2713
G1 X145.462 Y27.358 E1.5114
G1 X134.300 Y27.358 E1.7891
G1 X134.210 Y27.448 E1.7923
G1 X94.535 Y27.448 E2.7795
G1 X94.445 Y27.358 E2.7827
G1 X83.284 Y27.358 E3.0604
G1 X83.284 Y17.708 E3.3006
G1 X94.445 Y17.708 E3.5783
; feature inner perimeter
G1 X94.680 Y17.968 F6000
G92 E0.0000
G1 X134.065 Y17.968 E0.9800 F675
G1 X134.155 Y18.058 E0.9832
G1 X145.112 Y18.058 E1.2558
G1 X145.112 Y27.008 E1.4785
G1 X134.155 Y27.008 E1.7511
G1 X134.065 Y27.098 E1.7543
G1 X94.680 Y27.098 E2.7343
G1 X94.590 Y27.008 E2.7375
G1 X83.634 Y27.008 E3.0101
G1 X83.634 Y18.058 E3.2328
G1 X94.590 Y18.058 E3.5055
G1 X94.680 Y17.968 E3.5086
G1 X94.825 Y18.318 F6000
G92 E0.0000
G1 X133.920 Y18.318 E0.9728 F675
G1 X134.010 Y18.408 E0.9760
G1 X144.762 Y18.408 E1.2435
G1 X144.762 Y26.658 E1.4488
G1 X134.010 Y26.658 E1.7163
G1 X133.920 Y26.748 E1.7195
G1 X94.825 Y26.748 E2.6923
G1 X94.735 Y26.658 E2.6954
G1 X83.984 Y26.658 E2.9630
G1 X83.984 Y18.408 E3.1683
G1 X94.735 Y18.408 E3.4358
G1 X94.825 Y18.318 E3.4390
; feature solid layer
G1 X94.949 Y18.615 F6000
G92 E0.0000
G1 X133.797 Y18.615 E0.9667 F720
G1 X133.887 Y18.705 E0.9698
G1 X144.465 Y18.705 E1.2330
G1 X144.465 Y26.360 E1.4235
G1 X133.887 Y26.360 E1.6867
G1 X133.797 Y26.450 E1.6899
G1 X94.949 Y26.450 E2.6565
G1 X94.859 Y26.360 E2.6597
G1 X84.281 Y26.360 E2.9229
G1 X84.281 Y18.705 E3.1134
G1 X94.859 Y18.705 E3.3766
G1 X94.949 Y18.615 E3.3797
G1 X95.094 Y18.965 F6000
G92 E0.0000
G1 X133.652 Y18.965 E0.9594 F720
G1 X133.742 Y19.055 E0.9626
G1 X144.115 Y19.055 E1.2207
G1 X144.115 Y26.010 E1.3938
G1 X133.742 Y26.010 E1.6519
G1 X133.652 Y26.100 E1.6550
G1 X95.094 Y26.100 E2.6145
G1 X95.004 Y26.010 E2.6176
G1 X84.631 Y26.010 E2.8757
G1 X84.631 Y19.055 E3.0488
G1 X95.004 Y19.055 E3.3069
G1 X95.094 Y18.965 E3.3101
G1 X95.239 Y19.315 F6000
G92 E0.0000
G1 X133.507 Y19.315 E0.9522 F720
G1 X133.597 Y19.405 E0.9554
G1 X143.765 Y19.405 E1.2084
G1 X143.765 Y25.660 E1.3640
G1 X133.597 Y25.660 E1.6170
G1 X133.507 Y25.750 E1.6202
G1 X95.239 Y25.750 E2.5724
G1 X95.149 Y25.660 E2.5756
G1 X84.981 Y25.660 E2.8286
G1 X84.981 Y19.405 E2.9842
G1 X95.149 Y19.405 E3.2372
G1 X95.239 Y19.315 E3.2404
G1 X95.384 Y19.665 F6000
G92 E0.0000
G1 X133.362 Y19.665 E0.9450 F720
G1 X133.452 Y19.755 E0.9482
G1 X143.415 Y19.755 E1.1961
G1 X143.415 Y25.310 E1.3343
G1 X133.452 Y25.310 E1.5822
G1 X133.362 Y25.400 E1.5854
G1 X95.384 Y25.400 E2.5304
G1 X95.294 Y25.310 E2.5335
G1 X85.331 Y25.310 E2.7814
G1 X85.331 Y19.755 E2.9197
G1 X95.294 Y19.755 E3.1675
G1 X95.384 Y19.665 E3.1707
G1 X95.529 Y20.015 F6000
G92 E0.0000
G1 X133.217 Y20.015 E0.9378 F720
G1 X133.307 Y20.105 E0.9410
G1 X143.065 Y20.105 E1.1838
G1 X143.065 Y24.960 E1.3046
G1 X133.307 Y24.960 E1.5474
G1 X133.217 Y25.050 E1.5505
G1 X95.529 Y25.050 E2.4883
G1 X95.439 Y24.960 E2.4915
G1 X85.681 Y24.960 E2.7343
G1 X85.681 Y20.105 E2.8551
G1 X95.439 Y20.105 E3.0979
G1 X95.529 Y20.015 E3.1010
G1 X95.674 Y20.365 F6000
G92 E0.0000
G1 X133.072 Y20.365 E0.9306 F720
G1 X133.162 Y20.455 E0.9338
G1 X142.715 Y20.455 E1.1714
G1 X142.715 Y24.610 E1.2748
G1 X133.162 Y24.610 E1.5125
G1 X133.072 Y24.700 E1.5157
G1 X95.674 Y24.700 E2.4463
G1 X95.584 Y24.610 E2.4494
G1 X86.031 Y24.610 E2.6871
G1 X86.031 Y20.455 E2.7905
G1 X95.584 Y20.455 E3.0282
G1 X95.674 Y20.365 E3.0314
G1 X95.818 Y20.715 F6000
G92 E0.0000
G1 X132.927 Y20.715 E0.9234 F720
G1 X133.017 Y20.805 E0.9265
G1 X142.365 Y20.805 E1.1591
G1 X142.365 Y24.260 E1.2451
G1 X133.017 Y24.260 E1.4777
G1 X132.927 Y24.350 E1.4809
G1 X95.818 Y24.350 E2.4042
G1 X95.728 Y24.260 E2.4074
G1 X86.381 Y24.260 E2.6400
