; G-Code generated by Simplify3D(R) Version 4.1.2
; Nov 3, 2019 at 2:22:40 PM
; Settings Summary
;   processName,Process1
;   applyToModels,V_1to0_Support_Sea_Wit
;   profileName,401s_35p Tevo Tornado (experimental)
;   profileVersion,2019-11-01 16:18:15
;   baseProfile,Creality CR-10(2)
;   printMaterial,PLA
;   printQuality,Medium
;   printExtruders,
;   extruderName,Primary Extruder
;   extruderToolheadNumber,0
;   extruderDiameter,0.4
;   extruderAutoWidth,0
;   extruderWidth,0.35
;   extrusionMultiplier,0.95
;   extruderUseRetract,1
;   extruderRetractionDistance,3.8
;   extruderExtraRestartDistance,0
;   extruderRetractionZLift,0.3
;   extruderRetractionSpeed,3000
;   extruderUseCoasting,0
;   extruderCoastingDistance,0.2
;   extruderUseWipe,0
;   extruderWipeDistance,4
;   primaryExtruder,0
;   layerHeight,0.15
;   topSolidLayers,4
;   bottomSolidLayers,3
;   perimeterOutlines,3
;   printPerimetersInsideOut,0
;   startPointOption,1
;   startPointOriginX,0
;   startPointOriginY,300
;   sequentialIslands,0
;   spiralVaseMode,0
;   firstLayerHeightPercentage,120
;   firstLayerWidthPercentage,100
;   firstLayerUnderspeed,0.5
;   useRaft,0
;   raftExtruder,0
;   raftTopLayers,3
;   raftBaseLayers,2
;   raftOffset,3
;   raftSeparationDistance,0.14
;   raftTopInfill,100
;   aboveRaftSpeedMultiplier,0.3
;   useSkirt,1
;   skirtExtruder,0
;   skirtLayers,1
;   skirtOutlines,3
;   skirtOffset,2
;   usePrimePillar,0
;   primePillarExtruder,999
;   primePillarWidth,12
;   primePillarLocation,7
;   primePillarSpeedMultiplier,1
;   useOozeShield,0
;   oozeShieldExtruder,999
;   oozeShieldOffset,2
;   oozeShieldOutlines,1
;   oozeShieldSidewallShape,1
;   oozeShieldSidewallAngle,30
;   oozeShieldSpeedMultiplier,1
;   infillExtruder,0
;   internalInfillPattern,Grid
;   externalInfillPattern,Concentric
;   infillPercentage,35
;   outlineOverlapPercentage,15
;   infillExtrusionWidthPercentage,100
;   minInfillLength,5
;   infillLayerInterval,1
;   internalInfillAngles,45,-45
;   overlapInternalInfillAngles,1
;   externalInfillAngles,45,-45
;   generateSupport,0
;   supportExtruder,0
;   supportInfillPercentage,30
;   supportExtraInflation,0
;   supportBaseLayers,0
;   denseSupportExtruder,0
;   denseSupportLayers,0
;   denseSupportInfillPercentage,70
;   supportLayerInterval,1
;   supportHorizontalPartOffset,0.4
;   supportUpperSeparationLayers,1
;   supportLowerSeparationLayers,1
;   supportType,0
;   supportGridSpacing,4.5
;   maxOverhangAngle,45
;   supportAngles,0
;   temperatureName,Primary Extruder,Heated Bed
;   temperatureNumber,0,0
;   temperatureSetpointCount,2,1
;   temperatureSetpointLayers,1,2,1
;   temperatureSetpointTemperatures,215,210,60
;   temperatureStabilizeAtStartup,1,1
;   temperatureHeatedBed,0,1
;   fanLayers,1,2
;   fanSpeeds,0,100
;   blipFanToFullPower,0
;   adjustSpeedForCooling,1
;   minSpeedLayerTime,15
;   minCoolingSpeedSlowdown,50
;   increaseFanForCooling,1
;   minFanLayerTime,25
;   maxCoolingFanSpeed,100
;   increaseFanForBridging,1
;   bridgingFanSpeed,100
;   use5D,1
;   relativeEdistances,0
;   allowEaxisZeroing,1
;   independentExtruderAxes,0
;   includeM10123,0
;   stickySupport,1
;   applyToolheadOffsets,0
;   gcodeXoffset,0
;   gcodeYoffset,0
;   gcodeZoffset,0
;   overrideMachineDefinition,1
;   machineTypeOverride,0
;   strokeXoverride,300
;   strokeYoverride,300
;   strokeZoverride,400
;   originOffsetXoverride,0
;   originOffsetYoverride,0
;   originOffsetZoverride,0
;   homeXdirOverride,-1
;   homeYdirOverride,-1
;   homeZdirOverride,-1
;   flipXoverride,1
;   flipYoverride,-1
;   flipZoverride,1
;   toolheadOffsets,0,0|0,0|0,0|0,0|0,0|0,0
;   overrideFirmwareConfiguration,1
;   firmwareTypeOverride,RepRap (Marlin/Repetier/Sprinter)
;   GPXconfigOverride,r2
;   baudRateOverride,250000
;   overridePrinterModels,1
;   printerModelsOverride
;   startingGcode,;Init 181010,;G28 			; Home all axes,;G1 Z5 F3000 		; Lift,;G92 E0			; Reset extrusion distance,,; // From Cura 181010,; // Update 190823 (GueroLoco),; // Update 191005 Autoleveling,; // Update 192029 Modify Cleaning,; // Start_gcode,M117 *Start Clean*		; Indicate nozzle clean in progress on LCD,;,M104 S[extruder0_temperature] ,M109 S[extruder0_temperature] ,M109 R[extruder0_temperature] ,;,M107			; Turn layer fan off,G21			; Set to metric [change to G20 if you want Imperial],G90			; Force coordinates to be absolute relative to the origin,G28			; Home X/Y/Z axis,G29			; Auto-leveling,;,;G1 X3 Y1 Z15 F9000		; Move safe Z height to shear strings,;G0 X1 Y1 Z0.2 F9000		; Move in 1mm from edge and up [z] 0.2mm,;G92 E0			; Set extruder to [0] zero,;G1 X100 E12 F500		; Extrude 30mm filiment along X axis 100mm long to prime and clean the nozzle,;G92 E0			; Reset extruder to [0] zero end of cleaning run,;G1 E-1 F500			; Retract filiment by 1 mm to reduce string effect,;G1 X180 F4000		; Quick wipe away from the filament line / purge,;,G92 E0			; Set Extruder to 0 ,G1 X0 Y0 F2000		; Move X and Y to 0 with speed 2000 (mm/min),G1 Z0.1 F1000		; Move Z to 0.1,G1 X8.0 F2000		; Move X to 8.0,G1 Y60.0 E4.0 F1000.0		; Prime - Move Y to 60 and Extruder with 4.0,G1 Y100.0 E8.5 F1000.0		; Prime - Move Y to 100 and Extruder with 8.5,G92 E0			; Set extruder to 0,M117 *End Clean*		; Indicate nozzle clean in progress on LCD,G1 X16.0 F3000		; Move X to 16.0,G1 Z5 F3000			; Move Z to 5 - Lift,; ,M117 *Printing...*		; start msg,; // Begin printing with sliced GCode after here,;
;   layerChangeGcode,
;   retractionGcode,
;   toolChangeGcode,
;   endingGcode,;,; init 181010,;,;M107 			; Fan off,;G1 E-1 F300 			; Retract the filament a bit before lifting the nozzle,;M104 S0 			; Turn off extruder,;M140 S0 			; Turn off bed,;G91			; Relative positioning,;G28 X0 Y0 			; Move X/Y to min endstops so the head is out of teh way,;M84 			; Disable motors,;G90 			; Absolute positioning,;M117 Print ready...,,;,; // From Cura 181010,; // End_gcode,G92 E0			; Zero the extruded length,;G1 E-30 F300		; Retract E -30,M106 S0			; Turn off cooling fan,M104 S0			; Turn off temperature,M140 S0		     	; Turn off bed,G91			; Relative positioning,G1 E-1 F300			; Retract the filament a bit before lifting the nozzle to release some of the pressure,G1 Z+20 E-5 X-20 Y-20 F7200	; Move Z up a bit and retract filament even more,G1 X0 Y150 F10000		; Move right min,M107			; Turn off layer fan,M84			; Disable motors,G90			; Absolute positioning,M117 *The-End* 		; End msg,;,
;   exportFileFormat,gcode
;   celebration,0
;   celebrationSong,Star Wars
;   postProcessing,
;   defaultSpeed,1800
;   outlineUnderspeed,0.5
;   solidInfillUnderspeed,0.8
;   supportUnderspeed,0.8
;   rapidXYspeed,6000
;   rapidZspeed,1002
;   minBridgingArea,50
;   bridgingExtraInflation,0.2
;   bridgingExtrusionMultiplier,1
;   bridgingSpeedMultiplier,0.6
;   useFixedBridgingAngle,0
;   fixedBridgingAngle,0
;   applyBridgingToPerimeters,0
;   filamentDiameters,1.75|1.75|1.75|1.75|1.75|1.75
;   filamentPricesPerKg,30|46|46|46|46|46
;   filamentDensities,1.25|1.25|1.25|1.25|1.25|1.25
;   useMinPrintHeight,0
;   minPrintHeight,0
;   useMaxPrintHeight,0
;   maxPrintHeight,9
;   useDiaphragm,0
;   diaphragmLayerInterval,20
;   robustSlicing,1
;   mergeAllIntoSolid,0
;   onlyRetractWhenCrossingOutline,1
;   retractBetweenLayers,1
;   useRetractionMinTravel,1
;   retractionMinTravel,3
;   retractWhileWiping,1
;   onlyWipeOutlines,1
;   avoidCrossingOutline,1
;   maxMovementDetourFactor,3
;   toolChangeRetractionDistance,12
;   toolChangeExtraRestartDistance,-0.5
;   toolChangeRetractionSpeed,600
;   externalThinWallType,1
;   internalThinWallType,1
;   thinWallAllowedOverlapPercentage,15
;   singleExtrusionMinLength,1
;   singleExtrusionMinPrintingWidthPercentage,50
;   singleExtrusionMaxPrintingWidthPercentage,200
;   singleExtrusionEndpointExtension,0.2
;   horizontalSizeCompensation,0
G90
M82
M106 S0
M140 S60
M190 S60
;Init 181010
;G28 			; Home all axes
;G1 Z5 F3000 		; Lift
;G92 E0			; Reset extrusion distance
; // From Cura 181010
; // Update 190823 (GueroLoco)
; // Update 191005 Autoleveling
; // Update 192029 Modify Cleaning
; // Start_gcode
M117 *Start Clean*		; Indicate nozzle clean in progress on LCD
;
M104 S215 
M109 S215 
M109 R215 
;
M107			; Turn layer fan off
G21			; Set to metric [change to G20 if you want Imperial]
G90			; Force coordinates to be absolute relative to the origin
G28			; Home X/Y/Z axis
G29			; Auto-leveling
;
;G1 X3 Y1 Z15 F9000		; Move safe Z height to shear strings
;G0 X1 Y1 Z0.2 F9000		; Move in 1mm from edge and up [z] 0.2mm
;G92 E0			; Set extruder to [0] zero
;G1 X100 E12 F500		; Extrude 30mm filiment along X axis 100mm long to prime and clean the nozzle
;G92 E0			; Reset extruder to [0] zero end of cleaning run
;G1 E-1 F500			; Retract filiment by 1 mm to reduce string effect
;G1 X180 F4000		; Quick wipe away from the filament line / purge
;
G92 E0			; Set Extruder to 0 
G1 X0 Y0 F2000		; Move X and Y to 0 with speed 2000 (mm/min)
G1 Z0.1 F1000		; Move Z to 0.1
G1 X8.0 F2000		; Move X to 8.0
G1 Y60.0 E4.0 F1000.0		; Prime - Move Y to 60 and Extruder with 4.0
G1 Y100.0 E8.5 F1000.0		; Prime - Move Y to 100 and Extruder with 8.5
G92 E0			; Set extruder to 0
M117 *End Clean*		; Indicate nozzle clean in progress on LCD
G1 X16.0 F3000		; Move X to 16.0
G1 Z5 F3000			; Move Z to 5 - Lift
; 
M117 *Printing...*		; start msg
; // Begin printing with sliced GCode after here
;
; process Process1
; layer 1, Z = 0.180
T0
G92 E0.0000
G1 E-3.8000 F3000
; feature skirt
; tool H0.180 W0.350
G1 Z0.300 F1002
G1 X136.838 Y95.843 F6000
G1 Z0.180 F1002
G1 E0.0000 F3000
G92 E0.0000
G1 X137.302 Y95.895 E0.0116 F900
G1 X137.616 Y95.967 E0.0196
G1 X138.132 Y96.147 E0.0332
G1 X138.423 Y96.287 E0.0413
G1 X138.886 Y96.578 E0.0549
G1 X139.139 Y96.780 E0.0629
G1 X139.526 Y97.166 E0.0765
G1 X139.727 Y97.419 E0.0846
G1 X140.018 Y97.882 E0.0982
G1 X140.158 Y98.173 E0.1062
G1 X140.339 Y98.690 E0.1198
G1 X140.371 Y98.832 E0.1235
G1 X155.128 Y98.832 E0.4906
G1 X156.812 Y100.516 E0.5499
G1 X156.812 Y112.898 E0.8580
G1 X155.128 Y114.582 E0.9173
G1 X140.372 Y114.582 E1.2844
G1 X140.339 Y114.727 E1.2881
G1 X140.158 Y115.244 E1.3018
G1 X140.018 Y115.535 E1.3098
G1 X139.727 Y115.998 E1.3234
G1 X139.525 Y116.251 E1.3314
G1 X139.139 Y116.638 E1.3451
G1 X138.886 Y116.839 E1.3531
G1 X138.423 Y117.130 E1.3667
G1 X138.133 Y117.270 E1.3747
G1 X137.616 Y117.450 E1.3883
G1 X137.301 Y117.522 E1.3964
G1 X136.838 Y117.575 E1.4080
G1 X136.677 Y117.584 E1.4120
G1 X131.406 Y117.584 E1.5432
G1 X129.721 Y115.899 E1.6024
G1 X129.721 Y115.464 E1.6132
G1 X128.947 Y115.134 E1.6342
G1 X125.362 Y111.539 E1.7605
G1 X124.999 Y110.932 E1.7781
G1 X124.782 Y110.218 E1.7967
G1 X124.720 Y109.785 E1.8076
G1 X124.732 Y108.448 E1.8409
G1 X124.876 Y107.830 E1.8566
G1 X125.212 Y107.132 E1.8759
G1 X125.550 Y106.709 E1.8894
G1 X125.212 Y106.285 E1.9029
G1 X124.874 Y105.582 E1.9223
G1 X124.730 Y104.954 E1.9383
G1 X124.727 Y103.416 E1.9766
G1 X124.899 Y102.725 E1.9943
G1 X125.249 Y102.070 E2.0128
G1 X125.502 Y101.729 E2.0233
G1 X128.960 Y98.271 E2.1450
G1 X129.721 Y97.956 E2.1656
G1 X129.721 Y97.518 E2.1765
G1 X131.406 Y95.834 E2.2357
G1 X136.677 Y95.834 E2.3669
G1 X136.838 Y95.843 E2.3709
G92 E0.0000
G1 E-3.8000 F3000
G1 Z0.480 F1002
G1 X136.587 Y98.884 F6000
G1 X136.087 Y98.884
G1 X132.582 Y113.059
G1 X132.658 Y113.180
G1 X132.744 Y113.423
G1 X132.772 Y113.669
G1 X132.772 Y114.534
G1 X131.551 Y117.234
G1 Z0.180 F1002
G1 E0.0000 F3000
G92 E0.0000
G1 X130.072 Y115.754 E0.0520 F900
G1 X130.072 Y115.224 E0.0652
G1 X130.049 Y115.224 E0.0658
G1 X129.147 Y114.839 E0.0902
G1 X125.640 Y111.322 E0.2138
G1 X125.321 Y110.790 E0.2292
G1 X125.124 Y110.142 E0.2461
G1 X125.070 Y109.761 E0.2556
G1 X125.082 Y108.490 E0.2873
G1 X125.208 Y107.947 E0.3011
G1 X125.510 Y107.320 E0.3185
G1 X125.865 Y106.875 E0.3326
G1 X126.074 Y106.709 E0.3393
G1 X125.865 Y106.542 E0.3459
G1 X125.510 Y106.097 E0.3601
G1 X125.206 Y105.466 E0.3775
G1 X125.080 Y104.914 E0.3916
G1 X125.077 Y103.458 E0.4278
G1 X125.228 Y102.851 E0.4434
G1 X125.545 Y102.258 E0.4601
G1 X125.767 Y101.959 E0.4694
G1 X129.158 Y98.568 E0.5887
G1 X130.072 Y98.189 E0.6133
G1 X130.072 Y97.663 E0.6264
G1 X131.551 Y96.184 E0.6785
G1 X136.667 Y96.184 E0.8058
G1 X136.809 Y96.192 E0.8093
G1 X137.243 Y96.240 E0.8202
G1 X137.519 Y96.303 E0.8272
G1 X137.998 Y96.471 E0.8399
G1 X138.254 Y96.594 E0.8469
G1 X138.683 Y96.864 E0.8596
G1 X138.905 Y97.041 E0.8666
G1 X139.264 Y97.400 E0.8792
G1 X139.441 Y97.622 E0.8863
G1 X139.711 Y98.051 E0.8989
G1 X139.834 Y98.307 E0.9060
G1 X140.002 Y98.787 E0.9186
G1 X140.065 Y99.065 E0.9257
G1 X140.078 Y99.182 E0.9287
G1 X154.983 Y99.182 E1.2995
G1 X156.462 Y100.661 E1.3516
G1 X156.462 Y112.753 E1.6525
G1 X154.983 Y114.232 E1.7045
G1 X140.079 Y114.232 E2.0754
G1 X140.065 Y114.352 E2.0784
G1 X140.002 Y114.630 E2.0855
G1 X139.834 Y115.110 E2.0981
G1 X139.711 Y115.366 E2.1052
G1 X139.441 Y115.796 E2.1178
G1 X139.264 Y116.017 E2.1249
G1 X138.905 Y116.376 E2.1375
G1 X138.683 Y116.553 E2.1446
G1 X138.254 Y116.823 E2.1572
G1 X137.998 Y116.946 E2.1642
G1 X137.519 Y117.114 E2.1769
G1 X137.243 Y117.177 E2.1839
G1 X136.809 Y117.226 E2.1948
G1 X136.667 Y117.234 E2.1983
G1 X131.551 Y117.234 E2.3256
G92 E0.0000
G1 E-3.8000 F3000
G1 Z0.480 F1002
G1 X132.772 Y114.534 F6000
G1 X132.772 Y114.527
G1 X138.588 Y101.632
G1 X138.236 Y101.410
G1 X137.893 Y101.067
G1 X137.635 Y100.656
G1 X137.475 Y100.200
G1 X137.400 Y99.525
G1 X139.719 Y99.123
G1 Z0.180 F1002
G1 E0.0000 F3000
G92 E0.0000
G1 X139.765 Y99.532 E0.0102 F900
G1 X154.838 Y99.532 E0.3853
G1 X156.112 Y100.806 E0.4301
G1 X156.112 Y112.608 E0.7238
G1 X154.838 Y113.882 E0.7686
G1 X139.765 Y113.882 E1.1437
G1 X139.720 Y114.293 E1.1540
G1 X139.665 Y114.533 E1.1601
G1 X139.510 Y114.976 E1.1718
G1 X139.404 Y115.196 E1.1778
G1 X139.155 Y115.593 E1.1895
G1 X139.003 Y115.784 E1.1956
G1 X138.672 Y116.115 E1.2072
G1 X138.481 Y116.267 E1.2133
G1 X138.084 Y116.516 E1.2250
G1 X137.864 Y116.622 E1.2310
G1 X137.422 Y116.777 E1.2427
G1 X137.184 Y116.831 E1.2488
G1 X136.779 Y116.877 E1.2589
G1 X136.657 Y116.884 E1.2619
G1 X131.696 Y116.884 E1.3854
G1 X130.422 Y115.609 E1.4302
G1 X130.422 Y114.881 E1.4484
G1 X130.124 Y114.875 E1.4558
G1 X129.346 Y114.544 E1.4768
G1 X125.918 Y111.106 E1.5976
G1 X125.643 Y110.647 E1.6109
G1 X125.467 Y110.066 E1.6260
G1 X125.420 Y109.738 E1.6343
G1 X125.431 Y108.532 E1.6643
G1 X125.540 Y108.064 E1.6762
G1 X125.809 Y107.507 E1.6916
G1 X126.114 Y107.124 E1.7038
G1 X126.602 Y106.735 E1.7193
G1 X126.657 Y106.709 E1.7208
G1 X126.602 Y106.682 E1.7224
G1 X126.114 Y106.293 E1.7379
G1 X125.809 Y105.910 E1.7501
G1 X125.539 Y105.349 E1.7656
G1 X125.430 Y104.874 E1.7777
G1 X125.427 Y103.501 E1.8119
G1 X125.557 Y102.978 E1.8253
G1 X125.842 Y102.445 E1.8403
G1 X126.033 Y102.188 E1.8483
G1 X129.356 Y98.865 E1.9652
G1 X130.155 Y98.534 E1.9867
G1 X130.422 Y98.534 E1.9934
G1 X130.422 Y97.808 E2.0114
G1 X131.696 Y96.534 E2.0563
G1 X136.658 Y96.534 E2.1797
G1 X136.780 Y96.540 E2.1828
G1 X137.184 Y96.586 E2.1929
G1 X137.422 Y96.640 E2.1990
G1 X137.864 Y96.795 E2.2106
G1 X138.084 Y96.901 E2.2167
G1 X138.481 Y97.150 E2.2284
G1 X138.672 Y97.302 E2.2344
G1 X139.003 Y97.634 E2.2461
G1 X139.155 Y97.824 E2.2522
G1 X139.404 Y98.221 E2.2638
G1 X139.510 Y98.441 E2.2699
G1 X139.665 Y98.884 E2.2816
G1 X139.719 Y99.123 E2.2877
G92 E0.0000
G1 E-3.8000 F3000
; feature outer perimeter
G1 Z0.480 F1002
G1 X137.400 Y99.525 F6000
G1 X137.473 Y100.181
G1 X127.916 Y104.684
G1 Z0.180 F1002
G1 E0.0000 F3000
G92 E0.0000
G1 X127.779 Y104.652 E0.0035 F450
G1 X127.777 Y103.788 E0.0250
G1 X127.820 Y103.724 E0.0269
G1 X130.661 Y100.884 E0.1269
G1 X131.636 Y100.884 E0.1512
G1 X131.881 Y100.856 E0.1573
G1 X132.126 Y100.770 E0.1637
G1 X132.343 Y100.633 E0.1701
G1 X132.521 Y100.455 E0.1764
G1 X132.658 Y100.237 E0.1828
G1 X132.744 Y99.994 E0.1892
G1 X132.772 Y99.748 E0.1954
G1 X132.772 Y98.884 E0.2169
G1 X136.587 Y98.884 E0.3118
G1 X136.780 Y98.905 E0.3166
G1 X136.954 Y98.966 E0.3212
G1 X137.110 Y99.064 E0.3258
G1 X137.241 Y99.195 E0.3304
G1 X137.339 Y99.351 E0.3350
G1 X137.400 Y99.525 E0.3396
