; G-Code generated by Simplify3D(R) Version 4.1.2
; Oct 29, 2019 at 10:53:21 AM
; Settings Summary
;   processName,Process01
;   applyToModels,03-ARM-01cm
;   profileName,401 Tevo Tornado (experimental)
;   profileVersion,2019-10-29 10:44:47
;   baseProfile,Creality CR-10(2)
;   printMaterial,PLA
;   printQuality,Medium
;   printExtruders,
;   extruderName,Primary Extruder
;   extruderToolheadNumber,0
;   extruderDiameter,0.4
;   extruderAutoWidth,0
;   extruderWidth,0.35
;   extrusionMultiplier,0.95
;   extruderUseRetract,1
;   extruderRetractionDistance,3.8
;   extruderExtraRestartDistance,0
;   extruderRetractionZLift,0.3
;   extruderRetractionSpeed,3000
;   extruderUseCoasting,0
;   extruderCoastingDistance,0.2
;   extruderUseWipe,0
;   extruderWipeDistance,4
;   primaryExtruder,0
;   layerHeight,0.15
;   topSolidLayers,4
;   bottomSolidLayers,3
;   perimeterOutlines,3
;   printPerimetersInsideOut,0
;   startPointOption,1
;   startPointOriginX,0
;   startPointOriginY,300
;   sequentialIslands,0
;   spiralVaseMode,0
;   firstLayerHeightPercentage,120
;   firstLayerWidthPercentage,100
;   firstLayerUnderspeed,0.5
;   useRaft,0
;   raftExtruder,0
;   raftTopLayers,3
;   raftBaseLayers,2
;   raftOffset,3
;   raftSeparationDistance,0.14
;   raftTopInfill,100
;   aboveRaftSpeedMultiplier,0.3
;   useSkirt,1
;   skirtExtruder,0
;   skirtLayers,1
;   skirtOutlines,3
;   skirtOffset,2
;   usePrimePillar,0
;   primePillarExtruder,999
;   primePillarWidth,12
;   primePillarLocation,7
;   primePillarSpeedMultiplier,1
;   useOozeShield,0
;   oozeShieldExtruder,999
;   oozeShieldOffset,2
;   oozeShieldOutlines,1
;   oozeShieldSidewallShape,1
;   oozeShieldSidewallAngle,30
;   oozeShieldSpeedMultiplier,1
;   infillExtruder,0
;   internalInfillPattern,Grid
;   externalInfillPattern,Concentric
;   infillPercentage,25
;   outlineOverlapPercentage,15
;   infillExtrusionWidthPercentage,100
;   minInfillLength,5
;   infillLayerInterval,1
;   internalInfillAngles,45,-45
;   overlapInternalInfillAngles,1
;   externalInfillAngles,45,-45
;   generateSupport,0
;   supportExtruder,0
;   supportInfillPercentage,30
;   supportExtraInflation,0
;   supportBaseLayers,0
;   denseSupportExtruder,0
;   denseSupportLayers,0
;   denseSupportInfillPercentage,70
;   supportLayerInterval,1
;   supportHorizontalPartOffset,0.4
;   supportUpperSeparationLayers,1
;   supportLowerSeparationLayers,1
;   supportType,0
;   supportGridSpacing,4.5
;   maxOverhangAngle,45
;   supportAngles,0
;   temperatureName,Primary Extruder,Heated Bed
;   temperatureNumber,0,0
;   temperatureSetpointCount,2,1
;   temperatureSetpointLayers,1,2,1
;   temperatureSetpointTemperatures,215,210,60
;   temperatureStabilizeAtStartup,1,1
;   temperatureHeatedBed,0,1
;   fanLayers,1,2
;   fanSpeeds,0,100
;   blipFanToFullPower,0
;   adjustSpeedForCooling,1
;   minSpeedLayerTime,15
;   minCoolingSpeedSlowdown,50
;   increaseFanForCooling,1
;   minFanLayerTime,25
;   maxCoolingFanSpeed,100
;   increaseFanForBridging,1
;   bridgingFanSpeed,100
;   use5D,1
;   relativeEdistances,0
;   allowEaxisZeroing,1
;   independentExtruderAxes,0
;   includeM10123,0
;   stickySupport,1
;   applyToolheadOffsets,0
;   gcodeXoffset,0
;   gcodeYoffset,0
;   gcodeZoffset,0
;   overrideMachineDefinition,1
;   machineTypeOverride,0
;   strokeXoverride,300
;   strokeYoverride,300
;   strokeZoverride,400
;   originOffsetXoverride,0
;   originOffsetYoverride,0
;   originOffsetZoverride,0
;   homeXdirOverride,-1
;   homeYdirOverride,-1
;   homeZdirOverride,-1
;   flipXoverride,1
;   flipYoverride,-1
;   flipZoverride,1
;   toolheadOffsets,0,0|0,0|0,0|0,0|0,0|0,0
;   overrideFirmwareConfiguration,1
;   firmwareTypeOverride,RepRap (Marlin/Repetier/Sprinter)
;   GPXconfigOverride,r2
;   baudRateOverride,250000
;   overridePrinterModels,1
;   printerModelsOverride
;   startingGcode,;Init 181010,;G28 			; Home all axes,;G1 Z5 F3000 		; Lift,;G92 E0			; Reset extrusion distance,,; // From Cura 181010,; // Update 190823 (GueroLoco),; // Update 191005 Autoleveling,; // Update 192029 Modify Cleaning,; // Start_gcode,M117 *Start Clean*		; Indicate nozzle clean in progress on LCD,;,M104 S[extruder0_temperature] ,M109 S[extruder0_temperature] ,M109 R[extruder0_temperature] ,;,M107			; Turn layer fan off,G21			; Set to metric [change to G20 if you want Imperial],G90			; Force coordinates to be absolute relative to the origin,G28			; Home X/Y/Z axis,G29			; Auto-leveling,;,;G1 X3 Y1 Z15 F9000		; Move safe Z height to shear strings,;G0 X1 Y1 Z0.2 F9000		; Move in 1mm from edge and up [z] 0.2mm,;G92 E0			; Set extruder to [0] zero,;G1 X100 E12 F500		; Extrude 30mm filiment along X axis 100mm long to prime and clean the nozzle,;G92 E0			; Reset extruder to [0] zero end of cleaning run,;G1 E-1 F500			; Retract filiment by 1 mm to reduce string effect,;G1 X180 F4000		; Quick wipe away from the filament line / purge,;,G92 E0			; Set Extruder to 0 ,G1 X0 Y0 F2000		; Move X and Y to 0 with speed 2000 (mm/min),G1 Z0.1 F1000		; Move Z to 0.1,G1 X8.0 F2000		; Move X to 8.0,G1 Y60.0 E4.0 F1000.0		; Prime - Move Y to 60 and Extruder with 4.0,G1 Y100.0 E8.5 F1000.0		; Prime - Move Y to 100 and Extruder with 8.5,G92 E0			; Set extruder to 0,M117 *End Clean*		; Indicate nozzle clean in progress on LCD,G1 X16.0 F3000		; Move X to 16.0,G1 Z5 F3000			; Move Z to 5 - Lift,; ,M117 *Printing...*		; start msg,; // Begin printing with sliced GCode after here,;
;   layerChangeGcode,
;   retractionGcode,
;   toolChangeGcode,
;   endingGcode,;,; init 181010,;,;M107 			; Fan off,;G1 E-1 F300 			; Retract the filament a bit before lifting the nozzle,;M104 S0 			; Turn off extruder,;M140 S0 			; Turn off bed,;G91			; Relative positioning,;G28 X0 Y0 			; Move X/Y to min endstops so the head is out of teh way,;M84 			; Disable motors,;G90 			; Absolute positioning,;M117 Print ready...,,;,; // From Cura 181010,; // End_gcode,G92 E0			; Zero the extruded length,;G1 E-30 F300		; Retract E -30,M106 S0			; Turn off cooling fan,M104 S0			; Turn off temperature,M140 S0		     	; Turn off bed,G91			; Relative positioning,G1 E-1 F300			; Retract the filament a bit before lifting the nozzle to release some of the pressure,G1 Z+20 E-5 X-20 Y-20 F7200	; Move Z up a bit and retract filament even more,G1 X0 Y150 F10000		; Move right min,M107			; Turn off layer fan,M84			; Disable motors,G90			; Absolute positioning,M117 *The-End* 		; End msg,;,
;   exportFileFormat,gcode
;   celebration,0
;   celebrationSong,Star Wars
;   postProcessing,
;   defaultSpeed,1800
;   outlineUnderspeed,0.5
;   solidInfillUnderspeed,0.8
;   supportUnderspeed,0.8
;   rapidXYspeed,6000
;   rapidZspeed,1002
;   minBridgingArea,50
;   bridgingExtraInflation,0.2
;   bridgingExtrusionMultiplier,1
;   bridgingSpeedMultiplier,0.6
;   useFixedBridgingAngle,0
;   fixedBridgingAngle,0
;   applyBridgingToPerimeters,0
;   filamentDiameters,1.75|1.75|1.75|1.75|1.75|1.75
;   filamentPricesPerKg,30|46|46|46|46|46
;   filamentDensities,1.25|1.25|1.25|1.25|1.25|1.25
;   useMinPrintHeight,0
;   minPrintHeight,0
;   useMaxPrintHeight,0
;   maxPrintHeight,9
;   useDiaphragm,0
;   diaphragmLayerInterval,20
;   robustSlicing,1
;   mergeAllIntoSolid,0
;   onlyRetractWhenCrossingOutline,1
;   retractBetweenLayers,1
;   useRetractionMinTravel,1
;   retractionMinTravel,3
;   retractWhileWiping,1
;   onlyWipeOutlines,1
;   avoidCrossingOutline,1
;   maxMovementDetourFactor,3
;   toolChangeRetractionDistance,12
;   toolChangeExtraRestartDistance,-0.5
;   toolChangeRetractionSpeed,600
;   externalThinWallType,1
;   internalThinWallType,1
;   thinWallAllowedOverlapPercentage,15
;   singleExtrusionMinLength,1
;   singleExtrusionMinPrintingWidthPercentage,50
;   singleExtrusionMaxPrintingWidthPercentage,200
;   singleExtrusionEndpointExtension,0.2
;   horizontalSizeCompensation,0
G90
M82
M106 S0
M140 S60
M190 S60
;Init 181010
;G28 			; Home all axes
;G1 Z5 F3000 		; Lift
;G92 E0			; Reset extrusion distance
; // From Cura 181010
; // Update 190823 (GueroLoco)
; // Update 191005 Autoleveling
; // Update 192029 Modify Cleaning
; // Start_gcode
M117 *Start Clean*		; Indicate nozzle clean in progress on LCD
;
M104 S215 
M109 S215 
M109 R215 
;
M107			; Turn layer fan off
G21			; Set to metric [change to G20 if you want Imperial]
G90			; Force coordinates to be absolute relative to the origin
G28			; Home X/Y/Z axis
G29			; Auto-leveling
;
;G1 X3 Y1 Z15 F9000		; Move safe Z height to shear strings
;G0 X1 Y1 Z0.2 F9000		; Move in 1mm from edge and up [z] 0.2mm
;G92 E0			; Set extruder to [0] zero
;G1 X100 E12 F500		; Extrude 30mm filiment along X axis 100mm long to prime and clean the nozzle
;G92 E0			; Reset extruder to [0] zero end of cleaning run
;G1 E-1 F500			; Retract filiment by 1 mm to reduce string effect
;G1 X180 F4000		; Quick wipe away from the filament line / purge
;
G92 E0			; Set Extruder to 0 
G1 X0 Y0 F2000		; Move X and Y to 0 with speed 2000 (mm/min)
G1 Z0.1 F1000		; Move Z to 0.1
G1 X8.0 F2000		; Move X to 8.0
G1 Y60.0 E4.0 F1000.0		; Prime - Move Y to 60 and Extruder with 4.0
G1 Y100.0 E8.5 F1000.0		; Prime - Move Y to 100 and Extruder with 8.5
G92 E0			; Set extruder to 0
M117 *End Clean*		; Indicate nozzle clean in progress on LCD
G1 X16.0 F3000		; Move X to 16.0
G1 Z5 F3000			; Move Z to 5 - Lift
; 
M117 *Printing...*		; start msg
; // Begin printing with sliced GCode after here
;
; process Process01
; layer 1, Z = 0.180
T0
G92 E0.0000
G1 E-3.8000 F3000
; feature skirt
; tool H0.180 W0.350
G1 Z0.300 F1002
G1 X132.153 Y28.317 F6000
G1 Z0.180 F1002
G1 E0.0000 F3000
G92 E0.0000
G1 X132.165 Y36.699 E0.2086 F900
G1 X130.480 Y38.386 E0.2679
G1 X126.089 Y38.386 E0.3772
G1 X126.089 Y42.636 E0.4829
G1 X130.480 Y42.636 E0.5922
G1 X132.165 Y44.323 E0.6515
G1 X132.153 Y52.705 E0.8601
G1 X130.469 Y54.386 E0.9193
G1 X125.510 Y54.386 E1.0427
G1 X123.964 Y52.845 E1.0970
G1 X123.402 Y52.672 E1.1116
G1 X123.298 Y52.635 E1.1144
G1 X122.667 Y52.386 E1.1312
G1 X113.741 Y52.386 E1.3533
G1 X112.878 Y52.107 E1.3759
G1 X110.953 Y50.715 E1.4350
G1 X109.298 Y49.626 E1.4843
G1 X108.579 Y49.195 E1.5052
G1 X107.642 Y48.684 E1.5317
G1 X107.005 Y48.386 E1.5492
G1 X100.886 Y48.386 E1.7015
G1 X99.202 Y46.702 E1.7608
G1 X99.202 Y34.320 E2.0688
G1 X100.886 Y32.636 E2.1281
G1 X107.009 Y32.636 E2.2805
G1 X107.557 Y32.381 E2.2955
G1 X108.959 Y31.602 E2.3354
G1 X110.519 Y30.605 E2.3815
G1 X112.889 Y28.911 E2.4540
G1 X113.745 Y28.636 E2.4764
G1 X122.667 Y28.636 E2.6984
G1 X123.298 Y28.387 E2.7152
G1 X123.402 Y28.351 E2.7180
G1 X123.964 Y28.178 E2.7326
G1 X125.510 Y26.636 E2.7869
G1 X130.469 Y26.636 E2.9103
G1 X132.153 Y28.317 E2.9695
G92 E0.0000
G1 E-3.8000 F3000
G1 Z0.480 F1002
G1 X129.105 Y29.686 F6000
G1 X129.106 Y30.714
G1 X123.230 Y35.336
G1 X123.039 Y35.336
G1 X123.039 Y35.486
G1 X109.434 Y46.187
G1 X109.022 Y45.963
G1 X108.315 Y45.615
G1 X107.083 Y48.036
G1 Z0.180 F1002
G1 E0.0000 F3000
G92 E0.0000
G1 X101.031 Y48.036 E0.1506 F900
G1 X99.552 Y46.557 E0.2026
G1 X99.552 Y34.465 E0.5035
G1 X101.031 Y32.986 E0.5556
G1 X107.086 Y32.986 E0.7062
G1 X107.716 Y32.693 E0.7235
G1 X109.139 Y31.903 E0.7640
G1 X110.715 Y30.895 E0.8106
G1 X113.048 Y29.227 E0.8819
G1 X113.800 Y28.986 E0.9016
G1 X122.734 Y28.986 E1.1239
G1 X123.420 Y28.715 E1.1422
G1 X123.512 Y28.683 E1.1447
G1 X124.176 Y28.478 E1.1620
G1 X124.176 Y28.460 E1.1624
G1 X125.654 Y26.986 E1.2144
G1 X130.325 Y26.986 E1.3306
G1 X131.803 Y28.463 E1.3826
G1 X131.815 Y36.555 E1.5839
G1 X130.335 Y38.036 E1.6360
G1 X125.739 Y38.036 E1.7504
G1 X125.739 Y42.986 E1.8735
G1 X130.335 Y42.986 E1.9879
G1 X131.815 Y44.468 E2.0400
G1 X131.803 Y52.560 E2.2414
G1 X130.325 Y54.036 E2.2934
G1 X125.654 Y54.036 E2.4096
G1 X124.176 Y52.562 E2.4615
G1 X124.176 Y52.544 E2.4620
G1 X123.512 Y52.339 E2.4793
G1 X123.420 Y52.307 E2.4817
G1 X122.734 Y52.036 E2.5000
G1 X113.796 Y52.036 E2.7224
G1 X113.038 Y51.791 E2.7423
G1 X111.152 Y50.427 E2.8002
G1 X109.484 Y49.329 E2.8499
G1 X108.752 Y48.891 E2.8711
G1 X107.801 Y48.372 E2.8981
G1 X107.083 Y48.036 E2.9178
G92 E0.0000
G1 E-3.8000 F3000
G1 Z0.480 F1002
G1 X108.315 Y45.615 F6000
G1 X109.022 Y45.963
G1 X110.092 Y46.547
G1 X110.919 Y47.041
G1 X111.787 Y47.595
G1 X112.687 Y48.205
G1 X114.229 Y49.320
G1 X114.320 Y49.336
G1 X123.249 Y49.336
G1 X123.860 Y49.591
G1 X124.358 Y49.775
G1 X125.284 Y50.060
G1 X126.189 Y50.263
G1 X126.870 Y50.359
G1 X126.873 Y51.336
G1 X129.105 Y51.336
G1 X131.453 Y52.414
G1 Z0.180 F1002
G1 E0.0000 F3000
G92 E0.0000
G1 X130.180 Y53.686 E0.0448 F900
G1 X125.799 Y53.686 E0.1538
G1 X124.526 Y52.417 E0.1985
G1 X124.525 Y52.285 E0.2018
G1 X123.621 Y52.007 E0.2253
G1 X123.542 Y51.979 E0.2274
G1 X122.800 Y51.686 E0.2473
G1 X113.852 Y51.686 E0.4699
G1 X113.199 Y51.475 E0.4870
G1 X111.351 Y50.139 E0.5438
G1 X109.671 Y49.032 E0.5938
G1 X108.926 Y48.587 E0.6154
G1 X107.959 Y48.060 E0.6428
G1 X107.161 Y47.686 E0.6647
G1 X101.176 Y47.686 E0.8137
G1 X99.902 Y46.412 E0.8585
G1 X99.902 Y34.610 E1.1522
G1 X101.176 Y33.336 E1.1970
G1 X107.164 Y33.336 E1.3460
G1 X107.875 Y33.005 E1.3655
G1 X109.318 Y32.204 E1.4066
G1 X110.911 Y31.185 E1.4536
G1 X113.207 Y29.544 E1.5239
G1 X113.855 Y29.336 E1.5408
G1 X122.800 Y29.336 E1.7634
G1 X123.542 Y29.043 E1.7832
G1 X123.621 Y29.016 E1.7853
G1 X124.525 Y28.737 E1.8088
G1 X124.526 Y28.606 E1.8121
G1 X125.799 Y27.336 E1.8569
G1 X130.180 Y27.336 E1.9659
G1 X131.453 Y28.608 E2.0106
G1 X131.464 Y36.410 E2.2048
G1 X130.190 Y37.686 E2.2497
G1 X125.389 Y37.686 E2.3691
G1 X125.389 Y43.336 E2.5097
G1 X130.190 Y43.336 E2.6292
G1 X131.464 Y44.612 E2.6741
G1 X131.453 Y52.414 E2.8682
G92 E0.0000
G1 E-3.8000 F3000
; feature outer perimeter
G1 Z0.480 F1002
G1 X129.105 Y51.336 F6000
G1 X129.112 Y46.498
G1 X128.790 Y45.686
G1 X123.039 Y45.686
G1 X123.039 Y35.336
G1 X124.693 Y35.336
G1 X123.249 Y31.686
G1 Z0.180 F1002
G1 E0.0000 F3000
G92 E0.0000
G1 X123.859 Y31.431 E0.0165 F450
G1 X124.358 Y31.248 E0.0297
G1 X125.284 Y30.962 E0.0538
G1 X126.189 Y30.759 E0.0769
G1 X126.870 Y30.663 E0.0940
G1 X126.873 Y29.686 E0.1183
G1 X129.105 Y29.686 E0.1738
G1 X129.113 Y35.336 E0.3144
G1 X123.039 Y35.336 E0.4656
G1 X123.039 Y45.686 E0.7231
G1 X129.113 Y45.686 E0.8743
G1 X129.105 Y51.336 E1.0148
G1 X126.873 Y51.336 E1.0704
G1 X126.870 Y50.359 E1.0947
G1 X126.189 Y50.263 E1.1118
G1 X125.284 Y50.060 E1.1349
G1 X124.358 Y49.775 E1.1590
G1 X123.859 Y49.591 E1.1722
G1 X123.249 Y49.336 E1.1887
G1 X114.252 Y49.336 E1.4126
G1 X112.687 Y48.205 E1.4606
G1 X111.787 Y47.596 E1.4876
G1 X110.919 Y47.041 E1.5133
G1 X110.092 Y46.547 E1.5372
G1 X109.022 Y45.963 E1.5676
G1 X108.315 Y45.615 E1.5872
G1 X107.682 Y45.336 E1.6044
G1 X102.252 Y45.336 E1.7395
G1 X102.252 Y35.686 E1.9796
G1 X107.682 Y35.686 E2.1147
G1 X108.315 Y35.407 E2.1319
G1 X108.942 Y35.100 E2.1493
G1 X109.726 Y34.683 E2.1714
G1 X110.523 Y34.223 E2.1943
G1 X111.360 Y33.704 E2.2188
G1 X112.228 Y33.132 E2.2447
G1 X113.189 Y32.464 E2.2738
G1 X114.252 Y31.686 E2.3066
G1 X123.249 Y31.686 E2.5305
; feature inner perimeter
G1 X123.319 Y32.036 F6000
G92 E0.0000
G1 X123.987 Y31.757 E0.0180 F675
G1 X124.470 Y31.579 E0.0308
G1 X125.374 Y31.301 E0.0544
G1 X126.252 Y31.104 E0.0767
G1 X127.219 Y30.968 E0.1011
G1 X127.222 Y30.036 E0.1242
G1 X128.755 Y30.036 E0.1624
G1 X128.762 Y34.986 E0.2856
G1 X122.689 Y34.986 E0.4367
G1 X122.689 Y46.036 E0.7116
G1 X128.762 Y46.036 E0.8628
G1 X128.755 Y50.986 E0.9859
G1 X127.222 Y50.986 E1.0241
G1 X127.219 Y50.055 E1.0473
G1 X126.252 Y49.918 E1.0716
G1 X125.374 Y49.721 E1.0940
G1 X124.470 Y49.443 E1.1175
G1 X123.987 Y49.265 E1.1303
G1 X123.319 Y48.986 E1.1483
G1 X114.365 Y48.986 E1.3711
G1 X112.888 Y47.918 E1.4165
G1 X111.979 Y47.303 E1.4438
G1 X111.103 Y46.743 E1.4697
G1 X110.266 Y46.243 E1.4939
G1 X109.183 Y45.652 E1.5246
G1 X108.463 Y45.298 E1.5446
G1 X107.756 Y44.986 E1.5638
G1 X102.602 Y44.986 E1.6921
G1 X102.602 Y36.036 E1.9148
G1 X107.756 Y36.036 E2.0430
G1 X108.462 Y35.725 E2.0622
G1 X109.102 Y35.412 E2.0799
G1 X109.896 Y34.989 E2.1023
G1 X110.702 Y34.523 E2.1255
G1 X111.549 Y33.999 E2.1503
G1 X112.425 Y33.422 E2.1764
G1 X113.392 Y32.749 E2.2057
G1 X114.367 Y32.036 E2.2357
