; G-Code generated by Simplify3D(R) Version 4.1.2
; Nov 2, 2019 at 6:01:21 PM
; Settings Summary
;   processName,Process1
;   applyToModels,08-BASE-new
;   profileName,401 Tevo Tornado (experimental)
;   profileVersion,2019-10-29 10:44:47
;   baseProfile,Creality CR-10(2)
;   printMaterial,PLA
;   printQuality,Medium
;   printExtruders,
;   extruderName,Primary Extruder
;   extruderToolheadNumber,0
;   extruderDiameter,0.4
;   extruderAutoWidth,0
;   extruderWidth,0.35
;   extrusionMultiplier,0.95
;   extruderUseRetract,1
;   extruderRetractionDistance,3.8
;   extruderExtraRestartDistance,0
;   extruderRetractionZLift,0.3
;   extruderRetractionSpeed,3000
;   extruderUseCoasting,0
;   extruderCoastingDistance,0.2
;   extruderUseWipe,0
;   extruderWipeDistance,4
;   primaryExtruder,0
;   layerHeight,0.15
;   topSolidLayers,4
;   bottomSolidLayers,3
;   perimeterOutlines,3
;   printPerimetersInsideOut,0
;   startPointOption,1
;   startPointOriginX,0
;   startPointOriginY,300
;   sequentialIslands,0
;   spiralVaseMode,0
;   firstLayerHeightPercentage,120
;   firstLayerWidthPercentage,100
;   firstLayerUnderspeed,0.5
;   useRaft,0
;   raftExtruder,0
;   raftTopLayers,3
;   raftBaseLayers,2
;   raftOffset,3
;   raftSeparationDistance,0.14
;   raftTopInfill,100
;   aboveRaftSpeedMultiplier,0.3
;   useSkirt,1
;   skirtExtruder,0
;   skirtLayers,1
;   skirtOutlines,3
;   skirtOffset,2
;   usePrimePillar,0
;   primePillarExtruder,999
;   primePillarWidth,12
;   primePillarLocation,7
;   primePillarSpeedMultiplier,1
;   useOozeShield,0
;   oozeShieldExtruder,999
;   oozeShieldOffset,2
;   oozeShieldOutlines,1
;   oozeShieldSidewallShape,1
;   oozeShieldSidewallAngle,30
;   oozeShieldSpeedMultiplier,1
;   infillExtruder,0
;   internalInfillPattern,Grid
;   externalInfillPattern,Concentric
;   infillPercentage,25
;   outlineOverlapPercentage,15
;   infillExtrusionWidthPercentage,100
;   minInfillLength,5
;   infillLayerInterval,1
;   internalInfillAngles,45,-45
;   overlapInternalInfillAngles,1
;   externalInfillAngles,45,-45
;   generateSupport,0
;   supportExtruder,0
;   supportInfillPercentage,30
;   supportExtraInflation,0
;   supportBaseLayers,0
;   denseSupportExtruder,0
;   denseSupportLayers,0
;   denseSupportInfillPercentage,70
;   supportLayerInterval,1
;   supportHorizontalPartOffset,0.4
;   supportUpperSeparationLayers,1
;   supportLowerSeparationLayers,1
;   supportType,0
;   supportGridSpacing,4.5
;   maxOverhangAngle,45
;   supportAngles,0
;   temperatureName,Primary Extruder,Heated Bed
;   temperatureNumber,0,0
;   temperatureSetpointCount,2,1
;   temperatureSetpointLayers,1,2,1
;   temperatureSetpointTemperatures,215,210,60
;   temperatureStabilizeAtStartup,1,1
;   temperatureHeatedBed,0,1
;   fanLayers,1,2
;   fanSpeeds,0,100
;   blipFanToFullPower,0
;   adjustSpeedForCooling,1
;   minSpeedLayerTime,15
;   minCoolingSpeedSlowdown,50
;   increaseFanForCooling,1
;   minFanLayerTime,25
;   maxCoolingFanSpeed,100
;   increaseFanForBridging,1
;   bridgingFanSpeed,100
;   use5D,1
;   relativeEdistances,0
;   allowEaxisZeroing,1
;   independentExtruderAxes,0
;   includeM10123,0
;   stickySupport,1
;   applyToolheadOffsets,0
;   gcodeXoffset,0
;   gcodeYoffset,0
;   gcodeZoffset,0
;   overrideMachineDefinition,1
;   machineTypeOverride,0
;   strokeXoverride,300
;   strokeYoverride,300
;   strokeZoverride,400
;   originOffsetXoverride,0
;   originOffsetYoverride,0
;   originOffsetZoverride,0
;   homeXdirOverride,-1
;   homeYdirOverride,-1
;   homeZdirOverride,-1
;   flipXoverride,1
;   flipYoverride,-1
;   flipZoverride,1
;   toolheadOffsets,0,0|0,0|0,0|0,0|0,0|0,0
;   overrideFirmwareConfiguration,1
;   firmwareTypeOverride,RepRap (Marlin/Repetier/Sprinter)
;   GPXconfigOverride,r2
;   baudRateOverride,250000
;   overridePrinterModels,1
;   printerModelsOverride
;   startingGcode,;Init 181010,;G28 			; Home all axes,;G1 Z5 F3000 		; Lift,;G92 E0			; Reset extrusion distance,,; // From Cura 181010,; // Update 190823 (GueroLoco),; // Update 191005 Autoleveling,; // Update 192029 Modify Cleaning,; // Start_gcode,M117 *Start Clean*		; Indicate nozzle clean in progress on LCD,;,M104 S[extruder0_temperature] ,M109 S[extruder0_temperature] ,M109 R[extruder0_temperature] ,;,M107			; Turn layer fan off,G21			; Set to metric [change to G20 if you want Imperial],G90			; Force coordinates to be absolute relative to the origin,G28			; Home X/Y/Z axis,G29			; Auto-leveling,;,;G1 X3 Y1 Z15 F9000		; Move safe Z height to shear strings,;G0 X1 Y1 Z0.2 F9000		; Move in 1mm from edge and up [z] 0.2mm,;G92 E0			; Set extruder to [0] zero,;G1 X100 E12 F500		; Extrude 30mm filiment along X axis 100mm long to prime and clean the nozzle,;G92 E0			; Reset extruder to [0] zero end of cleaning run,;G1 E-1 F500			; Retract filiment by 1 mm to reduce string effect,;G1 X180 F4000		; Quick wipe away from the filament line / purge,;,G92 E0			; Set Extruder to 0 ,G1 X0 Y0 F2000		; Move X and Y to 0 with speed 2000 (mm/min),G1 Z0.1 F1000		; Move Z to 0.1,G1 X8.0 F2000		; Move X to 8.0,G1 Y60.0 E4.0 F1000.0		; Prime - Move Y to 60 and Extruder with 4.0,G1 Y100.0 E8.5 F1000.0		; Prime - Move Y to 100 and Extruder with 8.5,G92 E0			; Set extruder to 0,M117 *End Clean*		; Indicate nozzle clean in progress on LCD,G1 X16.0 F3000		; Move X to 16.0,G1 Z5 F3000			; Move Z to 5 - Lift,; ,M117 *Printing...*		; start msg,; // Begin printing with sliced GCode after here,;
;   layerChangeGcode,
;   retractionGcode,
;   toolChangeGcode,
;   endingGcode,;,; init 181010,;,;M107 			; Fan off,;G1 E-1 F300 			; Retract the filament a bit before lifting the nozzle,;M104 S0 			; Turn off extruder,;M140 S0 			; Turn off bed,;G91			; Relative positioning,;G28 X0 Y0 			; Move X/Y to min endstops so the head is out of teh way,;M84 			; Disable motors,;G90 			; Absolute positioning,;M117 Print ready...,,;,; // From Cura 181010,; // End_gcode,G92 E0			; Zero the extruded length,;G1 E-30 F300		; Retract E -30,M106 S0			; Turn off cooling fan,M104 S0			; Turn off temperature,M140 S0		     	; Turn off bed,G91			; Relative positioning,G1 E-1 F300			; Retract the filament a bit before lifting the nozzle to release some of the pressure,G1 Z+20 E-5 X-20 Y-20 F7200	; Move Z up a bit and retract filament even more,G1 X0 Y150 F10000		; Move right min,M107			; Turn off layer fan,M84			; Disable motors,G90			; Absolute positioning,M117 *The-End* 		; End msg,;,
;   exportFileFormat,gcode
;   celebration,0
;   celebrationSong,Star Wars
;   postProcessing,
;   defaultSpeed,1800
;   outlineUnderspeed,0.5
;   solidInfillUnderspeed,0.8
;   supportUnderspeed,0.8
;   rapidXYspeed,6000
;   rapidZspeed,1002
;   minBridgingArea,50
;   bridgingExtraInflation,0.2
;   bridgingExtrusionMultiplier,1
;   bridgingSpeedMultiplier,0.6
;   useFixedBridgingAngle,0
;   fixedBridgingAngle,0
;   applyBridgingToPerimeters,0
;   filamentDiameters,1.75|1.75|1.75|1.75|1.75|1.75
;   filamentPricesPerKg,30|46|46|46|46|46
;   filamentDensities,1.25|1.25|1.25|1.25|1.25|1.25
;   useMinPrintHeight,0
;   minPrintHeight,0
;   useMaxPrintHeight,0
;   maxPrintHeight,9
;   useDiaphragm,0
;   diaphragmLayerInterval,20
;   robustSlicing,1
;   mergeAllIntoSolid,0
;   onlyRetractWhenCrossingOutline,1
;   retractBetweenLayers,1
;   useRetractionMinTravel,1
;   retractionMinTravel,3
;   retractWhileWiping,1
;   onlyWipeOutlines,1
;   avoidCrossingOutline,1
;   maxMovementDetourFactor,3
;   toolChangeRetractionDistance,12
;   toolChangeExtraRestartDistance,-0.5
;   toolChangeRetractionSpeed,600
;   externalThinWallType,1
;   internalThinWallType,1
;   thinWallAllowedOverlapPercentage,15
;   singleExtrusionMinLength,1
;   singleExtrusionMinPrintingWidthPercentage,50
;   singleExtrusionMaxPrintingWidthPercentage,200
;   singleExtrusionEndpointExtension,0.2
;   horizontalSizeCompensation,0
G90
M82
M106 S0
M140 S60
M190 S60
;Init 181010
;G28 			; Home all axes
;G1 Z5 F3000 		; Lift
;G92 E0			; Reset extrusion distance
; // From Cura 181010
; // Update 190823 (GueroLoco)
; // Update 191005 Autoleveling
; // Update 192029 Modify Cleaning
; // Start_gcode
M117 *Start Clean*		; Indicate nozzle clean in progress on LCD
;
M104 S215 
M109 S215 
M109 R215 
;
M107			; Turn layer fan off
G21			; Set to metric [change to G20 if you want Imperial]
G90			; Force coordinates to be absolute relative to the origin
G28			; Home X/Y/Z axis
G29			; Auto-leveling
;
;G1 X3 Y1 Z15 F9000		; Move safe Z height to shear strings
;G0 X1 Y1 Z0.2 F9000		; Move in 1mm from edge and up [z] 0.2mm
;G92 E0			; Set extruder to [0] zero
;G1 X100 E12 F500		; Extrude 30mm filiment along X axis 100mm long to prime and clean the nozzle
;G92 E0			; Reset extruder to [0] zero end of cleaning run
;G1 E-1 F500			; Retract filiment by 1 mm to reduce string effect
;G1 X180 F4000		; Quick wipe away from the filament line / purge
;
G92 E0			; Set Extruder to 0 
G1 X0 Y0 F2000		; Move X and Y to 0 with speed 2000 (mm/min)
G1 Z0.1 F1000		; Move Z to 0.1
G1 X8.0 F2000		; Move X to 8.0
G1 Y60.0 E4.0 F1000.0		; Prime - Move Y to 60 and Extruder with 4.0
G1 Y100.0 E8.5 F1000.0		; Prime - Move Y to 100 and Extruder with 8.5
G92 E0			; Set extruder to 0
M117 *End Clean*		; Indicate nozzle clean in progress on LCD
G1 X16.0 F3000		; Move X to 16.0
G1 Z5 F3000			; Move Z to 5 - Lift
; 
M117 *Printing...*		; start msg
; // Begin printing with sliced GCode after here
;
; process Process1
; layer 1, Z = 0.180
T0
G92 E0.0000
G1 E-3.8000 F3000
; feature skirt
; tool H0.180 W0.350
G1 Z0.300 F1002
G1 X144.032 Y43.035 F6000
G1 Z0.180 F1002
G1 E0.0000 F3000
G92 E0.0000
G1 X148.841 Y47.844 E0.1692 F900
G1 X149.279 Y48.901 E0.1977
G1 X149.279 Y57.282 E0.4062
G1 X149.594 Y57.598 E0.4173
G1 X151.594 Y57.598 E0.4671
G1 X153.279 Y59.282 E0.5264
G1 X153.279 Y81.664 E1.0833
G1 X151.594 Y83.348 E1.1425
G1 X149.594 Y83.348 E1.1923
G1 X149.279 Y83.664 E1.2034
G1 X149.279 Y92.045 E1.4120
G1 X148.841 Y93.101 E1.4404
G1 X144.032 Y97.910 E1.6096
G1 X142.975 Y98.348 E1.6381
G1 X129.832 Y98.348 E1.9652
G1 X128.775 Y97.910 E1.9936
G1 X123.966 Y93.101 E2.1628
G1 X123.528 Y92.045 E2.1913
G1 X123.528 Y48.901 E3.2648
G1 X123.966 Y47.844 E3.2933
G1 X128.775 Y43.035 E3.4625
G1 X129.832 Y42.598 E3.4910
G1 X142.975 Y42.598 E3.8180
G1 X144.032 Y43.035 E3.8465
G92 E0.0000
G1 E-3.8000 F3000
G1 Z0.480 F1002
G1 X142.331 Y45.648 F6000
G1 X144.016 Y47.333
G1 X143.848 Y93.781
G1 X142.331 Y95.298
G1 X143.834 Y97.613
G1 Z0.180 F1002
G1 E0.0000 F3000
G92 E0.0000
G1 X142.906 Y97.998 E0.0250 F900
G1 X129.901 Y97.998 E0.3486
G1 X128.973 Y97.613 E0.3736
G1 X124.263 Y92.903 E0.5393
G1 X123.879 Y91.975 E0.5643
G1 X123.879 Y48.970 E1.6344
G1 X124.263 Y48.042 E1.6594
G1 X128.973 Y43.332 E1.8251
G1 X129.901 Y42.948 E1.8501
G1 X142.906 Y42.948 E2.1737
G1 X143.834 Y43.332 E2.1987
G1 X148.544 Y48.042 E2.3645
G1 X148.929 Y48.970 E2.3895
G1 X148.929 Y57.427 E2.5999
G1 X149.449 Y57.948 E2.6182
G1 X151.449 Y57.948 E2.6680
G1 X152.929 Y59.427 E2.7200
G1 X152.929 Y81.519 E3.2697
G1 X151.449 Y82.998 E3.3218
G1 X149.449 Y82.998 E3.3715
G1 X148.929 Y83.519 E3.3899
G1 X148.929 Y91.975 E3.6003
G1 X148.544 Y92.903 E3.6253
G1 X143.834 Y97.613 E3.7910
G92 E0.0000
G1 E-3.8000 F3000
G1 Z0.480 F1002
G1 X142.331 Y95.298 F6000
G1 X144.451 Y93.178
G1 X149.304 Y58.298
G1 Z0.180 F1002
G1 E0.0000 F3000
G92 E0.0000
G1 X151.304 Y58.298 E0.0498 F900
G1 X152.578 Y59.572 E0.0946
G1 X152.578 Y81.374 E0.6371
G1 X151.304 Y82.648 E0.6819
G1 X149.304 Y82.648 E0.7317
G1 X148.578 Y83.374 E0.7572
G1 X148.578 Y91.905 E0.9695
G1 X148.247 Y92.705 E0.9911
G1 X143.636 Y97.317 E1.1533
G1 X142.836 Y97.648 E1.1749
G1 X129.971 Y97.648 E1.4950
G1 X129.171 Y97.317 E1.5165
G1 X124.560 Y92.705 E1.6788
G1 X124.228 Y91.905 E1.7003
G1 X124.228 Y49.040 E2.7670
G1 X124.560 Y48.241 E2.7885
G1 X129.171 Y43.629 E2.9508
G1 X129.971 Y43.298 E2.9723
G1 X142.836 Y43.298 E3.2924
G1 X143.636 Y43.629 E3.3140
G1 X148.247 Y48.241 E3.4762
G1 X148.578 Y49.040 E3.4978
G1 X148.578 Y57.572 E3.7101
G1 X149.304 Y58.298 E3.7356
G92 E0.0000
G1 E-3.8000 F3000
; feature outer perimeter
G1 Z0.480 F1002
G1 X150.228 Y60.648 F6000
G1 X148.331 Y60.648
G1 X146.228 Y58.545
G1 X146.228 Y57.113
G1 X138.196 Y54.020
G1 X137.959 Y54.268
G1 X137.591 Y54.530
G1 X137.181 Y54.718
G1 X136.742 Y54.824
G1 X136.290 Y54.846
G1 X135.843 Y54.782
G1 X135.417 Y54.634
G1 X135.025 Y54.408
G1 X134.684 Y54.112
G1 X134.405 Y53.757
G1 X134.198 Y53.356
G1 X134.073 Y52.930
G1 X134.028 Y52.473
G1 X134.033 Y52.416
G1 X126.579 Y49.545
G1 Z0.180 F1002
G1 E0.0000 F3000
G92 E0.0000
G1 X130.476 Y45.648 E0.1372 F450
G1 X142.331 Y45.648 E0.4321
G1 X146.228 Y49.545 E0.5693
G1 X146.228 Y58.545 E0.7932
G1 X148.331 Y60.648 E0.8672
G1 X150.228 Y60.648 E0.9144
G1 X150.228 Y80.298 E1.4034
G1 X148.331 Y80.298 E1.4506
G1 X146.228 Y82.400 E1.5246
G1 X146.228 Y91.400 E1.7485
G1 X142.331 Y95.298 E1.8857
G1 X130.476 Y95.298 E2.1807
G1 X126.579 Y91.400 E2.3178
G1 X126.579 Y49.545 E3.3593
; feature inner perimeter
G1 X126.928 Y49.690 F6000
G92 E0.0000
G1 X130.621 Y45.998 E0.1299 F675
G1 X142.186 Y45.998 E0.4177
G1 X145.879 Y49.690 E0.5476
G1 X145.879 Y58.690 E0.7716
G1 X148.186 Y60.998 E0.8528
G1 X149.879 Y60.998 E0.8949
G1 X149.879 Y79.948 E1.3664
G1 X148.186 Y79.948 E1.4085
G1 X145.879 Y82.255 E1.4897
G1 X145.879 Y91.255 E1.7137
G1 X142.186 Y94.948 E1.8436
G1 X130.621 Y94.948 E2.1314
G1 X126.928 Y91.255 E2.2613
G1 X126.928 Y49.690 E3.2956
G1 X127.278 Y49.835 F6000
G92 E0.0000
G1 X130.766 Y46.348 E0.1227 F675
G1 X142.041 Y46.348 E0.4033
G1 X145.529 Y49.835 E0.5260
G1 X145.529 Y58.835 E0.7499
G1 X148.041 Y61.348 E0.8384
G1 X149.529 Y61.348 E0.8754
G1 X149.529 Y79.598 E1.3295
G1 X148.041 Y79.598 E1.3665
G1 X145.529 Y82.110 E1.4549
G1 X145.529 Y91.110 E1.6789
G1 X142.041 Y94.598 E1.8016
G1 X130.766 Y94.598 E2.0821
G1 X127.278 Y91.110 E2.2049
G1 X127.278 Y49.835 E3.2319
; feature outer perimeter
G1 X134.071 Y52.023 F6000
G92 E0.0000
G1 X134.028 Y52.473 E0.0112 F450
G1 X134.073 Y52.930 E0.0227
G1 X134.198 Y53.356 E0.0337
G1 X134.405 Y53.757 E0.0450
G1 X134.684 Y54.112 E0.0562
G1 X135.025 Y54.408 E0.0674
G1 X135.417 Y54.634 E0.0787
G1 X135.843 Y54.782 E0.0899
G1 X136.290 Y54.846 E0.1011
G1 X136.742 Y54.824 E0.1124
G1 X137.181 Y54.718 E0.1236
G1 X137.591 Y54.530 E0.1349
G1 X137.959 Y54.268 E0.1461
G1 X138.271 Y53.941 E0.1573
G1 X138.515 Y53.561 E0.1686
G1 X138.683 Y53.142 E0.1798
G1 X138.769 Y52.699 E0.1911
G1 X138.769 Y52.247 E0.2023
G1 X138.683 Y51.803 E0.2135
G1 X138.515 Y51.384 E0.2248
G1 X138.271 Y51.004 E0.2360
G1 X137.959 Y50.677 E0.2472
G1 X137.591 Y50.415 E0.2585
G1 X137.181 Y50.228 E0.2697
G1 X136.742 Y50.121 E0.2810
G1 X136.290 Y50.100 E0.2922
G1 X135.843 Y50.164 E0.3034
G1 X135.417 Y50.312 E0.3147
G1 X135.025 Y50.537 E0.3259
G1 X134.684 Y50.833 E0.3372
G1 X134.405 Y51.188 E0.3484
G1 X134.198 Y51.590 E0.3596
G1 X134.071 Y52.023 E0.3709
; feature inner perimeter
G1 X133.725 Y51.957 F6000
G92 E0.0000
G1 X133.676 Y52.474 E0.0129 F675
G1 X133.728 Y52.997 E0.0260
G1 X133.871 Y53.486 E0.0387
G1 X134.109 Y53.947 E0.0516
G1 X134.430 Y54.355 E0.0645
G1 X134.821 Y54.694 E0.0774
G1 X135.270 Y54.954 E0.0903
G1 X135.760 Y55.123 E0.1032
G1 X136.274 Y55.197 E0.1161
G1 X136.792 Y55.172 E0.1290
G1 X137.296 Y55.050 E0.1419
G1 X137.767 Y54.835 E0.1548
G1 X138.190 Y54.534 E0.1677
G1 X138.547 Y54.159 E0.1806
G1 X138.828 Y53.722 E0.1935
G1 X139.020 Y53.241 E0.2064
G1 X139.119 Y52.732 E0.2193
G1 X139.119 Y52.213 E0.2322
G1 X139.020 Y51.704 E0.2451
G1 X138.828 Y51.223 E0.2580
G1 X138.547 Y50.787 E0.2709
G1 X138.190 Y50.411 E0.2838
G1 X137.767 Y50.111 E0.2967
G1 X137.296 Y49.895 E0.3096
G1 X136.792 Y49.773 E0.3225
G1 X136.274 Y49.748 E0.3354
G1 X135.760 Y49.822 E0.3483
G1 X135.270 Y49.992 E0.3613
G1 X134.821 Y50.251 E0.3742
G1 X134.430 Y50.591 E0.3871
G1 X134.109 Y50.998 E0.4000
G1 X133.871 Y51.459 E0.4129
G1 X133.725 Y51.957 E0.4258
G1 X133.380 Y51.890 F6000
G92 E0.0000
G1 X133.324 Y52.474 E0.0146 F675
G1 X133.383 Y53.064 E0.0294
G1 X133.545 Y53.617 E0.0437
G1 X133.813 Y54.137 E0.0583
G1 X134.175 Y54.597 E0.0728
G1 X134.617 Y54.981 E0.0874
G1 X135.124 Y55.273 E0.1020
