; G-Code generated by Simplify3D(R) Version 4.1.2
; Feb 20, 2020 at 7:28:47 PM
; Settings Summary
;   processName,Process1
;   applyToModels,LedControlBox
;   profileName,A03-04-15 Tevo Tornado (experimental)
;   profileVersion,2020-02-13 20:53:00
;   baseProfile,Creality CR-10(2)
;   printMaterial,PLA
;   printQuality,Medium
;   printExtruders,
;   extruderName,Primary Extruder
;   extruderToolheadNumber,0
;   extruderDiameter,0.4
;   extruderAutoWidth,0
;   extruderWidth,0.35
;   extrusionMultiplier,0.95
;   extruderUseRetract,1
;   extruderRetractionDistance,4
;   extruderExtraRestartDistance,0
;   extruderRetractionZLift,0.3
;   extruderRetractionSpeed,3000
;   extruderUseCoasting,0
;   extruderCoastingDistance,0.2
;   extruderUseWipe,0
;   extruderWipeDistance,4
;   primaryExtruder,0
;   layerHeight,0.15
;   topSolidLayers,4
;   bottomSolidLayers,3
;   perimeterOutlines,3
;   printPerimetersInsideOut,0
;   startPointOption,1
;   startPointOriginX,0
;   startPointOriginY,300
;   sequentialIslands,0
;   spiralVaseMode,0
;   firstLayerHeightPercentage,120
;   firstLayerWidthPercentage,100
;   firstLayerUnderspeed,0.5
;   useRaft,0
;   raftExtruder,0
;   raftTopLayers,3
;   raftBaseLayers,2
;   raftOffset,3
;   raftSeparationDistance,0.14
;   raftTopInfill,100
;   aboveRaftSpeedMultiplier,0.3
;   useSkirt,1
;   skirtExtruder,0
;   skirtLayers,1
;   skirtOutlines,3
;   skirtOffset,2
;   usePrimePillar,0
;   primePillarExtruder,999
;   primePillarWidth,12
;   primePillarLocation,7
;   primePillarSpeedMultiplier,1
;   useOozeShield,0
;   oozeShieldExtruder,999
;   oozeShieldOffset,2
;   oozeShieldOutlines,1
;   oozeShieldSidewallShape,1
;   oozeShieldSidewallAngle,30
;   oozeShieldSpeedMultiplier,1
;   infillExtruder,0
;   internalInfillPattern,Rectilinear
;   externalInfillPattern,Rectilinear
;   infillPercentage,15
;   outlineOverlapPercentage,15
;   infillExtrusionWidthPercentage,100
;   minInfillLength,5
;   infillLayerInterval,1
;   internalInfillAngles,45,-45
;   overlapInternalInfillAngles,0
;   externalInfillAngles,45,-45
;   generateSupport,0
;   supportExtruder,0
;   supportInfillPercentage,30
;   supportExtraInflation,0
;   supportBaseLayers,0
;   denseSupportExtruder,0
;   denseSupportLayers,0
;   denseSupportInfillPercentage,70
;   supportLayerInterval,1
;   supportHorizontalPartOffset,0.4
;   supportUpperSeparationLayers,1
;   supportLowerSeparationLayers,1
;   supportType,0
;   supportGridSpacing,4.5
;   maxOverhangAngle,45
;   supportAngles,0
;   temperatureName,Primary Extruder,Heated Bed
;   temperatureNumber,0,0
;   temperatureSetpointCount,1,1
;   temperatureSetpointLayers,1,1
;   temperatureSetpointTemperatures,215,55
;   temperatureStabilizeAtStartup,1,1
;   temperatureHeatedBed,0,1
;   fanLayers,1,2
;   fanSpeeds,0,100
;   blipFanToFullPower,0
;   adjustSpeedForCooling,1
;   minSpeedLayerTime,15
;   minCoolingSpeedSlowdown,50
;   increaseFanForCooling,1
;   minFanLayerTime,25
;   maxCoolingFanSpeed,100
;   increaseFanForBridging,1
;   bridgingFanSpeed,100
;   use5D,1
;   relativeEdistances,0
;   allowEaxisZeroing,1
;   independentExtruderAxes,0
;   includeM10123,0
;   stickySupport,1
;   applyToolheadOffsets,0
;   gcodeXoffset,0
;   gcodeYoffset,0
;   gcodeZoffset,0
;   overrideMachineDefinition,1
;   machineTypeOverride,0
;   strokeXoverride,300
;   strokeYoverride,300
;   strokeZoverride,400
;   originOffsetXoverride,0
;   originOffsetYoverride,0
;   originOffsetZoverride,0
;   homeXdirOverride,-1
;   homeYdirOverride,-1
;   homeZdirOverride,-1
;   flipXoverride,1
;   flipYoverride,-1
;   flipZoverride,1
;   toolheadOffsets,0,0|0,0|0,0|0,0|0,0|0,0
;   overrideFirmwareConfiguration,1
;   firmwareTypeOverride,RepRap (Marlin/Repetier/Sprinter)
;   GPXconfigOverride,r2
;   baudRateOverride,250000
;   overridePrinterModels,1
;   printerModelsOverride
;   startingGcode,;,; -]H.P.B[- MarshMalloW  ,; $VER: StartScript 1.02 (26.12.2019) MarshMalloW,;,; Begin Startcode,;,M117 *Preheat*     	; Preheat,;extruder0_temperature,M104 S[extruder0_temperature]  ,M109 S[extruder0_temperature] ,M109 R[extruder0_temperature] ,;,M117 *Auto-leveling*     	; Auto-leveling,M107                   	; Turn layer fan off,G21                    	; Set to metric [change to G20 if you want Imperial],G90                    	; Force coordinates to be absolute relative to the origin,G28                    	; Home X/Y/Z axis,G29                    	; Auto-leveling (BL-Touch),;,M117 *Start Clean*     	; Indicate nozzle clean in progress on LCD,G92 E0                 	; Set Extruder to 0 ,G1 X0 Y0 F2000         	; Move X and Y to 0 with speed 2000 (mm/min),G1 Z0.1 F1000          	; Move Z to   0.1 with speed 1000 (mm/min),G1 X8.0 F2000          	; Move X to   8.0 with speed 2000 (mm/min),G1 Y60.0 E4.0 F1000.0  	; Move Y to  60 and Extruder with 4.0 with speed 1000 (mm/min),G1 Y100.0 E8.5 F1000.0 	; Move Y to 100 and Extruder with 8.5 with speed 1000 (mm/min),G92 E0                 	; Set extruder to 0,G1 X16.0 F3000         	; Move X to 16.0 with speed 3000 (mm/min),G1 Y60.0 F3000         	; Move Y to 60.0 with speed 3000 (mm/min),M117 *End Clean*       	; Indicate nozzle clean in progress on LCD,G1 Z5 F3000            	; Move Z to  5.0 with speed 3000 (mm/min),G1 X20.0 F3000         	; Move X to 20.0 with speed 3000 (mm/min),; ,M117 *Printing...*     	; Start printing msg on LCD,;,; End Startcode,;,; Begin printing with sliced GCode after here,;
;   layerChangeGcode,
;   retractionGcode,
;   toolChangeGcode,
;   endingGcode,;,; init 181010,;,;M107 			; Fan off,;G1 E-1 F300 			; Retract the filament a bit before lifting the nozzle,;M104 S0 			; Turn off extruder,;M140 S0 			; Turn off bed,;G91			; Relative positioning,;G28 X0 Y0 			; Move X/Y to min endstops so the head is out of teh way,;M84 			; Disable motors,;G90 			; Absolute positioning,;M117 Print ready...,,;,; // From Cura 181010,; // End_gcode,G92 E0			; Zero the extruded length,;G1 E-30 F300		; Retract E -30,M106 S0			; Turn off cooling fan,M104 S0			; Turn off temperature,M140 S0		     	; Turn off bed,G91			; Relative positioning,G1 E-1 F300			; Retract the filament a bit before lifting the nozzle to release some of the pressure,G1 Z+20 E-5 X-20 Y-20 F7200	; Move Z up a bit and retract filament even more,G1 X0 Y150 F10000		; Move right min,M107			; Turn off layer fan,M84			; Disable motors,G90			; Absolute positioning,M117 *The-End* 		; End msg,;,
;   exportFileFormat,gcode
;   celebration,0
;   celebrationSong,Star Wars
;   postProcessing,
;   defaultSpeed,1800
;   outlineUnderspeed,0.5
;   solidInfillUnderspeed,0.8
;   supportUnderspeed,0.8
;   rapidXYspeed,6000
;   rapidZspeed,1002
;   minBridgingArea,50
;   bridgingExtraInflation,0.2
;   bridgingExtrusionMultiplier,1
;   bridgingSpeedMultiplier,0.6
;   useFixedBridgingAngle,0
;   fixedBridgingAngle,0
;   applyBridgingToPerimeters,0
;   filamentDiameters,1.75|1.75|1.75|1.75|1.75|1.75
;   filamentPricesPerKg,30|46|46|46|46|46
;   filamentDensities,1.25|1.25|1.25|1.25|1.25|1.25
;   useMinPrintHeight,0
;   minPrintHeight,0
;   useMaxPrintHeight,0
;   maxPrintHeight,9
;   useDiaphragm,0
;   diaphragmLayerInterval,20
;   robustSlicing,1
;   mergeAllIntoSolid,0
;   onlyRetractWhenCrossingOutline,1
;   retractBetweenLayers,1
;   useRetractionMinTravel,0
;   retractionMinTravel,3
;   retractWhileWiping,0
;   onlyWipeOutlines,1
;   avoidCrossingOutline,0
;   maxMovementDetourFactor,3
;   toolChangeRetractionDistance,12
;   toolChangeExtraRestartDistance,-0.5
;   toolChangeRetractionSpeed,600
;   externalThinWallType,1
;   internalThinWallType,1
;   thinWallAllowedOverlapPercentage,10
;   singleExtrusionMinLength,1
;   singleExtrusionMinPrintingWidthPercentage,50
;   singleExtrusionMaxPrintingWidthPercentage,200
;   singleExtrusionEndpointExtension,0.2
;   horizontalSizeCompensation,0
G90
M82
M106 S0
M140 S55
M190 S55
;
; -]H.P.B[- MarshMalloW  
; $VER: StartScript 1.02 (26.12.2019) MarshMalloW
;
; Begin Startcode
;
M117 *Preheat*     	; Preheat
;extruder0_temperature
M104 S215  
M109 S215 
M109 R215 
;
M117 *Auto-leveling*     	; Auto-leveling
M107                   	; Turn layer fan off
G21                    	; Set to metric [change to G20 if you want Imperial]
G90                    	; Force coordinates to be absolute relative to the origin
G28                    	; Home X/Y/Z axis
G29                    	; Auto-leveling (BL-Touch)
;
M117 *Start Clean*     	; Indicate nozzle clean in progress on LCD
G92 E0                 	; Set Extruder to 0 
G1 X0 Y0 F2000         	; Move X and Y to 0 with speed 2000 (mm/min)
G1 Z0.1 F1000          	; Move Z to   0.1 with speed 1000 (mm/min)
G1 X8.0 F2000          	; Move X to   8.0 with speed 2000 (mm/min)
G1 Y60.0 E4.0 F1000.0  	; Move Y to  60 and Extruder with 4.0 with speed 1000 (mm/min)
G1 Y100.0 E8.5 F1000.0 	; Move Y to 100 and Extruder with 8.5 with speed 1000 (mm/min)
G92 E0                 	; Set extruder to 0
G1 X16.0 F3000         	; Move X to 16.0 with speed 3000 (mm/min)
G1 Y60.0 F3000         	; Move Y to 60.0 with speed 3000 (mm/min)
M117 *End Clean*       	; Indicate nozzle clean in progress on LCD
G1 Z5 F3000            	; Move Z to  5.0 with speed 3000 (mm/min)
G1 X20.0 F3000         	; Move X to 20.0 with speed 3000 (mm/min)
; 
M117 *Printing...*     	; Start printing msg on LCD
;
; End Startcode
;
; Begin printing with sliced GCode after here
;
; process Process1
; layer 1, Z = 0.180
T0
G92 E0.0000
G1 E-4.0000 F3000
; feature skirt
; tool H0.180 W0.350
G1 Z0.300 F1002
G1 X216.343 Y84.988 F6000
G1 Z0.180 F1002
G1 E0.0000 F3000
G92 E0.0000
G1 X216.343 Y120.369 E0.8804 F900
G1 X214.658 Y122.054 E0.9397
G1 X95.177 Y122.054 E3.9127
G1 X93.493 Y120.369 E3.9720
G1 X93.493 Y84.988 E4.8523
G1 X95.177 Y83.304 E4.9116
G1 X214.658 Y83.304 E7.8846
G1 X216.343 Y84.988 E7.9439
G92 E0.0000
G1 E-4.0000 F3000
G1 Z0.480 F1002
G1 X93.843 Y120.224 F6000
G1 Z0.180 F1002
G1 E0.0000 F3000
G92 E0.0000
G1 X93.843 Y85.133 E0.8732 F900
G1 X95.322 Y83.654 E0.9252
G1 X214.513 Y83.654 E3.8910
G1 X215.993 Y85.133 E3.9431
G1 X215.993 Y120.224 E4.8163
G1 X214.513 Y121.704 E4.8683
G1 X95.322 Y121.704 E7.8341
G1 X93.843 Y120.224 E7.8862
G92 E0.0000
G1 E-4.0000 F3000
G1 Z0.480 F1002
G1 X215.643 Y120.079 F6000
G1 Z0.180 F1002
G1 E0.0000 F3000
G92 E0.0000
G1 X214.368 Y121.354 E0.0448 F900
G1 X95.467 Y121.354 E3.0034
G1 X94.193 Y120.079 E3.0483
G1 X94.193 Y85.278 E3.9142
G1 X95.467 Y84.004 E3.9591
G1 X214.368 Y84.004 E6.9177
G1 X215.643 Y85.278 E6.9625
G1 X215.643 Y120.079 E7.8285
G92 E0.0000
G1 E-4.0000 F3000
; feature outer perimeter
G1 Z0.480 F1002
G1 X213.293 Y86.354 F6000
G1 Z0.180 F1002
G1 E0.0000 F3000
G92 E0.0000
G1 X213.293 Y119.004 E0.8124 F450
G1 X96.543 Y119.004 E3.7175
G1 X96.543 Y86.354 E4.5299
G1 X213.293 Y86.354 E7.4350
; feature inner perimeter
G1 X212.943 Y86.704 F6000
G92 E0.0000
G1 X212.943 Y118.654 E0.7950 F675
G1 X96.893 Y118.654 E3.6826
G1 X96.893 Y86.704 E4.4776
G1 X212.943 Y86.704 E7.3653
G1 X212.593 Y87.054 F6000
G92 E0.0000
G1 X212.593 Y118.304 E0.7776 F675
G1 X97.243 Y118.304 E3.6478
G1 X97.243 Y87.054 E4.4254
G1 X212.593 Y87.054 E7.2956
; feature solid layer
G1 X211.856 Y87.351 F6000
G92 E0.0000
G1 X212.295 Y87.790 E0.0154 F720
G1 X212.295 Y88.285 E0.0278
G1 X211.361 Y87.351 E0.0606
G1 X210.866 Y87.351 E0.0729
G1 X212.295 Y88.780 E0.1232
G1 X212.295 Y89.275 E0.1355
G1 X210.371 Y87.351 E0.2032
G1 X209.876 Y87.351 E0.2155
G1 X212.295 Y89.770 E0.3006
G1 X212.295 Y90.265 E0.3129
G1 X209.381 Y87.351 E0.4155
G1 X208.887 Y87.351 E0.4278
G1 X212.295 Y90.760 E0.5477
G1 X212.295 Y91.255 E0.5600
G1 X208.392 Y87.351 E0.6974
G1 X207.897 Y87.351 E0.7097
G1 X212.295 Y91.749 E0.8645
G1 X212.295 Y92.244 E0.8768
G1 X207.402 Y87.351 E1.0490
G1 X206.907 Y87.351 E1.0613
G1 X212.295 Y92.739 E1.2509
G1 X212.295 Y93.234 E1.2633
G1 X206.412 Y87.351 E1.4703
G1 X205.917 Y87.351 E1.4826
G1 X212.295 Y93.729 E1.7071
G1 X212.295 Y94.224 E1.7194
G1 X205.422 Y87.351 E1.9613
G1 X204.927 Y87.351 E1.9736
G1 X212.295 Y94.719 E2.2329
G1 X212.295 Y95.214 E2.2452
G1 X204.432 Y87.351 E2.5219
G1 X203.937 Y87.351 E2.5342
G1 X212.295 Y95.709 E2.8283
G1 X212.295 Y96.204 E2.8406
G1 X203.442 Y87.351 E3.1522
G1 X202.947 Y87.351 E3.1645
G1 X212.295 Y96.699 E3.4934
G1 X212.295 Y97.194 E3.5058
G1 X202.452 Y87.351 E3.8521
G1 X201.957 Y87.351 E3.8645
G1 X212.295 Y97.689 E4.2283
G1 X212.295 Y98.184 E4.2406
G1 X201.462 Y87.351 E4.6218
G1 X200.967 Y87.351 E4.6341
G1 X212.295 Y98.679 E5.0327
G1 X212.295 Y99.174 E5.0450
G1 X200.472 Y87.351 E5.4611
G1 X199.977 Y87.351 E5.4734
G1 X212.295 Y99.669 E5.9069
G1 X212.295 Y100.164 E5.9192
G1 X199.482 Y87.351 E6.3701
G1 X198.987 Y87.351 E6.3824
G1 X212.295 Y100.659 E6.8507
G1 X212.295 Y101.154 E6.8630
G1 X198.492 Y87.351 E7.3487
G1 X197.997 Y87.351 E7.3610
G1 X212.295 Y101.649 E7.8642
G1 X212.295 Y102.144 E7.8765
G1 X197.502 Y87.351 E8.3971
G1 X197.007 Y87.351 E8.4094
G1 X212.295 Y102.639 E8.9473
G1 X212.295 Y103.134 E8.9597
G1 X196.512 Y87.351 E9.5151
G1 X196.017 Y87.351 E9.5274
G1 X212.295 Y103.629 E10.1002
G1 X212.295 Y104.124 E10.1125
G1 X195.522 Y87.351 E10.7027
G1 X195.027 Y87.351 E10.7150
G1 X212.295 Y104.619 E11.3227
G1 X212.295 Y105.114 E11.3350
G1 X194.532 Y87.351 E11.9601
G1 X194.037 Y87.351 E11.9724
G1 X212.295 Y105.609 E12.6149
G1 X212.295 Y106.104 E12.6272
G1 X193.542 Y87.351 E13.2871
G1 X193.047 Y87.351 E13.2994
G1 X212.295 Y106.599 E13.9767
G1 X212.295 Y107.094 E13.9890
G1 X192.552 Y87.351 E14.6838
G1 X192.057 Y87.351 E14.6961
G1 X212.295 Y107.589 E15.4082
G1 X212.295 Y108.084 E15.4205
G1 X191.562 Y87.351 E16.1501
G1 X191.067 Y87.351 E16.1624
G1 X212.295 Y108.579 E16.9094
G1 X212.295 Y109.074 E16.9217
G1 X190.572 Y87.351 E17.6861
G1 X190.077 Y87.351 E17.6985
G1 X212.295 Y109.569 E18.4803
G1 X212.295 Y110.064 E18.4926
G1 X189.582 Y87.351 E19.2918
G1 X189.088 Y87.351 E19.3042
G1 X212.295 Y110.559 E20.1208
G1 X212.295 Y111.053 E20.1331
G1 X188.593 Y87.351 E20.9672
G1 X188.098 Y87.351 E20.9795
G1 X212.295 Y111.548 E21.8310
G1 X212.295 Y112.043 E21.8433
G1 X187.603 Y87.351 E22.7123
G1 X187.108 Y87.351 E22.7246
G1 X212.295 Y112.538 E23.6109
G1 X212.295 Y113.033 E23.6232
G1 X186.613 Y87.351 E24.5270
G1 X186.118 Y87.351 E24.5393
G1 X212.295 Y113.528 E25.4605
G1 X212.295 Y114.023 E25.4728
G1 X185.623 Y87.351 E26.4114
G1 X185.128 Y87.351 E26.4237
G1 X212.295 Y114.518 E27.3797
G1 X212.295 Y115.013 E27.3920
G1 X184.633 Y87.351 E28.3654
G1 X184.138 Y87.351 E28.3777
G1 X212.295 Y115.508 E29.3686
G1 X212.295 Y116.003 E29.3809
G1 X183.643 Y87.351 E30.3892
G1 X183.148 Y87.351 E30.4015
G1 X212.295 Y116.498 E31.4271
G1 X212.295 Y116.993 E31.4395
G1 X182.653 Y87.351 E32.4826
G1 X182.158 Y87.351 E32.4949
G1 X212.295 Y117.488 E33.5554
G1 X212.295 Y117.983 E33.5677
G1 X181.663 Y87.351 E34.6456
G1 X181.168 Y87.351 E34.6579
G1 X211.823 Y118.006 E35.7367
G1 X211.328 Y118.006 E35.7490
G1 X180.673 Y87.351 E36.8277
G1 X180.178 Y87.351 E36.8400
G1 X210.833 Y118.006 E37.9188
G1 X210.338 Y118.006 E37.9311
G1 X179.683 Y87.351 E39.0098
G1 X179.188 Y87.351 E39.0221
G1 X209.843 Y118.006 E40.1009
G1 X209.348 Y118.006 E40.1132
G1 X178.693 Y87.351 E41.1919
G1 X178.198 Y87.351 E41.2042
G1 X208.853 Y118.006 E42.2830
G1 X208.358 Y118.006 E42.2953
G1 X177.703 Y87.351 E43.3740
G1 X177.208 Y87.351 E43.3863
G1 X207.863 Y118.006 E44.4651
G1 X207.368 Y118.006 E44.4774
G1 X176.713 Y87.351 E45.5561
G1 X176.218 Y87.351 E45.5684
G1 X206.873 Y118.006 E46.6472
G1 X206.378 Y118.006 E46.6595
G1 X175.723 Y87.351 E47.7382
G1 X175.228 Y87.351 E47.7506
G1 X205.883 Y118.006 E48.8293
G1 X205.388 Y118.006 E48.8416
G1 X174.733 Y87.351 E49.9203
G1 X174.238 Y87.351 E49.9327
G1 X204.893 Y118.006 E51.0114
G1 X204.398 Y118.006 E51.0237
G1 X173.743 Y87.351 E52.1024
G1 X173.248 Y87.351 E52.1148
G1 X203.903 Y118.006 E53.1935
G1 X203.408 Y118.006 E53.2058
G1 X172.753 Y87.351 E54.2845
G1 X172.258 Y87.351 E54.2969
G1 X202.913 Y118.006 E55.3756
G1 X202.418 Y118.006 E55.3879
G1 X171.763 Y87.351 E56.4666
G1 X171.268 Y87.351 E56.4790
G1 X201.923 Y118.006 E57.5577
G1 X201.428 Y118.006 E57.5700
G1 X170.773 Y87.351 E58.6487
