; G-Code generated by Simplify3D(R) Version 4.1.2
; Oct 11, 2022 at 2:23:56 PM
; Settings Summary
;   processName,A13-04 Tevo Tornado
;   applyToModels,Bras Support Led2
;   profileName,A13-04-10s Tevo Tornado
;   profileVersion,2022-10-09 17:10:17
;   baseProfile,Creality CR-10(2)
;   printMaterial,PLA
;   printQuality,Medium
;   printExtruders,
;   extruderName,Primary Extruder
;   extruderToolheadNumber,0
;   extruderDiameter,0.4
;   extruderAutoWidth,0
;   extruderWidth,0.35
;   extrusionMultiplier,0.95
;   extruderUseRetract,1
;   extruderRetractionDistance,4
;   extruderExtraRestartDistance,0
;   extruderRetractionZLift,0.3
;   extruderRetractionSpeed,3600
;   extruderUseCoasting,0
;   extruderCoastingDistance,0.5
;   extruderUseWipe,0
;   extruderWipeDistance,5
;   primaryExtruder,0
;   layerHeight,0.15
;   topSolidLayers,4
;   bottomSolidLayers,3
;   perimeterOutlines,3
;   printPerimetersInsideOut,0
;   startPointOption,2
;   startPointOriginX,0
;   startPointOriginY,300
;   sequentialIslands,0
;   spiralVaseMode,0
;   firstLayerHeightPercentage,120
;   firstLayerWidthPercentage,100
;   firstLayerUnderspeed,0.5
;   useRaft,0
;   raftExtruder,0
;   raftTopLayers,3
;   raftBaseLayers,2
;   raftOffset,3
;   raftSeparationDistance,0.14
;   raftTopInfill,100
;   aboveRaftSpeedMultiplier,0.3
;   useSkirt,1
;   skirtExtruder,0
;   skirtLayers,1
;   skirtOutlines,2
;   skirtOffset,3
;   usePrimePillar,0
;   primePillarExtruder,999
;   primePillarWidth,12
;   primePillarLocation,7
;   primePillarSpeedMultiplier,1
;   useOozeShield,0
;   oozeShieldExtruder,999
;   oozeShieldOffset,2
;   oozeShieldOutlines,1
;   oozeShieldSidewallShape,1
;   oozeShieldSidewallAngle,30
;   oozeShieldSpeedMultiplier,1
;   infillExtruder,0
;   internalInfillPattern,Rectilinear
;   externalInfillPattern,Rectilinear
;   infillPercentage,10
;   outlineOverlapPercentage,15
;   infillExtrusionWidthPercentage,100
;   minInfillLength,5
;   infillLayerInterval,1
;   internalInfillAngles,45,-45
;   overlapInternalInfillAngles,0
;   externalInfillAngles,45,-45
;   generateSupport,1
;   supportExtruder,0
;   supportInfillPercentage,30
;   supportExtraInflation,0
;   supportBaseLayers,0
;   denseSupportExtruder,0
;   denseSupportLayers,0
;   denseSupportInfillPercentage,70
;   supportLayerInterval,1
;   supportHorizontalPartOffset,0.4
;   supportUpperSeparationLayers,1
;   supportLowerSeparationLayers,1
;   supportType,0
;   supportGridSpacing,4.5
;   maxOverhangAngle,45
;   supportAngles,0
;   temperatureName,Primary Extruder,Heated Bed
;   temperatureNumber,0,0
;   temperatureSetpointCount,2,2
;   temperatureSetpointLayers,1,2,1,2
;   temperatureSetpointTemperatures,200,195,55,50
;   temperatureStabilizeAtStartup,1,1
;   temperatureHeatedBed,0,1
;   fanLayers,1,2
;   fanSpeeds,0,100
;   blipFanToFullPower,0
;   adjustSpeedForCooling,1
;   minSpeedLayerTime,15
;   minCoolingSpeedSlowdown,20
;   increaseFanForCooling,1
;   minFanLayerTime,25
;   maxCoolingFanSpeed,100
;   increaseFanForBridging,1
;   bridgingFanSpeed,100
;   use5D,1
;   relativeEdistances,0
;   allowEaxisZeroing,1
;   independentExtruderAxes,0
;   includeM10123,0
;   stickySupport,1
;   applyToolheadOffsets,0
;   gcodeXoffset,0
;   gcodeYoffset,0
;   gcodeZoffset,0
;   overrideMachineDefinition,1
;   machineTypeOverride,0
;   strokeXoverride,300
;   strokeYoverride,300
;   strokeZoverride,400
;   originOffsetXoverride,0
;   originOffsetYoverride,0
;   originOffsetZoverride,0
;   homeXdirOverride,-1
;   homeYdirOverride,-1
;   homeZdirOverride,-1
;   flipXoverride,1
;   flipYoverride,-1
;   flipZoverride,1
;   toolheadOffsets,0,0|0,0|0,0|0,0|0,0|0,0
;   overrideFirmwareConfiguration,1
;   firmwareTypeOverride,RepRap (Marlin/Repetier/Sprinter)
;   GPXconfigOverride,r2
;   baudRateOverride,250000
;   overridePrinterModels,1
;   printerModelsOverride
;   startingGcode,;,; -]H.P.B[- MarshMalloW  ,; $VER: StartScript 1.02 (26.12.2019) MarshMalloW,;,; Begin Startcode,;,M117 *Preheat*     	; Preheat,;extruder0_temperature,M104 S[extruder0_temperature]  ,M109 S[extruder0_temperature] ,M109 R[extruder0_temperature] ,;,M117 *Auto-leveling*     	; Auto-leveling,M107                   	; Turn layer fan off,G21                    	; Set to metric [change to G20 if you want Imperial],G90                    	; Force coordinates to be absolute relative to the origin,G28                    	; Home X/Y/Z axis,G29                    	; Auto-leveling (BL-Touch),;,M117 *Start Clean*     	; Indicate nozzle clean in progress on LCD,G92 E0                 	; Set Extruder to 0 ,G1 X0 Y0 F2000         	; Move X and Y to 0 with speed 2000 (mm/min),G1 Z0.1 F1000          	; Move Z to   0.1 with speed 1000 (mm/min),G1 X8.0 F2000          	; Move X to   8.0 with speed 2000 (mm/min),G1 Y60.0 E4.0 F1000.0  	; Move Y to  60 and Extruder with 4.0 with speed 1000 (mm/min),G1 Y100.0 E8.5 F1000.0 	; Move Y to 100 and Extruder with 8.5 with speed 1000 (mm/min),G92 E0                 	; Set extruder to 0,G1 X16.0 F3000         	; Move X to 16.0 with speed 3000 (mm/min),G1 Y60.0 F3000         	; Move Y to 60.0 with speed 3000 (mm/min),M117 *End Clean*       	; Indicate nozzle clean in progress on LCD,G1 Z5 F3000            	; Move Z to  5.0 with speed 3000 (mm/min),G1 X20.0 F3000         	; Move X to 20.0 with speed 3000 (mm/min),G1 Y20.0 F3000         	; Move Y to 20.0 with speed 3000 (mm/min),; ,M117 *Printing...*     	; Start printing msg on LCD,;,; End Startcode,;,; Begin printing with sliced GCode after here,;
;   layerChangeGcode,
;   retractionGcode,
;   toolChangeGcode,
;   endingGcode,;,; init 181010,;,;M107 			; Fan off,;G1 E-1 F300 			; Retract the filament a bit before lifting the nozzle,;M104 S0 			; Turn off extruder,;M140 S0 			; Turn off bed,;G91			; Relative positioning,;G28 X0 Y0 			; Move X/Y to min endstops so the head is out of teh way,;M84 			; Disable motors,;G90 			; Absolute positioning,;M117 Print ready...,,;,; // From Cura 181010,; // End_gcode,G92 E0			; Zero the extruded length,;G1 E-30 F300		; Retract E -30,M106 S0			; Turn off cooling fan,M104 S0			; Turn off temperature,M140 S0		     	; Turn off bed,G91			; Relative positioning,G1 E-1 F300			; Retract the filament a bit before lifting the nozzle to release some of the pressure,G1 Z+20 E-5 X-20 Y-20 F7200	; Move Z up a bit and retract filament even more,G1 X0 Y150 F10000		; Move right min,M107			; Turn off layer fan,M84			; Disable motors,G90			; Absolute positioning,M117 *The-End* 		; End msg,;,
;   exportFileFormat,gcode
;   celebration,0
;   celebrationSong,Star Wars
;   postProcessing,|{REPLACE "; layer " "M117 INDICATOR-Layer"}|{REPLACE ", Z = " "\n; Z="}
;   defaultSpeed,1800
;   outlineUnderspeed,0.5
;   solidInfillUnderspeed,0.8
;   supportUnderspeed,0.8
;   rapidXYspeed,6000
;   rapidZspeed,1002
;   minBridgingArea,50
;   bridgingExtraInflation,0.2
;   bridgingExtrusionMultiplier,1
;   bridgingSpeedMultiplier,0.8
;   useFixedBridgingAngle,0
;   fixedBridgingAngle,0
;   applyBridgingToPerimeters,0
;   filamentDiameters,1.75|1.75|1.75|1.75|1.75|1.75
;   filamentPricesPerKg,30|46|46|46|46|46
;   filamentDensities,1.25|1.25|1.25|1.25|1.25|1.25
;   useMinPrintHeight,0
;   minPrintHeight,0
;   useMaxPrintHeight,0
;   maxPrintHeight,50
;   useDiaphragm,0
;   diaphragmLayerInterval,20
;   robustSlicing,1
;   mergeAllIntoSolid,0
;   onlyRetractWhenCrossingOutline,1
;   retractBetweenLayers,1
;   useRetractionMinTravel,0
;   retractionMinTravel,3
;   retractWhileWiping,0
;   onlyWipeOutlines,1
;   avoidCrossingOutline,0
;   maxMovementDetourFactor,3
;   toolChangeRetractionDistance,12
;   toolChangeExtraRestartDistance,-0.5
;   toolChangeRetractionSpeed,600
;   externalThinWallType,0
;   internalThinWallType,1
;   thinWallAllowedOverlapPercentage,10
;   singleExtrusionMinLength,1
;   singleExtrusionMinPrintingWidthPercentage,50
;   singleExtrusionMaxPrintingWidthPercentage,200
;   singleExtrusionEndpointExtension,0.2
;   horizontalSizeCompensation,0
G90
M82
M106 S0
M140 S55
M190 S55
;
; -]H.P.B[- MarshMalloW  
; $VER: StartScript 1.02 (26.12.2019) MarshMalloW
;
; Begin Startcode
;
M117 *Preheat*     	; Preheat
;extruder0_temperature
M104 S200  
M109 S200 
M109 R200 
;
M117 *Auto-leveling*     	; Auto-leveling
M107                   	; Turn layer fan off
G21                    	; Set to metric [change to G20 if you want Imperial]
G90                    	; Force coordinates to be absolute relative to the origin
G28                    	; Home X/Y/Z axis
G29                    	; Auto-leveling (BL-Touch)
;
M117 *Start Clean*     	; Indicate nozzle clean in progress on LCD
G92 E0                 	; Set Extruder to 0 
G1 X0 Y0 F2000         	; Move X and Y to 0 with speed 2000 (mm/min)
G1 Z0.1 F1000          	; Move Z to   0.1 with speed 1000 (mm/min)
G1 X8.0 F2000          	; Move X to   8.0 with speed 2000 (mm/min)
G1 Y60.0 E4.0 F1000.0  	; Move Y to  60 and Extruder with 4.0 with speed 1000 (mm/min)
G1 Y100.0 E8.5 F1000.0 	; Move Y to 100 and Extruder with 8.5 with speed 1000 (mm/min)
G92 E0                 	; Set extruder to 0
G1 X16.0 F3000         	; Move X to 16.0 with speed 3000 (mm/min)
G1 Y60.0 F3000         	; Move Y to 60.0 with speed 3000 (mm/min)
M117 *End Clean*       	; Indicate nozzle clean in progress on LCD
G1 Z5 F3000            	; Move Z to  5.0 with speed 3000 (mm/min)
G1 X20.0 F3000         	; Move X to 20.0 with speed 3000 (mm/min)
G1 Y20.0 F3000         	; Move Y to 20.0 with speed 3000 (mm/min)
; 
M117 *Printing...*     	; Start printing msg on LCD
;
; End Startcode
;
; Begin printing with sliced GCode after here
;
; process A13-04 Tevo Tornado
M117 INDICATOR-Layer1
; Z=0.180
T0
G92 E0.0000
G1 E-4.0000 F3600
; feature skirt
; tool H0.180 W0.350
G1 Z0.300 F1002
G1 X97.921 Y84.165 F6000
G1 Z0.180 F1002
G1 E0.0000 F3600
G92 E0.0000
G1 X99.986 Y82.100 E0.0727 F900
G1 X102.189 Y82.100 E0.1275
G1 X102.219 Y82.070 E0.1286
G1 X197.112 Y82.070 E2.4897
G1 X197.142 Y82.100 E2.4908
G1 X199.346 Y82.100 E2.5456
G1 X201.411 Y84.165 E2.6183
G1 X201.411 Y92.025 E2.8139
G1 X199.346 Y94.090 E2.8865
G1 X197.142 Y94.090 E2.9414
G1 X197.112 Y94.120 E2.9424
G1 X102.219 Y94.120 E5.3036
G1 X102.189 Y94.090 E5.3047
G1 X99.986 Y94.090 E5.3595
G1 X97.921 Y92.025 E5.4322
G1 X97.921 Y84.165 E5.6278
G92 E0.0000
G1 E-4.0000 F3600
G1 Z0.480 F1002
G1 X98.271 Y84.310 F6000
G1 Z0.180 F1002
G1 E0.0000 F3600
G92 E0.0000
G1 X100.131 Y82.450 E0.0654 F900
G1 X102.334 Y82.450 E0.1203
G1 X102.364 Y82.420 E0.1213
G1 X196.967 Y82.420 E2.4753
G1 X196.997 Y82.450 E2.4764
G1 X199.201 Y82.450 E2.5312
G1 X201.061 Y84.310 E2.5967
G1 X201.061 Y91.880 E2.7850
G1 X199.201 Y93.740 E2.8505
G1 X196.997 Y93.740 E2.9053
G1 X196.967 Y93.770 E2.9064
G1 X102.364 Y93.770 E5.2603
G1 X102.334 Y93.740 E5.2614
G1 X100.131 Y93.740 E5.3162
G1 X98.271 Y91.880 E5.3817
G1 X98.271 Y84.310 E5.5700
G92 E0.0000
G1 E-4.0000 F3600
; feature outer perimeter
G1 Z0.480 F1002
G1 X103.854 Y85.770 F6000
G1 Z0.180 F1002
G1 E0.0000 F3600
G92 E0.0000
G1 X195.477 Y85.770 E2.2798 F450
G1 X195.477 Y90.420 E2.3955
G1 X103.854 Y90.420 E4.6753
G1 X103.854 Y85.770 E4.7910
; feature inner perimeter
G1 X104.204 Y86.120 F6000
G92 E0.0000
G1 X195.127 Y86.120 E2.2624 F675
G1 X195.127 Y90.070 E2.3607
G1 X104.204 Y90.070 E4.6231
G1 X104.204 Y86.120 E4.7214
G1 X104.554 Y86.470 F6000
G92 E0.0000
G1 X194.777 Y86.470 E2.2450 F675
G1 X194.777 Y89.720 E2.3259
G1 X104.554 Y89.720 E4.5708
G1 X104.554 Y86.470 E4.6517
; feature solid layer
G1 X104.961 Y89.423 F6000
G92 E0.0000
G1 X104.852 Y89.314 E0.0038 F720
G1 X104.852 Y88.819 E0.0161
G1 X105.456 Y89.423 E0.0374
G1 X105.951 Y89.423 E0.0497
G1 X104.852 Y88.324 E0.0884
G1 X104.852 Y87.829 E0.1007
G1 X106.445 Y89.423 E0.1567
G1 X106.940 Y89.423 E0.1691
G1 X104.852 Y87.334 E0.2426
G1 X104.852 Y86.839 E0.2549
G1 X107.435 Y89.423 E0.3458
G1 X107.930 Y89.423 E0.3581
G1 X105.275 Y86.768 E0.4515
G1 X105.770 Y86.768 E0.4638
G1 X108.425 Y89.423 E0.5573
G1 X108.920 Y89.423 E0.5696
G1 X106.265 Y86.768 E0.6630
G1 X106.760 Y86.768 E0.6753
G1 X109.415 Y89.423 E0.7688
G1 X109.910 Y89.423 E0.7811
G1 X107.255 Y86.768 E0.8745
G1 X107.750 Y86.768 E0.8868
G1 X110.405 Y89.423 E0.9802
G1 X110.900 Y89.423 E0.9926
G1 X108.245 Y86.768 E1.0860
G1 X108.740 Y86.768 E1.0983
G1 X111.395 Y89.423 E1.1917
G1 X111.890 Y89.423 E1.2041
G1 X109.235 Y86.768 E1.2975
G1 X109.730 Y86.768 E1.3098
G1 X112.385 Y89.423 E1.4032
G1 X112.880 Y89.423 E1.4155
G1 X110.225 Y86.768 E1.5090
G1 X110.720 Y86.768 E1.5213
G1 X113.375 Y89.423 E1.6147
G1 X113.870 Y89.423 E1.6270
G1 X111.215 Y86.768 E1.7205
G1 X111.710 Y86.768 E1.7328
G1 X114.365 Y89.423 E1.8262
G1 X114.860 Y89.423 E1.8385
G1 X112.205 Y86.768 E1.9320
G1 X112.700 Y86.768 E1.9443
G1 X115.355 Y89.423 E2.0377
G1 X115.850 Y89.423 E2.0500
G1 X113.195 Y86.768 E2.1434
G1 X113.690 Y86.768 E2.1558
G1 X116.345 Y89.423 E2.2492
G1 X116.840 Y89.423 E2.2615
G1 X114.185 Y86.768 E2.3549
G1 X114.680 Y86.768 E2.3672
G1 X117.335 Y89.423 E2.4607
G1 X117.830 Y89.423 E2.4730
G1 X115.175 Y86.768 E2.5664
G1 X115.670 Y86.768 E2.5787
G1 X118.325 Y89.423 E2.6722
G1 X118.820 Y89.423 E2.6845
G1 X116.165 Y86.768 E2.7779
G1 X116.660 Y86.768 E2.7902
G1 X119.315 Y89.423 E2.8837
G1 X119.810 Y89.423 E2.8960
G1 X117.155 Y86.768 E2.9894
G1 X117.650 Y86.768 E3.0017
G1 X120.305 Y89.423 E3.0951
G1 X120.800 Y89.423 E3.1075
G1 X118.145 Y86.768 E3.2009
G1 X118.640 Y86.768 E3.2132
G1 X121.295 Y89.423 E3.3066
G1 X121.790 Y89.423 E3.3190
G1 X119.135 Y86.768 E3.4124
G1 X119.630 Y86.768 E3.4247
G1 X122.285 Y89.423 E3.5181
G1 X122.780 Y89.423 E3.5304
G1 X120.125 Y86.768 E3.6239
G1 X120.620 Y86.768 E3.6362
G1 X123.275 Y89.423 E3.7296
G1 X123.770 Y89.423 E3.7419
G1 X121.115 Y86.768 E3.8354
G1 X121.610 Y86.768 E3.8477
G1 X124.265 Y89.423 E3.9411
G1 X124.760 Y89.423 E3.9534
G1 X122.105 Y86.768 E4.0468
G1 X122.600 Y86.768 E4.0592
G1 X125.255 Y89.423 E4.1526
G1 X125.750 Y89.423 E4.1649
G1 X123.094 Y86.768 E4.2583
G1 X123.589 Y86.768 E4.2707
G1 X126.244 Y89.423 E4.3641
G1 X126.739 Y89.423 E4.3764
G1 X124.084 Y86.768 E4.4698
G1 X124.579 Y86.768 E4.4821
G1 X127.234 Y89.423 E4.5756
G1 X127.729 Y89.423 E4.5879
G1 X125.074 Y86.768 E4.6813
G1 X125.569 Y86.768 E4.6936
G1 X128.224 Y89.423 E4.7871
G1 X128.719 Y89.423 E4.7994
G1 X126.064 Y86.768 E4.8928
G1 X126.559 Y86.768 E4.9051
G1 X129.214 Y89.423 E4.9986
G1 X129.709 Y89.423 E5.0109
G1 X127.054 Y86.768 E5.1043
G1 X127.549 Y86.768 E5.1166
G1 X130.204 Y89.423 E5.2100
G1 X130.699 Y89.423 E5.2224
G1 X128.044 Y86.768 E5.3158
G1 X128.539 Y86.768 E5.3281
G1 X131.194 Y89.423 E5.4215
G1 X131.689 Y89.423 E5.4338
G1 X129.034 Y86.768 E5.5273
G1 X129.529 Y86.768 E5.5396
G1 X132.184 Y89.423 E5.6330
G1 X132.679 Y89.423 E5.6453
G1 X130.024 Y86.768 E5.7388
G1 X130.519 Y86.768 E5.7511
G1 X133.174 Y89.423 E5.8445
G1 X133.669 Y89.423 E5.8568
G1 X131.014 Y86.768 E5.9503
G1 X131.509 Y86.768 E5.9626
G1 X134.164 Y89.423 E6.0560
G1 X134.659 Y89.423 E6.0683
G1 X132.004 Y86.768 E6.1617
G1 X132.499 Y86.768 E6.1741
G1 X135.154 Y89.423 E6.2675
G1 X135.649 Y89.423 E6.2798
G1 X132.994 Y86.768 E6.3732
G1 X133.489 Y86.768 E6.3856
G1 X136.144 Y89.423 E6.4790
G1 X136.639 Y89.423 E6.4913
G1 X133.984 Y86.768 E6.5847
G1 X134.479 Y86.768 E6.5970
G1 X137.134 Y89.423 E6.6905
G1 X137.629 Y89.423 E6.7028
G1 X134.974 Y86.768 E6.7962
G1 X135.469 Y86.768 E6.8085
G1 X138.124 Y89.423 E6.9020
G1 X138.619 Y89.423 E6.9143
G1 X135.964 Y86.768 E7.0077
G1 X136.459 Y86.768 E7.0200
G1 X139.114 Y89.423 E7.1134
G1 X139.609 Y89.423 E7.1258
G1 X136.954 Y86.768 E7.2192
G1 X137.449 Y86.768 E7.2315
G1 X140.104 Y89.423 E7.3249
G1 X140.599 Y89.423 E7.3373
G1 X137.944 Y86.768 E7.4307
G1 X138.439 Y86.768 E7.4430
G1 X141.094 Y89.423 E7.5364
G1 X141.589 Y89.423 E7.5487
G1 X138.934 Y86.768 E7.6422
G1 X139.429 Y86.768 E7.6545
G1 X142.084 Y89.423 E7.7479
G1 X142.579 Y89.423 E7.7602
G1 X139.924 Y86.768 E7.8537
G1 X140.419 Y86.768 E7.8660
G1 X143.074 Y89.423 E7.9594
G1 X143.569 Y89.423 E7.9717
G1 X140.914 Y86.768 E8.0652
G1 X141.409 Y86.768 E8.0775
G1 X144.064 Y89.423 E8.1709
G1 X144.559 Y89.423 E8.1832
G1 X141.904 Y86.768 E8.2766
