; G-Code generated by Simplify3D(R) Version 4.1.2
; Feb 22, 2020 at 8:57:18 PM
; Settings Summary
;   processName,Process1
;   applyToModels,5mmLEDHalter
;   profileName,A03-04-15 Tevo Tornado (experimental)
;   profileVersion,2020-02-13 20:53:00
;   baseProfile,Creality CR-10(2)
;   printMaterial,PLA
;   printQuality,Medium
;   printExtruders,
;   extruderName,Primary Extruder
;   extruderToolheadNumber,0
;   extruderDiameter,0.4
;   extruderAutoWidth,0
;   extruderWidth,0.35
;   extrusionMultiplier,0.95
;   extruderUseRetract,1
;   extruderRetractionDistance,4
;   extruderExtraRestartDistance,0
;   extruderRetractionZLift,0.3
;   extruderRetractionSpeed,3000
;   extruderUseCoasting,0
;   extruderCoastingDistance,0.2
;   extruderUseWipe,0
;   extruderWipeDistance,4
;   primaryExtruder,0
;   layerHeight,0.15
;   topSolidLayers,4
;   bottomSolidLayers,3
;   perimeterOutlines,3
;   printPerimetersInsideOut,0
;   startPointOption,1
;   startPointOriginX,0
;   startPointOriginY,300
;   sequentialIslands,0
;   spiralVaseMode,0
;   firstLayerHeightPercentage,120
;   firstLayerWidthPercentage,100
;   firstLayerUnderspeed,0.5
;   useRaft,0
;   raftExtruder,0
;   raftTopLayers,3
;   raftBaseLayers,2
;   raftOffset,3
;   raftSeparationDistance,0.14
;   raftTopInfill,100
;   aboveRaftSpeedMultiplier,0.3
;   useSkirt,1
;   skirtExtruder,0
;   skirtLayers,1
;   skirtOutlines,3
;   skirtOffset,2
;   usePrimePillar,0
;   primePillarExtruder,999
;   primePillarWidth,12
;   primePillarLocation,7
;   primePillarSpeedMultiplier,1
;   useOozeShield,0
;   oozeShieldExtruder,999
;   oozeShieldOffset,2
;   oozeShieldOutlines,1
;   oozeShieldSidewallShape,1
;   oozeShieldSidewallAngle,30
;   oozeShieldSpeedMultiplier,1
;   infillExtruder,0
;   internalInfillPattern,Rectilinear
;   externalInfillPattern,Rectilinear
;   infillPercentage,15
;   outlineOverlapPercentage,15
;   infillExtrusionWidthPercentage,100
;   minInfillLength,5
;   infillLayerInterval,1
;   internalInfillAngles,45,-45
;   overlapInternalInfillAngles,0
;   externalInfillAngles,45,-45
;   generateSupport,0
;   supportExtruder,0
;   supportInfillPercentage,30
;   supportExtraInflation,0
;   supportBaseLayers,0
;   denseSupportExtruder,0
;   denseSupportLayers,0
;   denseSupportInfillPercentage,70
;   supportLayerInterval,1
;   supportHorizontalPartOffset,0.4
;   supportUpperSeparationLayers,1
;   supportLowerSeparationLayers,1
;   supportType,0
;   supportGridSpacing,4.5
;   maxOverhangAngle,45
;   supportAngles,0
;   temperatureName,Primary Extruder,Heated Bed
;   temperatureNumber,0,0
;   temperatureSetpointCount,1,1
;   temperatureSetpointLayers,1,1
;   temperatureSetpointTemperatures,215,55
;   temperatureStabilizeAtStartup,1,1
;   temperatureHeatedBed,0,1
;   fanLayers,1,2
;   fanSpeeds,0,100
;   blipFanToFullPower,0
;   adjustSpeedForCooling,1
;   minSpeedLayerTime,15
;   minCoolingSpeedSlowdown,50
;   increaseFanForCooling,1
;   minFanLayerTime,25
;   maxCoolingFanSpeed,100
;   increaseFanForBridging,1
;   bridgingFanSpeed,100
;   use5D,1
;   relativeEdistances,0
;   allowEaxisZeroing,1
;   independentExtruderAxes,0
;   includeM10123,0
;   stickySupport,1
;   applyToolheadOffsets,0
;   gcodeXoffset,0
;   gcodeYoffset,0
;   gcodeZoffset,0
;   overrideMachineDefinition,1
;   machineTypeOverride,0
;   strokeXoverride,300
;   strokeYoverride,300
;   strokeZoverride,400
;   originOffsetXoverride,0
;   originOffsetYoverride,0
;   originOffsetZoverride,0
;   homeXdirOverride,-1
;   homeYdirOverride,-1
;   homeZdirOverride,-1
;   flipXoverride,1
;   flipYoverride,-1
;   flipZoverride,1
;   toolheadOffsets,0,0|0,0|0,0|0,0|0,0|0,0
;   overrideFirmwareConfiguration,1
;   firmwareTypeOverride,RepRap (Marlin/Repetier/Sprinter)
;   GPXconfigOverride,r2
;   baudRateOverride,250000
;   overridePrinterModels,1
;   printerModelsOverride
;   startingGcode,;,; -]H.P.B[- MarshMalloW  ,; $VER: StartScript 1.02 (26.12.2019) MarshMalloW,;,; Begin Startcode,;,M117 *Preheat*     	; Preheat,;extruder0_temperature,M104 S[extruder0_temperature]  ,M109 S[extruder0_temperature] ,M109 R[extruder0_temperature] ,;,M117 *Auto-leveling*     	; Auto-leveling,M107                   	; Turn layer fan off,G21                    	; Set to metric [change to G20 if you want Imperial],G90                    	; Force coordinates to be absolute relative to the origin,G28                    	; Home X/Y/Z axis,G29                    	; Auto-leveling (BL-Touch),;,M117 *Start Clean*     	; Indicate nozzle clean in progress on LCD,G92 E0                 	; Set Extruder to 0 ,G1 X0 Y0 F2000         	; Move X and Y to 0 with speed 2000 (mm/min),G1 Z0.1 F1000          	; Move Z to   0.1 with speed 1000 (mm/min),G1 X8.0 F2000          	; Move X to   8.0 with speed 2000 (mm/min),G1 Y60.0 E4.0 F1000.0  	; Move Y to  60 and Extruder with 4.0 with speed 1000 (mm/min),G1 Y100.0 E8.5 F1000.0 	; Move Y to 100 and Extruder with 8.5 with speed 1000 (mm/min),G92 E0                 	; Set extruder to 0,G1 X16.0 F3000         	; Move X to 16.0 with speed 3000 (mm/min),G1 Y60.0 F3000         	; Move Y to 60.0 with speed 3000 (mm/min),M117 *End Clean*       	; Indicate nozzle clean in progress on LCD,G1 Z5 F3000            	; Move Z to  5.0 with speed 3000 (mm/min),G1 X20.0 F3000         	; Move X to 20.0 with speed 3000 (mm/min),; ,M117 *Printing...*     	; Start printing msg on LCD,;,; End Startcode,;,; Begin printing with sliced GCode after here,;
;   layerChangeGcode,
;   retractionGcode,
;   toolChangeGcode,
;   endingGcode,;,; init 181010,;,;M107 			; Fan off,;G1 E-1 F300 			; Retract the filament a bit before lifting the nozzle,;M104 S0 			; Turn off extruder,;M140 S0 			; Turn off bed,;G91			; Relative positioning,;G28 X0 Y0 			; Move X/Y to min endstops so the head is out of teh way,;M84 			; Disable motors,;G90 			; Absolute positioning,;M117 Print ready...,,;,; // From Cura 181010,; // End_gcode,G92 E0			; Zero the extruded length,;G1 E-30 F300		; Retract E -30,M106 S0			; Turn off cooling fan,M104 S0			; Turn off temperature,M140 S0		     	; Turn off bed,G91			; Relative positioning,G1 E-1 F300			; Retract the filament a bit before lifting the nozzle to release some of the pressure,G1 Z+20 E-5 X-20 Y-20 F7200	; Move Z up a bit and retract filament even more,G1 X0 Y150 F10000		; Move right min,M107			; Turn off layer fan,M84			; Disable motors,G90			; Absolute positioning,M117 *The-End* 		; End msg,;,
;   exportFileFormat,gcode
;   celebration,0
;   celebrationSong,Star Wars
;   postProcessing,
;   defaultSpeed,1800
;   outlineUnderspeed,0.5
;   solidInfillUnderspeed,0.8
;   supportUnderspeed,0.8
;   rapidXYspeed,6000
;   rapidZspeed,1002
;   minBridgingArea,50
;   bridgingExtraInflation,0.2
;   bridgingExtrusionMultiplier,1
;   bridgingSpeedMultiplier,0.6
;   useFixedBridgingAngle,0
;   fixedBridgingAngle,0
;   applyBridgingToPerimeters,0
;   filamentDiameters,1.75|1.75|1.75|1.75|1.75|1.75
;   filamentPricesPerKg,30|46|46|46|46|46
;   filamentDensities,1.25|1.25|1.25|1.25|1.25|1.25
;   useMinPrintHeight,0
;   minPrintHeight,0
;   useMaxPrintHeight,0
;   maxPrintHeight,9
;   useDiaphragm,0
;   diaphragmLayerInterval,20
;   robustSlicing,1
;   mergeAllIntoSolid,0
;   onlyRetractWhenCrossingOutline,1
;   retractBetweenLayers,1
;   useRetractionMinTravel,0
;   retractionMinTravel,3
;   retractWhileWiping,0
;   onlyWipeOutlines,1
;   avoidCrossingOutline,0
;   maxMovementDetourFactor,3
;   toolChangeRetractionDistance,12
;   toolChangeExtraRestartDistance,-0.5
;   toolChangeRetractionSpeed,600
;   externalThinWallType,1
;   internalThinWallType,1
;   thinWallAllowedOverlapPercentage,10
;   singleExtrusionMinLength,1
;   singleExtrusionMinPrintingWidthPercentage,50
;   singleExtrusionMaxPrintingWidthPercentage,200
;   singleExtrusionEndpointExtension,0.2
;   horizontalSizeCompensation,0
G90
M82
M106 S220
M140 S55
M190 S55
;
; -]H.P.B[- MarshMalloW  
; $VER: StartScript 1.02 (26.12.2019) MarshMalloW
;
; Begin Startcode
;
M117 *Preheat*     	; Preheat
;extruder0_temperature
M104 S215  
M109 S215 
M109 R215 
;
M117 *Auto-leveling*     	; Auto-leveling
M107                   	; Turn layer fan off
G21                    	; Set to metric [change to G20 if you want Imperial]
G90                    	; Force coordinates to be absolute relative to the origin
G28                    	; Home X/Y/Z axis
G29                    	; Auto-leveling (BL-Touch)
;
M117 *Start Clean*     	; Indicate nozzle clean in progress on LCD
G92 E0                 	; Set Extruder to 0 
G1 X0 Y0 F2000         	; Move X and Y to 0 with speed 2000 (mm/min)
G1 Z0.1 F1000          	; Move Z to   0.1 with speed 1000 (mm/min)
G1 X8.0 F2000          	; Move X to   8.0 with speed 2000 (mm/min)
G1 Y60.0 E4.0 F1000.0  	; Move Y to  60 and Extruder with 4.0 with speed 1000 (mm/min)
G1 Y100.0 E8.5 F1000.0 	; Move Y to 100 and Extruder with 8.5 with speed 1000 (mm/min)
G92 E0                 	; Set extruder to 0
G1 X16.0 F3000         	; Move X to 16.0 with speed 3000 (mm/min)
G1 Y60.0 F3000         	; Move Y to 60.0 with speed 3000 (mm/min)
M117 *End Clean*       	; Indicate nozzle clean in progress on LCD
G1 Z5 F3000            	; Move Z to  5.0 with speed 3000 (mm/min)
G1 X20.0 F3000         	; Move X to 20.0 with speed 3000 (mm/min)
; 
M117 *Printing...*     	; Start printing msg on LCD
;
; End Startcode
;
; Begin printing with sliced GCode after here
;
; process Process1
; layer 1, Z = 0.180
T0
G92 E0.0000
G1 E-4.0000 F3000
; feature skirt
; tool H0.180 W0.350
G1 Z0.300 F1002
G1 X141.823 Y115.147 F6000
G1 Z0.180 F1002
G1 E0.0000 F3000
G92 E0.0000
G1 X142.702 Y115.644 E0.0251 F450
G1 X142.941 Y115.813 E0.0324
G1 X143.849 Y116.605 E0.0624
G1 X144.186 Y117.036 E0.0760
G1 X144.379 Y117.412 E0.0865
G1 X144.715 Y117.519 E0.0953
G1 X145.229 Y117.809 E0.1100
G1 X146.149 Y118.612 E0.1404
G1 X146.347 Y118.823 E0.1476
G1 X146.961 Y119.627 E0.1727
G1 X147.186 Y121.071 E0.2091
G1 X146.669 Y122.515 E0.2473
G1 X145.903 Y123.362 E0.2757
G1 X145.031 Y123.776 E0.2997
G1 X144.829 Y123.854 E0.3051
G1 X144.285 Y124.018 E0.3192
G1 X143.887 Y124.080 E0.3292
G1 X143.082 Y124.091 E0.3493
G1 X142.884 Y124.080 E0.3542
G1 X142.458 Y124.027 E0.3649
G1 X142.312 Y124.001 E0.3686
G1 X141.865 Y123.898 E0.3800
G1 X141.622 Y123.818 E0.3864
G1 X140.913 Y123.515 E0.4056
G1 X140.687 Y123.393 E0.4119
G1 X140.067 Y122.985 E0.4304
G1 X139.914 Y122.868 E0.4352
G1 X139.597 Y122.591 E0.4457
G1 X139.503 Y122.502 E0.4489
G1 X139.212 Y122.199 E0.4594
G1 X139.089 Y122.051 E0.4642
G1 X138.671 Y121.477 E0.4818
G1 X138.568 Y121.314 E0.4866
G1 X138.335 Y120.882 E0.4988
G1 X138.231 Y120.638 E0.5054
G1 X137.993 Y119.898 E0.5248
G1 X137.935 Y119.633 E0.5315
G1 X137.832 Y118.798 E0.5525
G1 X137.839 Y118.396 E0.5625
G1 X137.928 Y117.833 E0.5766
G1 X137.978 Y117.623 E0.5820
G1 X138.270 Y116.703 E0.6060
G1 X139.004 Y115.830 E0.6344
G1 X140.364 Y115.122 E0.6726
G1 X141.823 Y115.147 E0.7089
G92 E0.0000
G1 E-4.0000 F3000
G1 Z0.480 F1002
G1 X140.867 Y123.093 F6000
G1 Z0.180 F1002
G1 E0.0000 F3000
G92 E0.0000
G1 X140.270 Y122.699 E0.0178 F450
G1 X140.135 Y122.596 E0.0220
G1 X139.833 Y122.333 E0.0320
G1 X139.750 Y122.254 E0.0348
G1 X139.473 Y121.965 E0.0448
G1 X139.365 Y121.835 E0.0490
G1 X138.961 Y121.281 E0.0661
G1 X138.870 Y121.137 E0.0703
G1 X138.650 Y120.730 E0.0818
G1 X138.559 Y120.515 E0.0876
G1 X138.331 Y119.807 E0.1061
G1 X138.280 Y119.574 E0.1121
G1 X138.182 Y118.779 E0.1320
G1 X138.189 Y118.426 E0.1408
G1 X138.272 Y117.901 E0.1540
G1 X138.315 Y117.716 E0.1587
G1 X138.582 Y116.875 E0.1807
G1 X139.227 Y116.108 E0.2056
G1 X140.446 Y115.474 E0.2398
G1 X141.728 Y115.496 E0.2717
G1 X142.515 Y115.940 E0.2942
G1 X142.724 Y116.088 E0.3006
G1 X143.594 Y116.847 E0.3293
G1 X143.890 Y117.226 E0.3413
G1 X144.134 Y117.702 E0.3546
G1 X144.575 Y117.842 E0.3661
G1 X145.026 Y118.096 E0.3790
G1 X145.906 Y118.864 E0.4080
G1 X146.080 Y119.049 E0.4144
G1 X146.629 Y119.769 E0.4369
G1 X146.826 Y121.037 E0.4688
G1 X146.363 Y122.332 E0.5030
G1 X145.690 Y123.075 E0.5280
G1 X144.893 Y123.454 E0.5499
G1 X144.716 Y123.523 E0.5547
G1 X144.207 Y123.676 E0.5679
G1 X143.858 Y123.730 E0.5767
G1 X143.089 Y123.741 E0.5958
G1 X142.915 Y123.731 E0.6001
G1 X142.510 Y123.681 E0.6103
G1 X142.382 Y123.658 E0.6135
G1 X141.959 Y123.560 E0.6244
G1 X141.745 Y123.491 E0.6299
G1 X141.065 Y123.199 E0.6484
G1 X140.867 Y123.093 E0.6539
G92 E0.0000
G1 E-4.0000 F3000
G1 Z0.480 F1002
G1 X144.823 Y118.383 F6000
G1 Z0.180 F1002
G1 E0.0000 F3000
G92 E0.0000
G1 X145.662 Y119.116 E0.0277 F450
G1 X145.812 Y119.276 E0.0332
G1 X146.297 Y119.910 E0.0530
G1 X146.467 Y121.003 E0.0806
G1 X146.057 Y122.149 E0.1108
G1 X145.477 Y122.789 E0.1323
G1 X144.755 Y123.132 E0.1522
G1 X144.602 Y123.191 E0.1563
G1 X144.129 Y123.334 E0.1686
G1 X143.829 Y123.380 E0.1762
G1 X143.097 Y123.391 E0.1944
G1 X142.947 Y123.382 E0.1981
G1 X142.562 Y123.335 E0.2077
G1 X142.452 Y123.315 E0.2105
G1 X142.052 Y123.223 E0.2207
G1 X141.869 Y123.163 E0.2256
G1 X141.217 Y122.884 E0.2432
G1 X141.046 Y122.792 E0.2480
G1 X140.472 Y122.413 E0.2651
G1 X140.356 Y122.325 E0.2688
G1 X140.069 Y122.074 E0.2783
G1 X139.998 Y122.007 E0.2807
G1 X139.734 Y121.731 E0.2902
G1 X139.641 Y121.620 E0.2938
G1 X139.251 Y121.084 E0.3103
G1 X139.173 Y120.960 E0.3139
G1 X138.966 Y120.577 E0.3247
G1 X138.887 Y120.393 E0.3297
G1 X138.670 Y119.716 E0.3474
G1 X138.625 Y119.515 E0.3525
G1 X138.533 Y118.761 E0.3715
G1 X138.538 Y118.457 E0.3790
G1 X138.615 Y117.969 E0.3913
G1 X138.653 Y117.810 E0.3954
G1 X138.895 Y117.047 E0.4153
G1 X139.451 Y116.386 E0.4368
G1 X140.529 Y115.825 E0.4670
G1 X141.633 Y115.844 E0.4945
G1 X142.327 Y116.236 E0.5143
G1 X142.508 Y116.364 E0.5198
G1 X143.339 Y117.089 E0.5473
G1 X143.594 Y117.415 E0.5576
G1 X143.854 Y117.923 E0.5718
G1 X143.900 Y117.969 E0.5734
G1 X143.973 Y118.017 E0.5756
G1 X144.434 Y118.165 E0.5876
G1 X144.823 Y118.383 E0.5987
G92 E0.0000
G1 E-4.0000 F3000
; feature outer perimeter
G1 Z0.480 F1002
G1 X141.004 Y119.342 F6000
G1 Z0.180 F1002
G1 E0.0000 F3000
G92 E0.0000
G1 X140.943 Y119.111 E0.0059 F225
G1 X140.903 Y118.876 E0.0119
G1 X140.885 Y118.641 E0.0177
G1 X140.886 Y118.596 E0.0188
G1 X140.920 Y118.435 E0.0230
G1 X141.004 Y118.171 E0.0299
G1 X141.609 Y118.698 E0.0498
G1 X141.743 Y118.997 E0.0580
G1 X141.880 Y119.221 E0.0645
G1 X142.036 Y119.428 E0.0710
G1 X142.211 Y119.620 E0.0774
G1 X142.403 Y119.794 E0.0839
G1 X142.612 Y119.948 E0.0903
G1 X142.834 Y120.083 E0.0968
G1 X143.068 Y120.195 E0.1032
G1 X143.311 Y120.284 E0.1097
G1 X143.477 Y120.328 E0.1140
G1 X144.078 Y120.852 E0.1338
G1 X143.828 Y120.971 E0.1407
G1 X143.672 Y121.027 E0.1448
G1 X143.628 Y121.034 E0.1459
G1 X143.393 Y121.048 E0.1518
G1 X143.155 Y121.040 E0.1577
G1 X142.918 Y121.011 E0.1637
G1 X142.687 Y120.957 E0.1696
G1 X142.464 Y120.874 E0.1755
G1 X142.246 Y120.768 E0.1815
G1 X142.037 Y120.644 E0.1876
G1 X141.840 Y120.501 E0.1936
G1 X141.656 Y120.341 E0.1997
G1 X141.488 Y120.165 E0.2057
G1 X141.336 Y119.975 E0.2118
G1 X141.202 Y119.772 E0.2178
G1 X141.087 Y119.559 E0.2239
G1 X141.004 Y119.342 E0.2296
; feature internal single extrusion
; tool H0.180 W0.175
G1 X141.113 Y118.546 F6000
G92 E0.0000
G1 X141.116 Y118.556 E0.0001 F225
G1 X141.139 Y118.625 E0.0010
G1 X141.142 Y118.633 E0.0011
; tool H0.180 W0.185
G1 X141.167 Y118.682 E0.0019
; tool H0.180 W0.229
G1 X141.194 Y118.735 E0.0028
; tool H0.180 W0.274
G1 X141.221 Y118.789 E0.0040
; tool H0.180 W0.316
G1 X141.244 Y118.834 E0.0051
; tool H0.180 W0.352
G1 X141.269 Y118.879 E0.0064
; tool H0.180 W0.389
G1 X141.297 Y118.930 E0.0080
; tool H0.180 W0.416
G1 X141.314 Y118.984 E0.0097
; tool H0.180 W0.429
G1 X141.327 Y119.028 E0.0111
; tool H0.180 W0.439
G1 X141.342 Y119.071 E0.0125
; tool H0.180 W0.447
G1 X141.361 Y119.123 E0.0143
; tool H0.180 W0.456
G1 X141.379 Y119.175 E0.0161
; tool H0.180 W0.466
G1 X141.396 Y119.216 E0.0175
; tool H0.180 W0.475
G1 X141.414 Y119.253 E0.0189
; tool H0.180 W0.489
G1 X141.461 Y119.348 E0.0226
; tool H0.180 W0.503
G1 X141.476 Y119.381 E0.0239
; tool H0.180 W0.507
G1 X141.496 Y119.415 E0.0253
; tool H0.180 W0.509
G1 X141.524 Y119.463 E0.0273
