; G-Code generated by Simplify3D(R) Version 4.1.2
; Feb 23, 2020 at 12:37:03 AM
; Settings Summary
;   processName,Process1
;   applyToModels,5mmLEDHalter
;   profileName,A03-04-50 Tevo Tornado (experimental)
;   profileVersion,2020-02-13 20:53:17
;   baseProfile,Creality CR-10(2)
;   printMaterial,PLA
;   printQuality,Medium
;   printExtruders,
;   extruderName,Primary Extruder
;   extruderToolheadNumber,0
;   extruderDiameter,0.4
;   extruderAutoWidth,0
;   extruderWidth,0.35
;   extrusionMultiplier,0.95
;   extruderUseRetract,1
;   extruderRetractionDistance,4
;   extruderExtraRestartDistance,0
;   extruderRetractionZLift,0.3
;   extruderRetractionSpeed,3000
;   extruderUseCoasting,0
;   extruderCoastingDistance,0.2
;   extruderUseWipe,0
;   extruderWipeDistance,4
;   primaryExtruder,0
;   layerHeight,0.15
;   topSolidLayers,4
;   bottomSolidLayers,3
;   perimeterOutlines,3
;   printPerimetersInsideOut,0
;   startPointOption,1
;   startPointOriginX,0
;   startPointOriginY,300
;   sequentialIslands,0
;   spiralVaseMode,0
;   firstLayerHeightPercentage,120
;   firstLayerWidthPercentage,100
;   firstLayerUnderspeed,0.5
;   useRaft,0
;   raftExtruder,0
;   raftTopLayers,3
;   raftBaseLayers,2
;   raftOffset,3
;   raftSeparationDistance,0.14
;   raftTopInfill,100
;   aboveRaftSpeedMultiplier,0.3
;   useSkirt,1
;   skirtExtruder,0
;   skirtLayers,1
;   skirtOutlines,3
;   skirtOffset,2
;   usePrimePillar,0
;   primePillarExtruder,999
;   primePillarWidth,12
;   primePillarLocation,7
;   primePillarSpeedMultiplier,1
;   useOozeShield,0
;   oozeShieldExtruder,999
;   oozeShieldOffset,2
;   oozeShieldOutlines,1
;   oozeShieldSidewallShape,1
;   oozeShieldSidewallAngle,30
;   oozeShieldSpeedMultiplier,1
;   infillExtruder,0
;   internalInfillPattern,Rectilinear
;   externalInfillPattern,Rectilinear
;   infillPercentage,50
;   outlineOverlapPercentage,15
;   infillExtrusionWidthPercentage,100
;   minInfillLength,5
;   infillLayerInterval,1
;   internalInfillAngles,45,-45
;   overlapInternalInfillAngles,0
;   externalInfillAngles,45,-45
;   generateSupport,0
;   supportExtruder,0
;   supportInfillPercentage,30
;   supportExtraInflation,0
;   supportBaseLayers,0
;   denseSupportExtruder,0
;   denseSupportLayers,0
;   denseSupportInfillPercentage,70
;   supportLayerInterval,1
;   supportHorizontalPartOffset,0.4
;   supportUpperSeparationLayers,1
;   supportLowerSeparationLayers,1
;   supportType,0
;   supportGridSpacing,4.5
;   maxOverhangAngle,45
;   supportAngles,0
;   temperatureName,Primary Extruder,Heated Bed
;   temperatureNumber,0,0
;   temperatureSetpointCount,1,1
;   temperatureSetpointLayers,1,1
;   temperatureSetpointTemperatures,215,55
;   temperatureStabilizeAtStartup,1,1
;   temperatureHeatedBed,0,1
;   fanLayers,1,2
;   fanSpeeds,0,100
;   blipFanToFullPower,0
;   adjustSpeedForCooling,1
;   minSpeedLayerTime,15
;   minCoolingSpeedSlowdown,50
;   increaseFanForCooling,1
;   minFanLayerTime,25
;   maxCoolingFanSpeed,100
;   increaseFanForBridging,1
;   bridgingFanSpeed,100
;   use5D,1
;   relativeEdistances,0
;   allowEaxisZeroing,1
;   independentExtruderAxes,0
;   includeM10123,0
;   stickySupport,1
;   applyToolheadOffsets,0
;   gcodeXoffset,0
;   gcodeYoffset,0
;   gcodeZoffset,0
;   overrideMachineDefinition,1
;   machineTypeOverride,0
;   strokeXoverride,300
;   strokeYoverride,300
;   strokeZoverride,400
;   originOffsetXoverride,0
;   originOffsetYoverride,0
;   originOffsetZoverride,0
;   homeXdirOverride,-1
;   homeYdirOverride,-1
;   homeZdirOverride,-1
;   flipXoverride,1
;   flipYoverride,-1
;   flipZoverride,1
;   toolheadOffsets,0,0|0,0|0,0|0,0|0,0|0,0
;   overrideFirmwareConfiguration,1
;   firmwareTypeOverride,RepRap (Marlin/Repetier/Sprinter)
;   GPXconfigOverride,r2
;   baudRateOverride,250000
;   overridePrinterModels,1
;   printerModelsOverride
;   startingGcode,;,; -]H.P.B[- MarshMalloW  ,; $VER: StartScript 1.02 (26.12.2019) MarshMalloW,;,; Begin Startcode,;,M117 *Preheat*     	; Preheat,;extruder0_temperature,M104 S[extruder0_temperature]  ,M109 S[extruder0_temperature] ,M109 R[extruder0_temperature] ,;,M117 *Auto-leveling*     	; Auto-leveling,M107                   	; Turn layer fan off,G21                    	; Set to metric [change to G20 if you want Imperial],G90                    	; Force coordinates to be absolute relative to the origin,G28                    	; Home X/Y/Z axis,G29                    	; Auto-leveling (BL-Touch),;,M117 *Start Clean*     	; Indicate nozzle clean in progress on LCD,G92 E0                 	; Set Extruder to 0 ,G1 X0 Y0 F2000         	; Move X and Y to 0 with speed 2000 (mm/min),G1 Z0.1 F1000          	; Move Z to   0.1 with speed 1000 (mm/min),G1 X8.0 F2000          	; Move X to   8.0 with speed 2000 (mm/min),G1 Y60.0 E4.0 F1000.0  	; Move Y to  60 and Extruder with 4.0 with speed 1000 (mm/min),G1 Y100.0 E8.5 F1000.0 	; Move Y to 100 and Extruder with 8.5 with speed 1000 (mm/min),G92 E0                 	; Set extruder to 0,G1 X16.0 F3000         	; Move X to 16.0 with speed 3000 (mm/min),G1 Y60.0 F3000         	; Move Y to 60.0 with speed 3000 (mm/min),M117 *End Clean*       	; Indicate nozzle clean in progress on LCD,G1 Z5 F3000            	; Move Z to  5.0 with speed 3000 (mm/min),G1 X20.0 F3000         	; Move X to 20.0 with speed 3000 (mm/min),; ,M117 *Printing...*     	; Start printing msg on LCD,;,; End Startcode,;,; Begin printing with sliced GCode after here,;
;   layerChangeGcode,
;   retractionGcode,
;   toolChangeGcode,
;   endingGcode,;,; init 181010,;,;M107 			; Fan off,;G1 E-1 F300 			; Retract the filament a bit before lifting the nozzle,;M104 S0 			; Turn off extruder,;M140 S0 			; Turn off bed,;G91			; Relative positioning,;G28 X0 Y0 			; Move X/Y to min endstops so the head is out of teh way,;M84 			; Disable motors,;G90 			; Absolute positioning,;M117 Print ready...,,;,; // From Cura 181010,; // End_gcode,G92 E0			; Zero the extruded length,;G1 E-30 F300		; Retract E -30,M106 S0			; Turn off cooling fan,M104 S0			; Turn off temperature,M140 S0		     	; Turn off bed,G91			; Relative positioning,G1 E-1 F300			; Retract the filament a bit before lifting the nozzle to release some of the pressure,G1 Z+20 E-5 X-20 Y-20 F7200	; Move Z up a bit and retract filament even more,G1 X0 Y150 F10000		; Move right min,M107			; Turn off layer fan,M84			; Disable motors,G90			; Absolute positioning,M117 *The-End* 		; End msg,;,
;   exportFileFormat,gcode
;   celebration,0
;   celebrationSong,Star Wars
;   postProcessing,
;   defaultSpeed,1800
;   outlineUnderspeed,0.5
;   solidInfillUnderspeed,0.8
;   supportUnderspeed,0.8
;   rapidXYspeed,6000
;   rapidZspeed,1002
;   minBridgingArea,50
;   bridgingExtraInflation,0.2
;   bridgingExtrusionMultiplier,1
;   bridgingSpeedMultiplier,0.6
;   useFixedBridgingAngle,0
;   fixedBridgingAngle,0
;   applyBridgingToPerimeters,0
;   filamentDiameters,1.75|1.75|1.75|1.75|1.75|1.75
;   filamentPricesPerKg,30|46|46|46|46|46
;   filamentDensities,1.25|1.25|1.25|1.25|1.25|1.25
;   useMinPrintHeight,0
;   minPrintHeight,0
;   useMaxPrintHeight,0
;   maxPrintHeight,9
;   useDiaphragm,0
;   diaphragmLayerInterval,20
;   robustSlicing,1
;   mergeAllIntoSolid,0
;   onlyRetractWhenCrossingOutline,1
;   retractBetweenLayers,1
;   useRetractionMinTravel,0
;   retractionMinTravel,3
;   retractWhileWiping,0
;   onlyWipeOutlines,1
;   avoidCrossingOutline,0
;   maxMovementDetourFactor,3
;   toolChangeRetractionDistance,12
;   toolChangeExtraRestartDistance,-0.5
;   toolChangeRetractionSpeed,600
;   externalThinWallType,1
;   internalThinWallType,1
;   thinWallAllowedOverlapPercentage,10
;   singleExtrusionMinLength,1
;   singleExtrusionMinPrintingWidthPercentage,50
;   singleExtrusionMaxPrintingWidthPercentage,200
;   singleExtrusionEndpointExtension,0.2
;   horizontalSizeCompensation,0
G90
M82
M106 S102
M140 S55
M190 S55
;
; -]H.P.B[- MarshMalloW  
; $VER: StartScript 1.02 (26.12.2019) MarshMalloW
;
; Begin Startcode
;
M117 *Preheat*     	; Preheat
;extruder0_temperature
M104 S215  
M109 S215 
M109 R215 
;
M117 *Auto-leveling*     	; Auto-leveling
M107                   	; Turn layer fan off
G21                    	; Set to metric [change to G20 if you want Imperial]
G90                    	; Force coordinates to be absolute relative to the origin
G28                    	; Home X/Y/Z axis
G29                    	; Auto-leveling (BL-Touch)
;
M117 *Start Clean*     	; Indicate nozzle clean in progress on LCD
G92 E0                 	; Set Extruder to 0 
G1 X0 Y0 F2000         	; Move X and Y to 0 with speed 2000 (mm/min)
G1 Z0.1 F1000          	; Move Z to   0.1 with speed 1000 (mm/min)
G1 X8.0 F2000          	; Move X to   8.0 with speed 2000 (mm/min)
G1 Y60.0 E4.0 F1000.0  	; Move Y to  60 and Extruder with 4.0 with speed 1000 (mm/min)
G1 Y100.0 E8.5 F1000.0 	; Move Y to 100 and Extruder with 8.5 with speed 1000 (mm/min)
G92 E0                 	; Set extruder to 0
G1 X16.0 F3000         	; Move X to 16.0 with speed 3000 (mm/min)
G1 Y60.0 F3000         	; Move Y to 60.0 with speed 3000 (mm/min)
M117 *End Clean*       	; Indicate nozzle clean in progress on LCD
G1 Z5 F3000            	; Move Z to  5.0 with speed 3000 (mm/min)
G1 X20.0 F3000         	; Move X to 20.0 with speed 3000 (mm/min)
; 
M117 *Printing...*     	; Start printing msg on LCD
;
; End Startcode
;
; Begin printing with sliced GCode after here
;
; process Process1
; layer 1, Z = 0.180
T0
G92 E0.0000
G1 E-4.0000 F3000
; feature skirt
; tool H0.180 W0.350
G1 Z0.300 F1002
G1 X158.127 Y82.158 F6000
G1 Z0.180 F1002
G1 E0.0000 F3000
G92 E0.0000
G1 X158.371 Y82.186 E0.0061 F462
G1 X159.354 Y82.388 E0.0311
G1 X159.635 Y82.476 E0.0384
G1 X160.556 Y82.874 E0.0634
G1 X160.773 Y82.990 E0.0695
G1 X161.388 Y83.392 E0.0878
G1 X161.582 Y83.543 E0.0939
G1 X162.317 Y84.226 E0.1189
G1 X162.511 Y84.448 E0.1262
G1 X163.106 Y85.286 E0.1518
G1 X163.251 Y85.543 E0.1591
G1 X163.663 Y86.485 E0.1847
G1 X163.753 Y86.766 E0.1920
G1 X163.965 Y87.772 E0.2176
G1 X163.996 Y88.065 E0.2250
G1 X163.999 Y89.093 E0.2505
G1 X163.969 Y89.386 E0.2579
G1 X163.767 Y90.370 E0.2829
G1 X163.698 Y90.605 E0.2890
G1 X163.430 Y91.289 E0.3073
G1 X163.321 Y91.509 E0.3134
G1 X162.815 Y92.347 E0.3377
G1 X162.670 Y92.546 E0.3438
G1 X162.188 Y93.101 E0.3621
G1 X162.012 Y93.272 E0.3682
G1 X161.248 Y93.897 E0.3928
G1 X161.030 Y94.044 E0.3993
G1 X160.349 Y94.419 E0.4187
G1 X160.180 Y94.498 E0.4233
G1 X159.608 Y94.722 E0.4386
G1 X159.428 Y94.779 E0.4433
G1 X158.766 Y94.942 E0.4603
G1 X158.572 Y94.976 E0.4652
G1 X157.890 Y95.048 E0.4822
G1 X157.694 Y95.055 E0.4871
G1 X157.023 Y95.034 E0.5038
G1 X156.856 Y95.019 E0.5080
G1 X156.377 Y94.947 E0.5200
G1 X156.195 Y94.908 E0.5247
G1 X155.348 Y94.667 E0.5466
G1 X155.127 Y94.584 E0.5525
G1 X154.489 Y94.282 E0.5700
G1 X154.317 Y94.187 E0.5749
G1 X153.743 Y93.812 E0.5920
G1 X153.586 Y93.693 E0.5969
G1 X153.068 Y93.244 E0.6139
G1 X152.929 Y93.106 E0.6188
G1 X152.460 Y92.571 E0.6365
G1 X152.315 Y92.373 E0.6426
G1 X151.804 Y91.538 E0.6670
G1 X151.694 Y91.319 E0.6731
G1 X151.432 Y90.659 E0.6908
G1 X151.372 Y90.471 E0.6956
G1 X151.208 Y89.805 E0.7127
G1 X151.174 Y89.612 E0.7176
G1 X151.102 Y88.930 E0.7347
G1 X151.095 Y88.734 E0.7395
G1 X151.117 Y88.048 E0.7566
G1 X151.137 Y87.853 E0.7615
G1 X151.249 Y87.191 E0.7782
G1 X151.287 Y87.028 E0.7824
G1 X151.415 Y86.587 E0.7938
G1 X151.459 Y86.460 E0.7971
G1 X151.676 Y85.914 E0.8118
G1 X151.758 Y85.743 E0.8165
G1 X152.103 Y85.126 E0.8341
G1 X152.240 Y84.923 E0.8402
G1 X152.871 Y84.143 E0.8651
G1 X153.079 Y83.933 E0.8725
G1 X153.875 Y83.283 E0.8981
G1 X154.122 Y83.120 E0.9054
G1 X155.011 Y82.657 E0.9304
G1 X155.238 Y82.562 E0.9365
G1 X155.938 Y82.338 E0.9548
G1 X156.177 Y82.283 E0.9609
G1 X157.147 Y82.147 E0.9852
G1 X157.392 Y82.134 E0.9913
G1 X158.127 Y82.158 E1.0096
G92 E0.0000
G1 E-4.0000 F3000
G1 Z0.480 F1002
G1 X154.499 Y93.887 F6000
G1 Z0.180 F1002
G1 E0.0000 F3000
G92 E0.0000
G1 X153.944 Y93.525 E0.0165 F462
G1 X153.806 Y93.421 E0.0208
G1 X153.306 Y92.987 E0.0372
G1 X153.184 Y92.866 E0.0415
G1 X152.734 Y92.352 E0.0585
G1 X152.606 Y92.178 E0.0639
G1 X152.111 Y91.368 E0.0875
G1 X152.014 Y91.176 E0.0929
G1 X151.762 Y90.540 E0.1099
G1 X151.709 Y90.376 E0.1142
G1 X151.551 Y89.733 E0.1307
G1 X151.521 Y89.563 E0.1350
G1 X151.452 Y88.905 E0.1514
G1 X151.446 Y88.733 E0.1557
G1 X151.466 Y88.071 E0.1722
G1 X151.484 Y87.899 E0.1765
G1 X151.592 Y87.259 E0.1926
G1 X151.625 Y87.116 E0.1963
G1 X151.749 Y86.694 E0.2072
G1 X151.787 Y86.582 E0.2102
G1 X151.997 Y86.054 E0.2243
G1 X152.069 Y85.903 E0.2285
G1 X152.401 Y85.310 E0.2454
G1 X152.522 Y85.131 E0.2508
G1 X153.132 Y84.377 E0.2749
G1 X153.315 Y84.193 E0.2814
G1 X154.083 Y83.565 E0.3060
G1 X154.299 Y83.422 E0.3125
G1 X155.160 Y82.974 E0.3366
G1 X155.359 Y82.891 E0.3420
G1 X156.030 Y82.676 E0.3595
G1 X156.241 Y82.628 E0.3649
G1 X157.181 Y82.496 E0.3885
G1 X157.396 Y82.485 E0.3939
G1 X158.101 Y82.507 E0.4114
G1 X158.315 Y82.532 E0.4168
G1 X159.266 Y82.727 E0.4410
G1 X159.513 Y82.805 E0.4474
G1 X160.404 Y83.189 E0.4716
G1 X160.594 Y83.291 E0.4769
G1 X161.185 Y83.677 E0.4945
G1 X161.355 Y83.810 E0.4998
G1 X162.066 Y84.470 E0.5240
G1 X162.236 Y84.665 E0.5304
G1 X162.811 Y85.474 E0.5551
G1 X162.938 Y85.700 E0.5616
G1 X163.336 Y86.609 E0.5863
G1 X163.415 Y86.855 E0.5927
G1 X163.619 Y87.826 E0.6174
G1 X163.646 Y88.084 E0.6238
G1 X163.648 Y89.076 E0.6485
G1 X163.623 Y89.334 E0.6550
G1 X163.427 Y90.285 E0.6791
G1 X163.366 Y90.491 E0.6845
G1 X163.109 Y91.148 E0.7020
G1 X163.014 Y91.341 E0.7074
G1 X162.523 Y92.153 E0.7310
G1 X162.396 Y92.328 E0.7364
G1 X161.934 Y92.860 E0.7539
G1 X161.779 Y93.011 E0.7593
G1 X161.039 Y93.616 E0.7831
G1 X160.848 Y93.745 E0.7888
G1 X160.191 Y94.107 E0.8075
G1 X160.042 Y94.176 E0.8116
G1 X159.491 Y94.392 E0.8263
G1 X159.333 Y94.442 E0.8304
G1 X158.694 Y94.599 E0.8468
G1 X158.524 Y94.629 E0.8511
G1 X157.865 Y94.699 E0.8676
G1 X157.693 Y94.705 E0.8719
G1 X157.044 Y94.684 E0.8880
G1 X156.898 Y94.671 E0.8917
G1 X156.440 Y94.603 E0.9032
G1 X156.280 Y94.568 E0.9072
G1 X155.457 Y94.334 E0.9285
G1 X155.263 Y94.261 E0.9337
G1 X154.649 Y93.971 E0.9506
G1 X154.499 Y93.887 E0.9549
G92 E0.0000
G1 E-4.0000 F3000
G1 Z0.480 F1002
G1 X163.296 Y88.102 F6000
G1 Z0.180 F1002
G1 E0.0000 F3000
G92 E0.0000
G1 X163.298 Y89.059 E0.0238 F462
G1 X163.276 Y89.281 E0.0294
G1 X163.088 Y90.200 E0.0527
G1 X163.035 Y90.378 E0.0573
G1 X162.789 Y91.006 E0.0741
G1 X162.707 Y91.173 E0.0787
G1 X162.231 Y91.959 E0.1016
G1 X162.122 Y92.110 E0.1062
G1 X161.679 Y92.620 E0.1230
G1 X161.546 Y92.749 E0.1276
G1 X160.829 Y93.335 E0.1507
G1 X160.665 Y93.446 E0.1556
G1 X160.032 Y93.794 E0.1736
G1 X159.904 Y93.854 E0.1771
G1 X159.374 Y94.062 E0.1913
G1 X159.238 Y94.105 E0.1948
G1 X158.621 Y94.257 E0.2106
G1 X158.475 Y94.282 E0.2143
G1 X157.840 Y94.349 E0.2302
G1 X157.692 Y94.355 E0.2339
G1 X157.065 Y94.335 E0.2495
G1 X156.939 Y94.323 E0.2526
G1 X156.503 Y94.258 E0.2636
G1 X156.365 Y94.229 E0.2671
G1 X155.567 Y94.001 E0.2878
G1 X155.400 Y93.939 E0.2922
G1 X154.809 Y93.660 E0.3085
G1 X154.680 Y93.587 E0.3122
G1 X154.145 Y93.239 E0.3280
G1 X154.026 Y93.149 E0.3317
G1 X153.544 Y92.731 E0.3476
G1 X153.439 Y92.626 E0.3513
G1 X153.007 Y92.132 E0.3677
G1 X152.896 Y91.983 E0.3723
G1 X152.417 Y91.199 E0.3951
G1 X152.334 Y91.033 E0.3998
G1 X152.091 Y90.422 E0.4161
G1 X152.046 Y90.281 E0.4198
G1 X151.894 Y89.661 E0.4357
G1 X151.868 Y89.515 E0.4394
G1 X151.801 Y88.880 E0.4553
G1 X151.796 Y88.732 E0.4590
G1 X151.816 Y88.094 E0.4748
G1 X151.831 Y87.946 E0.4785
G1 X151.936 Y87.328 E0.4941
G1 X151.964 Y87.205 E0.4973
G1 X152.083 Y86.800 E0.5078
G1 X152.116 Y86.704 E0.5103
G1 X152.318 Y86.194 E0.5240
G1 X152.380 Y86.064 E0.5275
G1 X152.699 Y85.493 E0.5438
G1 X152.803 Y85.340 E0.5484
G1 X153.393 Y84.611 E0.5718
G1 X153.550 Y84.453 E0.5773
G1 X154.291 Y83.847 E0.6011
G1 X154.477 Y83.725 E0.6066
G1 X155.308 Y83.291 E0.6300
G1 X155.480 Y83.220 E0.6346
G1 X156.123 Y83.014 E0.6514
G1 X156.304 Y82.972 E0.6560
G1 X157.214 Y82.845 E0.6789
G1 X157.400 Y82.835 E0.6835
G1 X158.075 Y82.856 E0.7003
G1 X158.259 Y82.878 E0.7049
