; G-Code generated by Simplify3D(R) Version 4.1.2
;
;
;
;
; Nov 2, 2022 at 3:42:05 PM
; Settings Summary
;   processName,A13-04
;   applyToModels,H_0to2_BASE2,HH_1to2_ARM_10cm_Nut
;   profileName,PLA-A13-04-15-210 Tevo Tornado
;   profileVersion,2022-10-27 16:54:29
;   baseProfile,Creality CR-10(2)
;   printMaterial,PLA
;   printQuality,Medium
;   printExtruders,
;   extruderName,Primary Extruder
;   extruderToolheadNumber,0
;   extruderDiameter,0.4
;   extruderAutoWidth,0
;   extruderWidth,0.35
;   extrusionMultiplier,0.95
;   extruderUseRetract,1
;   extruderRetractionDistance,4
;   extruderExtraRestartDistance,0
;   extruderRetractionZLift,0.3
;   extruderRetractionSpeed,3600
;   extruderUseCoasting,0
;   extruderCoastingDistance,0.5
;   extruderUseWipe,0
;   extruderWipeDistance,5
;   primaryExtruder,0
;   layerHeight,0.15
;   topSolidLayers,4
;   bottomSolidLayers,3
;   perimeterOutlines,3
;   printPerimetersInsideOut,0
;   startPointOption,2
;   startPointOriginX,0
;   startPointOriginY,300
;   sequentialIslands,0
;   spiralVaseMode,0
;   firstLayerHeightPercentage,120
;   firstLayerWidthPercentage,100
;   firstLayerUnderspeed,0.5
;   useRaft,0
;   raftExtruder,0
;   raftTopLayers,3
;   raftBaseLayers,2
;   raftOffset,3
;   raftSeparationDistance,0.14
;   raftTopInfill,100
;   aboveRaftSpeedMultiplier,0.3
;   useSkirt,1
;   skirtExtruder,0
;   skirtLayers,1
;   skirtOutlines,2
;   skirtOffset,3
;   usePrimePillar,0
;   primePillarExtruder,999
;   primePillarWidth,12
;   primePillarLocation,7
;   primePillarSpeedMultiplier,1
;   useOozeShield,0
;   oozeShieldExtruder,999
;   oozeShieldOffset,2
;   oozeShieldOutlines,1
;   oozeShieldSidewallShape,1
;   oozeShieldSidewallAngle,30
;   oozeShieldSpeedMultiplier,1
;   infillExtruder,0
;   internalInfillPattern,Rectilinear
;   externalInfillPattern,Rectilinear
;   infillPercentage,15
;   outlineOverlapPercentage,15
;   infillExtrusionWidthPercentage,100
;   minInfillLength,5
;   infillLayerInterval,1
;   internalInfillAngles,45,-45
;   overlapInternalInfillAngles,0
;   externalInfillAngles,45,-45
;   generateSupport,0
;   supportExtruder,0
;   supportInfillPercentage,30
;   supportExtraInflation,0
;   supportBaseLayers,0
;   denseSupportExtruder,0
;   denseSupportLayers,0
;   denseSupportInfillPercentage,70
;   supportLayerInterval,1
;   supportHorizontalPartOffset,0.4
;   supportUpperSeparationLayers,1
;   supportLowerSeparationLayers,1
;   supportType,0
;   supportGridSpacing,4.5
;   maxOverhangAngle,45
;   supportAngles,0
;   temperatureName,Primary Extruder,Heated Bed
;   temperatureNumber,0,0
;   temperatureSetpointCount,2,2
;   temperatureSetpointLayers,1,2,1,2
;   temperatureSetpointTemperatures,215,210,55,50
;   temperatureStabilizeAtStartup,1,1
;   temperatureHeatedBed,0,1
;   fanLayers,1,2
;   fanSpeeds,0,100
;   blipFanToFullPower,0
;   adjustSpeedForCooling,1
;   minSpeedLayerTime,15
;   minCoolingSpeedSlowdown,20
;   increaseFanForCooling,1
;   minFanLayerTime,25
;   maxCoolingFanSpeed,100
;   increaseFanForBridging,1
;   bridgingFanSpeed,100
;   use5D,1
;   relativeEdistances,0
;   allowEaxisZeroing,1
;   independentExtruderAxes,0
;   includeM10123,0
;   stickySupport,1
;   applyToolheadOffsets,0
;   gcodeXoffset,0
;   gcodeYoffset,0
;   gcodeZoffset,0
;   overrideMachineDefinition,1
;   machineTypeOverride,0
;   strokeXoverride,300
;   strokeYoverride,300
;   strokeZoverride,400
;   originOffsetXoverride,0
;   originOffsetYoverride,0
;   originOffsetZoverride,0
;   homeXdirOverride,-1
;   homeYdirOverride,-1
;   homeZdirOverride,-1
;   flipXoverride,1
;   flipYoverride,-1
;   flipZoverride,1
;   toolheadOffsets,0,0|0,0|0,0|0,0|0,0|0,0
;   overrideFirmwareConfiguration,1
;   firmwareTypeOverride,RepRap (Marlin/Repetier/Sprinter)
;   GPXconfigOverride,r2
;   baudRateOverride,250000
;   overridePrinterModels,1
;   printerModelsOverride
;   startingGcode,;,; -]H.P.B[- MarshMalloW  ,; $VER: StartScript 1.02 (26.12.2019) MarshMalloW,;,; Begin Startcode,;,M117 *Preheat*     	; Preheat,;extruder0_temperature,M104 S[extruder0_temperature]  ,M109 S[extruder0_temperature] ,M109 R[extruder0_temperature] ,;,M117 *Auto-leveling*     	; Auto-leveling,M107                   	; Turn layer fan off,G21                    	; Set to metric [change to G20 if you want Imperial],G90                    	; Force coordinates to be absolute relative to the origin,G28                    	; Home X/Y/Z axis,G29                    	; Auto-leveling (BL-Touch),;,M117 *Start Clean*     	; Indicate nozzle clean in progress on LCD,G92 E0                 	; Set Extruder to 0 ,G1 X0 Y0 F2000         	; Move X and Y to 0 with speed 2000 (mm/min),G1 Z0.1 F1000          	; Move Z to   0.1 with speed 1000 (mm/min),G1 X8.0 F2000          	; Move X to   8.0 with speed 2000 (mm/min),G1 Y60.0 E4.0 F1000.0  	; Move Y to  60 and Extruder with 4.0 with speed 1000 (mm/min),G1 Y100.0 E8.5 F1000.0 	; Move Y to 100 and Extruder with 8.5 with speed 1000 (mm/min),G92 E0                 	; Set extruder to 0,G1 X16.0 F3000         	; Move X to 16.0 with speed 3000 (mm/min),G1 Y60.0 F3000         	; Move Y to 60.0 with speed 3000 (mm/min),M117 *End Clean*       	; Indicate nozzle clean in progress on LCD,G1 Z5 F3000            	; Move Z to  5.0 with speed 3000 (mm/min),G1 X20.0 F3000         	; Move X to 20.0 with speed 3000 (mm/min),G1 Y20.0 F3000         	; Move Y to 20.0 with speed 3000 (mm/min),; ,M117 *Printing...*     	; Start printing msg on LCD,;,; End Startcode,;,; Begin printing with sliced GCode after here,;
;   layerChangeGcode,
;   retractionGcode,
;   toolChangeGcode,
;   endingGcode,;,; init 181010,;,;M107 			; Fan off,;G1 E-1 F300 			; Retract the filament a bit before lifting the nozzle,;M104 S0 			; Turn off extruder,;M140 S0 			; Turn off bed,;G91			; Relative positioning,;G28 X0 Y0 			; Move X/Y to min endstops so the head is out of teh way,;M84 			; Disable motors,;G90 			; Absolute positioning,;M117 Print ready...,,;,; // From Cura 181010,; // End_gcode,G92 E0			; Zero the extruded length,;G1 E-30 F300		; Retract E -30,M106 S0			; Turn off cooling fan,M104 S0			; Turn off temperature,M140 S0		     	; Turn off bed,G91			; Relative positioning,G1 E-1 F300			; Retract the filament a bit before lifting the nozzle to release some of the pressure,G1 Z+20 E-5 X-20 Y-20 F7200	; Move Z up a bit and retract filament even more,G1 X0 Y150 F10000		; Move right min,M107			; Turn off layer fan,M84			; Disable motors,G90			; Absolute positioning,M117 *The-End* 		; End msg,;,
;   exportFileFormat,gcode
;   celebration,0
;   celebrationSong,Star Wars
;   postProcessing,D:\S3D_Thumbs\S3D_Thumbs.exe f="[output_filepath]" x=600 y=110 w=953 lw=400 lh=300 sw=32 sh=32 d=Y
;   defaultSpeed,1800
;   outlineUnderspeed,0.5
;   solidInfillUnderspeed,0.8
;   supportUnderspeed,0.8
;   rapidXYspeed,6000
;   rapidZspeed,1002
;   minBridgingArea,50
;   bridgingExtraInflation,0.2
;   bridgingExtrusionMultiplier,1
;   bridgingSpeedMultiplier,0.8
;   useFixedBridgingAngle,0
;   fixedBridgingAngle,0
;   applyBridgingToPerimeters,0
;   filamentDiameters,1.75|1.75|1.75|1.75|1.75|1.75
;   filamentPricesPerKg,30|46|46|46|46|46
;   filamentDensities,1.25|1.25|1.25|1.25|1.25|1.25
;   useMinPrintHeight,0
;   minPrintHeight,0
;   useMaxPrintHeight,0
;   maxPrintHeight,50
;   useDiaphragm,0
;   diaphragmLayerInterval,20
;   robustSlicing,1
;   mergeAllIntoSolid,0
;   onlyRetractWhenCrossingOutline,1
;   retractBetweenLayers,1
;   useRetractionMinTravel,0
;   retractionMinTravel,3
;   retractWhileWiping,0
;   onlyWipeOutlines,1
;   avoidCrossingOutline,0
;   maxMovementDetourFactor,3
;   toolChangeRetractionDistance,12
;   toolChangeExtraRestartDistance,-0.5
;   toolChangeRetractionSpeed,600
;   externalThinWallType,0
;   internalThinWallType,1
;   thinWallAllowedOverlapPercentage,10
;   singleExtrusionMinLength,1
;   singleExtrusionMinPrintingWidthPercentage,50
;   singleExtrusionMaxPrintingWidthPercentage,200
;   singleExtrusionEndpointExtension,0.2
;   horizontalSizeCompensation,0
G90
M82
M106 S0
M140 S55
M190 S55
;
; -]H.P.B[- MarshMalloW  
; $VER: StartScript 1.02 (26.12.2019) MarshMalloW
;
; Begin Startcode
;
M117 *Preheat*     	; Preheat
;extruder0_temperature
M104 S215  
M109 S215 
M109 R215 
;
M117 *Auto-leveling*     	; Auto-leveling
M107                   	; Turn layer fan off
G21                    	; Set to metric [change to G20 if you want Imperial]
G90                    	; Force coordinates to be absolute relative to the origin
G28                    	; Home X/Y/Z axis
G29                    	; Auto-leveling (BL-Touch)
;
M117 *Start Clean*     	; Indicate nozzle clean in progress on LCD
G92 E0                 	; Set Extruder to 0 
G1 X0 Y0 F2000         	; Move X and Y to 0 with speed 2000 (mm/min)
G1 Z0.1 F1000          	; Move Z to   0.1 with speed 1000 (mm/min)
G1 X8.0 F2000          	; Move X to   8.0 with speed 2000 (mm/min)
G1 Y60.0 E4.0 F1000.0  	; Move Y to  60 and Extruder with 4.0 with speed 1000 (mm/min)
G1 Y100.0 E8.5 F1000.0 	; Move Y to 100 and Extruder with 8.5 with speed 1000 (mm/min)
G92 E0                 	; Set extruder to 0
G1 X16.0 F3000         	; Move X to 16.0 with speed 3000 (mm/min)
G1 Y60.0 F3000         	; Move Y to 60.0 with speed 3000 (mm/min)
M117 *End Clean*       	; Indicate nozzle clean in progress on LCD
G1 Z5 F3000            	; Move Z to  5.0 with speed 3000 (mm/min)
G1 X20.0 F3000         	; Move X to 20.0 with speed 3000 (mm/min)
G1 Y20.0 F3000         	; Move Y to 20.0 with speed 3000 (mm/min)
; 
M117 *Printing...*     	; Start printing msg on LCD
;
; End Startcode
;
; Begin printing with sliced GCode after here
;
; process A13-04
; layer 1, Z = 0.180
M117 INDICATOR-Layer1
M117 DASHBOARD_LAYER_INDICATOR 1
T0
G92 E0.0000
G1 E-4.0000 F3600
; feature skirt
; tool H0.180 W0.350
G1 Z0.300 F1002
G1 X120.975 Y97.378 F6000
G1 Z0.180 F1002
G1 E0.0000 F3600
G92 E0.0000
G1 X122.975 Y95.325 E0.0713 F900
G1 X129.302 Y95.159 E0.2288
G1 X129.379 Y95.158 E0.2307
G1 X131.903 Y95.202 E0.2935
G1 X133.925 Y97.259 E0.3653
G1 X133.925 Y103.475 E0.5200
G1 X137.075 Y103.475 E0.5984
G1 X137.075 Y97.242 E0.7534
G1 X139.137 Y95.178 E0.8261
G1 X147.957 Y95.169 E1.0455
G1 X147.975 Y95.186 E1.0461
G1 X147.975 Y93.299 E1.0931
G1 X148.512 Y92.003 E1.1280
G1 X153.503 Y87.012 E1.3037
G1 X154.799 Y86.475 E1.3385
G1 X168.201 Y86.475 E1.6720
G1 X169.497 Y87.012 E1.7069
G1 X174.488 Y92.003 E1.8826
G1 X175.025 Y93.299 E1.9175
G1 X175.025 Y101.475 E2.1209
G1 X176.960 Y101.475 E2.1691
G1 X179.025 Y103.540 E2.2417
G1 X179.025 Y126.460 E2.8120
G1 X176.960 Y128.525 E2.8847
G1 X175.025 Y128.525 E2.9329
G1 X175.025 Y136.701 E3.1363
G1 X174.488 Y137.997 E3.1712
G1 X169.497 Y142.988 E3.3469
G1 X168.201 Y143.525 E3.3817
G1 X154.799 Y143.525 E3.7152
G1 X153.503 Y142.988 E3.7501
G1 X148.512 Y137.997 E3.9258
G1 X147.975 Y136.701 E3.9607
G1 X147.975 Y116.318 E4.4679
G1 X146.960 Y117.333 E4.5036
G1 X144.115 Y117.333 E4.5744
G1 X144.115 Y190.611 E6.3977
G1 X144.025 Y190.828 E6.4036
G1 X144.025 Y202.759 E6.7005
G1 X141.960 Y204.824 E6.7731
G1 X129.040 Y204.824 E7.0946
G1 X126.975 Y202.759 E7.1673
G1 X126.975 Y190.828 E7.4641
G1 X126.885 Y190.611 E7.4700
G1 X126.885 Y117.333 E9.2934
G1 X124.040 Y117.333 E9.3641
G1 X121.975 Y115.268 E9.4368
G1 X121.975 Y103.660 E9.7256
G1 X120.975 Y102.494 E9.7639
G1 X120.975 Y97.378 E9.8912
G92 E0.0000
G1 E-4.0000 F3600
G1 Z0.480 F1002
G1 X121.325 Y97.520 F6000
G1 Z0.180 F1002
G1 E0.0000 F3600
G92 E0.0000
G1 X123.126 Y95.671 E0.0642 F900
G1 X129.308 Y95.509 E0.2181
G1 X129.376 Y95.508 E0.2198
G1 X131.753 Y95.549 E0.2790
G1 X133.575 Y97.402 E0.3436
G1 X133.575 Y103.825 E0.5034
G1 X137.425 Y103.825 E0.5992
G1 X137.425 Y97.387 E0.7594
G1 X139.282 Y95.528 E0.8248
G1 X147.813 Y95.519 E1.0371
G1 X148.325 Y96.030 E1.0551
G1 X148.325 Y93.368 E1.1213
G1 X148.808 Y92.202 E1.1528
G1 X153.702 Y87.308 E1.3250
G1 X154.868 Y86.825 E1.3564
G1 X168.132 Y86.825 E1.6864
G1 X169.298 Y87.308 E1.7178
G1 X174.192 Y92.202 E1.8900
G1 X174.675 Y93.368 E1.9214
G1 X174.675 Y101.685 E2.1284
G1 X174.815 Y101.825 E2.1333
G1 X176.815 Y101.825 E2.1831
G1 X178.675 Y103.685 E2.2485
G1 X178.675 Y126.315 E2.8116
G1 X176.815 Y128.175 E2.8771
G1 X174.815 Y128.175 E2.9268
G1 X174.675 Y128.315 E2.9318
G1 X174.675 Y136.632 E3.1387
G1 X174.192 Y137.798 E3.1701
G1 X169.298 Y142.692 E3.3423
G1 X168.132 Y143.175 E3.3738
G1 X154.868 Y143.175 E3.7038
G1 X153.702 Y142.692 E3.7352
G1 X148.808 Y137.798 E3.9074
G1 X148.325 Y136.632 E3.9388
G1 X148.325 Y115.473 E4.4653
G1 X146.815 Y116.983 E4.5184
G1 X143.765 Y116.983 E4.5943
G1 X143.765 Y190.541 E6.4247
G1 X143.675 Y190.759 E6.4305
G1 X143.675 Y202.614 E6.7255
G1 X141.815 Y204.474 E6.7910
G1 X129.185 Y204.474 E7.1052
G1 X127.325 Y202.614 E7.1707
G1 X127.325 Y190.759 E7.4657
G1 X127.235 Y190.542 E7.4715
G1 X127.235 Y116.983 E9.3019
G1 X124.185 Y116.983 E9.3778
G1 X122.325 Y115.123 E9.4432
G1 X122.325 Y103.530 E9.7317
G1 X121.325 Y102.365 E9.7699
G1 X121.325 Y97.520 E9.8904
G92 E0.0000
G1 E-4.0000 F3600
; feature outer perimeter
G1 Z0.480 F1002
G1 X124.675 Y98.981 F6000
G1 Z0.180 F1002
G1 E0.0000 F3600
G92 E0.0000
G1 X129.357 Y98.859 E0.1166 F450
G1 X130.225 Y98.873 E0.1381
G1 X130.225 Y107.175 E0.3447
G1 X140.775 Y107.175 E0.6072
G1 X140.775 Y98.876 E0.8137
G1 X146.325 Y98.870 E0.9518
G1 X146.325 Y101.129 E1.0080
G1 X145.325 Y101.123 E1.0329
G1 X145.325 Y113.633 E1.3442
G1 X140.415 Y113.633 E1.4664
G1 X140.415 Y189.838 E3.3625
G1 X140.325 Y189.928 E3.3657
G1 X140.325 Y201.124 E3.6443
G1 X130.675 Y201.124 E3.8844
G1 X130.675 Y189.928 E4.1630
G1 X130.585 Y189.838 E4.1662
G1 X130.585 Y113.633 E6.0624
G1 X125.675 Y113.633 E6.1845
G1 X125.675 Y101.105 E6.4963
G1 X125.330 Y101.140 E6.5049
G1 X124.675 Y101.039 E6.5214
G1 X124.675 Y98.981 E6.5726
; feature inner perimeter
G1 X125.025 Y99.322 F6000
G92 E0.0000
G1 X129.359 Y99.209 E0.1079 F675
G1 X129.875 Y99.217 E0.1207
G1 X129.875 Y107.525 E0.3274
G1 X141.125 Y107.525 E0.6074
G1 X141.125 Y99.226 E0.8139
G1 X145.975 Y99.221 E0.9346
G1 X145.975 Y100.777 E0.9733
G1 X144.975 Y100.770 E0.9982
G1 X144.975 Y113.283 E1.3095
G1 X140.065 Y113.283 E1.4317
G1 X140.065 Y189.693 E3.3330
G1 X139.975 Y189.783 E3.3361
G1 X139.975 Y200.774 E3.6096
G1 X131.025 Y200.774 E3.8323
G1 X131.025 Y189.783 E4.1058
G1 X130.935 Y189.693 E4.1090
G1 X130.935 Y113.283 E6.0103
G1 X126.025 Y113.283 E6.1324
G1 X126.025 Y100.718 E6.4451
G1 X125.339 Y100.787 E6.4622
G1 X125.025 Y100.739 E6.4701
G1 X125.025 Y99.322 E6.5054
G1 X125.375 Y99.663 F6000
G92 E0.0000
G1 X129.361 Y99.559 E0.0992 F675
G1 X129.525 Y99.561 E0.1033
G1 X129.525 Y107.875 E0.3102
G1 X141.475 Y107.875 E0.6075
G1 X141.475 Y99.575 E0.8140
G1 X145.625 Y99.571 E0.9173
G1 X145.625 Y100.424 E0.9385
G1 X144.625 Y100.418 E0.9634
G1 X144.625 Y112.933 E1.2748
G1 X139.715 Y112.933 E1.3970
G1 X139.715 Y189.548 E3.3034
G1 X139.625 Y189.638 E3.3065
G1 X139.625 Y200.424 E3.5749
G1 X131.375 Y200.424 E3.7802
G1 X131.375 Y189.638 E4.0486
G1 X131.285 Y189.548 E4.0518
G1 X131.285 Y112.933 E5.9581
G1 X126.375 Y112.933 E6.0803
G1 X126.375 Y100.331 E6.3939
G1 X125.375 Y100.432 E6.4189
G1 X125.375 Y99.663 E6.4380
; feature solid layer
G1 X125.691 Y99.953 F6000
G92 E0.0000
G1 X125.826 Y100.087 E0.0047 F720
G1 X126.276 Y100.042 E0.0160
G1 X126.174 Y99.940 E0.0196
G1 X129.227 Y100.024 F6000
G92 E0.0000
G1 X129.068 Y99.864 E0.0056 F720
G1 X128.585 Y99.877 E0.0176
G1 X129.227 Y100.519 E0.0402
G1 X129.227 Y101.014 E0.0526
G1 X128.103 Y99.889 E0.0921
G1 X127.621 Y99.902 E0.1041
G1 X129.227 Y101.509 E0.1607
G1 X129.227 Y102.004 E0.1730
G1 X127.138 Y99.915 E0.2465
G1 X126.656 Y99.927 E0.2585
G1 X129.227 Y102.499 E0.3490
G1 X129.227 Y102.994 E0.3613
G1 X126.672 Y100.439 E0.4512
G1 X126.672 Y100.934 E0.4636
G1 X129.227 Y103.489 E0.5535
G1 X129.227 Y103.984 E0.5658
G1 X126.672 Y101.429 E0.6557
G1 X126.672 Y101.924 E0.6680
G1 X129.227 Y104.479 E0.7579
G1 X129.227 Y104.974 E0.7702
G1 X126.672 Y102.419 E0.8601
G1 X126.672 Y102.914 E0.8725
G1 X129.227 Y105.469 E0.9624
G1 X129.227 Y105.964 E0.9747
G1 X126.672 Y103.409 E1.0646
