; G-Code generated by Simplify3D(R) Version 4.1.2
; Dec 25, 2019 at 6:50:31 PM
; Settings Summary
;   processName,Process1
;   applyToModels,SupportLed_01
;   profileName,A01-04-15 Tevo Tornado (experimental) (modified)
;   profileVersion,2019-12-06 19:12:20
;   baseProfile,Creality CR-10(2)
;   printMaterial,PLA
;   printQuality,Medium
;   printExtruders,
;   extruderName,Primary Extruder
;   extruderToolheadNumber,0
;   extruderDiameter,0.4
;   extruderAutoWidth,0
;   extruderWidth,0.35
;   extrusionMultiplier,0.95
;   extruderUseRetract,1
;   extruderRetractionDistance,3.5
;   extruderExtraRestartDistance,-0.3
;   extruderRetractionZLift,0.3
;   extruderRetractionSpeed,4500
;   extruderUseCoasting,0
;   extruderCoastingDistance,0.2
;   extruderUseWipe,0
;   extruderWipeDistance,3.5
;   primaryExtruder,0
;   layerHeight,0.15
;   topSolidLayers,4
;   bottomSolidLayers,3
;   perimeterOutlines,3
;   printPerimetersInsideOut,0
;   startPointOption,3
;   startPointOriginX,0
;   startPointOriginY,300
;   sequentialIslands,0
;   spiralVaseMode,0
;   firstLayerHeightPercentage,120
;   firstLayerWidthPercentage,100
;   firstLayerUnderspeed,0.5
;   useRaft,0
;   raftExtruder,0
;   raftTopLayers,3
;   raftBaseLayers,2
;   raftOffset,3
;   raftSeparationDistance,0.14
;   raftTopInfill,100
;   aboveRaftSpeedMultiplier,0.3
;   useSkirt,1
;   skirtExtruder,0
;   skirtLayers,1
;   skirtOutlines,3
;   skirtOffset,2
;   usePrimePillar,0
;   primePillarExtruder,999
;   primePillarWidth,12
;   primePillarLocation,7
;   primePillarSpeedMultiplier,1
;   useOozeShield,0
;   oozeShieldExtruder,999
;   oozeShieldOffset,2
;   oozeShieldOutlines,1
;   oozeShieldSidewallShape,1
;   oozeShieldSidewallAngle,30
;   oozeShieldSpeedMultiplier,1
;   infillExtruder,0
;   internalInfillPattern,Grid
;   externalInfillPattern,Concentric
;   infillPercentage,15
;   outlineOverlapPercentage,15
;   infillExtrusionWidthPercentage,100
;   minInfillLength,5
;   infillLayerInterval,1
;   internalInfillAngles,45,-45
;   overlapInternalInfillAngles,1
;   externalInfillAngles,45,-45
;   generateSupport,0
;   supportExtruder,0
;   supportInfillPercentage,30
;   supportExtraInflation,0
;   supportBaseLayers,0
;   denseSupportExtruder,0
;   denseSupportLayers,0
;   denseSupportInfillPercentage,70
;   supportLayerInterval,1
;   supportHorizontalPartOffset,0.4
;   supportUpperSeparationLayers,1
;   supportLowerSeparationLayers,1
;   supportType,1
;   supportGridSpacing,4.5
;   maxOverhangAngle,45
;   supportAngles,0
;   temperatureName,Primary Extruder,Heated Bed
;   temperatureNumber,0,0
;   temperatureSetpointCount,2,1
;   temperatureSetpointLayers,1,2,1
;   temperatureSetpointTemperatures,215,210,55
;   temperatureStabilizeAtStartup,1,1
;   temperatureHeatedBed,0,1
;   fanLayers,1,2
;   fanSpeeds,0,100
;   blipFanToFullPower,0
;   adjustSpeedForCooling,1
;   minSpeedLayerTime,15
;   minCoolingSpeedSlowdown,50
;   increaseFanForCooling,1
;   minFanLayerTime,25
;   maxCoolingFanSpeed,100
;   increaseFanForBridging,1
;   bridgingFanSpeed,100
;   use5D,1
;   relativeEdistances,0
;   allowEaxisZeroing,1
;   independentExtruderAxes,0
;   includeM10123,0
;   stickySupport,1
;   applyToolheadOffsets,0
;   gcodeXoffset,0
;   gcodeYoffset,0
;   gcodeZoffset,0
;   overrideMachineDefinition,1
;   machineTypeOverride,0
;   strokeXoverride,300
;   strokeYoverride,300
;   strokeZoverride,400
;   originOffsetXoverride,0
;   originOffsetYoverride,0
;   originOffsetZoverride,0
;   homeXdirOverride,-1
;   homeYdirOverride,-1
;   homeZdirOverride,-1
;   flipXoverride,1
;   flipYoverride,-1
;   flipZoverride,1
;   toolheadOffsets,0,0|0,0|0,0|0,0|0,0|0,0
;   overrideFirmwareConfiguration,1
;   firmwareTypeOverride,RepRap (Marlin/Repetier/Sprinter)
;   GPXconfigOverride,r2
;   baudRateOverride,250000
;   overridePrinterModels,1
;   printerModelsOverride
;   startingGcode,;,; -]H.P.B[- MarshMalloW  ,; $VER: StartScript 1.01 (13.11.2019) MarshMalloW,;,; Begin Startcode,;,M117 *Start Clean*     	; Indicate nozzle clean in progress on LCD,;,;extruder0_temperature,M104 S[extruder0_temperature]  ,M109 S[extruder0_temperature] ,M109 R[extruder0_temperature] ,;,M107                   	; Turn layer fan off,G21                    	; Set to metric [change to G20 if you want Imperial],G90                    	; Force coordinates to be absolute relative to the origin,G28                    	; Home X/Y/Z axis,G29                    	; Auto-leveling (BL-Touch),;,G92 E0                 	; Set Extruder to 0 ,G1 X0 Y0 F2000         	; Move X and Y to 0 with speed 2000 (mm/min),G1 Z0.1 F1000          	; Move Z to   0.1 with speed 1000 (mm/min),G1 X8.0 F2000          	; Move X to   8.0 with speed 2000 (mm/min),G1 Y60.0 E4.0 F1000.0  	; Move Y to  60 and Extruder with 4.0 with speed 1000 (mm/min),G1 Y100.0 E8.5 F1000.0 	; Move Y to 100 and Extruder with 8.5 with speed 1000 (mm/min),G92 E0                 	; Set extruder to 0,G1 X16.0 F3000         	; Move X to 16.0 with speed 3000 (mm/min),G1 Y60.0 F3000         	; Move Y to 60.0 with speed 3000 (mm/min),M117 *End Clean*       	; Indicate nozzle clean in progress on LCD,G1 Z5 F3000            	; Move Z to  5.0 with speed 3000 (mm/min),G1 X20.0 F3000         	; Move X to 20.0 with speed 3000 (mm/min),; ,M117 *Printing...*     	; Start printing msg on LCD,;,; End Startcode,;,; Begin printing with sliced GCode after here,;
;   layerChangeGcode,
;   retractionGcode,
;   toolChangeGcode,
;   endingGcode,;,; init 181010,;,;M107 			; Fan off,;G1 E-1 F300 			; Retract the filament a bit before lifting the nozzle,;M104 S0 			; Turn off extruder,;M140 S0 			; Turn off bed,;G91			; Relative positioning,;G28 X0 Y0 			; Move X/Y to min endstops so the head is out of teh way,;M84 			; Disable motors,;G90 			; Absolute positioning,;M117 Print ready...,,;,; // From Cura 181010,; // End_gcode,G92 E0			; Zero the extruded length,;G1 E-30 F300		; Retract E -30,M106 S0			; Turn off cooling fan,M104 S0			; Turn off temperature,M140 S0		     	; Turn off bed,G91			; Relative positioning,G1 E-1 F300			; Retract the filament a bit before lifting the nozzle to release some of the pressure,G1 Z+20 E-5 X-20 Y-20 F7200	; Move Z up a bit and retract filament even more,G1 X0 Y150 F10000		; Move right min,M107			; Turn off layer fan,M84			; Disable motors,G90			; Absolute positioning,M117 *The-End* 		; End msg,;,
;   exportFileFormat,gcode
;   celebration,0
;   celebrationSong,Star Wars
;   postProcessing,
;   defaultSpeed,1800
;   outlineUnderspeed,0.5
;   solidInfillUnderspeed,0.8
;   supportUnderspeed,0.8
;   rapidXYspeed,6000
;   rapidZspeed,1002
;   minBridgingArea,5
;   bridgingExtraInflation,0.2
;   bridgingExtrusionMultiplier,1
;   bridgingSpeedMultiplier,0.6
;   useFixedBridgingAngle,0
;   fixedBridgingAngle,0
;   applyBridgingToPerimeters,0
;   filamentDiameters,1.75|1.75|1.75|1.75|1.75|1.75
;   filamentPricesPerKg,30|46|46|46|46|46
;   filamentDensities,1.25|1.25|1.25|1.25|1.25|1.25
;   useMinPrintHeight,0
;   minPrintHeight,30
;   useMaxPrintHeight,0
;   maxPrintHeight,9
;   useDiaphragm,0
;   diaphragmLayerInterval,20
;   robustSlicing,1
;   mergeAllIntoSolid,0
;   onlyRetractWhenCrossingOutline,1
;   retractBetweenLayers,0
;   useRetractionMinTravel,0
;   retractionMinTravel,3
;   retractWhileWiping,0
;   onlyWipeOutlines,1
;   avoidCrossingOutline,0
;   maxMovementDetourFactor,3
;   toolChangeRetractionDistance,12
;   toolChangeExtraRestartDistance,-0.5
;   toolChangeRetractionSpeed,600
;   externalThinWallType,1
;   internalThinWallType,1
;   thinWallAllowedOverlapPercentage,15
;   singleExtrusionMinLength,1
;   singleExtrusionMinPrintingWidthPercentage,50
;   singleExtrusionMaxPrintingWidthPercentage,200
;   singleExtrusionEndpointExtension,0.2
;   horizontalSizeCompensation,0
G90
M82
M106 S0
M140 S55
M190 S55
;
; -]H.P.B[- MarshMalloW  
; $VER: StartScript 1.01 (13.11.2019) MarshMalloW
;
; Begin Startcode
;
M117 *Start Clean*     	; Indicate nozzle clean in progress on LCD
;
;extruder0_temperature
M104 S215  
M109 S215 
M109 R215 
;
M107                   	; Turn layer fan off
G21                    	; Set to metric [change to G20 if you want Imperial]
G90                    	; Force coordinates to be absolute relative to the origin
G28                    	; Home X/Y/Z axis
G29                    	; Auto-leveling (BL-Touch)
;
G92 E0                 	; Set Extruder to 0 
G1 X0 Y0 F2000         	; Move X and Y to 0 with speed 2000 (mm/min)
G1 Z0.1 F1000          	; Move Z to   0.1 with speed 1000 (mm/min)
G1 X8.0 F2000          	; Move X to   8.0 with speed 2000 (mm/min)
G1 Y60.0 E4.0 F1000.0  	; Move Y to  60 and Extruder with 4.0 with speed 1000 (mm/min)
G1 Y100.0 E8.5 F1000.0 	; Move Y to 100 and Extruder with 8.5 with speed 1000 (mm/min)
G92 E0                 	; Set extruder to 0
G1 X16.0 F3000         	; Move X to 16.0 with speed 3000 (mm/min)
G1 Y60.0 F3000         	; Move Y to 60.0 with speed 3000 (mm/min)
M117 *End Clean*       	; Indicate nozzle clean in progress on LCD
G1 Z5 F3000            	; Move Z to  5.0 with speed 3000 (mm/min)
G1 X20.0 F3000         	; Move X to 20.0 with speed 3000 (mm/min)
; 
M117 *Printing...*     	; Start printing msg on LCD
;
; End Startcode
;
; Begin printing with sliced GCode after here
;
; process Process1
; layer 1, Z = 0.180
T0
G92 E0.0000
G1 E-3.5000 F4500
; feature skirt
; tool H0.180 W0.350
G1 Z0.300 F1002
G1 X122.809 Y151.915 F6000
G1 Z0.180 F1002
G1 E-0.3000 F4500
G92 E0.0000
G1 X121.125 Y150.231 E0.0593 F900
G1 X121.125 Y141.849 E0.2678
G1 X122.809 Y140.165 E0.3271
G1 X177.191 Y140.165 E1.6803
G1 X178.875 Y141.849 E1.7395
G1 X178.875 Y150.231 E1.9481
G1 X177.191 Y151.915 E2.0073
G1 X168.986 Y151.915 E2.2115
G1 X161.504 Y159.398 E2.4748
G1 X160.447 Y159.835 E2.5033
G1 X156.684 Y159.835 E2.5969
G1 X155.000 Y158.151 E2.6562
G1 X155.000 Y154.401 E2.7495
G1 X155.419 Y153.365 E2.7773
G1 X157.125 Y151.598 E2.8384
G1 X157.125 Y149.915 E2.8803
G1 X142.875 Y149.915 E3.2349
G1 X142.875 Y151.598 E3.2768
G1 X144.581 Y153.365 E3.3379
G1 X145.000 Y154.401 E3.3657
G1 X145.000 Y158.151 E3.4590
G1 X143.316 Y159.835 E3.5182
G1 X139.553 Y159.835 E3.6119
G1 X138.496 Y159.398 E3.6403
G1 X131.014 Y151.915 E3.9037
G1 X122.809 Y151.915 E4.1078
G92 E0.0000
G1 E-3.5000 F4500
G1 Z0.480 F1002
G1 X122.954 Y151.565 F6000
G1 Z0.180 F1002
G1 E-0.3000 F4500
G92 E0.0000
G1 X121.475 Y150.086 E0.0520 F900
G1 X121.475 Y141.994 E0.2534
G1 X122.954 Y140.515 E0.3054
G1 X177.046 Y140.515 E1.6514
G1 X178.525 Y141.994 E1.7034
G1 X178.525 Y150.086 E1.9048
G1 X177.046 Y151.565 E1.9568
G1 X168.841 Y151.565 E2.1610
G1 X161.305 Y159.101 E2.4262
G1 X160.377 Y159.485 E2.4512
G1 X156.829 Y159.485 E2.5395
G1 X155.350 Y158.006 E2.5915
G1 X155.350 Y154.469 E2.6795
G1 X155.718 Y153.559 E2.7039
G1 X157.475 Y151.740 E2.7669
G1 X157.475 Y149.565 E2.8210
G1 X142.525 Y149.565 E3.1930
G1 X142.525 Y151.740 E3.2471
G1 X144.282 Y153.559 E3.3101
G1 X144.650 Y154.469 E3.3345
G1 X144.650 Y158.006 E3.4225
G1 X143.171 Y159.485 E3.4745
G1 X139.623 Y159.485 E3.5628
G1 X138.695 Y159.101 E3.5878
G1 X131.159 Y151.565 E3.8530
G1 X122.954 Y151.565 E4.0572
G92 E0.0000
G1 E-3.5000 F4500
G1 Z0.480 F1002
G1 X123.099 Y151.215 F6000
G1 Z0.180 F1002
G1 E-0.3000 F4500
G92 E0.0000
G1 X121.825 Y149.941 E0.0448 F900
G1 X121.825 Y142.139 E0.2390
G1 X123.099 Y140.865 E0.2838
G1 X176.901 Y140.865 E1.6225
G1 X178.175 Y142.139 E1.6674
G1 X178.175 Y149.941 E1.8615
G1 X176.901 Y151.215 E1.9063
G1 X168.696 Y151.215 E2.1105
G1 X161.107 Y158.804 E2.3776
G1 X160.308 Y159.135 E2.3991
G1 X156.974 Y159.135 E2.4820
G1 X155.700 Y157.861 E2.5269
G1 X155.700 Y154.537 E2.6096
G1 X156.017 Y153.753 E2.6306
G1 X157.825 Y151.881 E2.6954
G1 X157.825 Y149.215 E2.7617
G1 X142.175 Y149.215 E3.1511
G1 X142.175 Y151.881 E3.2175
G1 X143.983 Y153.753 E3.2823
G1 X144.300 Y154.537 E3.3033
G1 X144.300 Y157.861 E3.3860
G1 X143.026 Y159.135 E3.4308
G1 X139.692 Y159.135 E3.5138
G1 X138.893 Y158.804 E3.5353
G1 X131.304 Y151.215 E3.8024
G1 X123.099 Y151.215 E4.0065
G92 E0.0000
G1 E-3.5000 F4500
; feature outer perimeter
G1 Z0.480 F1002
G1 X124.175 Y148.865 F6000
G1 Z0.180 F1002
G1 E-0.3000 F4500
G92 E0.0000
G1 X124.175 Y143.215 E0.1406 F450
G1 X175.825 Y143.215 E1.4258
G1 X175.825 Y148.865 E1.5664
G1 X167.723 Y148.865 E1.7680
G1 X159.803 Y156.785 E2.0467
G1 X158.050 Y156.785 E2.0903
G1 X158.050 Y155.031 E2.1339
G1 X160.175 Y152.830 E2.2101
G1 X160.175 Y146.865 E2.3585
G1 X139.825 Y146.865 E2.8649
G1 X139.825 Y152.830 E3.0133
G1 X141.950 Y155.031 E3.0894
G1 X141.950 Y156.785 E3.1331
G1 X140.197 Y156.785 E3.1767
G1 X132.277 Y148.865 E3.4554
G1 X124.175 Y148.865 E3.6570
; feature inner perimeter
G1 X124.525 Y148.515 F6000
G92 E0.0000
G1 X124.525 Y143.565 E0.1232 F675
G1 X175.475 Y143.565 E1.3909
G1 X175.475 Y148.515 E1.5141
G1 X167.578 Y148.515 E1.7106
G1 X159.658 Y156.435 E1.9893
G1 X158.400 Y156.435 E2.0206
G1 X158.400 Y155.172 E2.0520
G1 X160.525 Y152.972 E2.1282
G1 X160.525 Y146.515 E2.2888
G1 X139.475 Y146.515 E2.8126
G1 X139.475 Y152.972 E2.9733
G1 X141.600 Y155.172 E3.0494
G1 X141.600 Y156.435 E3.0808
G1 X140.342 Y156.435 E3.1121
G1 X132.422 Y148.515 E3.3908
G1 X124.525 Y148.515 E3.5873
G1 X124.875 Y148.165 F6000
G92 E0.0000
G1 X124.875 Y143.915 E0.1058 F675
G1 X175.125 Y143.915 E1.3561
G1 X175.125 Y148.165 E1.4619
G1 X167.433 Y148.165 E1.6533
G1 X159.513 Y156.085 E1.9320
G1 X158.750 Y156.085 E1.9510
G1 X158.750 Y155.314 E1.9701
G1 X160.875 Y153.113 E2.0463
G1 X160.875 Y146.165 E2.2192
G1 X139.125 Y146.165 E2.7604
G1 X139.125 Y153.113 E2.9333
G1 X141.250 Y155.314 E3.0094
G1 X141.250 Y156.085 E3.0286
G1 X140.487 Y156.085 E3.0475
G1 X132.567 Y148.165 E3.3263
G1 X124.875 Y148.165 E3.5177
; feature solid layer
G1 X125.172 Y147.867 F6000
G92 E0.0000
G1 X125.172 Y144.212 E0.0909 F720
G1 X174.827 Y144.212 E1.3265
G1 X174.827 Y147.867 E1.4174
G1 X167.310 Y147.867 E1.6045
G1 X159.389 Y155.788 E1.8832
G1 X159.048 Y155.788 E1.8917
G1 X159.048 Y155.434 E1.9005
G1 X161.173 Y153.233 E1.9767
G1 X161.173 Y145.867 E2.1599
G1 X138.827 Y145.867 E2.7159
G1 X138.827 Y153.233 E2.8992
G1 X140.952 Y155.434 E2.9754
G1 X140.952 Y155.788 E2.9842
G1 X140.611 Y155.788 E2.9927
G1 X132.690 Y147.867 E3.2714
G1 X125.172 Y147.867 E3.4584
G1 X125.522 Y147.517 F6000
G92 E0.0000
G1 X125.522 Y144.562 E0.0735 F720
G1 X174.477 Y144.562 E1.2917
G1 X174.477 Y147.517 E1.3652
G1 X167.165 Y147.517 E1.5472
G1 X161.523 Y153.160 E1.7457
G1 X161.523 Y145.517 E1.9359
G1 X138.477 Y145.517 E2.5093
G1 X138.477 Y153.160 E2.6995
G1 X132.835 Y147.517 E2.8980
G1 X125.522 Y147.517 E3.0800
G1 X125.873 Y147.167 F6000
G92 E0.0000
G1 X125.873 Y144.912 E0.0561 F720
G1 X174.127 Y144.912 E1.2568
G1 X174.127 Y147.167 E1.3129
G1 X167.020 Y147.167 E1.4898
G1 X161.873 Y152.315 E1.6709
G1 X161.873 Y145.167 E1.8488
G1 X138.127 Y145.167 E2.4396
G1 X138.127 Y152.315 E2.6175
G1 X132.980 Y147.167 E2.7986
G1 X125.873 Y147.167 E2.9755
G1 X126.222 Y146.817 F6000
G92 E0.0000
G1 X126.222 Y145.262 E0.0387 F720
G1 X137.778 Y145.262 E0.3262
G1 X137.778 Y151.470 E0.4807
G1 X133.125 Y146.817 E0.6444
G1 X126.222 Y146.817 E0.8161
G1 X126.573 Y146.467 F6000
G92 E0.0000
G1 X126.573 Y145.612 E0.0213 F720
G1 X137.428 Y145.612 E0.2914
G1 X137.428 Y150.625 E0.4161
G1 X133.270 Y146.467 E0.5624
G1 X126.573 Y146.467 E0.7291
G1 X126.922 Y146.117 F6000
G92 E0.0000
G1 X126.922 Y145.962 E0.0039 F720
G1 X137.077 Y145.962 E0.2565
G1 X137.077 Y149.780 E0.3515
G1 X133.415 Y146.117 E0.4804
G1 X126.922 Y146.117 E0.6420
G1 X134.105 Y146.312 F6000
G92 E0.0000
G1 X136.727 Y146.312 E0.0653 F720
G1 X136.727 Y148.935 E0.1305
G1 X134.105 Y146.312 E0.2228
G1 X134.950 Y146.662 F6000
G92 E0.0000
G1 X136.377 Y146.662 E0.0355 F720
G1 X136.377 Y148.090 E0.0710
G1 X134.950 Y146.662 E0.1213
G1 X135.795 Y147.012 F6000
G92 E0.0000
G1 X136.028 Y147.012 E0.0058 F720
G1 X136.028 Y147.245 E0.0116
G1 X135.795 Y147.012 E0.0198
G1 X162.222 Y145.262 F6000
G92 E0.0000
G1 X173.778 Y145.262 E0.2875 F720
G1 X173.778 Y146.817 E0.3262
G1 X166.875 Y146.817 E0.4980
G1 X162.222 Y151.470 E0.6617
G1 X162.222 Y145.262 E0.8161
G1 X162.572 Y145.612 F6000
