; G-Code generated by Simplify3D(R) Version 4.1.2
; Jan 16, 2020 at 1:21:49 AM
; Settings Summary
;   processName,Process1
;   applyToModels,Support Led
;   profileName,A03-04-15 Tevo Tornado (experimental)
;   profileVersion,2020-01-16 01:13:24
;   baseProfile,Creality CR-10(2)
;   printMaterial,PLA
;   printQuality,Medium
;   printExtruders,
;   extruderName,Primary Extruder
;   extruderToolheadNumber,0
;   extruderDiameter,0.4
;   extruderAutoWidth,0
;   extruderWidth,0.35
;   extrusionMultiplier,0.95
;   extruderUseRetract,1
;   extruderRetractionDistance,4
;   extruderExtraRestartDistance,0
;   extruderRetractionZLift,0.3
;   extruderRetractionSpeed,3000
;   extruderUseCoasting,0
;   extruderCoastingDistance,0.2
;   extruderUseWipe,0
;   extruderWipeDistance,4
;   primaryExtruder,0
;   layerHeight,0.15
;   topSolidLayers,4
;   bottomSolidLayers,3
;   perimeterOutlines,3
;   printPerimetersInsideOut,0
;   startPointOption,1
;   startPointOriginX,0
;   startPointOriginY,300
;   sequentialIslands,0
;   spiralVaseMode,0
;   firstLayerHeightPercentage,120
;   firstLayerWidthPercentage,100
;   firstLayerUnderspeed,0.5
;   useRaft,0
;   raftExtruder,0
;   raftTopLayers,3
;   raftBaseLayers,2
;   raftOffset,3
;   raftSeparationDistance,0.14
;   raftTopInfill,100
;   aboveRaftSpeedMultiplier,0.3
;   useSkirt,1
;   skirtExtruder,0
;   skirtLayers,1
;   skirtOutlines,3
;   skirtOffset,2
;   usePrimePillar,0
;   primePillarExtruder,999
;   primePillarWidth,12
;   primePillarLocation,7
;   primePillarSpeedMultiplier,1
;   useOozeShield,0
;   oozeShieldExtruder,999
;   oozeShieldOffset,2
;   oozeShieldOutlines,1
;   oozeShieldSidewallShape,1
;   oozeShieldSidewallAngle,30
;   oozeShieldSpeedMultiplier,1
;   infillExtruder,0
;   internalInfillPattern,Rectilinear
;   externalInfillPattern,Rectilinear
;   infillPercentage,15
;   outlineOverlapPercentage,15
;   infillExtrusionWidthPercentage,100
;   minInfillLength,5
;   infillLayerInterval,1
;   internalInfillAngles,45,-45
;   overlapInternalInfillAngles,0
;   externalInfillAngles,45,-45
;   generateSupport,0
;   supportExtruder,0
;   supportInfillPercentage,30
;   supportExtraInflation,0
;   supportBaseLayers,0
;   denseSupportExtruder,0
;   denseSupportLayers,0
;   denseSupportInfillPercentage,70
;   supportLayerInterval,1
;   supportHorizontalPartOffset,0.4
;   supportUpperSeparationLayers,1
;   supportLowerSeparationLayers,1
;   supportType,0
;   supportGridSpacing,4.5
;   maxOverhangAngle,45
;   supportAngles,0
;   temperatureName,Primary Extruder,Heated Bed
;   temperatureNumber,0,0
;   temperatureSetpointCount,1,1
;   temperatureSetpointLayers,1,1
;   temperatureSetpointTemperatures,215,55
;   temperatureStabilizeAtStartup,1,1
;   temperatureHeatedBed,0,1
;   fanLayers,1,2
;   fanSpeeds,0,100
;   blipFanToFullPower,0
;   adjustSpeedForCooling,1
;   minSpeedLayerTime,15
;   minCoolingSpeedSlowdown,50
;   increaseFanForCooling,1
;   minFanLayerTime,25
;   maxCoolingFanSpeed,100
;   increaseFanForBridging,1
;   bridgingFanSpeed,100
;   use5D,1
;   relativeEdistances,0
;   allowEaxisZeroing,1
;   independentExtruderAxes,0
;   includeM10123,0
;   stickySupport,1
;   applyToolheadOffsets,0
;   gcodeXoffset,0
;   gcodeYoffset,0
;   gcodeZoffset,0
;   overrideMachineDefinition,1
;   machineTypeOverride,0
;   strokeXoverride,300
;   strokeYoverride,300
;   strokeZoverride,400
;   originOffsetXoverride,0
;   originOffsetYoverride,0
;   originOffsetZoverride,0
;   homeXdirOverride,-1
;   homeYdirOverride,-1
;   homeZdirOverride,-1
;   flipXoverride,1
;   flipYoverride,-1
;   flipZoverride,1
;   toolheadOffsets,0,0|0,0|0,0|0,0|0,0|0,0
;   overrideFirmwareConfiguration,1
;   firmwareTypeOverride,RepRap (Marlin/Repetier/Sprinter)
;   GPXconfigOverride,r2
;   baudRateOverride,250000
;   overridePrinterModels,1
;   printerModelsOverride
;   startingGcode,;,; -]H.P.B[- MarshMalloW  ,; $VER: StartScript 1.02 (26.12.2019) MarshMalloW,;,; Begin Startcode,;,M117 *Preheat*     	; Preheat,;extruder0_temperature,M104 S[extruder0_temperature]  ,M109 S[extruder0_temperature] ,M109 R[extruder0_temperature] ,;,M117 *Auto-leveling*     	; Auto-leveling,M107                   	; Turn layer fan off,G21                    	; Set to metric [change to G20 if you want Imperial],G90                    	; Force coordinates to be absolute relative to the origin,G28                    	; Home X/Y/Z axis,G29                    	; Auto-leveling (BL-Touch),;,M117 *Start Clean*     	; Indicate nozzle clean in progress on LCD,G92 E0                 	; Set Extruder to 0 ,G1 X0 Y0 F2000         	; Move X and Y to 0 with speed 2000 (mm/min),G1 Z0.1 F1000          	; Move Z to   0.1 with speed 1000 (mm/min),G1 X8.0 F2000          	; Move X to   8.0 with speed 2000 (mm/min),G1 Y60.0 E4.0 F1000.0  	; Move Y to  60 and Extruder with 4.0 with speed 1000 (mm/min),G1 Y100.0 E8.5 F1000.0 	; Move Y to 100 and Extruder with 8.5 with speed 1000 (mm/min),G92 E0                 	; Set extruder to 0,G1 X16.0 F3000         	; Move X to 16.0 with speed 3000 (mm/min),G1 Y60.0 F3000         	; Move Y to 60.0 with speed 3000 (mm/min),M117 *End Clean*       	; Indicate nozzle clean in progress on LCD,G1 Z5 F3000            	; Move Z to  5.0 with speed 3000 (mm/min),G1 X20.0 F3000         	; Move X to 20.0 with speed 3000 (mm/min),; ,M117 *Printing...*     	; Start printing msg on LCD,;,; End Startcode,;,; Begin printing with sliced GCode after here,;
;   layerChangeGcode,
;   retractionGcode,
;   toolChangeGcode,
;   endingGcode,;,; init 181010,;,;M107 			; Fan off,;G1 E-1 F300 			; Retract the filament a bit before lifting the nozzle,;M104 S0 			; Turn off extruder,;M140 S0 			; Turn off bed,;G91			; Relative positioning,;G28 X0 Y0 			; Move X/Y to min endstops so the head is out of teh way,;M84 			; Disable motors,;G90 			; Absolute positioning,;M117 Print ready...,,;,; // From Cura 181010,; // End_gcode,G92 E0			; Zero the extruded length,;G1 E-30 F300		; Retract E -30,M106 S0			; Turn off cooling fan,M104 S0			; Turn off temperature,M140 S0		     	; Turn off bed,G91			; Relative positioning,G1 E-1 F300			; Retract the filament a bit before lifting the nozzle to release some of the pressure,G1 Z+20 E-5 X-20 Y-20 F7200	; Move Z up a bit and retract filament even more,G1 X0 Y150 F10000		; Move right min,M107			; Turn off layer fan,M84			; Disable motors,G90			; Absolute positioning,M117 *The-End* 		; End msg,;,
;   exportFileFormat,gcode
;   celebration,0
;   celebrationSong,Star Wars
;   postProcessing,
;   defaultSpeed,1800
;   outlineUnderspeed,0.5
;   solidInfillUnderspeed,0.8
;   supportUnderspeed,0.8
;   rapidXYspeed,6000
;   rapidZspeed,1002
;   minBridgingArea,50
;   bridgingExtraInflation,0.2
;   bridgingExtrusionMultiplier,1
;   bridgingSpeedMultiplier,0.6
;   useFixedBridgingAngle,0
;   fixedBridgingAngle,0
;   applyBridgingToPerimeters,0
;   filamentDiameters,1.75|1.75|1.75|1.75|1.75|1.75
;   filamentPricesPerKg,30|46|46|46|46|46
;   filamentDensities,1.25|1.25|1.25|1.25|1.25|1.25
;   useMinPrintHeight,0
;   minPrintHeight,0
;   useMaxPrintHeight,0
;   maxPrintHeight,9
;   useDiaphragm,0
;   diaphragmLayerInterval,20
;   robustSlicing,1
;   mergeAllIntoSolid,0
;   onlyRetractWhenCrossingOutline,1
;   retractBetweenLayers,1
;   useRetractionMinTravel,0
;   retractionMinTravel,3
;   retractWhileWiping,0
;   onlyWipeOutlines,1
;   avoidCrossingOutline,0
;   maxMovementDetourFactor,3
;   toolChangeRetractionDistance,12
;   toolChangeExtraRestartDistance,-0.5
;   toolChangeRetractionSpeed,600
;   externalThinWallType,1
;   internalThinWallType,1
;   thinWallAllowedOverlapPercentage,10
;   singleExtrusionMinLength,1
;   singleExtrusionMinPrintingWidthPercentage,50
;   singleExtrusionMaxPrintingWidthPercentage,200
;   singleExtrusionEndpointExtension,0.2
;   horizontalSizeCompensation,0
G90
M82
M106 S0
M140 S55
M190 S55
;
; -]H.P.B[- MarshMalloW  
; $VER: StartScript 1.02 (26.12.2019) MarshMalloW
;
; Begin Startcode
;
M117 *Preheat*     	; Preheat
;extruder0_temperature
M104 S215  
M109 S215 
M109 R215 
;
M117 *Auto-leveling*     	; Auto-leveling
M107                   	; Turn layer fan off
G21                    	; Set to metric [change to G20 if you want Imperial]
G90                    	; Force coordinates to be absolute relative to the origin
G28                    	; Home X/Y/Z axis
G29                    	; Auto-leveling (BL-Touch)
;
M117 *Start Clean*     	; Indicate nozzle clean in progress on LCD
G92 E0                 	; Set Extruder to 0 
G1 X0 Y0 F2000         	; Move X and Y to 0 with speed 2000 (mm/min)
G1 Z0.1 F1000          	; Move Z to   0.1 with speed 1000 (mm/min)
G1 X8.0 F2000          	; Move X to   8.0 with speed 2000 (mm/min)
G1 Y60.0 E4.0 F1000.0  	; Move Y to  60 and Extruder with 4.0 with speed 1000 (mm/min)
G1 Y100.0 E8.5 F1000.0 	; Move Y to 100 and Extruder with 8.5 with speed 1000 (mm/min)
G92 E0                 	; Set extruder to 0
G1 X16.0 F3000         	; Move X to 16.0 with speed 3000 (mm/min)
G1 Y60.0 F3000         	; Move Y to 60.0 with speed 3000 (mm/min)
M117 *End Clean*       	; Indicate nozzle clean in progress on LCD
G1 Z5 F3000            	; Move Z to  5.0 with speed 3000 (mm/min)
G1 X20.0 F3000         	; Move X to 20.0 with speed 3000 (mm/min)
; 
M117 *Printing...*     	; Start printing msg on LCD
;
; End Startcode
;
; Begin printing with sliced GCode after here
;
; process Process1
; layer 1, Z = 0.180
T0
G92 E0.0000
G1 E-4.0000 F3000
; feature skirt
; tool H0.180 W0.350
G1 Z0.300 F1002
G1 X155.936 Y108.959 F6000
G1 Z0.180 F1002
G1 E0.0000 F3000
G92 E0.0000
G1 X157.620 Y110.643 E0.0593 F900
G1 X157.620 Y117.581 E0.2319
G1 X157.688 Y118.189 E0.2471
G1 X157.837 Y118.613 E0.2583
G1 X158.076 Y118.994 E0.2695
G1 X158.393 Y119.311 E0.2807
G1 X158.774 Y119.551 E0.2919
G1 X159.198 Y119.699 E0.3030
G1 X159.806 Y119.768 E0.3183
G1 X192.825 Y119.768 E1.1399
G1 X192.987 Y119.777 E1.1439
G1 X194.340 Y119.929 E1.1778
G1 X194.655 Y120.001 E1.1858
G1 X196.016 Y120.477 E1.2217
G1 X196.307 Y120.617 E1.2297
G1 X197.529 Y121.385 E1.2656
G1 X197.781 Y121.586 E1.2737
G1 X198.801 Y122.606 E1.3096
G1 X199.002 Y122.859 E1.3176
G1 X199.770 Y124.080 E1.3535
G1 X199.910 Y124.371 E1.3615
G1 X200.386 Y125.733 E1.3974
G1 X200.458 Y126.048 E1.4055
G1 X200.611 Y127.401 E1.4393
G1 X200.620 Y127.562 E1.4434
G1 X200.620 Y138.723 E1.7211
G1 X200.611 Y138.884 E1.7251
G1 X200.458 Y140.237 E1.7590
G1 X200.386 Y140.552 E1.7670
G1 X199.910 Y141.914 E1.8029
G1 X199.770 Y142.205 E1.8109
G1 X199.002 Y143.426 E1.8468
G1 X198.801 Y143.679 E1.8549
G1 X197.781 Y144.699 E1.8908
G1 X197.529 Y144.900 E1.8988
G1 X196.307 Y145.668 E1.9347
G1 X196.016 Y145.808 E1.9427
G1 X194.655 Y146.284 E1.9786
G1 X194.340 Y146.356 E1.9867
G1 X192.986 Y146.509 E2.0205
G1 X192.825 Y146.518 E2.0246
G1 X100.664 Y146.518 E4.3178
G1 X100.503 Y146.509 E4.3218
G1 X99.150 Y146.356 E4.3557
G1 X98.835 Y146.284 E4.3637
G1 X97.473 Y145.808 E4.3996
G1 X97.182 Y145.668 E4.4076
G1 X95.961 Y144.900 E4.4435
G1 X95.709 Y144.699 E4.4516
G1 X94.689 Y143.679 E4.4875
G1 X94.487 Y143.426 E4.4955
G1 X93.720 Y142.205 E4.5314
G1 X93.580 Y141.914 E4.5394
G1 X93.103 Y140.552 E4.5753
G1 X93.031 Y140.238 E4.5834
G1 X92.879 Y138.884 E4.6173
G1 X92.870 Y138.723 E4.6213
G1 X92.870 Y127.562 E4.8990
G1 X92.879 Y127.401 E4.9030
G1 X93.031 Y126.048 E4.9369
G1 X93.103 Y125.733 E4.9449
G1 X93.580 Y124.371 E4.9808
G1 X93.720 Y124.080 E4.9889
G1 X94.487 Y122.859 E5.0247
G1 X94.689 Y122.606 E5.0328
G1 X95.709 Y121.586 E5.0687
G1 X95.961 Y121.385 E5.0767
G1 X97.184 Y120.617 E5.1126
G1 X97.477 Y120.476 E5.1208
G1 X98.849 Y119.999 E5.1569
G1 X99.161 Y119.928 E5.1649
G1 X100.503 Y119.777 E5.1985
G1 X100.664 Y119.768 E5.2025
G1 X133.683 Y119.768 E6.0241
G1 X134.291 Y119.699 E6.0393
G1 X134.715 Y119.551 E6.0505
G1 X135.096 Y119.312 E6.0617
G1 X135.414 Y118.994 E6.0728
G1 X135.653 Y118.613 E6.0840
G1 X135.801 Y118.189 E6.0952
G1 X135.870 Y117.581 E6.1104
G1 X135.870 Y110.643 E6.2831
G1 X137.554 Y108.959 E6.3423
G1 X144.786 Y108.959 E6.5223
G1 X146.245 Y110.418 E6.5736
G1 X147.704 Y108.959 E6.6250
G1 X155.936 Y108.959 E6.8298
G92 E0.0000
G1 E-4.0000 F3000
G1 Z0.480 F1002
G1 X94.950 Y143.445 F6000
G1 Z0.180 F1002
G1 E0.0000 F3000
G92 E0.0000
G1 X94.773 Y143.223 E0.0071 F900
G1 X94.027 Y142.035 E0.0420
G1 X93.903 Y141.780 E0.0490
G1 X93.440 Y140.455 E0.0839
G1 X93.377 Y140.179 E0.0910
G1 X93.228 Y138.855 E0.1242
G1 X93.220 Y138.713 E0.1277
G1 X93.220 Y127.572 E0.4049
G1 X93.228 Y127.430 E0.4084
G1 X93.377 Y126.106 E0.4416
G1 X93.440 Y125.830 E0.4486
G1 X93.903 Y124.505 E0.4836
G1 X94.027 Y124.250 E0.4906
G1 X94.773 Y123.062 E0.5255
G1 X94.950 Y122.840 E0.5326
G1 X95.942 Y121.848 E0.5675
G1 X96.164 Y121.671 E0.5746
G1 X97.353 Y120.924 E0.6095
G1 X97.611 Y120.800 E0.6166
G1 X98.946 Y120.336 E0.6518
G1 X99.220 Y120.273 E0.6588
G1 X100.532 Y120.126 E0.6917
G1 X100.674 Y120.118 E0.6952
G1 X133.703 Y120.118 E1.5170
G1 X134.370 Y120.042 E1.5337
G1 X134.868 Y119.868 E1.5469
G1 X135.316 Y119.587 E1.5600
G1 X135.689 Y119.213 E1.5732
G1 X135.970 Y118.766 E1.5863
G1 X136.145 Y118.267 E1.5995
G1 X136.220 Y117.601 E1.6162
G1 X136.220 Y110.788 E1.7857
G1 X137.699 Y109.309 E1.8377
G1 X144.641 Y109.309 E2.0105
G1 X146.120 Y110.788 E2.0625
G1 X146.120 Y115.118 E2.1702
G1 X146.370 Y115.118 E2.1765
G1 X146.370 Y110.788 E2.2842
G1 X147.849 Y109.309 E2.3362
G1 X155.791 Y109.309 E2.5339
G1 X157.270 Y110.788 E2.5859
G1 X157.270 Y117.601 E2.7554
G1 X157.345 Y118.267 E2.7721
G1 X157.519 Y118.766 E2.7853
G1 X157.800 Y119.213 E2.7984
G1 X158.174 Y119.587 E2.8116
G1 X158.621 Y119.868 E2.8247
G1 X159.120 Y120.042 E2.8378
G1 X159.787 Y120.118 E2.8545
G1 X192.816 Y120.118 E3.6764
G1 X192.957 Y120.126 E3.6799
G1 X194.281 Y120.275 E3.7131
G1 X194.557 Y120.338 E3.7201
G1 X195.882 Y120.801 E3.7550
G1 X196.137 Y120.924 E3.7621
G1 X197.326 Y121.671 E3.7970
G1 X197.547 Y121.848 E3.8041
G1 X198.540 Y122.840 E3.8390
G1 X198.716 Y123.062 E3.8460
G1 X199.463 Y124.250 E3.8810
G1 X199.586 Y124.505 E3.8880
G1 X200.050 Y125.830 E3.9229
G1 X200.113 Y126.106 E3.9300
G1 X200.262 Y127.430 E3.9631
G1 X200.270 Y127.572 E3.9667
G1 X200.270 Y138.713 E4.2439
G1 X200.262 Y138.855 E4.2474
G1 X200.113 Y140.179 E4.2806
G1 X200.050 Y140.455 E4.2876
G1 X199.586 Y141.780 E4.3226
G1 X199.463 Y142.035 E4.3296
G1 X198.716 Y143.223 E4.3645
G1 X198.540 Y143.445 E4.3716
G1 X197.547 Y144.437 E4.4065
G1 X197.326 Y144.614 E4.4136
G1 X196.138 Y145.361 E4.4485
G1 X195.882 Y145.484 E4.4555
G1 X194.557 Y145.947 E4.4904
G1 X194.281 Y146.010 E4.4975
G1 X192.957 Y146.160 E4.5307
G1 X192.816 Y146.168 E4.5342
G1 X100.674 Y146.168 E6.8269
G1 X100.533 Y146.160 E6.8304
G1 X99.209 Y146.010 E6.8636
G1 X98.932 Y145.947 E6.8707
G1 X97.608 Y145.484 E6.9056
G1 X97.352 Y145.361 E6.9126
G1 X96.164 Y144.614 E6.9475
G1 X95.942 Y144.437 E6.9546
G1 X94.950 Y143.445 E6.9895
G92 E0.0000
G1 E-4.0000 F3000
G1 Z0.480 F1002
G1 X197.314 Y122.109 F6000
G1 Z0.180 F1002
G1 E0.0000 F3000
G92 E0.0000
G1 X198.278 Y123.074 E0.0339 F900
G1 X198.431 Y123.264 E0.0400
G1 X199.156 Y124.419 E0.0740
G1 X199.262 Y124.639 E0.0800
G1 X199.713 Y125.927 E0.1140
G1 X199.767 Y126.165 E0.1201
G1 X199.913 Y127.460 E0.1525
G1 X199.920 Y127.582 E0.1555
G1 X199.920 Y138.704 E0.4323
G1 X199.913 Y138.825 E0.4353
G1 X199.767 Y140.120 E0.4677
G1 X199.713 Y140.358 E0.4738
G1 X199.262 Y141.646 E0.5077
G1 X199.156 Y141.866 E0.5138
G1 X198.431 Y143.021 E0.5477
G1 X198.278 Y143.212 E0.5538
G1 X197.314 Y144.176 E0.5878
G1 X197.123 Y144.328 E0.5938
G1 X195.968 Y145.054 E0.6278
G1 X195.748 Y145.160 E0.6339
G1 X194.460 Y145.610 E0.6678
G1 X194.222 Y145.665 E0.6739
G1 X192.928 Y145.811 E0.7063
G1 X192.806 Y145.818 E0.7093
G1 X100.684 Y145.818 E3.0016
G1 X100.562 Y145.811 E3.0046
G1 X99.267 Y145.665 E3.0370
G1 X99.029 Y145.611 E3.0431
G1 X97.742 Y145.160 E3.0770
G1 X97.522 Y145.054 E3.0831
G1 X96.367 Y144.328 E3.1171
G1 X96.176 Y144.176 E3.1231
G1 X95.211 Y143.212 E3.1571
G1 X95.059 Y143.021 E3.1632
G1 X94.333 Y141.866 E3.1971
G1 X94.227 Y141.646 E3.2032
G1 X93.777 Y140.358 E3.2371
G1 X93.722 Y140.120 E3.2432
