; G-Code generated by Simplify3D(R) Version 4.1.2
; Dec 26, 2019 at 6:38:18 PM
; Settings Summary
;   processName,Process1
;   applyToModels,SupportLed_04B
;   profileName,A03-04-15 Tevo Tornado (experimental)
;   profileVersion,2019-12-26 14:12:04
;   baseProfile,Creality CR-10(2)
;   printMaterial,PLA
;   printQuality,Medium
;   printExtruders,
;   extruderName,Primary Extruder
;   extruderToolheadNumber,0
;   extruderDiameter,0.4
;   extruderAutoWidth,0
;   extruderWidth,0.35
;   extrusionMultiplier,0.95
;   extruderUseRetract,1
;   extruderRetractionDistance,4
;   extruderExtraRestartDistance,0
;   extruderRetractionZLift,0.3
;   extruderRetractionSpeed,3000
;   extruderUseCoasting,0
;   extruderCoastingDistance,0.2
;   extruderUseWipe,0
;   extruderWipeDistance,4
;   primaryExtruder,0
;   layerHeight,0.15
;   topSolidLayers,4
;   bottomSolidLayers,3
;   perimeterOutlines,3
;   printPerimetersInsideOut,0
;   startPointOption,1
;   startPointOriginX,0
;   startPointOriginY,300
;   sequentialIslands,0
;   spiralVaseMode,0
;   firstLayerHeightPercentage,120
;   firstLayerWidthPercentage,100
;   firstLayerUnderspeed,0.5
;   useRaft,0
;   raftExtruder,0
;   raftTopLayers,3
;   raftBaseLayers,2
;   raftOffset,3
;   raftSeparationDistance,0.14
;   raftTopInfill,100
;   aboveRaftSpeedMultiplier,0.3
;   useSkirt,1
;   skirtExtruder,0
;   skirtLayers,1
;   skirtOutlines,3
;   skirtOffset,2
;   usePrimePillar,0
;   primePillarExtruder,999
;   primePillarWidth,12
;   primePillarLocation,7
;   primePillarSpeedMultiplier,1
;   useOozeShield,0
;   oozeShieldExtruder,999
;   oozeShieldOffset,2
;   oozeShieldOutlines,1
;   oozeShieldSidewallShape,1
;   oozeShieldSidewallAngle,30
;   oozeShieldSpeedMultiplier,1
;   infillExtruder,0
;   internalInfillPattern,Rectilinear
;   externalInfillPattern,Rectilinear
;   infillPercentage,15
;   outlineOverlapPercentage,15
;   infillExtrusionWidthPercentage,100
;   minInfillLength,5
;   infillLayerInterval,1
;   internalInfillAngles,45,-45
;   overlapInternalInfillAngles,0
;   externalInfillAngles,45,-45
;   generateSupport,0
;   supportExtruder,0
;   supportInfillPercentage,30
;   supportExtraInflation,0
;   supportBaseLayers,0
;   denseSupportExtruder,0
;   denseSupportLayers,0
;   denseSupportInfillPercentage,70
;   supportLayerInterval,1
;   supportHorizontalPartOffset,0.4
;   supportUpperSeparationLayers,1
;   supportLowerSeparationLayers,1
;   supportType,0
;   supportGridSpacing,4.5
;   maxOverhangAngle,45
;   supportAngles,0
;   temperatureName,Primary Extruder,Heated Bed
;   temperatureNumber,0,0
;   temperatureSetpointCount,1,1
;   temperatureSetpointLayers,1,1
;   temperatureSetpointTemperatures,215,55
;   temperatureStabilizeAtStartup,1,1
;   temperatureHeatedBed,0,1
;   fanLayers,1,2
;   fanSpeeds,0,100
;   blipFanToFullPower,0
;   adjustSpeedForCooling,1
;   minSpeedLayerTime,15
;   minCoolingSpeedSlowdown,50
;   increaseFanForCooling,1
;   minFanLayerTime,25
;   maxCoolingFanSpeed,100
;   increaseFanForBridging,1
;   bridgingFanSpeed,100
;   use5D,1
;   relativeEdistances,0
;   allowEaxisZeroing,1
;   independentExtruderAxes,0
;   includeM10123,0
;   stickySupport,1
;   applyToolheadOffsets,0
;   gcodeXoffset,0
;   gcodeYoffset,0
;   gcodeZoffset,0
;   overrideMachineDefinition,1
;   machineTypeOverride,0
;   strokeXoverride,300
;   strokeYoverride,300
;   strokeZoverride,400
;   originOffsetXoverride,0
;   originOffsetYoverride,0
;   originOffsetZoverride,0
;   homeXdirOverride,-1
;   homeYdirOverride,-1
;   homeZdirOverride,-1
;   flipXoverride,1
;   flipYoverride,-1
;   flipZoverride,1
;   toolheadOffsets,0,0|0,0|0,0|0,0|0,0|0,0
;   overrideFirmwareConfiguration,1
;   firmwareTypeOverride,RepRap (Marlin/Repetier/Sprinter)
;   GPXconfigOverride,r2
;   baudRateOverride,250000
;   overridePrinterModels,1
;   printerModelsOverride
;   startingGcode,;,; -]H.P.B[- MarshMalloW  ,; $VER: StartScript 1.02 (26.12.2019) MarshMalloW,;,; Begin Startcode,;,M117 *Preheat*     	; Preheat,;extruder0_temperature,M104 S[extruder0_temperature]  ,M109 S[extruder0_temperature] ,M109 R[extruder0_temperature] ,;,M117 *Auto-leveling*     	; Auto-leveling,M107                   	; Turn layer fan off,G21                    	; Set to metric [change to G20 if you want Imperial],G90                    	; Force coordinates to be absolute relative to the origin,G28                    	; Home X/Y/Z axis,G29                    	; Auto-leveling (BL-Touch),;,M117 *Start Clean*     	; Indicate nozzle clean in progress on LCD,G92 E0                 	; Set Extruder to 0 ,G1 X0 Y0 F2000         	; Move X and Y to 0 with speed 2000 (mm/min),G1 Z0.1 F1000          	; Move Z to   0.1 with speed 1000 (mm/min),G1 X8.0 F2000          	; Move X to   8.0 with speed 2000 (mm/min),G1 Y60.0 E4.0 F1000.0  	; Move Y to  60 and Extruder with 4.0 with speed 1000 (mm/min),G1 Y100.0 E8.5 F1000.0 	; Move Y to 100 and Extruder with 8.5 with speed 1000 (mm/min),G92 E0                 	; Set extruder to 0,G1 X16.0 F3000         	; Move X to 16.0 with speed 3000 (mm/min),G1 Y60.0 F3000         	; Move Y to 60.0 with speed 3000 (mm/min),M117 *End Clean*       	; Indicate nozzle clean in progress on LCD,G1 Z5 F3000            	; Move Z to  5.0 with speed 3000 (mm/min),G1 X20.0 F3000         	; Move X to 20.0 with speed 3000 (mm/min),; ,M117 *Printing...*     	; Start printing msg on LCD,;,; End Startcode,;,; Begin printing with sliced GCode after here,;
;   layerChangeGcode,
;   retractionGcode,
;   toolChangeGcode,
;   endingGcode,;,; init 181010,;,;M107 			; Fan off,;G1 E-1 F300 			; Retract the filament a bit before lifting the nozzle,;M104 S0 			; Turn off extruder,;M140 S0 			; Turn off bed,;G91			; Relative positioning,;G28 X0 Y0 			; Move X/Y to min endstops so the head is out of teh way,;M84 			; Disable motors,;G90 			; Absolute positioning,;M117 Print ready...,,;,; // From Cura 181010,; // End_gcode,G92 E0			; Zero the extruded length,;G1 E-30 F300		; Retract E -30,M106 S0			; Turn off cooling fan,M104 S0			; Turn off temperature,M140 S0		     	; Turn off bed,G91			; Relative positioning,G1 E-1 F300			; Retract the filament a bit before lifting the nozzle to release some of the pressure,G1 Z+20 E-5 X-20 Y-20 F7200	; Move Z up a bit and retract filament even more,G1 X0 Y150 F10000		; Move right min,M107			; Turn off layer fan,M84			; Disable motors,G90			; Absolute positioning,M117 *The-End* 		; End msg,;,
;   exportFileFormat,gcode
;   celebration,0
;   celebrationSong,Star Wars
;   postProcessing,
;   defaultSpeed,1800
;   outlineUnderspeed,0.5
;   solidInfillUnderspeed,0.8
;   supportUnderspeed,0.8
;   rapidXYspeed,6000
;   rapidZspeed,1002
;   minBridgingArea,50
;   bridgingExtraInflation,0.2
;   bridgingExtrusionMultiplier,1
;   bridgingSpeedMultiplier,0.6
;   useFixedBridgingAngle,0
;   fixedBridgingAngle,0
;   applyBridgingToPerimeters,0
;   filamentDiameters,1.75|1.75|1.75|1.75|1.75|1.75
;   filamentPricesPerKg,30|46|46|46|46|46
;   filamentDensities,1.25|1.25|1.25|1.25|1.25|1.25
;   useMinPrintHeight,0
;   minPrintHeight,0
;   useMaxPrintHeight,0
;   maxPrintHeight,9
;   useDiaphragm,0
;   diaphragmLayerInterval,20
;   robustSlicing,1
;   mergeAllIntoSolid,0
;   onlyRetractWhenCrossingOutline,1
;   retractBetweenLayers,0
;   useRetractionMinTravel,0
;   retractionMinTravel,3
;   retractWhileWiping,1
;   onlyWipeOutlines,1
;   avoidCrossingOutline,0
;   maxMovementDetourFactor,3
;   toolChangeRetractionDistance,12
;   toolChangeExtraRestartDistance,-0.5
;   toolChangeRetractionSpeed,600
;   externalThinWallType,1
;   internalThinWallType,1
;   thinWallAllowedOverlapPercentage,10
;   singleExtrusionMinLength,1
;   singleExtrusionMinPrintingWidthPercentage,50
;   singleExtrusionMaxPrintingWidthPercentage,200
;   singleExtrusionEndpointExtension,0.2
;   horizontalSizeCompensation,0
G90
M82
M106 S0
M140 S55
M190 S55
;
; -]H.P.B[- MarshMalloW  
; $VER: StartScript 1.02 (26.12.2019) MarshMalloW
;
; Begin Startcode
;
M117 *Preheat*     	; Preheat
;extruder0_temperature
M104 S215  
M109 S215 
M109 R215 
;
M117 *Auto-leveling*     	; Auto-leveling
M107                   	; Turn layer fan off
G21                    	; Set to metric [change to G20 if you want Imperial]
G90                    	; Force coordinates to be absolute relative to the origin
G28                    	; Home X/Y/Z axis
G29                    	; Auto-leveling (BL-Touch)
;
M117 *Start Clean*     	; Indicate nozzle clean in progress on LCD
G92 E0                 	; Set Extruder to 0 
G1 X0 Y0 F2000         	; Move X and Y to 0 with speed 2000 (mm/min)
G1 Z0.1 F1000          	; Move Z to   0.1 with speed 1000 (mm/min)
G1 X8.0 F2000          	; Move X to   8.0 with speed 2000 (mm/min)
G1 Y60.0 E4.0 F1000.0  	; Move Y to  60 and Extruder with 4.0 with speed 1000 (mm/min)
G1 Y100.0 E8.5 F1000.0 	; Move Y to 100 and Extruder with 8.5 with speed 1000 (mm/min)
G92 E0                 	; Set extruder to 0
G1 X16.0 F3000         	; Move X to 16.0 with speed 3000 (mm/min)
G1 Y60.0 F3000         	; Move Y to 60.0 with speed 3000 (mm/min)
M117 *End Clean*       	; Indicate nozzle clean in progress on LCD
G1 Z5 F3000            	; Move Z to  5.0 with speed 3000 (mm/min)
G1 X20.0 F3000         	; Move X to 20.0 with speed 3000 (mm/min)
; 
M117 *Printing...*     	; Start printing msg on LCD
;
; End Startcode
;
; Begin printing with sliced GCode after here
;
; process Process1
; layer 1, Z = 0.180
T0
G92 E0.0000
G1 E-4.0000 F3000
; feature skirt
; tool H0.180 W0.350
G1 Z0.300 F1002
G1 X160.715 Y134.946 F6000
G1 Z0.180 F1002
G1 E0.0000 F3000
G92 E0.0000
G1 X160.715 Y141.884 E0.1726 F900
G1 X160.784 Y142.492 E0.1879
G1 X160.932 Y142.916 E0.1990
G1 X161.171 Y143.296 E0.2102
G1 X161.489 Y143.614 E0.2214
G1 X161.869 Y143.853 E0.2326
G1 X162.294 Y144.002 E0.2438
G1 X162.902 Y144.070 E0.2590
G1 X195.921 Y144.070 E1.0806
G1 X196.082 Y144.079 E1.0846
G1 X197.435 Y144.232 E1.1185
G1 X197.750 Y144.304 E1.1265
G1 X199.112 Y144.780 E1.1624
G1 X199.402 Y144.920 E1.1705
G1 X200.624 Y145.688 E1.2064
G1 X200.876 Y145.889 E1.2144
G1 X201.896 Y146.909 E1.2503
G1 X202.098 Y147.161 E1.2583
G1 X202.865 Y148.383 E1.2942
G1 X203.005 Y148.674 E1.3023
G1 X203.482 Y150.035 E1.3382
G1 X203.554 Y150.350 E1.3462
G1 X203.706 Y151.703 E1.3801
G1 X203.715 Y151.864 E1.3841
G1 X203.715 Y163.026 E1.6618
G1 X203.706 Y163.187 E1.6658
G1 X203.554 Y164.540 E1.6997
G1 X203.482 Y164.855 E1.7077
G1 X203.005 Y166.217 E1.7436
G1 X202.865 Y166.507 E1.7517
G1 X202.098 Y167.729 E1.7876
G1 X201.896 Y167.981 E1.7956
G1 X200.876 Y169.001 E1.8315
G1 X200.624 Y169.203 E1.8395
G1 X199.402 Y169.970 E1.8754
G1 X199.111 Y170.110 E1.8835
G1 X197.750 Y170.587 E1.9194
G1 X197.435 Y170.659 E1.9274
G1 X196.082 Y170.811 E1.9613
G1 X195.921 Y170.820 E1.9653
G1 X103.759 Y170.820 E4.2585
G1 X103.598 Y170.811 E4.2625
G1 X102.245 Y170.659 E4.2964
G1 X101.930 Y170.587 E4.3045
G1 X100.569 Y170.110 E4.3404
G1 X100.278 Y169.970 E4.3484
G1 X99.056 Y169.203 E4.3843
G1 X98.804 Y169.001 E4.3923
G1 X97.784 Y167.981 E4.4282
G1 X97.583 Y167.729 E4.4362
G1 X96.815 Y166.507 E4.4721
G1 X96.675 Y166.217 E4.4802
G1 X96.198 Y164.855 E4.5161
G1 X96.127 Y164.540 E4.5241
G1 X95.974 Y163.187 E4.5580
G1 X95.965 Y163.026 E4.5620
G1 X95.965 Y151.864 E4.8397
G1 X95.974 Y151.703 E4.8437
G1 X96.127 Y150.350 E4.8776
G1 X96.198 Y150.035 E4.8857
G1 X96.675 Y148.674 E4.9216
G1 X96.815 Y148.383 E4.9296
G1 X97.583 Y147.161 E4.9655
G1 X97.784 Y146.909 E4.9735
G1 X98.804 Y145.889 E5.0094
G1 X99.056 Y145.688 E5.0175
G1 X100.279 Y144.919 E5.0534
G1 X100.573 Y144.778 E5.0615
G1 X101.944 Y144.301 E5.0976
G1 X102.257 Y144.230 E5.1056
G1 X103.598 Y144.079 E5.1392
G1 X103.759 Y144.070 E5.1432
G1 X136.779 Y144.070 E5.9648
G1 X137.387 Y144.002 E5.9800
G1 X137.811 Y143.853 E5.9912
G1 X138.191 Y143.614 E6.0024
G1 X138.509 Y143.296 E6.0136
G1 X138.748 Y142.916 E6.0248
G1 X138.897 Y142.492 E6.0359
G1 X138.965 Y141.884 E6.0512
G1 X138.965 Y134.946 E6.2238
G1 X140.649 Y133.261 E6.2831
G1 X147.881 Y133.261 E6.4630
G1 X149.340 Y134.721 E6.5144
G1 X150.799 Y133.261 E6.5657
G1 X159.031 Y133.261 E6.7705
G1 X160.715 Y134.946 E6.8298
G92 E0.0000
G1 E-4.0000 F3000
G1 Z0.480 F1002
G1 X97.868 Y167.526 F6000
G1 Z0.180 F1002
G1 E0.0000 F3000
G92 E0.0000
G1 X97.122 Y166.338 E0.0349 F900
G1 X96.999 Y166.082 E0.0420
G1 X96.535 Y164.758 E0.0769
G1 X96.472 Y164.481 E0.0839
G1 X96.323 Y163.157 E0.1171
G1 X96.315 Y163.016 E0.1206
G1 X96.315 Y151.874 E0.3979
G1 X96.323 Y151.733 E0.4014
G1 X96.472 Y150.409 E0.4345
G1 X96.535 Y150.132 E0.4416
G1 X96.999 Y148.808 E0.4765
G1 X97.122 Y148.552 E0.4836
G1 X97.868 Y147.364 E0.5185
G1 X98.045 Y147.143 E0.5255
G1 X99.037 Y146.150 E0.5605
G1 X99.259 Y145.973 E0.5675
G1 X100.448 Y145.226 E0.6025
G1 X100.706 Y145.102 E0.6096
G1 X102.041 Y144.638 E0.6447
G1 X102.315 Y144.576 E0.6517
G1 X103.628 Y144.428 E0.6846
G1 X103.769 Y144.420 E0.6881
G1 X136.798 Y144.420 E1.5100
G1 X137.465 Y144.345 E1.5267
G1 X137.964 Y144.171 E1.5398
G1 X138.411 Y143.889 E1.5530
G1 X138.784 Y143.516 E1.5661
G1 X139.065 Y143.069 E1.5793
G1 X139.240 Y142.570 E1.5924
G1 X139.315 Y141.903 E1.6091
G1 X139.315 Y135.090 E1.7786
G1 X140.794 Y133.611 E1.8307
G1 X147.736 Y133.611 E2.0034
G1 X149.215 Y135.091 E2.0554
G1 X149.215 Y139.420 E2.1632
G1 X149.465 Y139.420 E2.1694
G1 X149.465 Y135.091 E2.2771
G1 X150.944 Y133.611 E2.3292
G1 X158.886 Y133.611 E2.5268
G1 X160.365 Y135.090 E2.5788
G1 X160.365 Y141.903 E2.7484
G1 X160.440 Y142.570 E2.7651
G1 X160.615 Y143.069 E2.7782
G1 X160.896 Y143.516 E2.7914
G1 X161.269 Y143.890 E2.8045
G1 X161.717 Y144.171 E2.8176
G1 X162.215 Y144.345 E2.8308
G1 X162.882 Y144.420 E2.8475
G1 X195.911 Y144.420 E3.6693
G1 X196.052 Y144.428 E3.6729
G1 X197.376 Y144.577 E3.7060
G1 X197.653 Y144.640 E3.7131
G1 X198.977 Y145.104 E3.7480
G1 X199.233 Y145.227 E3.7550
G1 X200.421 Y145.973 E3.7900
G1 X200.643 Y146.150 E3.7970
G1 X201.635 Y147.143 E3.8319
G1 X201.812 Y147.364 E3.8390
G1 X202.558 Y148.552 E3.8739
G1 X202.681 Y148.808 E3.8810
G1 X203.145 Y150.132 E3.9159
G1 X203.208 Y150.409 E3.9229
G1 X203.357 Y151.733 E3.9561
G1 X203.365 Y151.874 E3.9596
G1 X203.365 Y163.016 E4.2368
G1 X203.357 Y163.157 E4.2404
G1 X203.208 Y164.481 E4.2735
G1 X203.145 Y164.758 E4.2806
G1 X202.681 Y166.082 E4.3155
G1 X202.558 Y166.338 E4.3226
G1 X201.812 Y167.526 E4.3575
G1 X201.635 Y167.748 E4.3645
G1 X200.643 Y168.740 E4.3994
G1 X200.421 Y168.917 E4.4065
G1 X199.233 Y169.663 E4.4414
G1 X198.977 Y169.786 E4.4485
G1 X197.653 Y170.250 E4.4834
G1 X197.376 Y170.313 E4.4904
G1 X196.052 Y170.462 E4.5236
G1 X195.911 Y170.470 E4.5271
G1 X103.769 Y170.470 E6.8199
G1 X103.628 Y170.462 E6.8234
G1 X102.304 Y170.313 E6.8565
G1 X102.027 Y170.250 E6.8636
G1 X100.703 Y169.786 E6.8985
G1 X100.447 Y169.663 E6.9056
G1 X99.259 Y168.917 E6.9405
G1 X99.037 Y168.740 E6.9475
G1 X98.045 Y167.748 E6.9825
G1 X97.868 Y167.526 E6.9895
G92 E0.0000
G1 E-4.0000 F3000
G1 Z0.480 F1002
G1 X201.374 Y147.376 F6000
G1 Z0.180 F1002
G1 E0.0000 F3000
G92 E0.0000
G1 X201.526 Y147.567 E0.0061 F900
G1 X202.252 Y148.722 E0.0400
G1 X202.358 Y148.942 E0.0461
G1 X202.808 Y150.230 E0.0800
G1 X202.862 Y150.468 E0.0861
G1 X203.008 Y151.762 E0.1185
G1 X203.015 Y151.884 E0.1216
G1 X203.015 Y163.006 E0.3983
G1 X203.008 Y163.128 E0.4014
G1 X202.862 Y164.423 E0.4338
G1 X202.808 Y164.661 E0.4398
G1 X202.358 Y165.948 E0.4738
G1 X202.252 Y166.168 E0.4799
G1 X201.526 Y167.323 E0.5138
G1 X201.374 Y167.514 E0.5199
G1 X200.409 Y168.479 E0.5538
G1 X200.218 Y168.631 E0.5599
G1 X199.063 Y169.357 E0.5938
G1 X198.843 Y169.463 E0.5999
G1 X197.556 Y169.913 E0.6339
G1 X197.318 Y169.967 E0.6399
G1 X196.023 Y170.113 E0.6724
G1 X195.901 Y170.120 E0.6754
G1 X103.779 Y170.120 E2.9676
G1 X103.657 Y170.113 E2.9707
G1 X102.363 Y169.967 E3.0031
G1 X102.124 Y169.913 E3.0092
G1 X100.837 Y169.463 E3.0431
G1 X100.617 Y169.357 E3.0492
G1 X99.462 Y168.631 E3.0831
G1 X99.271 Y168.479 E3.0892
G1 X98.307 Y167.514 E3.1231
G1 X98.154 Y167.323 E3.1292
G1 X97.429 Y166.168 E3.1632
G1 X97.323 Y165.948 E3.1692
G1 X96.872 Y164.661 E3.2032
G1 X96.818 Y164.423 E3.2093
