; G-Code generated by Simplify3D(R) Version 4.1.2
; Dec 26, 2019 at 1:18:31 AM
; Settings Summary
;   processName,Process1
;   applyToModels,SupportLed_02A,SupportLed_02B
;   profileName,A01-04-15 Tevo Tornado (experimental) (modified)
;   profileVersion,2019-12-06 19:12:20
;   baseProfile,Creality CR-10(2)
;   printMaterial,PLA
;   printQuality,Medium
;   printExtruders,
;   extruderName,Primary Extruder
;   extruderToolheadNumber,0
;   extruderDiameter,0.4
;   extruderAutoWidth,0
;   extruderWidth,0.35
;   extrusionMultiplier,0.95
;   extruderUseRetract,1
;   extruderRetractionDistance,3.5
;   extruderExtraRestartDistance,-0.3
;   extruderRetractionZLift,0.3
;   extruderRetractionSpeed,4500
;   extruderUseCoasting,0
;   extruderCoastingDistance,0.2
;   extruderUseWipe,0
;   extruderWipeDistance,3.5
;   primaryExtruder,0
;   layerHeight,0.15
;   topSolidLayers,4
;   bottomSolidLayers,3
;   perimeterOutlines,3
;   printPerimetersInsideOut,0
;   startPointOption,3
;   startPointOriginX,0
;   startPointOriginY,300
;   sequentialIslands,0
;   spiralVaseMode,0
;   firstLayerHeightPercentage,120
;   firstLayerWidthPercentage,100
;   firstLayerUnderspeed,0.5
;   useRaft,0
;   raftExtruder,0
;   raftTopLayers,3
;   raftBaseLayers,2
;   raftOffset,3
;   raftSeparationDistance,0.14
;   raftTopInfill,100
;   aboveRaftSpeedMultiplier,0.3
;   useSkirt,1
;   skirtExtruder,0
;   skirtLayers,1
;   skirtOutlines,3
;   skirtOffset,2
;   usePrimePillar,0
;   primePillarExtruder,999
;   primePillarWidth,12
;   primePillarLocation,7
;   primePillarSpeedMultiplier,1
;   useOozeShield,0
;   oozeShieldExtruder,999
;   oozeShieldOffset,2
;   oozeShieldOutlines,1
;   oozeShieldSidewallShape,1
;   oozeShieldSidewallAngle,30
;   oozeShieldSpeedMultiplier,1
;   infillExtruder,0
;   internalInfillPattern,Grid
;   externalInfillPattern,Concentric
;   infillPercentage,15
;   outlineOverlapPercentage,15
;   infillExtrusionWidthPercentage,100
;   minInfillLength,5
;   infillLayerInterval,1
;   internalInfillAngles,45,-45
;   overlapInternalInfillAngles,1
;   externalInfillAngles,45,-45
;   generateSupport,0
;   supportExtruder,0
;   supportInfillPercentage,30
;   supportExtraInflation,0
;   supportBaseLayers,0
;   denseSupportExtruder,0
;   denseSupportLayers,0
;   denseSupportInfillPercentage,70
;   supportLayerInterval,1
;   supportHorizontalPartOffset,0.4
;   supportUpperSeparationLayers,1
;   supportLowerSeparationLayers,1
;   supportType,1
;   supportGridSpacing,4.5
;   maxOverhangAngle,45
;   supportAngles,0
;   temperatureName,Primary Extruder,Heated Bed
;   temperatureNumber,0,0
;   temperatureSetpointCount,2,1
;   temperatureSetpointLayers,1,2,1
;   temperatureSetpointTemperatures,215,210,55
;   temperatureStabilizeAtStartup,1,1
;   temperatureHeatedBed,0,1
;   fanLayers,1,2
;   fanSpeeds,0,100
;   blipFanToFullPower,0
;   adjustSpeedForCooling,1
;   minSpeedLayerTime,15
;   minCoolingSpeedSlowdown,50
;   increaseFanForCooling,1
;   minFanLayerTime,25
;   maxCoolingFanSpeed,100
;   increaseFanForBridging,1
;   bridgingFanSpeed,100
;   use5D,1
;   relativeEdistances,0
;   allowEaxisZeroing,1
;   independentExtruderAxes,0
;   includeM10123,0
;   stickySupport,1
;   applyToolheadOffsets,0
;   gcodeXoffset,0
;   gcodeYoffset,0
;   gcodeZoffset,0
;   overrideMachineDefinition,1
;   machineTypeOverride,0
;   strokeXoverride,300
;   strokeYoverride,300
;   strokeZoverride,400
;   originOffsetXoverride,0
;   originOffsetYoverride,0
;   originOffsetZoverride,0
;   homeXdirOverride,-1
;   homeYdirOverride,-1
;   homeZdirOverride,-1
;   flipXoverride,1
;   flipYoverride,-1
;   flipZoverride,1
;   toolheadOffsets,0,0|0,0|0,0|0,0|0,0|0,0
;   overrideFirmwareConfiguration,1
;   firmwareTypeOverride,RepRap (Marlin/Repetier/Sprinter)
;   GPXconfigOverride,r2
;   baudRateOverride,250000
;   overridePrinterModels,1
;   printerModelsOverride
;   startingGcode,;,; -]H.P.B[- MarshMalloW  ,; $VER: StartScript 1.01 (13.11.2019) MarshMalloW,;,; Begin Startcode,;,M117 *Start Clean*     	; Indicate nozzle clean in progress on LCD,;,;extruder0_temperature,M104 S[extruder0_temperature]  ,M109 S[extruder0_temperature] ,M109 R[extruder0_temperature] ,;,M107                   	; Turn layer fan off,G21                    	; Set to metric [change to G20 if you want Imperial],G90                    	; Force coordinates to be absolute relative to the origin,G28                    	; Home X/Y/Z axis,G29                    	; Auto-leveling (BL-Touch),;,G92 E0                 	; Set Extruder to 0 ,G1 X0 Y0 F2000         	; Move X and Y to 0 with speed 2000 (mm/min),G1 Z0.1 F1000          	; Move Z to   0.1 with speed 1000 (mm/min),G1 X8.0 F2000          	; Move X to   8.0 with speed 2000 (mm/min),G1 Y60.0 E4.0 F1000.0  	; Move Y to  60 and Extruder with 4.0 with speed 1000 (mm/min),G1 Y100.0 E8.5 F1000.0 	; Move Y to 100 and Extruder with 8.5 with speed 1000 (mm/min),G92 E0                 	; Set extruder to 0,G1 X16.0 F3000         	; Move X to 16.0 with speed 3000 (mm/min),G1 Y60.0 F3000         	; Move Y to 60.0 with speed 3000 (mm/min),M117 *End Clean*       	; Indicate nozzle clean in progress on LCD,G1 Z5 F3000            	; Move Z to  5.0 with speed 3000 (mm/min),G1 X20.0 F3000         	; Move X to 20.0 with speed 3000 (mm/min),; ,M117 *Printing...*     	; Start printing msg on LCD,;,; End Startcode,;,; Begin printing with sliced GCode after here,;
;   layerChangeGcode,
;   retractionGcode,
;   toolChangeGcode,
;   endingGcode,;,; init 181010,;,;M107 			; Fan off,;G1 E-1 F300 			; Retract the filament a bit before lifting the nozzle,;M104 S0 			; Turn off extruder,;M140 S0 			; Turn off bed,;G91			; Relative positioning,;G28 X0 Y0 			; Move X/Y to min endstops so the head is out of teh way,;M84 			; Disable motors,;G90 			; Absolute positioning,;M117 Print ready...,,;,; // From Cura 181010,; // End_gcode,G92 E0			; Zero the extruded length,;G1 E-30 F300		; Retract E -30,M106 S0			; Turn off cooling fan,M104 S0			; Turn off temperature,M140 S0		     	; Turn off bed,G91			; Relative positioning,G1 E-1 F300			; Retract the filament a bit before lifting the nozzle to release some of the pressure,G1 Z+20 E-5 X-20 Y-20 F7200	; Move Z up a bit and retract filament even more,G1 X0 Y150 F10000		; Move right min,M107			; Turn off layer fan,M84			; Disable motors,G90			; Absolute positioning,M117 *The-End* 		; End msg,;,
;   exportFileFormat,gcode
;   celebration,0
;   celebrationSong,Star Wars
;   postProcessing,
;   defaultSpeed,1800
;   outlineUnderspeed,0.5
;   solidInfillUnderspeed,0.8
;   supportUnderspeed,0.8
;   rapidXYspeed,6000
;   rapidZspeed,1002
;   minBridgingArea,5
;   bridgingExtraInflation,0.2
;   bridgingExtrusionMultiplier,1
;   bridgingSpeedMultiplier,0.6
;   useFixedBridgingAngle,0
;   fixedBridgingAngle,0
;   applyBridgingToPerimeters,0
;   filamentDiameters,1.75|1.75|1.75|1.75|1.75|1.75
;   filamentPricesPerKg,30|46|46|46|46|46
;   filamentDensities,1.25|1.25|1.25|1.25|1.25|1.25
;   useMinPrintHeight,0
;   minPrintHeight,30
;   useMaxPrintHeight,0
;   maxPrintHeight,9
;   useDiaphragm,0
;   diaphragmLayerInterval,20
;   robustSlicing,1
;   mergeAllIntoSolid,0
;   onlyRetractWhenCrossingOutline,1
;   retractBetweenLayers,0
;   useRetractionMinTravel,0
;   retractionMinTravel,3
;   retractWhileWiping,0
;   onlyWipeOutlines,1
;   avoidCrossingOutline,0
;   maxMovementDetourFactor,3
;   toolChangeRetractionDistance,12
;   toolChangeExtraRestartDistance,-0.5
;   toolChangeRetractionSpeed,600
;   externalThinWallType,1
;   internalThinWallType,1
;   thinWallAllowedOverlapPercentage,15
;   singleExtrusionMinLength,1
;   singleExtrusionMinPrintingWidthPercentage,50
;   singleExtrusionMaxPrintingWidthPercentage,200
;   singleExtrusionEndpointExtension,0.2
;   horizontalSizeCompensation,0
G90
M82
M106 S0
M140 S55
M190 S55
;
; -]H.P.B[- MarshMalloW  
; $VER: StartScript 1.01 (13.11.2019) MarshMalloW
;
; Begin Startcode
;
M117 *Start Clean*     	; Indicate nozzle clean in progress on LCD
;
;extruder0_temperature
M104 S215  
M109 S215 
M109 R215 
;
M107                   	; Turn layer fan off
G21                    	; Set to metric [change to G20 if you want Imperial]
G90                    	; Force coordinates to be absolute relative to the origin
G28                    	; Home X/Y/Z axis
G29                    	; Auto-leveling (BL-Touch)
;
G92 E0                 	; Set Extruder to 0 
G1 X0 Y0 F2000         	; Move X and Y to 0 with speed 2000 (mm/min)
G1 Z0.1 F1000          	; Move Z to   0.1 with speed 1000 (mm/min)
G1 X8.0 F2000          	; Move X to   8.0 with speed 2000 (mm/min)
G1 Y60.0 E4.0 F1000.0  	; Move Y to  60 and Extruder with 4.0 with speed 1000 (mm/min)
G1 Y100.0 E8.5 F1000.0 	; Move Y to 100 and Extruder with 8.5 with speed 1000 (mm/min)
G92 E0                 	; Set extruder to 0
G1 X16.0 F3000         	; Move X to 16.0 with speed 3000 (mm/min)
G1 Y60.0 F3000         	; Move Y to 60.0 with speed 3000 (mm/min)
M117 *End Clean*       	; Indicate nozzle clean in progress on LCD
G1 Z5 F3000            	; Move Z to  5.0 with speed 3000 (mm/min)
G1 X20.0 F3000         	; Move X to 20.0 with speed 3000 (mm/min)
; 
M117 *Printing...*     	; Start printing msg on LCD
;
; End Startcode
;
; Begin printing with sliced GCode after here
;
; process Process1
; layer 1, Z = 0.180
T0
G92 E0.0000
G1 E-3.5000 F4500
; feature skirt
; tool H0.180 W0.350
G1 Z0.300 F1002
G1 X133.309 Y150.915 F6000
G1 Z0.180 F1002
G1 E-0.3000 F4500
G92 E0.0000
G1 X131.625 Y149.231 E0.0593 F900
G1 X131.625 Y131.849 E0.4918
G1 X133.309 Y130.165 E0.5510
G1 X145.691 Y130.165 E0.8591
G1 X147.375 Y131.849 E0.9184
G1 X147.375 Y149.231 E1.3509
G1 X145.691 Y150.915 E1.4102
G1 X133.309 Y150.915 E1.7182
G92 E0.0000
G1 E-3.5000 F4500
G1 Z0.480 F1002
G1 X133.454 Y150.565 F6000
G1 Z0.180 F1002
G1 E-0.3000 F4500
G92 E0.0000
G1 X131.975 Y149.086 E0.0520 F900
G1 X131.975 Y131.994 E0.4773
G1 X133.454 Y130.515 E0.5294
G1 X145.546 Y130.515 E0.8303
G1 X147.025 Y131.994 E0.8823
G1 X147.025 Y149.086 E1.3076
G1 X145.546 Y150.565 E1.3597
G1 X133.454 Y150.565 E1.6605
G92 E0.0000
G1 E-3.5000 F4500
G1 Z0.480 F1002
G1 X133.599 Y150.215 F6000
G1 Z0.180 F1002
G1 E-0.3000 F4500
G92 E0.0000
G1 X132.325 Y148.941 E0.0448 F900
G1 X132.325 Y132.139 E0.4629
G1 X133.599 Y130.865 E0.5077
G1 X145.401 Y130.865 E0.8014
G1 X146.675 Y132.139 E0.8462
G1 X146.675 Y148.941 E1.2643
G1 X145.401 Y150.215 E1.3092
G1 X133.599 Y150.215 E1.6028
G92 E0.0000
G1 E-3.5000 F4500
G1 Z0.480 F1002
G1 X163.062 Y161.672 F6000
G1 Z0.180 F1002
G1 E-0.3000 F4500
G92 E0.0000
G1 X163.062 Y145.856 E0.3935 F900
G1 X156.848 Y145.856 E0.5482
G1 X155.163 Y144.172 E0.6074
G1 X155.163 Y136.790 E0.7911
G1 X156.848 Y135.106 E0.8504
G1 X163.062 Y135.106 E1.0050
G1 X163.062 Y119.290 E1.3986
G1 X164.746 Y117.606 E1.4578
G1 X181.128 Y117.606 E1.8654
G1 X182.812 Y119.290 E1.9247
G1 X182.812 Y161.672 E2.9793
G1 X181.128 Y163.356 E3.0386
G1 X164.746 Y163.356 E3.4462
G1 X163.062 Y161.672 E3.5054
G92 E0.0000
G1 E-3.5000 F4500
G1 Z0.480 F1002
G1 X163.412 Y161.527 F6000
G1 Z0.180 F1002
G1 E-0.3000 F4500
G92 E0.0000
G1 X163.412 Y145.506 E0.3986 F900
G1 X156.993 Y145.506 E0.5584
G1 X155.513 Y144.027 E0.6104
G1 X155.513 Y136.935 E0.7869
G1 X156.993 Y135.456 E0.8389
G1 X163.412 Y135.456 E0.9987
G1 X163.412 Y119.435 E1.3973
G1 X164.891 Y117.956 E1.4494
G1 X180.983 Y117.956 E1.8498
G1 X182.462 Y119.435 E1.9018
G1 X182.462 Y161.527 E2.9492
G1 X180.983 Y163.006 E3.0012
G1 X164.891 Y163.006 E3.4016
G1 X163.412 Y161.527 E3.4537
G92 E0.0000
G1 E-3.5000 F4500
G1 Z0.480 F1002
G1 X163.762 Y161.382 F6000
G1 Z0.180 F1002
G1 E-0.3000 F4500
G92 E0.0000
G1 X163.762 Y145.156 E0.4037 F900
G1 X157.138 Y145.156 E0.5686
G1 X155.863 Y143.882 E0.6134
G1 X155.863 Y137.080 E0.7827
G1 X157.138 Y135.806 E0.8275
G1 X163.762 Y135.806 E0.9923
G1 X163.762 Y119.580 E1.3961
G1 X165.036 Y118.306 E1.4409
G1 X180.838 Y118.306 E1.8341
G1 X182.112 Y119.580 E1.8790
G1 X182.112 Y161.382 E2.9191
G1 X180.838 Y162.656 E2.9639
G1 X165.036 Y162.656 E3.3571
G1 X163.762 Y161.382 E3.4020
G92 E0.0000
G1 E-3.5000 F4500
; feature outer perimeter
G1 Z0.480 F1002
G1 X134.675 Y147.865 F6000
G1 Z0.180 F1002
G1 E-0.3000 F4500
G92 E0.0000
G1 X134.675 Y133.215 E0.3645 F450
G1 X144.325 Y133.215 E0.6047
G1 X144.325 Y147.865 E0.9692
G1 X134.675 Y147.865 E1.2093
; feature inner perimeter
G1 X135.025 Y147.515 F6000
G92 E0.0000
G1 X135.025 Y133.565 E0.3471 F675
G1 X143.975 Y133.565 E0.5698
G1 X143.975 Y147.515 E0.9169
G1 X135.025 Y147.515 E1.1396
G1 X135.375 Y147.165 F6000
G92 E0.0000
G1 X135.375 Y133.915 E0.3297 F675
G1 X143.625 Y133.915 E0.5350
G1 X143.625 Y147.165 E0.8647
G1 X135.375 Y147.165 E1.0700
; feature solid layer
G1 X135.673 Y146.867 F6000
G92 E0.0000
G1 X135.673 Y134.212 E0.3149 F720
G1 X143.327 Y134.212 E0.5054
G1 X143.327 Y146.867 E0.8203
G1 X135.673 Y146.867 E1.0107
G1 X136.023 Y146.517 F6000
G92 E0.0000
G1 X136.023 Y134.562 E0.2975 F720
G1 X142.977 Y134.562 E0.4705
G1 X142.977 Y146.517 E0.7680
G1 X136.023 Y146.517 E0.9411
G1 X136.373 Y146.167 F6000
G92 E0.0000
G1 X136.373 Y134.912 E0.2801 F720
G1 X142.627 Y134.912 E0.4357
G1 X142.627 Y146.167 E0.7158
G1 X136.373 Y146.167 E0.8714
G1 X136.722 Y145.817 F6000
G92 E0.0000
G1 X136.722 Y135.262 E0.2626 F720
G1 X142.278 Y135.262 E0.4009
G1 X142.278 Y145.817 E0.6635
G1 X136.722 Y145.817 E0.8017
G1 X137.072 Y145.467 F6000
G92 E0.0000
G1 X137.072 Y135.612 E0.2452 F720
G1 X141.928 Y135.612 E0.3660
G1 X141.928 Y145.467 E0.6112
G1 X137.072 Y145.467 E0.7321
G1 X137.423 Y145.117 F6000
G92 E0.0000
G1 X137.423 Y135.962 E0.2278 F720
G1 X141.577 Y135.962 E0.3312
G1 X141.577 Y145.117 E0.5590
G1 X137.423 Y145.117 E0.6624
G1 X137.773 Y144.767 F6000
G92 E0.0000
G1 X137.773 Y136.312 E0.2104 F720
G1 X141.227 Y136.312 E0.2964
G1 X141.227 Y144.767 E0.5067
G1 X137.773 Y144.767 E0.5927
G1 X138.123 Y144.417 F6000
G92 E0.0000
G1 X138.123 Y136.662 E0.1930 F720
G1 X140.877 Y136.662 E0.2615
G1 X140.877 Y144.417 E0.4545
G1 X138.123 Y144.417 E0.5230
G1 X138.472 Y144.067 F6000
G92 E0.0000
G1 X138.472 Y137.012 E0.1755 F720
G1 X140.528 Y137.012 E0.2267
G1 X140.528 Y144.067 E0.4022
G1 X138.472 Y144.067 E0.4534
G1 X138.822 Y143.717 F6000
G92 E0.0000
G1 X138.822 Y137.362 E0.1581 F720
G1 X140.178 Y137.362 E0.1918
G1 X140.178 Y143.717 E0.3500
G1 X138.822 Y143.717 E0.3837
G1 X139.173 Y143.367 F6000
G92 E0.0000
G1 X139.173 Y137.712 E0.1407 F720
G1 X139.827 Y137.712 E0.1570
G1 X139.827 Y143.367 E0.2977
G1 X139.173 Y143.367 E0.3140
G92 E0.0000
G1 E-3.5000 F4500
; feature outer perimeter
G1 Z0.480 F1002
G1 X166.112 Y160.306 F6000
G1 Z0.180 F1002
G1 E-0.3000 F4500
G92 E0.0000
G1 X166.112 Y142.806 E0.4354 F450
G1 X158.213 Y142.806 E0.6320
G1 X158.213 Y138.156 E0.7477
G1 X166.112 Y138.156 E0.9442
G1 X166.112 Y120.656 E1.3797
G1 X179.762 Y120.656 E1.7193
G1 X179.762 Y160.306 E2.7059
G1 X166.112 Y160.306 E3.0456
; feature inner perimeter
G1 X166.462 Y159.956 F6000
G92 E0.0000
G1 X166.462 Y142.456 E0.4354 F675
G1 X158.563 Y142.456 E0.6320
G1 X158.563 Y138.506 E0.7303
G1 X166.462 Y138.506 E0.9268
G1 X166.462 Y121.006 E1.3623
G1 X179.412 Y121.006 E1.6845
G1 X179.412 Y159.956 E2.6537
G1 X166.462 Y159.956 E2.9759
G1 X166.812 Y159.606 F6000
G92 E0.0000
G1 X166.812 Y142.106 E0.4354 F675
G1 X158.913 Y142.106 E0.6320
G1 X158.913 Y138.856 E0.7129
G1 X166.812 Y138.856 E0.9094
G1 X166.812 Y121.356 E1.3449
G1 X179.062 Y121.356 E1.6497
G1 X179.062 Y159.606 E2.6014
G1 X166.812 Y159.606 E2.9062
; feature solid layer
G1 X167.110 Y159.308 F6000
G92 E0.0000
G1 X167.110 Y141.808 E0.4354 F720
G1 X159.211 Y141.808 E0.6320
G1 X159.211 Y139.153 E0.6981
G1 X167.110 Y139.153 E0.8946
G1 X167.110 Y121.653 E1.3300
G1 X178.765 Y121.653 E1.6201
G1 X178.765 Y159.308 E2.5570
G1 X167.110 Y159.308 E2.8470
G1 X167.460 Y158.958 F6000
G92 E0.0000
G1 X167.460 Y141.458 E0.4354 F720
G1 X159.561 Y141.458 E0.6320
G1 X159.561 Y139.503 E0.6806
G1 X167.460 Y139.503 E0.8772
G1 X167.460 Y122.003 E1.3126
G1 X178.415 Y122.003 E1.5852
G1 X178.415 Y158.958 E2.5048
G1 X167.460 Y158.958 E2.7774
G1 X167.810 Y158.608 F6000
G92 E0.0000
