; G-Code generated by Simplify3D(R) Version 4.1.2
; Jan 16, 2020 at 1:14:51 AM
; Settings Summary
;   processName,Process1
;   applyToModels,Fixation 2020 Support Led
;   profileName,A03-04-15 Tevo Tornado (experimental)
;   profileVersion,2020-01-16 01:13:24
;   baseProfile,Creality CR-10(2)
;   printMaterial,PLA
;   printQuality,Medium
;   printExtruders,
;   extruderName,Primary Extruder
;   extruderToolheadNumber,0
;   extruderDiameter,0.4
;   extruderAutoWidth,0
;   extruderWidth,0.35
;   extrusionMultiplier,0.95
;   extruderUseRetract,1
;   extruderRetractionDistance,4
;   extruderExtraRestartDistance,0
;   extruderRetractionZLift,0.3
;   extruderRetractionSpeed,3000
;   extruderUseCoasting,0
;   extruderCoastingDistance,0.2
;   extruderUseWipe,0
;   extruderWipeDistance,4
;   primaryExtruder,0
;   layerHeight,0.15
;   topSolidLayers,4
;   bottomSolidLayers,3
;   perimeterOutlines,3
;   printPerimetersInsideOut,0
;   startPointOption,1
;   startPointOriginX,0
;   startPointOriginY,300
;   sequentialIslands,0
;   spiralVaseMode,0
;   firstLayerHeightPercentage,120
;   firstLayerWidthPercentage,100
;   firstLayerUnderspeed,0.5
;   useRaft,0
;   raftExtruder,0
;   raftTopLayers,3
;   raftBaseLayers,2
;   raftOffset,3
;   raftSeparationDistance,0.14
;   raftTopInfill,100
;   aboveRaftSpeedMultiplier,0.3
;   useSkirt,1
;   skirtExtruder,0
;   skirtLayers,1
;   skirtOutlines,3
;   skirtOffset,2
;   usePrimePillar,0
;   primePillarExtruder,999
;   primePillarWidth,12
;   primePillarLocation,7
;   primePillarSpeedMultiplier,1
;   useOozeShield,0
;   oozeShieldExtruder,999
;   oozeShieldOffset,2
;   oozeShieldOutlines,1
;   oozeShieldSidewallShape,1
;   oozeShieldSidewallAngle,30
;   oozeShieldSpeedMultiplier,1
;   infillExtruder,0
;   internalInfillPattern,Rectilinear
;   externalInfillPattern,Rectilinear
;   infillPercentage,15
;   outlineOverlapPercentage,15
;   infillExtrusionWidthPercentage,100
;   minInfillLength,5
;   infillLayerInterval,1
;   internalInfillAngles,45,-45
;   overlapInternalInfillAngles,0
;   externalInfillAngles,45,-45
;   generateSupport,0
;   supportExtruder,0
;   supportInfillPercentage,30
;   supportExtraInflation,0
;   supportBaseLayers,0
;   denseSupportExtruder,0
;   denseSupportLayers,0
;   denseSupportInfillPercentage,70
;   supportLayerInterval,1
;   supportHorizontalPartOffset,0.4
;   supportUpperSeparationLayers,1
;   supportLowerSeparationLayers,1
;   supportType,0
;   supportGridSpacing,4.5
;   maxOverhangAngle,45
;   supportAngles,0
;   temperatureName,Primary Extruder,Heated Bed
;   temperatureNumber,0,0
;   temperatureSetpointCount,1,1
;   temperatureSetpointLayers,1,1
;   temperatureSetpointTemperatures,215,55
;   temperatureStabilizeAtStartup,1,1
;   temperatureHeatedBed,0,1
;   fanLayers,1,2
;   fanSpeeds,0,100
;   blipFanToFullPower,0
;   adjustSpeedForCooling,1
;   minSpeedLayerTime,15
;   minCoolingSpeedSlowdown,50
;   increaseFanForCooling,1
;   minFanLayerTime,25
;   maxCoolingFanSpeed,100
;   increaseFanForBridging,1
;   bridgingFanSpeed,100
;   use5D,1
;   relativeEdistances,0
;   allowEaxisZeroing,1
;   independentExtruderAxes,0
;   includeM10123,0
;   stickySupport,1
;   applyToolheadOffsets,0
;   gcodeXoffset,0
;   gcodeYoffset,0
;   gcodeZoffset,0
;   overrideMachineDefinition,1
;   machineTypeOverride,0
;   strokeXoverride,300
;   strokeYoverride,300
;   strokeZoverride,400
;   originOffsetXoverride,0
;   originOffsetYoverride,0
;   originOffsetZoverride,0
;   homeXdirOverride,-1
;   homeYdirOverride,-1
;   homeZdirOverride,-1
;   flipXoverride,1
;   flipYoverride,-1
;   flipZoverride,1
;   toolheadOffsets,0,0|0,0|0,0|0,0|0,0|0,0
;   overrideFirmwareConfiguration,1
;   firmwareTypeOverride,RepRap (Marlin/Repetier/Sprinter)
;   GPXconfigOverride,r2
;   baudRateOverride,250000
;   overridePrinterModels,1
;   printerModelsOverride
;   startingGcode,;,; -]H.P.B[- MarshMalloW  ,; $VER: StartScript 1.02 (26.12.2019) MarshMalloW,;,; Begin Startcode,;,M117 *Preheat*     	; Preheat,;extruder0_temperature,M104 S[extruder0_temperature]  ,M109 S[extruder0_temperature] ,M109 R[extruder0_temperature] ,;,M117 *Auto-leveling*     	; Auto-leveling,M107                   	; Turn layer fan off,G21                    	; Set to metric [change to G20 if you want Imperial],G90                    	; Force coordinates to be absolute relative to the origin,G28                    	; Home X/Y/Z axis,G29                    	; Auto-leveling (BL-Touch),;,M117 *Start Clean*     	; Indicate nozzle clean in progress on LCD,G92 E0                 	; Set Extruder to 0 ,G1 X0 Y0 F2000         	; Move X and Y to 0 with speed 2000 (mm/min),G1 Z0.1 F1000          	; Move Z to   0.1 with speed 1000 (mm/min),G1 X8.0 F2000          	; Move X to   8.0 with speed 2000 (mm/min),G1 Y60.0 E4.0 F1000.0  	; Move Y to  60 and Extruder with 4.0 with speed 1000 (mm/min),G1 Y100.0 E8.5 F1000.0 	; Move Y to 100 and Extruder with 8.5 with speed 1000 (mm/min),G92 E0                 	; Set extruder to 0,G1 X16.0 F3000         	; Move X to 16.0 with speed 3000 (mm/min),G1 Y60.0 F3000         	; Move Y to 60.0 with speed 3000 (mm/min),M117 *End Clean*       	; Indicate nozzle clean in progress on LCD,G1 Z5 F3000            	; Move Z to  5.0 with speed 3000 (mm/min),G1 X20.0 F3000         	; Move X to 20.0 with speed 3000 (mm/min),; ,M117 *Printing...*     	; Start printing msg on LCD,;,; End Startcode,;,; Begin printing with sliced GCode after here,;
;   layerChangeGcode,
;   retractionGcode,
;   toolChangeGcode,
;   endingGcode,;,; init 181010,;,;M107 			; Fan off,;G1 E-1 F300 			; Retract the filament a bit before lifting the nozzle,;M104 S0 			; Turn off extruder,;M140 S0 			; Turn off bed,;G91			; Relative positioning,;G28 X0 Y0 			; Move X/Y to min endstops so the head is out of teh way,;M84 			; Disable motors,;G90 			; Absolute positioning,;M117 Print ready...,,;,; // From Cura 181010,; // End_gcode,G92 E0			; Zero the extruded length,;G1 E-30 F300		; Retract E -30,M106 S0			; Turn off cooling fan,M104 S0			; Turn off temperature,M140 S0		     	; Turn off bed,G91			; Relative positioning,G1 E-1 F300			; Retract the filament a bit before lifting the nozzle to release some of the pressure,G1 Z+20 E-5 X-20 Y-20 F7200	; Move Z up a bit and retract filament even more,G1 X0 Y150 F10000		; Move right min,M107			; Turn off layer fan,M84			; Disable motors,G90			; Absolute positioning,M117 *The-End* 		; End msg,;,
;   exportFileFormat,gcode
;   celebration,0
;   celebrationSong,Star Wars
;   postProcessing,
;   defaultSpeed,1800
;   outlineUnderspeed,0.5
;   solidInfillUnderspeed,0.8
;   supportUnderspeed,0.8
;   rapidXYspeed,6000
;   rapidZspeed,1002
;   minBridgingArea,50
;   bridgingExtraInflation,0.2
;   bridgingExtrusionMultiplier,1
;   bridgingSpeedMultiplier,0.6
;   useFixedBridgingAngle,0
;   fixedBridgingAngle,0
;   applyBridgingToPerimeters,0
;   filamentDiameters,1.75|1.75|1.75|1.75|1.75|1.75
;   filamentPricesPerKg,30|46|46|46|46|46
;   filamentDensities,1.25|1.25|1.25|1.25|1.25|1.25
;   useMinPrintHeight,0
;   minPrintHeight,0
;   useMaxPrintHeight,0
;   maxPrintHeight,9
;   useDiaphragm,0
;   diaphragmLayerInterval,20
;   robustSlicing,1
;   mergeAllIntoSolid,0
;   onlyRetractWhenCrossingOutline,1
;   retractBetweenLayers,1
;   useRetractionMinTravel,0
;   retractionMinTravel,3
;   retractWhileWiping,0
;   onlyWipeOutlines,1
;   avoidCrossingOutline,0
;   maxMovementDetourFactor,3
;   toolChangeRetractionDistance,12
;   toolChangeExtraRestartDistance,-0.5
;   toolChangeRetractionSpeed,600
;   externalThinWallType,1
;   internalThinWallType,1
;   thinWallAllowedOverlapPercentage,10
;   singleExtrusionMinLength,1
;   singleExtrusionMinPrintingWidthPercentage,50
;   singleExtrusionMaxPrintingWidthPercentage,200
;   singleExtrusionEndpointExtension,0.2
;   horizontalSizeCompensation,0
G90
M82
M106 S0
M140 S55
M190 S55
;
; -]H.P.B[- MarshMalloW  
; $VER: StartScript 1.02 (26.12.2019) MarshMalloW
;
; Begin Startcode
;
M117 *Preheat*     	; Preheat
;extruder0_temperature
M104 S215  
M109 S215 
M109 R215 
;
M117 *Auto-leveling*     	; Auto-leveling
M107                   	; Turn layer fan off
G21                    	; Set to metric [change to G20 if you want Imperial]
G90                    	; Force coordinates to be absolute relative to the origin
G28                    	; Home X/Y/Z axis
G29                    	; Auto-leveling (BL-Touch)
;
M117 *Start Clean*     	; Indicate nozzle clean in progress on LCD
G92 E0                 	; Set Extruder to 0 
G1 X0 Y0 F2000         	; Move X and Y to 0 with speed 2000 (mm/min)
G1 Z0.1 F1000          	; Move Z to   0.1 with speed 1000 (mm/min)
G1 X8.0 F2000          	; Move X to   8.0 with speed 2000 (mm/min)
G1 Y60.0 E4.0 F1000.0  	; Move Y to  60 and Extruder with 4.0 with speed 1000 (mm/min)
G1 Y100.0 E8.5 F1000.0 	; Move Y to 100 and Extruder with 8.5 with speed 1000 (mm/min)
G92 E0                 	; Set extruder to 0
G1 X16.0 F3000         	; Move X to 16.0 with speed 3000 (mm/min)
G1 Y60.0 F3000         	; Move Y to 60.0 with speed 3000 (mm/min)
M117 *End Clean*       	; Indicate nozzle clean in progress on LCD
G1 Z5 F3000            	; Move Z to  5.0 with speed 3000 (mm/min)
G1 X20.0 F3000         	; Move X to 20.0 with speed 3000 (mm/min)
; 
M117 *Printing...*     	; Start printing msg on LCD
;
; End Startcode
;
; Begin printing with sliced GCode after here
;
; process Process1
; layer 1, Z = 0.180
T0
G92 E0.0000
G1 E-4.0000 F3000
; feature skirt
; tool H0.180 W0.350
G1 Z0.300 F1002
G1 X152.404 Y124.842 F6000
G1 Z0.180 F1002
G1 E0.0000 F3000
G92 E0.0000
G1 X152.687 Y124.898 E0.0072 F900
G1 X154.827 Y125.547 E0.0628
G1 X155.088 Y125.655 E0.0699
G1 X157.058 Y126.708 E0.1254
G1 X157.293 Y126.865 E0.1325
G1 X159.019 Y128.281 E0.1880
G1 X159.219 Y128.481 E0.1951
G1 X160.635 Y130.207 E0.2506
G1 X160.792 Y130.442 E0.2576
G1 X161.845 Y132.412 E0.3132
G1 X161.953 Y132.673 E0.3202
G1 X162.601 Y134.809 E0.3758
G1 X162.656 Y135.086 E0.3828
G1 X162.868 Y137.238 E0.4366
G1 X162.875 Y137.379 E0.4402
G1 X162.875 Y162.621 E1.0682
G1 X162.868 Y162.762 E1.0717
G1 X162.656 Y164.914 E1.1255
G1 X162.601 Y165.191 E1.1326
G1 X161.953 Y167.327 E1.1881
G1 X161.845 Y167.588 E1.1952
G1 X160.792 Y169.558 E1.2507
G1 X160.635 Y169.793 E1.2578
G1 X159.219 Y171.519 E1.3133
G1 X159.019 Y171.718 E1.3203
G1 X157.293 Y173.135 E1.3759
G1 X157.058 Y173.292 E1.3829
G1 X155.088 Y174.345 E1.4385
G1 X154.827 Y174.453 E1.4455
G1 X152.691 Y175.101 E1.5011
G1 X152.414 Y175.156 E1.5081
G1 X150.195 Y175.375 E1.5636
G1 X149.919 Y175.375 E1.5705
G1 X147.597 Y175.158 E1.6285
G1 X147.313 Y175.102 E1.6357
G1 X145.173 Y174.453 E1.6913
G1 X144.912 Y174.345 E1.6984
G1 X142.942 Y173.292 E1.7539
G1 X142.707 Y173.135 E1.7610
G1 X140.981 Y171.719 E1.8165
G1 X140.781 Y171.519 E1.8236
G1 X139.365 Y169.793 E1.8791
G1 X139.208 Y169.558 E1.8862
G1 X138.155 Y167.588 E1.9417
G1 X138.047 Y167.327 E1.9487
G1 X137.399 Y165.191 E2.0043
G1 X137.344 Y164.913 E2.0113
G1 X137.132 Y162.762 E2.0651
G1 X137.125 Y162.621 E2.0687
G1 X137.125 Y137.379 E2.6967
G1 X137.132 Y137.238 E2.7002
G1 X137.344 Y135.087 E2.7540
G1 X137.399 Y134.809 E2.7611
G1 X138.047 Y132.673 E2.8166
G1 X138.155 Y132.412 E2.8237
G1 X139.208 Y130.442 E2.8792
G1 X139.365 Y130.207 E2.8863
G1 X140.781 Y128.481 E2.9418
G1 X140.981 Y128.281 E2.9489
G1 X142.707 Y126.865 E3.0044
G1 X142.942 Y126.708 E3.0114
G1 X144.912 Y125.655 E3.0670
G1 X145.173 Y125.547 E3.0740
G1 X147.310 Y124.899 E3.1296
G1 X147.587 Y124.844 E3.1366
G1 X149.809 Y124.625 E3.1922
G1 X150.084 Y124.625 E3.1990
G1 X152.404 Y124.842 E3.2570
G92 E0.0000
G1 E-4.0000 F3000
G1 Z0.480 F1002
G1 X143.122 Y172.992 F6000
G1 Z0.180 F1002
G1 E0.0000 F3000
G92 E0.0000
G1 X142.916 Y172.854 E0.0062 F900
G1 X141.217 Y171.459 E0.0609
G1 X141.041 Y171.283 E0.0671
G1 X139.646 Y169.584 E0.1218
G1 X139.508 Y169.378 E0.1279
G1 X138.472 Y167.439 E0.1826
G1 X138.377 Y167.209 E0.1888
G1 X137.739 Y165.105 E0.2435
G1 X137.691 Y164.862 E0.2497
G1 X137.481 Y162.736 E0.3029
G1 X137.475 Y162.612 E0.3059
G1 X137.475 Y137.388 E0.9336
G1 X137.481 Y137.264 E0.9367
G1 X137.691 Y135.138 E0.9898
G1 X137.739 Y134.895 E0.9960
G1 X138.377 Y132.791 E1.0507
G1 X138.472 Y132.561 E1.0569
G1 X139.508 Y130.622 E1.1116
G1 X139.646 Y130.416 E1.1178
G1 X141.041 Y128.717 E1.1725
G1 X141.217 Y128.541 E1.1787
G1 X142.916 Y127.146 E1.2334
G1 X143.122 Y127.008 E1.2395
G1 X145.061 Y125.972 E1.2942
G1 X145.291 Y125.877 E1.3004
G1 X147.395 Y125.239 E1.3551
G1 X147.638 Y125.190 E1.3613
G1 X149.826 Y124.975 E1.4160
G1 X150.068 Y124.975 E1.4220
G1 X152.353 Y125.189 E1.4791
G1 X152.603 Y125.238 E1.4855
G1 X154.709 Y125.877 E1.5402
G1 X154.939 Y125.972 E1.5464
G1 X156.878 Y127.008 E1.6011
G1 X157.084 Y127.146 E1.6073
G1 X158.783 Y128.541 E1.6620
G1 X158.959 Y128.717 E1.6682
G1 X160.354 Y130.416 E1.7229
G1 X160.491 Y130.622 E1.7291
G1 X161.528 Y132.561 E1.7838
G1 X161.623 Y132.791 E1.7899
G1 X162.261 Y134.895 E1.8446
G1 X162.309 Y135.138 E1.8508
G1 X162.519 Y137.264 E1.9040
G1 X162.525 Y137.388 E1.9071
G1 X162.525 Y162.612 E2.5347
G1 X162.519 Y162.736 E2.5378
G1 X162.309 Y164.862 E2.5910
G1 X162.261 Y165.105 E2.5971
G1 X161.623 Y167.209 E2.6518
G1 X161.528 Y167.439 E2.6580
G1 X160.491 Y169.378 E2.7127
G1 X160.354 Y169.584 E2.7189
G1 X158.959 Y171.283 E2.7736
G1 X158.783 Y171.459 E2.7798
G1 X157.084 Y172.854 E2.8345
G1 X156.878 Y172.992 E2.8407
G1 X154.939 Y174.028 E2.8954
G1 X154.709 Y174.123 E2.9015
G1 X152.605 Y174.761 E2.9562
G1 X152.362 Y174.809 E2.9624
G1 X150.177 Y175.025 E3.0171
G1 X149.935 Y175.025 E3.0231
G1 X147.647 Y174.811 E3.0803
G1 X147.397 Y174.762 E3.0866
G1 X145.291 Y174.123 E3.1414
G1 X145.061 Y174.028 E3.1475
G1 X143.122 Y172.992 E3.2022
G92 E0.0000
G1 E-4.0000 F3000
G1 Z0.480 F1002
G1 X161.963 Y135.189 F6000
G1 Z0.180 F1002
G1 E0.0000 F3000
G92 E0.0000
G1 X162.170 Y137.290 E0.0525 F900
G1 X162.175 Y137.397 E0.0552
G1 X162.175 Y162.603 E0.6824
G1 X162.170 Y162.710 E0.6851
G1 X161.963 Y164.811 E0.7376
G1 X161.921 Y165.020 E0.7429
G1 X161.293 Y167.091 E0.7967
G1 X161.211 Y167.289 E0.8021
G1 X160.191 Y169.197 E0.8559
G1 X160.072 Y169.375 E0.8612
G1 X158.699 Y171.048 E0.9151
G1 X158.548 Y171.199 E0.9204
G1 X156.875 Y172.572 E0.9743
G1 X156.697 Y172.691 E0.9796
G1 X154.789 Y173.711 E1.0334
G1 X154.591 Y173.793 E1.0387
G1 X152.520 Y174.421 E1.0926
G1 X152.311 Y174.463 E1.0979
G1 X150.159 Y174.675 E1.1517
G1 X149.951 Y174.675 E1.1569
G1 X147.697 Y174.464 E1.2132
G1 X147.482 Y174.422 E1.2187
G1 X145.409 Y173.793 E1.2726
G1 X145.211 Y173.711 E1.2779
G1 X143.303 Y172.691 E1.3317
G1 X143.125 Y172.572 E1.3371
G1 X141.452 Y171.199 E1.3909
G1 X141.301 Y171.048 E1.3962
G1 X139.928 Y169.375 E1.4501
G1 X139.809 Y169.197 E1.4554
G1 X138.789 Y167.289 E1.5093
G1 X138.707 Y167.091 E1.5146
G1 X138.079 Y165.020 E1.5684
G1 X138.037 Y164.811 E1.5737
G1 X137.830 Y162.710 E1.6263
G1 X137.825 Y162.603 E1.6289
G1 X137.825 Y137.397 E2.2561
G1 X137.830 Y137.290 E2.2588
G1 X138.037 Y135.189 E2.3113
G1 X138.079 Y134.980 E2.3166
G1 X138.707 Y132.909 E2.3705
G1 X138.789 Y132.711 E2.3758
G1 X139.809 Y130.803 E2.4297
G1 X139.928 Y130.625 E2.4350
G1 X141.301 Y128.952 E2.4888
G1 X141.452 Y128.801 E2.4941
G1 X143.125 Y127.428 E2.5480
G1 X143.303 Y127.309 E2.5533
G1 X145.211 Y126.289 E2.6072
G1 X145.409 Y126.207 E2.6125
G1 X147.480 Y125.579 E2.6663
G1 X147.690 Y125.537 E2.6717
G1 X149.844 Y125.325 E2.7255
G1 X150.052 Y125.325 E2.7307
G1 X152.303 Y125.536 E2.7870
G1 X152.518 Y125.578 E2.7924
G1 X154.591 Y126.207 E2.8463
G1 X154.789 Y126.289 E2.8516
G1 X156.697 Y127.309 E2.9055
G1 X156.875 Y127.428 E2.9108
G1 X158.548 Y128.801 E2.9647
G1 X158.699 Y128.952 E2.9700
G1 X160.072 Y130.625 E3.0238
G1 X160.191 Y130.803 E3.0291
G1 X161.211 Y132.711 E3.0830
G1 X161.293 Y132.909 E3.0883
G1 X161.921 Y134.980 E3.1422
G1 X161.963 Y135.189 E3.1475
G92 E0.0000
G1 E-4.0000 F3000
; feature outer perimeter
G1 Z0.480 F1002
G1 X140.920 Y133.710 F6000
G1 Z0.180 F1002
G1 E0.0000 F3000
G92 E0.0000
G1 X141.823 Y132.020 E0.0477 F450
G1 X143.039 Y130.539 E0.0954
G1 X144.520 Y129.323 E0.1430
