; G-Code generated by Simplify3D(R) Version 4.1.2
;
;
;
;
; Oct 27, 2022 at 12:20:45 AM
; Settings Summary
;   processName,A13-04
;   applyToModels,Bras Support Led2,Bras Support Led2(2)
;   profileName,PLA-A13-04-10s-210 Tevo Tornado
;   profileVersion,2022-10-22 22:50:35
;   baseProfile,Creality CR-10(2)
;   printMaterial,PLA
;   printQuality,Medium
;   printExtruders,
;   extruderName,Primary Extruder
;   extruderToolheadNumber,0
;   extruderDiameter,0.4
;   extruderAutoWidth,0
;   extruderWidth,0.35
;   extrusionMultiplier,0.95
;   extruderUseRetract,1
;   extruderRetractionDistance,4
;   extruderExtraRestartDistance,0
;   extruderRetractionZLift,0.3
;   extruderRetractionSpeed,3600
;   extruderUseCoasting,0
;   extruderCoastingDistance,0.5
;   extruderUseWipe,0
;   extruderWipeDistance,5
;   primaryExtruder,0
;   layerHeight,0.15
;   topSolidLayers,4
;   bottomSolidLayers,3
;   perimeterOutlines,3
;   printPerimetersInsideOut,0
;   startPointOption,2
;   startPointOriginX,0
;   startPointOriginY,300
;   sequentialIslands,0
;   spiralVaseMode,0
;   firstLayerHeightPercentage,120
;   firstLayerWidthPercentage,100
;   firstLayerUnderspeed,0.5
;   useRaft,0
;   raftExtruder,0
;   raftTopLayers,3
;   raftBaseLayers,2
;   raftOffset,3
;   raftSeparationDistance,0.14
;   raftTopInfill,100
;   aboveRaftSpeedMultiplier,0.3
;   useSkirt,1
;   skirtExtruder,0
;   skirtLayers,1
;   skirtOutlines,2
;   skirtOffset,3
;   usePrimePillar,0
;   primePillarExtruder,999
;   primePillarWidth,12
;   primePillarLocation,7
;   primePillarSpeedMultiplier,1
;   useOozeShield,0
;   oozeShieldExtruder,999
;   oozeShieldOffset,2
;   oozeShieldOutlines,1
;   oozeShieldSidewallShape,1
;   oozeShieldSidewallAngle,30
;   oozeShieldSpeedMultiplier,1
;   infillExtruder,0
;   internalInfillPattern,Rectilinear
;   externalInfillPattern,Rectilinear
;   infillPercentage,10
;   outlineOverlapPercentage,15
;   infillExtrusionWidthPercentage,100
;   minInfillLength,5
;   infillLayerInterval,1
;   internalInfillAngles,45,-45
;   overlapInternalInfillAngles,0
;   externalInfillAngles,45,-45
;   generateSupport,1
;   supportExtruder,0
;   supportInfillPercentage,30
;   supportExtraInflation,0
;   supportBaseLayers,0
;   denseSupportExtruder,0
;   denseSupportLayers,0
;   denseSupportInfillPercentage,70
;   supportLayerInterval,1
;   supportHorizontalPartOffset,0.4
;   supportUpperSeparationLayers,1
;   supportLowerSeparationLayers,1
;   supportType,0
;   supportGridSpacing,4.5
;   maxOverhangAngle,45
;   supportAngles,0
;   temperatureName,Primary Extruder,Heated Bed
;   temperatureNumber,0,0
;   temperatureSetpointCount,2,2
;   temperatureSetpointLayers,1,2,1,2
;   temperatureSetpointTemperatures,215,210,55,50
;   temperatureStabilizeAtStartup,1,1
;   temperatureHeatedBed,0,1
;   fanLayers,1,2
;   fanSpeeds,0,100
;   blipFanToFullPower,0
;   adjustSpeedForCooling,1
;   minSpeedLayerTime,15
;   minCoolingSpeedSlowdown,20
;   increaseFanForCooling,1
;   minFanLayerTime,25
;   maxCoolingFanSpeed,100
;   increaseFanForBridging,1
;   bridgingFanSpeed,100
;   use5D,1
;   relativeEdistances,0
;   allowEaxisZeroing,1
;   independentExtruderAxes,0
;   includeM10123,0
;   stickySupport,1
;   applyToolheadOffsets,0
;   gcodeXoffset,0
;   gcodeYoffset,0
;   gcodeZoffset,0
;   overrideMachineDefinition,1
;   machineTypeOverride,0
;   strokeXoverride,300
;   strokeYoverride,300
;   strokeZoverride,400
;   originOffsetXoverride,0
;   originOffsetYoverride,0
;   originOffsetZoverride,0
;   homeXdirOverride,-1
;   homeYdirOverride,-1
;   homeZdirOverride,-1
;   flipXoverride,1
;   flipYoverride,-1
;   flipZoverride,1
;   toolheadOffsets,0,0|0,0|0,0|0,0|0,0|0,0
;   overrideFirmwareConfiguration,1
;   firmwareTypeOverride,RepRap (Marlin/Repetier/Sprinter)
;   GPXconfigOverride,r2
;   baudRateOverride,250000
;   overridePrinterModels,1
;   printerModelsOverride
;   startingGcode,;,; -]H.P.B[- MarshMalloW  ,; $VER: StartScript 1.02 (26.12.2019) MarshMalloW,;,; Begin Startcode,;,M117 *Preheat*     	; Preheat,;extruder0_temperature,M104 S[extruder0_temperature]  ,M109 S[extruder0_temperature] ,M109 R[extruder0_temperature] ,;,M117 *Auto-leveling*     	; Auto-leveling,M107                   	; Turn layer fan off,G21                    	; Set to metric [change to G20 if you want Imperial],G90                    	; Force coordinates to be absolute relative to the origin,G28                    	; Home X/Y/Z axis,G29                    	; Auto-leveling (BL-Touch),;,M117 *Start Clean*     	; Indicate nozzle clean in progress on LCD,G92 E0                 	; Set Extruder to 0 ,G1 X0 Y0 F2000         	; Move X and Y to 0 with speed 2000 (mm/min),G1 Z0.1 F1000          	; Move Z to   0.1 with speed 1000 (mm/min),G1 X8.0 F2000          	; Move X to   8.0 with speed 2000 (mm/min),G1 Y60.0 E4.0 F1000.0  	; Move Y to  60 and Extruder with 4.0 with speed 1000 (mm/min),G1 Y100.0 E8.5 F1000.0 	; Move Y to 100 and Extruder with 8.5 with speed 1000 (mm/min),G92 E0                 	; Set extruder to 0,G1 X16.0 F3000         	; Move X to 16.0 with speed 3000 (mm/min),G1 Y60.0 F3000         	; Move Y to 60.0 with speed 3000 (mm/min),M117 *End Clean*       	; Indicate nozzle clean in progress on LCD,G1 Z5 F3000            	; Move Z to  5.0 with speed 3000 (mm/min),G1 X20.0 F3000         	; Move X to 20.0 with speed 3000 (mm/min),G1 Y20.0 F3000         	; Move Y to 20.0 with speed 3000 (mm/min),; ,M117 *Printing...*     	; Start printing msg on LCD,;,; End Startcode,;,; Begin printing with sliced GCode after here,;
;   layerChangeGcode,
;   retractionGcode,
;   toolChangeGcode,
;   endingGcode,;,; init 181010,;,;M107 			; Fan off,;G1 E-1 F300 			; Retract the filament a bit before lifting the nozzle,;M104 S0 			; Turn off extruder,;M140 S0 			; Turn off bed,;G91			; Relative positioning,;G28 X0 Y0 			; Move X/Y to min endstops so the head is out of teh way,;M84 			; Disable motors,;G90 			; Absolute positioning,;M117 Print ready...,,;,; // From Cura 181010,; // End_gcode,G92 E0			; Zero the extruded length,;G1 E-30 F300		; Retract E -30,M106 S0			; Turn off cooling fan,M104 S0			; Turn off temperature,M140 S0		     	; Turn off bed,G91			; Relative positioning,G1 E-1 F300			; Retract the filament a bit before lifting the nozzle to release some of the pressure,G1 Z+20 E-5 X-20 Y-20 F7200	; Move Z up a bit and retract filament even more,G1 X0 Y150 F10000		; Move right min,M107			; Turn off layer fan,M84			; Disable motors,G90			; Absolute positioning,M117 *The-End* 		; End msg,;,
;   exportFileFormat,gcode
;   celebration,0
;   celebrationSong,Star Wars
;   postProcessing,D:\S3D_Thumbs\S3D_Thumbs.exe f="[output_filepath]" x=600 y=110 w=953 lw=400 lh=300 sw=32 sh=32 d=Y
;   defaultSpeed,1800
;   outlineUnderspeed,0.5
;   solidInfillUnderspeed,0.8
;   supportUnderspeed,0.8
;   rapidXYspeed,6000
;   rapidZspeed,1002
;   minBridgingArea,50
;   bridgingExtraInflation,0.2
;   bridgingExtrusionMultiplier,1
;   bridgingSpeedMultiplier,0.8
;   useFixedBridgingAngle,0
;   fixedBridgingAngle,0
;   applyBridgingToPerimeters,0
;   filamentDiameters,1.75|1.75|1.75|1.75|1.75|1.75
;   filamentPricesPerKg,30|46|46|46|46|46
;   filamentDensities,1.25|1.25|1.25|1.25|1.25|1.25
;   useMinPrintHeight,0
;   minPrintHeight,0
;   useMaxPrintHeight,0
;   maxPrintHeight,50
;   useDiaphragm,0
;   diaphragmLayerInterval,20
;   robustSlicing,1
;   mergeAllIntoSolid,0
;   onlyRetractWhenCrossingOutline,1
;   retractBetweenLayers,1
;   useRetractionMinTravel,0
;   retractionMinTravel,3
;   retractWhileWiping,0
;   onlyWipeOutlines,1
;   avoidCrossingOutline,0
;   maxMovementDetourFactor,3
;   toolChangeRetractionDistance,12
;   toolChangeExtraRestartDistance,-0.5
;   toolChangeRetractionSpeed,600
;   externalThinWallType,0
;   internalThinWallType,1
;   thinWallAllowedOverlapPercentage,10
;   singleExtrusionMinLength,1
;   singleExtrusionMinPrintingWidthPercentage,50
;   singleExtrusionMaxPrintingWidthPercentage,200
;   singleExtrusionEndpointExtension,0.2
;   horizontalSizeCompensation,0
G90
M82
M106 S0
M140 S55
M190 S55
;
; -]H.P.B[- MarshMalloW  
; $VER: StartScript 1.02 (26.12.2019) MarshMalloW
;
; Begin Startcode
;
M117 *Preheat*     	; Preheat
;extruder0_temperature
M104 S215  
M109 S215 
M109 R215 
;
M117 *Auto-leveling*     	; Auto-leveling
M107                   	; Turn layer fan off
G21                    	; Set to metric [change to G20 if you want Imperial]
G90                    	; Force coordinates to be absolute relative to the origin
G28                    	; Home X/Y/Z axis
G29                    	; Auto-leveling (BL-Touch)
;
M117 *Start Clean*     	; Indicate nozzle clean in progress on LCD
G92 E0                 	; Set Extruder to 0 
G1 X0 Y0 F2000         	; Move X and Y to 0 with speed 2000 (mm/min)
G1 Z0.1 F1000          	; Move Z to   0.1 with speed 1000 (mm/min)
G1 X8.0 F2000          	; Move X to   8.0 with speed 2000 (mm/min)
G1 Y60.0 E4.0 F1000.0  	; Move Y to  60 and Extruder with 4.0 with speed 1000 (mm/min)
G1 Y100.0 E8.5 F1000.0 	; Move Y to 100 and Extruder with 8.5 with speed 1000 (mm/min)
G92 E0                 	; Set extruder to 0
G1 X16.0 F3000         	; Move X to 16.0 with speed 3000 (mm/min)
G1 Y60.0 F3000         	; Move Y to 60.0 with speed 3000 (mm/min)
M117 *End Clean*       	; Indicate nozzle clean in progress on LCD
G1 Z5 F3000            	; Move Z to  5.0 with speed 3000 (mm/min)
G1 X20.0 F3000         	; Move X to 20.0 with speed 3000 (mm/min)
G1 Y20.0 F3000         	; Move Y to 20.0 with speed 3000 (mm/min)
; 
M117 *Printing...*     	; Start printing msg on LCD
;
; End Startcode
;
; Begin printing with sliced GCode after here
;
; process A13-04
; layer 1, Z = 0.180
M117 INDICATOR-Layer1
M117 DASHBOARD_LAYER_INDICATOR 1
T0
G92 E0.0000
G1 E-4.0000 F3600
; feature skirt
; tool H0.180 W0.350
G1 Z0.300 F1002
G1 X144.755 Y48.820 F6000
G1 Z0.180 F1002
G1 E0.0000 F3600
G92 E0.0000
G1 X146.820 Y46.755 E0.0727 F900
G1 X153.180 Y46.755 E0.2309
G1 X155.245 Y48.820 E0.3036
G1 X155.245 Y51.774 E0.3771
G1 X155.500 Y52.029 E0.3861
G1 X155.755 Y51.774 E0.3950
G1 X155.755 Y48.820 E0.4685
G1 X157.820 Y46.755 E0.5412
G1 X164.180 Y46.755 E0.6994
G1 X166.245 Y48.820 E0.7721
G1 X166.245 Y51.774 E0.8456
G1 X167.025 Y52.554 E0.8731
G1 X167.025 Y147.446 E3.2342
G1 X166.245 Y148.226 E3.2617
G1 X166.245 Y151.180 E3.3352
G1 X164.180 Y153.245 E3.4079
G1 X157.820 Y153.245 E3.5661
G1 X155.755 Y151.180 E3.6388
G1 X155.755 Y148.226 E3.7123
G1 X155.500 Y147.971 E3.7212
G1 X155.245 Y148.226 E3.7302
G1 X155.245 Y151.180 E3.8037
G1 X153.180 Y153.245 E3.8764
G1 X146.820 Y153.245 E4.0346
G1 X144.755 Y151.180 E4.1073
G1 X144.755 Y148.226 E4.1808
G1 X143.975 Y147.446 E4.2082
G1 X143.975 Y52.554 E6.5694
G1 X144.755 Y51.774 E6.5969
G1 X144.755 Y48.820 E6.6704
G92 E0.0000
G1 E-4.0000 F3600
G1 Z0.480 F1002
G1 X145.105 Y48.965 F6000
G1 Z0.180 F1002
G1 E0.0000 F3600
G92 E0.0000
G1 X146.965 Y47.105 E0.0654 F900
G1 X153.035 Y47.105 E0.2165
G1 X154.895 Y48.965 E0.2819
G1 X154.895 Y51.919 E0.3554
G1 X155.500 Y52.524 E0.3767
G1 X156.105 Y51.919 E0.3980
G1 X156.105 Y48.965 E0.4715
G1 X157.965 Y47.105 E0.5370
G1 X164.035 Y47.105 E0.6880
G1 X165.895 Y48.965 E0.7535
G1 X165.895 Y51.919 E0.8270
G1 X166.675 Y52.699 E0.8544
G1 X166.675 Y147.301 E3.2084
G1 X165.895 Y148.081 E3.2358
G1 X165.895 Y151.035 E3.3093
G1 X164.035 Y152.895 E3.3748
G1 X157.965 Y152.895 E3.5258
G1 X156.105 Y151.035 E3.5913
G1 X156.105 Y148.081 E3.6648
G1 X155.500 Y147.476 E3.6860
G1 X154.895 Y148.081 E3.7073
G1 X154.895 Y151.035 E3.7808
G1 X153.035 Y152.895 E3.8463
G1 X146.965 Y152.895 E3.9973
G1 X145.105 Y151.035 E4.0628
G1 X145.105 Y148.081 E4.1363
G1 X144.325 Y147.301 E4.1637
G1 X144.325 Y52.699 E6.5177
G1 X145.105 Y51.919 E6.5451
G1 X145.105 Y48.965 E6.6186
G92 E0.0000
G1 E-4.0000 F3600
; feature outer perimeter
G1 Z0.480 F1002
G1 X147.675 Y54.189 F6000
G1 Z0.180 F1002
G1 E0.0000 F3600
G92 E0.0000
G1 X152.325 Y54.189 E0.1157 F450
G1 X152.325 Y145.811 E2.3955
G1 X147.675 Y145.811 E2.5112
G1 X147.675 Y54.189 E4.7910
; feature inner perimeter
G1 X148.025 Y54.539 F6000
G92 E0.0000
G1 X151.975 Y54.539 E0.0983 F675
G1 X151.975 Y145.461 E2.3607
G1 X148.025 Y145.461 E2.4590
G1 X148.025 Y54.539 E4.7214
G1 X148.375 Y54.889 F6000
G92 E0.0000
G1 X151.625 Y54.889 E0.0809 F675
G1 X151.625 Y145.111 E2.3259
G1 X148.375 Y145.111 E2.4067
G1 X148.375 Y54.889 E4.6517
; feature solid layer
G1 X151.274 Y55.186 F6000
G92 E0.0000
G1 X151.327 Y55.240 E0.0019 F720
G1 X151.327 Y55.735 E0.0142
G1 X150.779 Y55.186 E0.0335
G1 X150.284 Y55.186 E0.0458
G1 X151.327 Y56.230 E0.0825
G1 X151.327 Y56.724 E0.0948
G1 X149.789 Y55.186 E0.1490
G1 X149.294 Y55.186 E0.1613
G1 X151.327 Y57.219 E0.2328
G1 X151.327 Y57.714 E0.2451
G1 X148.799 Y55.186 E0.3341
G1 X148.673 Y55.186 E0.3373
G1 X148.673 Y55.554 E0.3464
G1 X151.327 Y58.209 E0.4399
G1 X151.327 Y58.704 E0.4522
G1 X148.673 Y56.049 E0.5456
G1 X148.673 Y56.544 E0.5579
G1 X151.327 Y59.199 E0.6513
G1 X151.327 Y59.694 E0.6637
G1 X148.673 Y57.039 E0.7571
G1 X148.673 Y57.534 E0.7694
G1 X151.327 Y60.189 E0.8628
G1 X151.327 Y60.684 E0.8751
G1 X148.673 Y58.029 E0.9686
G1 X148.673 Y58.524 E0.9809
G1 X151.327 Y61.179 E1.0743
G1 X151.327 Y61.674 E1.0866
G1 X148.673 Y59.019 E1.1801
G1 X148.673 Y59.514 E1.1924
G1 X151.327 Y62.169 E1.2858
G1 X151.327 Y62.664 E1.2981
G1 X148.673 Y60.009 E1.3916
G1 X148.673 Y60.504 E1.4039
G1 X151.327 Y63.159 E1.4973
G1 X151.327 Y63.654 E1.5096
G1 X148.673 Y60.999 E1.6030
G1 X148.673 Y61.494 E1.6154
G1 X151.327 Y64.149 E1.7088
G1 X151.327 Y64.644 E1.7211
G1 X148.673 Y61.989 E1.8145
G1 X148.673 Y62.484 E1.8268
G1 X151.327 Y65.139 E1.9203
G1 X151.327 Y65.634 E1.9326
G1 X148.673 Y62.979 E2.0260
G1 X148.673 Y63.474 E2.0383
G1 X151.327 Y66.129 E2.1318
G1 X151.327 Y66.624 E2.1441
G1 X148.673 Y63.969 E2.2375
G1 X148.673 Y64.464 E2.2498
G1 X151.327 Y67.119 E2.3433
G1 X151.327 Y67.614 E2.3556
G1 X148.673 Y64.959 E2.4490
G1 X148.673 Y65.454 E2.4613
G1 X151.327 Y68.109 E2.5547
G1 X151.327 Y68.604 E2.5671
G1 X148.673 Y65.949 E2.6605
G1 X148.673 Y66.444 E2.6728
G1 X151.327 Y69.099 E2.7662
G1 X151.327 Y69.594 E2.7785
G1 X148.673 Y66.939 E2.8720
G1 X148.673 Y67.434 E2.8843
G1 X151.327 Y70.089 E2.9777
G1 X151.327 Y70.584 E2.9900
G1 X148.673 Y67.929 E3.0835
G1 X148.673 Y68.424 E3.0958
G1 X151.327 Y71.079 E3.1892
G1 X151.327 Y71.574 E3.2015
G1 X148.673 Y68.919 E3.2950
G1 X148.673 Y69.414 E3.3073
G1 X151.327 Y72.069 E3.4007
G1 X151.327 Y72.564 E3.4130
G1 X148.673 Y69.909 E3.5064
G1 X148.673 Y70.404 E3.5188
G1 X151.327 Y73.059 E3.6122
G1 X151.327 Y73.554 E3.6245
G1 X148.673 Y70.899 E3.7179
G1 X148.673 Y71.394 E3.7302
G1 X151.327 Y74.049 E3.8237
G1 X151.327 Y74.544 E3.8360
G1 X148.673 Y71.889 E3.9294
G1 X148.673 Y72.384 E3.9417
G1 X151.327 Y75.039 E4.0352
G1 X151.327 Y75.534 E4.0475
G1 X148.673 Y72.879 E4.1409
G1 X148.673 Y73.373 E4.1532
G1 X151.327 Y76.028 E4.2467
G1 X151.327 Y76.523 E4.2590
G1 X148.673 Y73.868 E4.3524
G1 X148.673 Y74.363 E4.3647
G1 X151.327 Y77.018 E4.4581
G1 X151.327 Y77.513 E4.4705
G1 X148.673 Y74.858 E4.5639
G1 X148.673 Y75.353 E4.5762
G1 X151.327 Y78.008 E4.6696
G1 X151.327 Y78.503 E4.6819
G1 X148.673 Y75.848 E4.7754
G1 X148.673 Y76.343 E4.7877
G1 X151.327 Y78.998 E4.8811
G1 X151.327 Y79.493 E4.8934
G1 X148.673 Y76.838 E4.9869
G1 X148.673 Y77.333 E4.9992
G1 X151.327 Y79.988 E5.0926
G1 X151.327 Y80.483 E5.1049
G1 X148.673 Y77.828 E5.1984
G1 X148.673 Y78.323 E5.2107
G1 X151.327 Y80.978 E5.3041
G1 X151.327 Y81.473 E5.3164
G1 X148.673 Y78.818 E5.4098
G1 X148.673 Y79.313 E5.4222
G1 X151.327 Y81.968 E5.5156
G1 X151.327 Y82.463 E5.5279
G1 X148.673 Y79.808 E5.6213
G1 X148.673 Y80.303 E5.6336
G1 X151.327 Y82.958 E5.7271
G1 X151.327 Y83.453 E5.7394
G1 X148.673 Y80.798 E5.8328
G1 X148.673 Y81.293 E5.8451
G1 X151.327 Y83.948 E5.9386
G1 X151.327 Y84.443 E5.9509
G1 X148.673 Y81.788 E6.0443
G1 X148.673 Y82.283 E6.0566
G1 X151.327 Y84.938 E6.1501
G1 X151.327 Y85.433 E6.1624
G1 X148.673 Y82.778 E6.2558
G1 X148.673 Y83.273 E6.2681
G1 X151.327 Y85.928 E6.3615
G1 X151.327 Y86.423 E6.3739
G1 X148.673 Y83.768 E6.4673
