; G-Code generated by Simplify3D(R) Version 4.1.2
; Jan 16, 2020 at 1:17:50 AM
; Settings Summary
;   processName,Process1
;   applyToModels,Bras Support Led
;   profileName,A03-04-15 Tevo Tornado (experimental)
;   profileVersion,2020-01-16 01:13:24
;   baseProfile,Creality CR-10(2)
;   printMaterial,PLA
;   printQuality,Medium
;   printExtruders,
;   extruderName,Primary Extruder
;   extruderToolheadNumber,0
;   extruderDiameter,0.4
;   extruderAutoWidth,0
;   extruderWidth,0.35
;   extrusionMultiplier,0.95
;   extruderUseRetract,1
;   extruderRetractionDistance,4
;   extruderExtraRestartDistance,0
;   extruderRetractionZLift,0.3
;   extruderRetractionSpeed,3000
;   extruderUseCoasting,0
;   extruderCoastingDistance,0.2
;   extruderUseWipe,0
;   extruderWipeDistance,4
;   primaryExtruder,0
;   layerHeight,0.15
;   topSolidLayers,4
;   bottomSolidLayers,3
;   perimeterOutlines,3
;   printPerimetersInsideOut,0
;   startPointOption,1
;   startPointOriginX,0
;   startPointOriginY,300
;   sequentialIslands,0
;   spiralVaseMode,0
;   firstLayerHeightPercentage,120
;   firstLayerWidthPercentage,100
;   firstLayerUnderspeed,0.5
;   useRaft,0
;   raftExtruder,0
;   raftTopLayers,3
;   raftBaseLayers,2
;   raftOffset,3
;   raftSeparationDistance,0.14
;   raftTopInfill,100
;   aboveRaftSpeedMultiplier,0.3
;   useSkirt,1
;   skirtExtruder,0
;   skirtLayers,1
;   skirtOutlines,3
;   skirtOffset,2
;   usePrimePillar,0
;   primePillarExtruder,999
;   primePillarWidth,12
;   primePillarLocation,7
;   primePillarSpeedMultiplier,1
;   useOozeShield,0
;   oozeShieldExtruder,999
;   oozeShieldOffset,2
;   oozeShieldOutlines,1
;   oozeShieldSidewallShape,1
;   oozeShieldSidewallAngle,30
;   oozeShieldSpeedMultiplier,1
;   infillExtruder,0
;   internalInfillPattern,Rectilinear
;   externalInfillPattern,Rectilinear
;   infillPercentage,15
;   outlineOverlapPercentage,15
;   infillExtrusionWidthPercentage,100
;   minInfillLength,5
;   infillLayerInterval,1
;   internalInfillAngles,45,-45
;   overlapInternalInfillAngles,0
;   externalInfillAngles,45,-45
;   generateSupport,0
;   supportExtruder,0
;   supportInfillPercentage,30
;   supportExtraInflation,0
;   supportBaseLayers,0
;   denseSupportExtruder,0
;   denseSupportLayers,0
;   denseSupportInfillPercentage,70
;   supportLayerInterval,1
;   supportHorizontalPartOffset,0.4
;   supportUpperSeparationLayers,1
;   supportLowerSeparationLayers,1
;   supportType,0
;   supportGridSpacing,4.5
;   maxOverhangAngle,45
;   supportAngles,0
;   temperatureName,Primary Extruder,Heated Bed
;   temperatureNumber,0,0
;   temperatureSetpointCount,1,1
;   temperatureSetpointLayers,1,1
;   temperatureSetpointTemperatures,215,55
;   temperatureStabilizeAtStartup,1,1
;   temperatureHeatedBed,0,1
;   fanLayers,1,2
;   fanSpeeds,0,100
;   blipFanToFullPower,0
;   adjustSpeedForCooling,1
;   minSpeedLayerTime,15
;   minCoolingSpeedSlowdown,50
;   increaseFanForCooling,1
;   minFanLayerTime,25
;   maxCoolingFanSpeed,100
;   increaseFanForBridging,1
;   bridgingFanSpeed,100
;   use5D,1
;   relativeEdistances,0
;   allowEaxisZeroing,1
;   independentExtruderAxes,0
;   includeM10123,0
;   stickySupport,1
;   applyToolheadOffsets,0
;   gcodeXoffset,0
;   gcodeYoffset,0
;   gcodeZoffset,0
;   overrideMachineDefinition,1
;   machineTypeOverride,0
;   strokeXoverride,300
;   strokeYoverride,300
;   strokeZoverride,400
;   originOffsetXoverride,0
;   originOffsetYoverride,0
;   originOffsetZoverride,0
;   homeXdirOverride,-1
;   homeYdirOverride,-1
;   homeZdirOverride,-1
;   flipXoverride,1
;   flipYoverride,-1
;   flipZoverride,1
;   toolheadOffsets,0,0|0,0|0,0|0,0|0,0|0,0
;   overrideFirmwareConfiguration,1
;   firmwareTypeOverride,RepRap (Marlin/Repetier/Sprinter)
;   GPXconfigOverride,r2
;   baudRateOverride,250000
;   overridePrinterModels,1
;   printerModelsOverride
;   startingGcode,;,; -]H.P.B[- MarshMalloW  ,; $VER: StartScript 1.02 (26.12.2019) MarshMalloW,;,; Begin Startcode,;,M117 *Preheat*     	; Preheat,;extruder0_temperature,M104 S[extruder0_temperature]  ,M109 S[extruder0_temperature] ,M109 R[extruder0_temperature] ,;,M117 *Auto-leveling*     	; Auto-leveling,M107                   	; Turn layer fan off,G21                    	; Set to metric [change to G20 if you want Imperial],G90                    	; Force coordinates to be absolute relative to the origin,G28                    	; Home X/Y/Z axis,G29                    	; Auto-leveling (BL-Touch),;,M117 *Start Clean*     	; Indicate nozzle clean in progress on LCD,G92 E0                 	; Set Extruder to 0 ,G1 X0 Y0 F2000         	; Move X and Y to 0 with speed 2000 (mm/min),G1 Z0.1 F1000          	; Move Z to   0.1 with speed 1000 (mm/min),G1 X8.0 F2000          	; Move X to   8.0 with speed 2000 (mm/min),G1 Y60.0 E4.0 F1000.0  	; Move Y to  60 and Extruder with 4.0 with speed 1000 (mm/min),G1 Y100.0 E8.5 F1000.0 	; Move Y to 100 and Extruder with 8.5 with speed 1000 (mm/min),G92 E0                 	; Set extruder to 0,G1 X16.0 F3000         	; Move X to 16.0 with speed 3000 (mm/min),G1 Y60.0 F3000         	; Move Y to 60.0 with speed 3000 (mm/min),M117 *End Clean*       	; Indicate nozzle clean in progress on LCD,G1 Z5 F3000            	; Move Z to  5.0 with speed 3000 (mm/min),G1 X20.0 F3000         	; Move X to 20.0 with speed 3000 (mm/min),; ,M117 *Printing...*     	; Start printing msg on LCD,;,; End Startcode,;,; Begin printing with sliced GCode after here,;
;   layerChangeGcode,
;   retractionGcode,
;   toolChangeGcode,
;   endingGcode,;,; init 181010,;,;M107 			; Fan off,;G1 E-1 F300 			; Retract the filament a bit before lifting the nozzle,;M104 S0 			; Turn off extruder,;M140 S0 			; Turn off bed,;G91			; Relative positioning,;G28 X0 Y0 			; Move X/Y to min endstops so the head is out of teh way,;M84 			; Disable motors,;G90 			; Absolute positioning,;M117 Print ready...,,;,; // From Cura 181010,; // End_gcode,G92 E0			; Zero the extruded length,;G1 E-30 F300		; Retract E -30,M106 S0			; Turn off cooling fan,M104 S0			; Turn off temperature,M140 S0		     	; Turn off bed,G91			; Relative positioning,G1 E-1 F300			; Retract the filament a bit before lifting the nozzle to release some of the pressure,G1 Z+20 E-5 X-20 Y-20 F7200	; Move Z up a bit and retract filament even more,G1 X0 Y150 F10000		; Move right min,M107			; Turn off layer fan,M84			; Disable motors,G90			; Absolute positioning,M117 *The-End* 		; End msg,;,
;   exportFileFormat,gcode
;   celebration,0
;   celebrationSong,Star Wars
;   postProcessing,
;   defaultSpeed,1800
;   outlineUnderspeed,0.5
;   solidInfillUnderspeed,0.8
;   supportUnderspeed,0.8
;   rapidXYspeed,6000
;   rapidZspeed,1002
;   minBridgingArea,50
;   bridgingExtraInflation,0.2
;   bridgingExtrusionMultiplier,1
;   bridgingSpeedMultiplier,0.6
;   useFixedBridgingAngle,0
;   fixedBridgingAngle,0
;   applyBridgingToPerimeters,0
;   filamentDiameters,1.75|1.75|1.75|1.75|1.75|1.75
;   filamentPricesPerKg,30|46|46|46|46|46
;   filamentDensities,1.25|1.25|1.25|1.25|1.25|1.25
;   useMinPrintHeight,0
;   minPrintHeight,0
;   useMaxPrintHeight,0
;   maxPrintHeight,9
;   useDiaphragm,0
;   diaphragmLayerInterval,20
;   robustSlicing,1
;   mergeAllIntoSolid,0
;   onlyRetractWhenCrossingOutline,1
;   retractBetweenLayers,1
;   useRetractionMinTravel,0
;   retractionMinTravel,3
;   retractWhileWiping,0
;   onlyWipeOutlines,1
;   avoidCrossingOutline,0
;   maxMovementDetourFactor,3
;   toolChangeRetractionDistance,12
;   toolChangeExtraRestartDistance,-0.5
;   toolChangeRetractionSpeed,600
;   externalThinWallType,1
;   internalThinWallType,1
;   thinWallAllowedOverlapPercentage,10
;   singleExtrusionMinLength,1
;   singleExtrusionMinPrintingWidthPercentage,50
;   singleExtrusionMaxPrintingWidthPercentage,200
;   singleExtrusionEndpointExtension,0.2
;   horizontalSizeCompensation,0
G90
M82
M106 S0
M140 S55
M190 S55
;
; -]H.P.B[- MarshMalloW  
; $VER: StartScript 1.02 (26.12.2019) MarshMalloW
;
; Begin Startcode
;
M117 *Preheat*     	; Preheat
;extruder0_temperature
M104 S215  
M109 S215 
M109 R215 
;
M117 *Auto-leveling*     	; Auto-leveling
M107                   	; Turn layer fan off
G21                    	; Set to metric [change to G20 if you want Imperial]
G90                    	; Force coordinates to be absolute relative to the origin
G28                    	; Home X/Y/Z axis
G29                    	; Auto-leveling (BL-Touch)
;
M117 *Start Clean*     	; Indicate nozzle clean in progress on LCD
G92 E0                 	; Set Extruder to 0 
G1 X0 Y0 F2000         	; Move X and Y to 0 with speed 2000 (mm/min)
G1 Z0.1 F1000          	; Move Z to   0.1 with speed 1000 (mm/min)
G1 X8.0 F2000          	; Move X to   8.0 with speed 2000 (mm/min)
G1 Y60.0 E4.0 F1000.0  	; Move Y to  60 and Extruder with 4.0 with speed 1000 (mm/min)
G1 Y100.0 E8.5 F1000.0 	; Move Y to 100 and Extruder with 8.5 with speed 1000 (mm/min)
G92 E0                 	; Set extruder to 0
G1 X16.0 F3000         	; Move X to 16.0 with speed 3000 (mm/min)
G1 Y60.0 F3000         	; Move Y to 60.0 with speed 3000 (mm/min)
M117 *End Clean*       	; Indicate nozzle clean in progress on LCD
G1 Z5 F3000            	; Move Z to  5.0 with speed 3000 (mm/min)
G1 X20.0 F3000         	; Move X to 20.0 with speed 3000 (mm/min)
; 
M117 *Printing...*     	; Start printing msg on LCD
;
; End Startcode
;
; Begin printing with sliced GCode after here
;
; process Process1
; layer 1, Z = 0.180
T0
G92 E0.0000
G1 E-4.0000 F3000
; feature skirt
; tool H0.180 W0.350
G1 Z0.300 F1002
G1 X171.636 Y145.694 F6000
G1 Z0.180 F1002
G1 E0.0000 F3000
G92 E0.0000
G1 X171.636 Y153.075 E0.1837 F900
G1 X169.952 Y154.760 E0.2429
G1 X125.872 Y154.760 E1.3398
G1 X124.188 Y153.075 E1.3990
G1 X124.188 Y145.694 E1.5827
G1 X125.872 Y144.010 E1.6420
G1 X169.952 Y144.010 E2.7388
G1 X171.636 Y145.694 E2.7980
G92 E0.0000
G1 E-4.0000 F3000
G1 Z0.480 F1002
G1 X124.538 Y152.930 F6000
G1 Z0.180 F1002
G1 E0.0000 F3000
G92 E0.0000
G1 X124.538 Y145.839 E0.1765 F900
G1 X126.017 Y144.360 E0.2285
G1 X169.807 Y144.360 E1.3181
G1 X171.286 Y145.839 E1.3702
G1 X171.286 Y152.930 E1.5466
G1 X169.807 Y154.410 E1.5987
G1 X126.017 Y154.410 E2.6883
G1 X124.538 Y152.930 E2.7403
G92 E0.0000
G1 E-4.0000 F3000
G1 Z0.480 F1002
G1 X170.936 Y152.786 F6000
G1 Z0.180 F1002
G1 E0.0000 F3000
G92 E0.0000
G1 X169.662 Y154.060 E0.0448 F900
G1 X126.162 Y154.060 E1.1272
G1 X124.888 Y152.786 E1.1721
G1 X124.888 Y145.984 E1.3413
G1 X126.162 Y144.710 E1.3861
G1 X169.662 Y144.710 E2.4685
G1 X170.936 Y145.984 E2.5134
G1 X170.936 Y152.786 E2.6826
G92 E0.0000
G1 E-4.0000 F3000
; feature outer perimeter
G1 Z0.480 F1002
G1 X168.586 Y147.060 F6000
G1 Z0.180 F1002
G1 E0.0000 F3000
G92 E0.0000
G1 X168.586 Y151.710 E0.1157 F450
G1 X127.238 Y151.710 E1.1445
G1 X127.238 Y147.060 E1.2603
G1 X168.586 Y147.060 E2.2891
; feature inner perimeter
G1 X168.236 Y147.410 F6000
G92 E0.0000
G1 X168.236 Y151.360 E0.0983 F675
G1 X127.588 Y151.360 E1.1097
G1 X127.588 Y147.410 E1.2080
G1 X168.236 Y147.410 E2.2194
G1 X167.886 Y147.760 F6000
G92 E0.0000
G1 X167.886 Y151.010 E0.0809 F675
G1 X127.938 Y151.010 E1.0749
G1 X127.938 Y147.760 E1.1557
G1 X167.886 Y147.760 E2.1498
; feature solid layer
G1 X167.373 Y148.057 F6000
G92 E0.0000
G1 X167.588 Y148.272 E0.0076 F720
G1 X167.588 Y148.767 E0.0199
G1 X166.878 Y148.057 E0.0449
G1 X166.383 Y148.057 E0.0572
G1 X167.588 Y149.262 E0.0996
G1 X167.588 Y149.757 E0.1119
G1 X165.889 Y148.057 E0.1717
G1 X165.394 Y148.057 E0.1840
G1 X167.588 Y150.252 E0.2612
G1 X167.588 Y150.712 E0.2727
G1 X167.554 Y150.712 E0.2736
G1 X164.899 Y148.057 E0.3670
G1 X164.404 Y148.057 E0.3793
G1 X167.059 Y150.712 E0.4727
G1 X166.564 Y150.712 E0.4851
G1 X163.909 Y148.057 E0.5785
G1 X163.414 Y148.057 E0.5908
G1 X166.069 Y150.712 E0.6842
G1 X165.574 Y150.712 E0.6965
G1 X162.919 Y148.057 E0.7900
G1 X162.424 Y148.057 E0.8023
G1 X165.079 Y150.712 E0.8957
G1 X164.584 Y150.712 E0.9080
G1 X161.929 Y148.057 E1.0015
G1 X161.434 Y148.057 E1.0138
G1 X164.089 Y150.712 E1.1072
G1 X163.594 Y150.712 E1.1195
G1 X160.939 Y148.057 E1.2129
G1 X160.444 Y148.057 E1.2253
G1 X163.099 Y150.712 E1.3187
G1 X162.604 Y150.712 E1.3310
G1 X159.949 Y148.057 E1.4244
G1 X159.454 Y148.057 E1.4368
G1 X162.109 Y150.712 E1.5302
G1 X161.614 Y150.712 E1.5425
G1 X158.959 Y148.057 E1.6359
G1 X158.464 Y148.057 E1.6482
G1 X161.119 Y150.712 E1.7417
G1 X160.624 Y150.712 E1.7540
G1 X157.969 Y148.057 E1.8474
G1 X157.474 Y148.057 E1.8597
G1 X160.129 Y150.712 E1.9532
G1 X159.634 Y150.712 E1.9655
G1 X156.979 Y148.057 E2.0589
G1 X156.484 Y148.057 E2.0712
G1 X159.139 Y150.712 E2.1646
G1 X158.644 Y150.712 E2.1770
G1 X155.989 Y148.057 E2.2704
G1 X155.494 Y148.057 E2.2827
G1 X158.149 Y150.712 E2.3761
G1 X157.654 Y150.712 E2.3885
G1 X154.999 Y148.057 E2.4819
G1 X154.504 Y148.057 E2.4942
G1 X157.159 Y150.712 E2.5876
G1 X156.664 Y150.712 E2.5999
G1 X154.009 Y148.057 E2.6934
G1 X153.514 Y148.057 E2.7057
G1 X156.169 Y150.712 E2.7991
G1 X155.674 Y150.712 E2.8114
G1 X153.019 Y148.057 E2.9049
G1 X152.524 Y148.057 E2.9172
G1 X155.179 Y150.712 E3.0106
G1 X154.684 Y150.712 E3.0229
G1 X152.029 Y148.057 E3.1163
G1 X151.534 Y148.057 E3.1287
G1 X154.189 Y150.712 E3.2221
G1 X153.694 Y150.712 E3.2344
G1 X151.039 Y148.057 E3.3278
G1 X150.544 Y148.057 E3.3402
G1 X153.199 Y150.712 E3.4336
G1 X152.704 Y150.712 E3.4459
G1 X150.049 Y148.057 E3.5393
G1 X149.554 Y148.057 E3.5516
G1 X152.209 Y150.712 E3.6451
G1 X151.714 Y150.712 E3.6574
G1 X149.059 Y148.057 E3.7508
G1 X148.564 Y148.057 E3.7631
G1 X151.219 Y150.712 E3.8566
G1 X150.724 Y150.712 E3.8689
G1 X148.069 Y148.057 E3.9623
G1 X147.574 Y148.057 E3.9746
G1 X150.229 Y150.712 E4.0681
G1 X149.734 Y150.712 E4.0804
G1 X147.079 Y148.057 E4.1738
G1 X146.584 Y148.057 E4.1861
G1 X149.239 Y150.712 E4.2795
G1 X148.745 Y150.712 E4.2919
G1 X146.090 Y148.057 E4.3853
G1 X145.595 Y148.057 E4.3976
G1 X148.250 Y150.712 E4.4910
G1 X147.755 Y150.712 E4.5033
G1 X145.100 Y148.057 E4.5968
G1 X144.605 Y148.057 E4.6091
G1 X147.260 Y150.712 E4.7025
G1 X146.765 Y150.712 E4.7148
G1 X144.110 Y148.057 E4.8083
G1 X143.615 Y148.057 E4.8206
G1 X146.270 Y150.712 E4.9140
G1 X145.775 Y150.712 E4.9263
G1 X143.120 Y148.057 E5.0198
G1 X142.625 Y148.057 E5.0321
G1 X145.280 Y150.712 E5.1255
G1 X144.785 Y150.712 E5.1378
G1 X142.130 Y148.057 E5.2312
G1 X141.635 Y148.057 E5.2436
G1 X144.290 Y150.712 E5.3370
G1 X143.795 Y150.712 E5.3493
G1 X141.140 Y148.057 E5.4427
G1 X140.645 Y148.057 E5.4550
G1 X143.300 Y150.712 E5.5485
G1 X142.805 Y150.712 E5.5608
G1 X140.150 Y148.057 E5.6542
G1 X139.655 Y148.057 E5.6665
G1 X142.310 Y150.712 E5.7600
G1 X141.815 Y150.712 E5.7723
G1 X139.160 Y148.057 E5.8657
G1 X138.665 Y148.057 E5.8780
G1 X141.320 Y150.712 E5.9715
G1 X140.825 Y150.712 E5.9838
G1 X138.170 Y148.057 E6.0772
G1 X137.675 Y148.057 E6.0895
G1 X140.330 Y150.712 E6.1829
G1 X139.835 Y150.712 E6.1953
G1 X137.180 Y148.057 E6.2887
G1 X136.685 Y148.057 E6.3010
G1 X139.340 Y150.712 E6.3944
G1 X138.845 Y150.712 E6.4067
G1 X136.190 Y148.057 E6.5002
G1 X135.695 Y148.057 E6.5125
G1 X138.350 Y150.712 E6.6059
G1 X137.855 Y150.712 E6.6182
G1 X135.200 Y148.057 E6.7117
G1 X134.705 Y148.057 E6.7240
G1 X137.360 Y150.712 E6.8174
G1 X136.865 Y150.712 E6.8297
G1 X134.210 Y148.057 E6.9232
G1 X133.715 Y148.057 E6.9355
G1 X136.370 Y150.712 E7.0289
G1 X135.875 Y150.712 E7.0412
G1 X133.220 Y148.057 E7.1346
G1 X132.725 Y148.057 E7.1470
G1 X135.380 Y150.712 E7.2404
G1 X134.885 Y150.712 E7.2527
G1 X132.230 Y148.057 E7.3461
G1 X131.735 Y148.057 E7.3584
G1 X134.390 Y150.712 E7.4519
G1 X133.895 Y150.712 E7.4642
G1 X131.240 Y148.057 E7.5576
G1 X130.745 Y148.057 E7.5699
G1 X133.400 Y150.712 E7.6634
G1 X132.905 Y150.712 E7.6757
G1 X130.250 Y148.057 E7.7691
G1 X129.755 Y148.057 E7.7814
G1 X132.410 Y150.712 E7.8749
G1 X131.915 Y150.712 E7.8872
G1 X129.260 Y148.057 E7.9806
G1 X128.765 Y148.057 E7.9929
G1 X131.420 Y150.712 E8.0863
G1 X130.925 Y150.712 E8.0987
G1 X128.270 Y148.057 E8.1921
G1 X128.236 Y148.057 E8.1929
G1 X128.236 Y148.517 E8.2044
G1 X130.430 Y150.712 E8.2816
G1 X129.935 Y150.712 E8.2940
G1 X128.236 Y149.012 E8.3538
