; G-Code generated by Simplify3D(R) Version 4.1.2
; Dec 27, 2019 at 12:52:31 AM
; Settings Summary
;   processName,Process1
;   applyToModels,SupportLed_04A
;   profileName,A02-04-15 Tevo Tornado (experimental)
;   profileVersion,2019-12-26 14:12:04
;   baseProfile,Creality CR-10(2)
;   printMaterial,PLA
;   printQuality,Medium
;   printExtruders,
;   extruderName,Primary Extruder
;   extruderToolheadNumber,0
;   extruderDiameter,0.4
;   extruderAutoWidth,0
;   extruderWidth,0.35
;   extrusionMultiplier,0.95
;   extruderUseRetract,1
;   extruderRetractionDistance,4
;   extruderExtraRestartDistance,0
;   extruderRetractionZLift,0.3
;   extruderRetractionSpeed,3000
;   extruderUseCoasting,0
;   extruderCoastingDistance,0.2
;   extruderUseWipe,0
;   extruderWipeDistance,4
;   primaryExtruder,0
;   layerHeight,0.15
;   topSolidLayers,4
;   bottomSolidLayers,3
;   perimeterOutlines,3
;   printPerimetersInsideOut,0
;   startPointOption,1
;   startPointOriginX,0
;   startPointOriginY,300
;   sequentialIslands,0
;   spiralVaseMode,0
;   firstLayerHeightPercentage,120
;   firstLayerWidthPercentage,100
;   firstLayerUnderspeed,0.5
;   useRaft,0
;   raftExtruder,0
;   raftTopLayers,3
;   raftBaseLayers,2
;   raftOffset,3
;   raftSeparationDistance,0.14
;   raftTopInfill,100
;   aboveRaftSpeedMultiplier,0.3
;   useSkirt,1
;   skirtExtruder,0
;   skirtLayers,1
;   skirtOutlines,3
;   skirtOffset,2
;   usePrimePillar,0
;   primePillarExtruder,999
;   primePillarWidth,12
;   primePillarLocation,7
;   primePillarSpeedMultiplier,1
;   useOozeShield,0
;   oozeShieldExtruder,999
;   oozeShieldOffset,2
;   oozeShieldOutlines,1
;   oozeShieldSidewallShape,1
;   oozeShieldSidewallAngle,30
;   oozeShieldSpeedMultiplier,1
;   infillExtruder,0
;   internalInfillPattern,Rectilinear
;   externalInfillPattern,Rectilinear
;   infillPercentage,15
;   outlineOverlapPercentage,15
;   infillExtrusionWidthPercentage,100
;   minInfillLength,5
;   infillLayerInterval,1
;   internalInfillAngles,45,-45
;   overlapInternalInfillAngles,0
;   externalInfillAngles,45,-45
;   generateSupport,0
;   supportExtruder,0
;   supportInfillPercentage,30
;   supportExtraInflation,0
;   supportBaseLayers,0
;   denseSupportExtruder,0
;   denseSupportLayers,0
;   denseSupportInfillPercentage,70
;   supportLayerInterval,1
;   supportHorizontalPartOffset,0.4
;   supportUpperSeparationLayers,1
;   supportLowerSeparationLayers,1
;   supportType,0
;   supportGridSpacing,4.5
;   maxOverhangAngle,45
;   supportAngles,0
;   temperatureName,Primary Extruder,Heated Bed
;   temperatureNumber,0,0
;   temperatureSetpointCount,1,1
;   temperatureSetpointLayers,1,1
;   temperatureSetpointTemperatures,215,55
;   temperatureStabilizeAtStartup,1,1
;   temperatureHeatedBed,0,1
;   fanLayers,1,2
;   fanSpeeds,0,100
;   blipFanToFullPower,0
;   adjustSpeedForCooling,1
;   minSpeedLayerTime,15
;   minCoolingSpeedSlowdown,50
;   increaseFanForCooling,1
;   minFanLayerTime,25
;   maxCoolingFanSpeed,100
;   increaseFanForBridging,1
;   bridgingFanSpeed,100
;   use5D,1
;   relativeEdistances,0
;   allowEaxisZeroing,1
;   independentExtruderAxes,0
;   includeM10123,0
;   stickySupport,1
;   applyToolheadOffsets,0
;   gcodeXoffset,0
;   gcodeYoffset,0
;   gcodeZoffset,0
;   overrideMachineDefinition,1
;   machineTypeOverride,0
;   strokeXoverride,300
;   strokeYoverride,300
;   strokeZoverride,400
;   originOffsetXoverride,0
;   originOffsetYoverride,0
;   originOffsetZoverride,0
;   homeXdirOverride,-1
;   homeYdirOverride,-1
;   homeZdirOverride,-1
;   flipXoverride,1
;   flipYoverride,-1
;   flipZoverride,1
;   toolheadOffsets,0,0|0,0|0,0|0,0|0,0|0,0
;   overrideFirmwareConfiguration,1
;   firmwareTypeOverride,RepRap (Marlin/Repetier/Sprinter)
;   GPXconfigOverride,r2
;   baudRateOverride,250000
;   overridePrinterModels,1
;   printerModelsOverride
;   startingGcode,;,; -]H.P.B[- MarshMalloW  ,; $VER: StartScript 1.02 (26.12.2019) MarshMalloW,;,; Begin Startcode,;,M117 *Preheat*     	; Preheat,;extruder0_temperature,M104 S[extruder0_temperature]  ,M109 S[extruder0_temperature] ,M109 R[extruder0_temperature] ,;,M117 *Auto-leveling*     	; Auto-leveling,M107                   	; Turn layer fan off,G21                    	; Set to metric [change to G20 if you want Imperial],G90                    	; Force coordinates to be absolute relative to the origin,G28                    	; Home X/Y/Z axis,G29                    	; Auto-leveling (BL-Touch),;,M117 *Start Clean*     	; Indicate nozzle clean in progress on LCD,G92 E0                 	; Set Extruder to 0 ,G1 X0 Y0 F2000         	; Move X and Y to 0 with speed 2000 (mm/min),G1 Z0.1 F1000          	; Move Z to   0.1 with speed 1000 (mm/min),G1 X8.0 F2000          	; Move X to   8.0 with speed 2000 (mm/min),G1 Y60.0 E4.0 F1000.0  	; Move Y to  60 and Extruder with 4.0 with speed 1000 (mm/min),G1 Y100.0 E8.5 F1000.0 	; Move Y to 100 and Extruder with 8.5 with speed 1000 (mm/min),G92 E0                 	; Set extruder to 0,G1 X16.0 F3000         	; Move X to 16.0 with speed 3000 (mm/min),G1 Y60.0 F3000         	; Move Y to 60.0 with speed 3000 (mm/min),M117 *End Clean*       	; Indicate nozzle clean in progress on LCD,G1 Z5 F3000            	; Move Z to  5.0 with speed 3000 (mm/min),G1 X20.0 F3000         	; Move X to 20.0 with speed 3000 (mm/min),; ,M117 *Printing...*     	; Start printing msg on LCD,;,; End Startcode,;,; Begin printing with sliced GCode after here,;
;   layerChangeGcode,
;   retractionGcode,
;   toolChangeGcode,
;   endingGcode,;,; init 181010,;,;M107 			; Fan off,;G1 E-1 F300 			; Retract the filament a bit before lifting the nozzle,;M104 S0 			; Turn off extruder,;M140 S0 			; Turn off bed,;G91			; Relative positioning,;G28 X0 Y0 			; Move X/Y to min endstops so the head is out of teh way,;M84 			; Disable motors,;G90 			; Absolute positioning,;M117 Print ready...,,;,; // From Cura 181010,; // End_gcode,G92 E0			; Zero the extruded length,;G1 E-30 F300		; Retract E -30,M106 S0			; Turn off cooling fan,M104 S0			; Turn off temperature,M140 S0		     	; Turn off bed,G91			; Relative positioning,G1 E-1 F300			; Retract the filament a bit before lifting the nozzle to release some of the pressure,G1 Z+20 E-5 X-20 Y-20 F7200	; Move Z up a bit and retract filament even more,G1 X0 Y150 F10000		; Move right min,M107			; Turn off layer fan,M84			; Disable motors,G90			; Absolute positioning,M117 *The-End* 		; End msg,;,
;   exportFileFormat,gcode
;   celebration,0
;   celebrationSong,Star Wars
;   postProcessing,
;   defaultSpeed,1800
;   outlineUnderspeed,0.5
;   solidInfillUnderspeed,0.8
;   supportUnderspeed,0.8
;   rapidXYspeed,6000
;   rapidZspeed,1002
;   minBridgingArea,50
;   bridgingExtraInflation,0.2
;   bridgingExtrusionMultiplier,1
;   bridgingSpeedMultiplier,0.6
;   useFixedBridgingAngle,0
;   fixedBridgingAngle,0
;   applyBridgingToPerimeters,0
;   filamentDiameters,1.75|1.75|1.75|1.75|1.75|1.75
;   filamentPricesPerKg,30|46|46|46|46|46
;   filamentDensities,1.25|1.25|1.25|1.25|1.25|1.25
;   useMinPrintHeight,0
;   minPrintHeight,0
;   useMaxPrintHeight,0
;   maxPrintHeight,9
;   useDiaphragm,0
;   diaphragmLayerInterval,20
;   robustSlicing,1
;   mergeAllIntoSolid,0
;   onlyRetractWhenCrossingOutline,1
;   retractBetweenLayers,1
;   useRetractionMinTravel,0
;   retractionMinTravel,3
;   retractWhileWiping,0
;   onlyWipeOutlines,1
;   avoidCrossingOutline,0
;   maxMovementDetourFactor,3
;   toolChangeRetractionDistance,12
;   toolChangeExtraRestartDistance,-0.5
;   toolChangeRetractionSpeed,600
;   externalThinWallType,1
;   internalThinWallType,1
;   thinWallAllowedOverlapPercentage,10
;   singleExtrusionMinLength,1
;   singleExtrusionMinPrintingWidthPercentage,50
;   singleExtrusionMaxPrintingWidthPercentage,200
;   singleExtrusionEndpointExtension,0.2
;   horizontalSizeCompensation,0
G90
M82
M106 S0
M140 S55
M190 S55
;
; -]H.P.B[- MarshMalloW  
; $VER: StartScript 1.02 (26.12.2019) MarshMalloW
;
; Begin Startcode
;
M117 *Preheat*     	; Preheat
;extruder0_temperature
M104 S215  
M109 S215 
M109 R215 
;
M117 *Auto-leveling*     	; Auto-leveling
M107                   	; Turn layer fan off
G21                    	; Set to metric [change to G20 if you want Imperial]
G90                    	; Force coordinates to be absolute relative to the origin
G28                    	; Home X/Y/Z axis
G29                    	; Auto-leveling (BL-Touch)
;
M117 *Start Clean*     	; Indicate nozzle clean in progress on LCD
G92 E0                 	; Set Extruder to 0 
G1 X0 Y0 F2000         	; Move X and Y to 0 with speed 2000 (mm/min)
G1 Z0.1 F1000          	; Move Z to   0.1 with speed 1000 (mm/min)
G1 X8.0 F2000          	; Move X to   8.0 with speed 2000 (mm/min)
G1 Y60.0 E4.0 F1000.0  	; Move Y to  60 and Extruder with 4.0 with speed 1000 (mm/min)
G1 Y100.0 E8.5 F1000.0 	; Move Y to 100 and Extruder with 8.5 with speed 1000 (mm/min)
G92 E0                 	; Set extruder to 0
G1 X16.0 F3000         	; Move X to 16.0 with speed 3000 (mm/min)
G1 Y60.0 F3000         	; Move Y to 60.0 with speed 3000 (mm/min)
M117 *End Clean*       	; Indicate nozzle clean in progress on LCD
G1 Z5 F3000            	; Move Z to  5.0 with speed 3000 (mm/min)
G1 X20.0 F3000         	; Move X to 20.0 with speed 3000 (mm/min)
; 
M117 *Printing...*     	; Start printing msg on LCD
;
; End Startcode
;
; Begin printing with sliced GCode after here
;
; process Process1
; layer 1, Z = 0.180
T0
G92 E0.0000
G1 E-4.0000 F3000
; feature skirt
; tool H0.180 W0.350
G1 Z0.300 F1002
G1 X166.875 Y108.809 F6000
G1 Z0.180 F1002
G1 E0.0000 F3000
G92 E0.0000
G1 X166.875 Y124.625 E0.3935 F900
G1 X173.090 Y124.625 E0.5482
G1 X174.774 Y126.309 E0.6074
G1 X174.774 Y133.691 E0.7911
G1 X173.090 Y135.375 E0.8504
G1 X166.875 Y135.375 E1.0050
G1 X166.875 Y151.191 E1.3986
G1 X165.191 Y152.875 E1.4578
G1 X134.809 Y152.875 E2.2138
G1 X133.125 Y151.191 E2.2731
G1 X133.125 Y135.375 E2.6666
G1 X126.910 Y135.375 E2.8213
G1 X125.226 Y133.691 E2.8805
G1 X125.226 Y126.309 E3.0642
G1 X126.910 Y124.625 E3.1235
G1 X133.125 Y124.625 E3.2781
G1 X133.125 Y108.809 E3.6716
G1 X134.809 Y107.125 E3.7309
G1 X165.191 Y107.125 E4.4869
G1 X166.875 Y108.809 E4.5461
G92 E0.0000
G1 E-4.0000 F3000
G1 Z0.480 F1002
G1 X133.475 Y135.025 F6000
G1 Z0.180 F1002
G1 E0.0000 F3000
G92 E0.0000
G1 X127.055 Y135.025 E0.1597 F900
G1 X125.576 Y133.546 E0.2118
G1 X125.576 Y126.454 E0.3883
G1 X127.055 Y124.975 E0.4403
G1 X133.475 Y124.975 E0.6000
G1 X133.475 Y108.954 E0.9987
G1 X134.954 Y107.475 E1.0507
G1 X165.046 Y107.475 E1.7995
G1 X166.525 Y108.954 E1.8515
G1 X166.525 Y124.975 E2.2502
G1 X172.945 Y124.975 E2.4099
G1 X174.424 Y126.454 E2.4620
G1 X174.424 Y133.546 E2.6384
G1 X172.945 Y135.025 E2.6905
G1 X166.525 Y135.025 E2.8502
G1 X166.525 Y151.046 E3.2489
G1 X165.046 Y152.525 E3.3009
G1 X134.954 Y152.525 E4.0497
G1 X133.475 Y151.046 E4.1017
G1 X133.475 Y135.025 E4.5004
G92 E0.0000
G1 E-4.0000 F3000
G1 Z0.480 F1002
G1 X174.074 Y126.599 F6000
G1 Z0.180 F1002
G1 E0.0000 F3000
G92 E0.0000
G1 X174.074 Y133.401 E0.1692 F900
G1 X172.800 Y134.675 E0.2141
G1 X166.175 Y134.675 E0.3789
G1 X166.175 Y150.901 E0.7827
G1 X164.901 Y152.175 E0.8275
G1 X135.099 Y152.175 E1.5691
G1 X133.825 Y150.901 E1.6139
G1 X133.825 Y134.675 E2.0176
G1 X127.200 Y134.675 E2.1825
G1 X125.926 Y133.401 E2.2273
G1 X125.926 Y126.599 E2.3966
G1 X127.200 Y125.325 E2.4414
G1 X133.825 Y125.325 E2.6062
G1 X133.825 Y109.099 E3.0100
G1 X135.099 Y107.825 E3.0548
G1 X164.901 Y107.825 E3.7964
G1 X166.175 Y109.099 E3.8412
G1 X166.175 Y125.325 E4.2449
G1 X172.800 Y125.325 E4.4098
G1 X174.074 Y126.599 E4.4546
G92 E0.0000
G1 E-4.0000 F3000
; feature outer perimeter
G1 Z0.480 F1002
G1 X136.175 Y127.675 F6000
G1 Z0.180 F1002
G1 E0.0000 F3000
G92 E0.0000
G1 X136.175 Y110.175 E0.4354 F450
G1 X163.825 Y110.175 E1.1235
G1 X163.825 Y127.675 E1.5589
G1 X171.724 Y127.675 E1.7554
G1 X171.724 Y132.325 E1.8712
G1 X163.825 Y132.325 E2.0677
G1 X163.825 Y149.825 E2.5031
G1 X136.175 Y149.825 E3.1912
G1 X136.175 Y132.325 E3.6266
G1 X128.276 Y132.325 E3.8231
G1 X128.276 Y127.675 E3.9388
G1 X136.175 Y127.675 E4.1354
; feature inner perimeter
G1 X136.525 Y128.025 F6000
G92 E0.0000
G1 X136.525 Y110.525 E0.4354 F675
G1 X163.475 Y110.525 E1.1060
G1 X163.475 Y128.025 E1.5415
G1 X171.374 Y128.025 E1.7380
G1 X171.374 Y131.975 E1.8363
G1 X163.475 Y131.975 E2.0329
G1 X163.475 Y149.475 E2.4683
G1 X136.525 Y149.475 E3.1389
G1 X136.525 Y131.975 E3.5743
G1 X128.626 Y131.975 E3.7709
G1 X128.626 Y128.025 E3.8692
G1 X136.525 Y128.025 E4.0657
G1 X136.875 Y128.375 F6000
G92 E0.0000
G1 X136.875 Y110.875 E0.4354 F675
G1 X163.125 Y110.875 E1.0886
G1 X163.125 Y128.375 E1.5241
G1 X171.024 Y128.375 E1.7206
G1 X171.024 Y131.625 E1.8015
G1 X163.125 Y131.625 E1.9980
G1 X163.125 Y149.125 E2.4335
G1 X136.875 Y149.125 E3.0866
G1 X136.875 Y131.625 E3.5221
G1 X128.976 Y131.625 E3.7186
G1 X128.976 Y128.375 E3.7995
G1 X136.875 Y128.375 E3.9960
; feature solid layer
G1 X137.173 Y131.527 F6000
G92 E0.0000
G1 X154.473 Y148.827 E0.6088 F720
G1 X153.978 Y148.827 E0.6211
G1 X137.173 Y132.022 E1.2125
G1 X137.173 Y132.517 E1.2248
G1 X153.483 Y148.827 E1.7988
G1 X152.988 Y148.827 E1.8111
G1 X137.173 Y133.012 E2.3677
G1 X137.173 Y133.507 E2.3800
G1 X152.493 Y148.827 E2.9191
G1 X151.998 Y148.827 E2.9314
G1 X137.173 Y134.002 E3.4531
G1 X137.173 Y134.497 E3.4655
G1 X151.503 Y148.827 E3.9698
G1 X151.008 Y148.827 E3.9821
G1 X137.173 Y134.992 E4.4690
G1 X137.173 Y135.487 E4.4813
G1 X150.513 Y148.827 E4.9507
G1 X150.018 Y148.827 E4.9630
G1 X137.173 Y135.982 E5.4151
G1 X137.173 Y136.477 E5.4274
G1 X149.523 Y148.827 E5.8620
G1 X149.029 Y148.827 E5.8743
G1 X137.173 Y136.971 E6.2916
G1 X137.173 Y137.466 E6.3039
G1 X148.534 Y148.827 E6.7037
G1 X148.039 Y148.827 E6.7160
G1 X137.173 Y137.961 E7.0983
G1 X137.173 Y138.456 E7.1107
G1 X147.544 Y148.827 E7.4756
G1 X147.049 Y148.827 E7.4879
G1 X137.173 Y138.951 E7.8355
G1 X137.173 Y139.446 E7.8478
G1 X146.554 Y148.827 E8.1779
G1 X146.059 Y148.827 E8.1902
G1 X137.173 Y139.941 E8.5029
G1 X137.173 Y140.436 E8.5152
G1 X145.564 Y148.827 E8.8105
G1 X145.069 Y148.827 E8.8228
G1 X137.173 Y140.931 E9.1007
G1 X137.173 Y141.426 E9.1130
G1 X144.574 Y148.827 E9.3735
G1 X144.079 Y148.827 E9.3858
G1 X137.173 Y141.921 E9.6288
G1 X137.173 Y142.416 E9.6411
G1 X143.584 Y148.827 E9.8667
G1 X143.089 Y148.827 E9.8791
G1 X137.173 Y142.911 E10.0872
G1 X137.173 Y143.406 E10.0996
G1 X142.594 Y148.827 E10.2903
G1 X142.099 Y148.827 E10.3027
G1 X137.173 Y143.901 E10.4760
G1 X137.173 Y144.396 E10.4883
G1 X141.604 Y148.827 E10.6443
G1 X141.109 Y148.827 E10.6566
G1 X137.173 Y144.891 E10.7951
G1 X137.173 Y145.386 E10.8074
G1 X140.614 Y148.827 E10.9285
G1 X140.119 Y148.827 E10.9408
G1 X137.173 Y145.881 E11.0445
G1 X137.173 Y146.376 E11.0568
G1 X139.624 Y148.827 E11.1431
G1 X139.129 Y148.827 E11.1554
G1 X137.173 Y146.871 E11.2243
G1 X137.173 Y147.366 E11.2366
G1 X138.634 Y148.827 E11.2880
G1 X138.139 Y148.827 E11.3003
G1 X137.173 Y147.861 E11.3343
G1 X137.173 Y148.356 E11.3467
G1 X137.644 Y148.827 E11.3633
G92 E0.0000
G1 E-4.0000 F3000
G1 Z0.480 F1002
G1 X129.274 Y131.053 F6000
G1 Z0.180 F1002
G1 E0.0000 F3000
G92 E0.0000
G1 X129.549 Y131.327 E0.0097 F720
G1 X130.044 Y131.327 E0.0220
G1 X129.274 Y130.558 E0.0491
G1 X129.274 Y130.063 E0.0614
G1 X130.539 Y131.327 E0.1059
G1 X131.034 Y131.327 E0.1182
G1 X129.274 Y129.568 E0.1802
G1 X129.274 Y129.073 E0.1925
G1 X131.529 Y131.327 E0.2718
G1 X132.023 Y131.327 E0.2841
G1 X129.368 Y128.673 E0.3776
G1 X129.863 Y128.673 E0.3899
G1 X132.518 Y131.327 E0.4833
G1 X133.013 Y131.327 E0.4956
G1 X130.358 Y128.673 E0.5891
G1 X130.853 Y128.673 E0.6014
G1 X133.508 Y131.327 E0.6948
G1 X134.003 Y131.327 E0.7071
G1 X131.348 Y128.673 E0.8005
G1 X131.843 Y128.673 E0.8129
G1 X134.498 Y131.327 E0.9063
G1 X134.993 Y131.327 E0.9186
G1 X132.338 Y128.673 E1.0120
G1 X132.833 Y128.673 E1.0243
G1 X135.488 Y131.327 E1.1178
G1 X135.983 Y131.327 E1.1301
G1 X133.328 Y128.673 E1.2235
G1 X133.823 Y128.673 E1.2358
G1 X136.478 Y131.327 E1.3293
G1 X136.973 Y131.327 E1.3416
G1 X134.318 Y128.673 E1.4350
