; G-Code generated by Simplify3D(R) Version 4.1.2
; Dec 26, 2019 at 2:12:43 PM
; Settings Summary
;   processName,Process1
;   applyToModels,SupportLed_03B
;   profileName,A02-04-15 Tevo Tornado (experimental)
;   profileVersion,2019-12-26 14:12:04
;   baseProfile,Creality CR-10(2)
;   printMaterial,PLA
;   printQuality,Medium
;   printExtruders,
;   extruderName,Primary Extruder
;   extruderToolheadNumber,0
;   extruderDiameter,0.4
;   extruderAutoWidth,0
;   extruderWidth,0.35
;   extrusionMultiplier,0.95
;   extruderUseRetract,1
;   extruderRetractionDistance,3.9
;   extruderExtraRestartDistance,0
;   extruderRetractionZLift,0.3
;   extruderRetractionSpeed,3000
;   extruderUseCoasting,0
;   extruderCoastingDistance,0.2
;   extruderUseWipe,0
;   extruderWipeDistance,4
;   primaryExtruder,0
;   layerHeight,0.15
;   topSolidLayers,4
;   bottomSolidLayers,3
;   perimeterOutlines,3
;   printPerimetersInsideOut,0
;   startPointOption,3
;   startPointOriginX,0
;   startPointOriginY,300
;   sequentialIslands,0
;   spiralVaseMode,0
;   firstLayerHeightPercentage,120
;   firstLayerWidthPercentage,100
;   firstLayerUnderspeed,0.5
;   useRaft,0
;   raftExtruder,0
;   raftTopLayers,3
;   raftBaseLayers,2
;   raftOffset,3
;   raftSeparationDistance,0.14
;   raftTopInfill,100
;   aboveRaftSpeedMultiplier,0.3
;   useSkirt,1
;   skirtExtruder,0
;   skirtLayers,1
;   skirtOutlines,3
;   skirtOffset,2
;   usePrimePillar,0
;   primePillarExtruder,999
;   primePillarWidth,12
;   primePillarLocation,7
;   primePillarSpeedMultiplier,1
;   useOozeShield,0
;   oozeShieldExtruder,999
;   oozeShieldOffset,2
;   oozeShieldOutlines,1
;   oozeShieldSidewallShape,1
;   oozeShieldSidewallAngle,30
;   oozeShieldSpeedMultiplier,1
;   infillExtruder,0
;   internalInfillPattern,Rectilinear
;   externalInfillPattern,Rectilinear
;   infillPercentage,15
;   outlineOverlapPercentage,15
;   infillExtrusionWidthPercentage,100
;   minInfillLength,5
;   infillLayerInterval,1
;   internalInfillAngles,45,-45
;   overlapInternalInfillAngles,0
;   externalInfillAngles,45,-45
;   generateSupport,0
;   supportExtruder,0
;   supportInfillPercentage,30
;   supportExtraInflation,0
;   supportBaseLayers,0
;   denseSupportExtruder,0
;   denseSupportLayers,0
;   denseSupportInfillPercentage,70
;   supportLayerInterval,1
;   supportHorizontalPartOffset,0.4
;   supportUpperSeparationLayers,1
;   supportLowerSeparationLayers,1
;   supportType,0
;   supportGridSpacing,4.5
;   maxOverhangAngle,45
;   supportAngles,0
;   temperatureName,Primary Extruder,Heated Bed
;   temperatureNumber,0,0
;   temperatureSetpointCount,1,1
;   temperatureSetpointLayers,1,1
;   temperatureSetpointTemperatures,215,55
;   temperatureStabilizeAtStartup,1,1
;   temperatureHeatedBed,0,1
;   fanLayers,1,2
;   fanSpeeds,0,100
;   blipFanToFullPower,0
;   adjustSpeedForCooling,1
;   minSpeedLayerTime,15
;   minCoolingSpeedSlowdown,50
;   increaseFanForCooling,1
;   minFanLayerTime,25
;   maxCoolingFanSpeed,100
;   increaseFanForBridging,1
;   bridgingFanSpeed,100
;   use5D,1
;   relativeEdistances,0
;   allowEaxisZeroing,1
;   independentExtruderAxes,0
;   includeM10123,0
;   stickySupport,1
;   applyToolheadOffsets,0
;   gcodeXoffset,0
;   gcodeYoffset,0
;   gcodeZoffset,0
;   overrideMachineDefinition,1
;   machineTypeOverride,0
;   strokeXoverride,300
;   strokeYoverride,300
;   strokeZoverride,400
;   originOffsetXoverride,0
;   originOffsetYoverride,0
;   originOffsetZoverride,0
;   homeXdirOverride,-1
;   homeYdirOverride,-1
;   homeZdirOverride,-1
;   flipXoverride,1
;   flipYoverride,-1
;   flipZoverride,1
;   toolheadOffsets,0,0|0,0|0,0|0,0|0,0|0,0
;   overrideFirmwareConfiguration,1
;   firmwareTypeOverride,RepRap (Marlin/Repetier/Sprinter)
;   GPXconfigOverride,r2
;   baudRateOverride,250000
;   overridePrinterModels,1
;   printerModelsOverride
;   startingGcode,;,; -]H.P.B[- MarshMalloW  ,; $VER: StartScript 1.02 (26.12.2019) MarshMalloW,;,; Begin Startcode,;,M117 *Preheat*     	; Preheat,;extruder0_temperature,M104 S[extruder0_temperature]  ,M109 S[extruder0_temperature] ,M109 R[extruder0_temperature] ,;,M117 *Auto-leveling*     	; Auto-leveling,M107                   	; Turn layer fan off,G21                    	; Set to metric [change to G20 if you want Imperial],G90                    	; Force coordinates to be absolute relative to the origin,G28                    	; Home X/Y/Z axis,G29                    	; Auto-leveling (BL-Touch),;,M117 *Start Clean*     	; Indicate nozzle clean in progress on LCD,G92 E0                 	; Set Extruder to 0 ,G1 X0 Y0 F2000         	; Move X and Y to 0 with speed 2000 (mm/min),G1 Z0.1 F1000          	; Move Z to   0.1 with speed 1000 (mm/min),G1 X8.0 F2000          	; Move X to   8.0 with speed 2000 (mm/min),G1 Y60.0 E4.0 F1000.0  	; Move Y to  60 and Extruder with 4.0 with speed 1000 (mm/min),G1 Y100.0 E8.5 F1000.0 	; Move Y to 100 and Extruder with 8.5 with speed 1000 (mm/min),G92 E0                 	; Set extruder to 0,G1 X16.0 F3000         	; Move X to 16.0 with speed 3000 (mm/min),G1 Y60.0 F3000         	; Move Y to 60.0 with speed 3000 (mm/min),M117 *End Clean*       	; Indicate nozzle clean in progress on LCD,G1 Z5 F3000            	; Move Z to  5.0 with speed 3000 (mm/min),G1 X20.0 F3000         	; Move X to 20.0 with speed 3000 (mm/min),; ,M117 *Printing...*     	; Start printing msg on LCD,;,; End Startcode,;,; Begin printing with sliced GCode after here,;
;   layerChangeGcode,
;   retractionGcode,
;   toolChangeGcode,
;   endingGcode,;,; init 181010,;,;M107 			; Fan off,;G1 E-1 F300 			; Retract the filament a bit before lifting the nozzle,;M104 S0 			; Turn off extruder,;M140 S0 			; Turn off bed,;G91			; Relative positioning,;G28 X0 Y0 			; Move X/Y to min endstops so the head is out of teh way,;M84 			; Disable motors,;G90 			; Absolute positioning,;M117 Print ready...,,;,; // From Cura 181010,; // End_gcode,G92 E0			; Zero the extruded length,;G1 E-30 F300		; Retract E -30,M106 S0			; Turn off cooling fan,M104 S0			; Turn off temperature,M140 S0		     	; Turn off bed,G91			; Relative positioning,G1 E-1 F300			; Retract the filament a bit before lifting the nozzle to release some of the pressure,G1 Z+20 E-5 X-20 Y-20 F7200	; Move Z up a bit and retract filament even more,G1 X0 Y150 F10000		; Move right min,M107			; Turn off layer fan,M84			; Disable motors,G90			; Absolute positioning,M117 *The-End* 		; End msg,;,
;   exportFileFormat,gcode
;   celebration,0
;   celebrationSong,Star Wars
;   postProcessing,
;   defaultSpeed,1800
;   outlineUnderspeed,0.5
;   solidInfillUnderspeed,0.8
;   supportUnderspeed,0.8
;   rapidXYspeed,6000
;   rapidZspeed,1002
;   minBridgingArea,50
;   bridgingExtraInflation,0.2
;   bridgingExtrusionMultiplier,1
;   bridgingSpeedMultiplier,0.6
;   useFixedBridgingAngle,0
;   fixedBridgingAngle,0
;   applyBridgingToPerimeters,0
;   filamentDiameters,1.75|1.75|1.75|1.75|1.75|1.75
;   filamentPricesPerKg,30|46|46|46|46|46
;   filamentDensities,1.25|1.25|1.25|1.25|1.25|1.25
;   useMinPrintHeight,0
;   minPrintHeight,0
;   useMaxPrintHeight,0
;   maxPrintHeight,9
;   useDiaphragm,0
;   diaphragmLayerInterval,20
;   robustSlicing,1
;   mergeAllIntoSolid,0
;   onlyRetractWhenCrossingOutline,1
;   retractBetweenLayers,1
;   useRetractionMinTravel,0
;   retractionMinTravel,3
;   retractWhileWiping,0
;   onlyWipeOutlines,1
;   avoidCrossingOutline,0
;   maxMovementDetourFactor,3
;   toolChangeRetractionDistance,12
;   toolChangeExtraRestartDistance,-0.5
;   toolChangeRetractionSpeed,600
;   externalThinWallType,1
;   internalThinWallType,1
;   thinWallAllowedOverlapPercentage,10
;   singleExtrusionMinLength,1
;   singleExtrusionMinPrintingWidthPercentage,50
;   singleExtrusionMaxPrintingWidthPercentage,200
;   singleExtrusionEndpointExtension,0.2
;   horizontalSizeCompensation,0
G90
M82
M106 S0
M140 S55
M190 S55
;
; -]H.P.B[- MarshMalloW  
; $VER: StartScript 1.02 (26.12.2019) MarshMalloW
;
; Begin Startcode
;
M117 *Preheat*     	; Preheat
;extruder0_temperature
M104 S215  
M109 S215 
M109 R215 
;
M117 *Auto-leveling*     	; Auto-leveling
M107                   	; Turn layer fan off
G21                    	; Set to metric [change to G20 if you want Imperial]
G90                    	; Force coordinates to be absolute relative to the origin
G28                    	; Home X/Y/Z axis
G29                    	; Auto-leveling (BL-Touch)
;
M117 *Start Clean*     	; Indicate nozzle clean in progress on LCD
G92 E0                 	; Set Extruder to 0 
G1 X0 Y0 F2000         	; Move X and Y to 0 with speed 2000 (mm/min)
G1 Z0.1 F1000          	; Move Z to   0.1 with speed 1000 (mm/min)
G1 X8.0 F2000          	; Move X to   8.0 with speed 2000 (mm/min)
G1 Y60.0 E4.0 F1000.0  	; Move Y to  60 and Extruder with 4.0 with speed 1000 (mm/min)
G1 Y100.0 E8.5 F1000.0 	; Move Y to 100 and Extruder with 8.5 with speed 1000 (mm/min)
G92 E0                 	; Set extruder to 0
G1 X16.0 F3000         	; Move X to 16.0 with speed 3000 (mm/min)
G1 Y60.0 F3000         	; Move Y to 60.0 with speed 3000 (mm/min)
M117 *End Clean*       	; Indicate nozzle clean in progress on LCD
G1 Z5 F3000            	; Move Z to  5.0 with speed 3000 (mm/min)
G1 X20.0 F3000         	; Move X to 20.0 with speed 3000 (mm/min)
; 
M117 *Printing...*     	; Start printing msg on LCD
;
; End Startcode
;
; Begin printing with sliced GCode after here
;
; process Process1
; layer 1, Z = 0.180
T0
G92 E0.0000
G1 E-3.9000 F3000
; feature skirt
; tool H0.180 W0.350
G1 Z0.300 F1002
G1 X99.216 Y169.257 F6000
G1 Z0.180 F1002
G1 E0.0000 F3000
G92 E0.0000
G1 X98.963 Y169.056 E0.0080 F900
G1 X97.943 Y168.036 E0.0439
G1 X97.742 Y167.783 E0.0520
G1 X96.974 Y166.562 E0.0879
G1 X96.834 Y166.271 E0.0959
G1 X96.358 Y164.910 E0.1318
G1 X96.286 Y164.595 E0.1398
G1 X96.133 Y163.241 E0.1737
G1 X96.124 Y163.080 E0.1777
G1 X96.124 Y151.919 E0.4554
G1 X96.133 Y151.758 E0.4595
G1 X96.286 Y150.405 E0.4933
G1 X96.358 Y150.090 E0.5014
G1 X96.834 Y148.728 E0.5373
G1 X96.974 Y148.437 E0.5453
G1 X97.742 Y147.216 E0.5812
G1 X97.943 Y146.963 E0.5892
G1 X98.963 Y145.943 E0.6251
G1 X99.216 Y145.742 E0.6332
G1 X100.437 Y144.975 E0.6691
G1 X100.728 Y144.835 E0.6771
G1 X102.090 Y144.358 E0.7130
G1 X102.404 Y144.286 E0.7210
G1 X103.758 Y144.134 E0.7549
G1 X103.919 Y144.125 E0.7589
G1 X136.938 Y144.125 E1.5805
G1 X137.546 Y144.056 E1.5958
G1 X137.970 Y143.908 E1.6069
G1 X138.351 Y143.669 E1.6181
G1 X138.668 Y143.351 E1.6293
G1 X138.907 Y142.970 E1.6405
G1 X139.056 Y142.546 E1.6517
G1 X139.124 Y141.938 E1.6669
G1 X139.124 Y135.000 E1.8395
G1 X140.808 Y133.316 E1.8988
G1 X148.040 Y133.316 E2.0787
G1 X149.499 Y134.775 E2.1301
G1 X150.958 Y133.316 E2.1814
G1 X159.190 Y133.316 E2.3863
G1 X160.874 Y135.000 E2.4455
G1 X160.874 Y141.938 E2.6182
G1 X160.943 Y142.546 E2.6334
G1 X161.091 Y142.970 E2.6446
G1 X161.330 Y143.351 E2.6558
G1 X161.648 Y143.669 E2.6669
G1 X162.029 Y143.908 E2.6781
G1 X162.453 Y144.056 E2.6893
G1 X163.061 Y144.125 E2.7045
G1 X196.080 Y144.125 E3.5261
G1 X196.241 Y144.134 E3.5302
G1 X197.594 Y144.286 E3.5640
G1 X197.909 Y144.358 E3.5721
G1 X199.271 Y144.835 E3.6080
G1 X199.562 Y144.975 E3.6160
G1 X200.783 Y145.742 E3.6519
G1 X201.036 Y145.944 E3.6599
G1 X202.056 Y146.964 E3.6958
G1 X202.257 Y147.216 E3.7039
G1 X203.024 Y148.437 E3.7398
G1 X203.165 Y148.728 E3.7478
G1 X203.641 Y150.090 E3.7837
G1 X203.713 Y150.405 E3.7917
G1 X203.865 Y151.758 E3.8256
G1 X203.874 Y151.919 E3.8296
G1 X203.874 Y163.080 E4.1073
G1 X203.865 Y163.242 E4.1114
G1 X203.713 Y164.595 E4.1452
G1 X203.641 Y164.909 E4.1533
G1 X203.165 Y166.271 E4.1892
G1 X203.024 Y166.562 E4.1972
G1 X202.257 Y167.784 E4.2331
G1 X202.056 Y168.036 E4.2411
G1 X201.036 Y169.056 E4.2770
G1 X200.783 Y169.257 E4.2851
G1 X199.562 Y170.025 E4.3210
G1 X199.271 Y170.165 E4.3290
G1 X197.909 Y170.641 E4.3649
G1 X197.594 Y170.713 E4.3729
G1 X196.241 Y170.866 E4.4068
G1 X196.080 Y170.875 E4.4108
G1 X103.919 Y170.875 E6.7041
G1 X103.758 Y170.866 E6.7081
G1 X102.404 Y170.713 E6.7420
G1 X102.090 Y170.641 E6.7500
G1 X100.728 Y170.165 E6.7859
G1 X100.437 Y170.025 E6.7939
G1 X99.216 Y169.257 E6.8298
G92 E0.0000
G1 E-3.9000 F3000
G1 Z0.480 F1002
G1 X99.418 Y168.971 F6000
G1 Z0.180 F1002
G1 E0.0000 F3000
G92 E0.0000
G1 X99.197 Y168.795 E0.0071 F900
G1 X98.204 Y167.802 E0.0420
G1 X98.028 Y167.581 E0.0490
G1 X97.281 Y166.392 E0.0839
G1 X97.158 Y166.137 E0.0910
G1 X96.695 Y164.812 E0.1259
G1 X96.631 Y164.536 E0.1330
G1 X96.482 Y163.212 E0.1661
G1 X96.474 Y163.071 E0.1697
G1 X96.474 Y151.929 E0.4469
G1 X96.482 Y151.787 E0.4504
G1 X96.631 Y150.464 E0.4836
G1 X96.695 Y150.187 E0.4906
G1 X97.158 Y148.863 E0.5255
G1 X97.281 Y148.607 E0.5326
G1 X98.028 Y147.419 E0.5675
G1 X98.204 Y147.197 E0.5746
G1 X99.197 Y146.205 E0.6095
G1 X99.418 Y146.028 E0.6165
G1 X100.607 Y145.282 E0.6515
G1 X100.862 Y145.158 E0.6585
G1 X102.187 Y144.695 E0.6934
G1 X102.463 Y144.632 E0.7005
G1 X103.787 Y144.483 E0.7336
G1 X103.928 Y144.475 E0.7372
G1 X136.958 Y144.475 E1.5590
G1 X137.624 Y144.400 E1.5757
G1 X138.123 Y144.225 E1.5889
G1 X138.570 Y143.944 E1.6020
G1 X138.944 Y143.571 E1.6151
G1 X139.225 Y143.123 E1.6283
G1 X139.399 Y142.625 E1.6414
G1 X139.474 Y141.958 E1.6581
G1 X139.474 Y135.145 E1.8277
G1 X140.953 Y133.666 E1.8797
G1 X147.895 Y133.666 E2.0524
G1 X149.374 Y135.145 E2.1045
G1 X149.374 Y139.475 E2.2122
G1 X149.624 Y139.475 E2.2184
G1 X149.624 Y135.145 E2.3262
G1 X151.103 Y133.666 E2.3782
G1 X159.045 Y133.666 E2.5758
G1 X160.524 Y135.145 E2.6279
G1 X160.524 Y141.958 E2.7974
G1 X160.599 Y142.625 E2.8141
G1 X160.774 Y143.123 E2.8272
G1 X161.055 Y143.571 E2.8404
G1 X161.429 Y143.944 E2.8535
G1 X161.876 Y144.225 E2.8667
G1 X162.374 Y144.400 E2.8798
G1 X163.041 Y144.475 E2.8965
G1 X196.070 Y144.475 E3.7184
G1 X196.212 Y144.483 E3.7219
G1 X197.536 Y144.632 E3.7550
G1 X197.812 Y144.695 E3.7621
G1 X199.137 Y145.158 E3.7970
G1 X199.392 Y145.281 E3.8041
G1 X200.580 Y146.028 E3.8390
G1 X200.802 Y146.205 E3.8461
G1 X201.794 Y147.197 E3.8810
G1 X201.971 Y147.419 E3.8880
G1 X202.718 Y148.607 E3.9229
G1 X202.841 Y148.862 E3.9300
G1 X203.304 Y150.187 E3.9649
G1 X203.367 Y150.464 E3.9720
G1 X203.516 Y151.787 E4.0051
G1 X203.524 Y151.929 E4.0086
G1 X203.524 Y163.071 E4.2859
G1 X203.516 Y163.212 E4.2894
G1 X203.367 Y164.536 E4.3226
G1 X203.304 Y164.812 E4.3296
G1 X202.841 Y166.137 E4.3645
G1 X202.718 Y166.393 E4.3716
G1 X201.971 Y167.581 E4.4065
G1 X201.794 Y167.802 E4.4136
G1 X200.802 Y168.795 E4.4485
G1 X200.580 Y168.971 E4.4555
G1 X199.392 Y169.718 E4.4905
G1 X199.137 Y169.841 E4.4975
G1 X197.812 Y170.305 E4.5324
G1 X197.536 Y170.368 E4.5395
G1 X196.212 Y170.517 E4.5726
G1 X196.070 Y170.525 E4.5762
G1 X103.928 Y170.525 E6.8689
G1 X103.787 Y170.517 E6.8724
G1 X102.463 Y170.368 E6.9056
G1 X102.187 Y170.305 E6.9126
G1 X100.862 Y169.841 E6.9475
G1 X100.607 Y169.718 E6.9546
G1 X99.418 Y168.971 E6.9895
G92 E0.0000
G1 E-3.9000 F3000
G1 Z0.480 F1002
G1 X99.621 Y168.686 F6000
G1 Z0.180 F1002
G1 E0.0000 F3000
G92 E0.0000
G1 X99.430 Y168.533 E0.0061 F900
G1 X98.466 Y167.569 E0.0400
G1 X98.314 Y167.378 E0.0461
G1 X97.588 Y166.223 E0.0800
G1 X97.482 Y166.003 E0.0861
G1 X97.031 Y164.715 E0.1201
G1 X96.977 Y164.477 E0.1261
G1 X96.831 Y163.183 E0.1585
G1 X96.824 Y163.061 E0.1616
G1 X96.824 Y151.939 E0.4383
G1 X96.831 Y151.817 E0.4414
G1 X96.977 Y150.522 E0.4738
G1 X97.031 Y150.284 E0.4799
G1 X97.482 Y148.997 E0.5138
G1 X97.588 Y148.777 E0.5199
G1 X98.314 Y147.622 E0.5538
G1 X98.466 Y147.431 E0.5599
G1 X99.430 Y146.466 E0.5938
G1 X99.621 Y146.314 E0.5999
G1 X100.776 Y145.588 E0.6339
G1 X100.996 Y145.482 E0.6399
G1 X102.284 Y145.032 E0.6739
G1 X102.522 Y144.977 E0.6799
G1 X103.816 Y144.832 E0.7124
G1 X103.938 Y144.825 E0.7154
G1 X136.977 Y144.825 E1.5375
G1 X137.703 Y144.743 E1.5557
G1 X138.276 Y144.542 E1.5708
G1 X138.790 Y144.219 E1.5859
G1 X139.219 Y143.790 E1.6010
G1 X139.542 Y143.276 E1.6161
G1 X139.743 Y142.703 E1.6312
G1 X139.824 Y141.978 E1.6494
G1 X139.824 Y135.290 E1.8158
G1 X141.098 Y134.016 E1.8606
G1 X147.750 Y134.016 E2.0261
G1 X149.024 Y135.290 E2.0710
G1 X149.024 Y139.825 E2.1838
