; G-Code generated by Simplify3D(R) Version 4.1.2
; Jan 29, 2021 at 7:16:08 PM
; Settings Summary
;   processName,Process1
;   applyToModels,Handle
;   profileName,A10-04-15 Tevo Tornado
;   profileVersion,2020-12-06 16:18:07
;   baseProfile,Creality CR-10(2)
;   printMaterial,PLA
;   printQuality,Medium
;   printExtruders,
;   extruderName,Primary Extruder
;   extruderToolheadNumber,0
;   extruderDiameter,0.4
;   extruderAutoWidth,0
;   extruderWidth,0.35
;   extrusionMultiplier,0.95
;   extruderUseRetract,1
;   extruderRetractionDistance,4
;   extruderExtraRestartDistance,0
;   extruderRetractionZLift,0.1
;   extruderRetractionSpeed,6000
;   extruderUseCoasting,1
;   extruderCoastingDistance,0.4
;   extruderUseWipe,1
;   extruderWipeDistance,5
;   primaryExtruder,0
;   layerHeight,0.15
;   topSolidLayers,5
;   bottomSolidLayers,4
;   perimeterOutlines,3
;   printPerimetersInsideOut,0
;   startPointOption,1
;   startPointOriginX,0
;   startPointOriginY,300
;   sequentialIslands,0
;   spiralVaseMode,0
;   firstLayerHeightPercentage,120
;   firstLayerWidthPercentage,100
;   firstLayerUnderspeed,0.4
;   useRaft,0
;   raftExtruder,0
;   raftTopLayers,3
;   raftBaseLayers,2
;   raftOffset,3
;   raftSeparationDistance,0.14
;   raftTopInfill,100
;   aboveRaftSpeedMultiplier,0.3
;   useSkirt,1
;   skirtExtruder,0
;   skirtLayers,1
;   skirtOutlines,2
;   skirtOffset,3
;   usePrimePillar,0
;   primePillarExtruder,999
;   primePillarWidth,12
;   primePillarLocation,7
;   primePillarSpeedMultiplier,1
;   useOozeShield,0
;   oozeShieldExtruder,999
;   oozeShieldOffset,2
;   oozeShieldOutlines,1
;   oozeShieldSidewallShape,1
;   oozeShieldSidewallAngle,30
;   oozeShieldSpeedMultiplier,1
;   infillExtruder,0
;   internalInfillPattern,Rectilinear
;   externalInfillPattern,Rectilinear
;   infillPercentage,15
;   outlineOverlapPercentage,15
;   infillExtrusionWidthPercentage,100
;   minInfillLength,5
;   infillLayerInterval,1
;   internalInfillAngles,45,-45
;   overlapInternalInfillAngles,0
;   externalInfillAngles,45,-45
;   generateSupport,0
;   supportExtruder,0
;   supportInfillPercentage,30
;   supportExtraInflation,0
;   supportBaseLayers,0
;   denseSupportExtruder,0
;   denseSupportLayers,0
;   denseSupportInfillPercentage,70
;   supportLayerInterval,1
;   supportHorizontalPartOffset,0.4
;   supportUpperSeparationLayers,1
;   supportLowerSeparationLayers,1
;   supportType,0
;   supportGridSpacing,4.5
;   maxOverhangAngle,45
;   supportAngles,0
;   temperatureName,Primary Extruder,Heated Bed
;   temperatureNumber,0,0
;   temperatureSetpointCount,2,2
;   temperatureSetpointLayers,1,2,1,2
;   temperatureSetpointTemperatures,215,210,55,50
;   temperatureStabilizeAtStartup,1,1
;   temperatureHeatedBed,0,1
;   fanLayers,1,2
;   fanSpeeds,0,100
;   blipFanToFullPower,0
;   adjustSpeedForCooling,1
;   minSpeedLayerTime,15
;   minCoolingSpeedSlowdown,20
;   increaseFanForCooling,1
;   minFanLayerTime,25
;   maxCoolingFanSpeed,100
;   increaseFanForBridging,1
;   bridgingFanSpeed,100
;   use5D,1
;   relativeEdistances,0
;   allowEaxisZeroing,1
;   independentExtruderAxes,0
;   includeM10123,0
;   stickySupport,1
;   applyToolheadOffsets,0
;   gcodeXoffset,0
;   gcodeYoffset,0
;   gcodeZoffset,0
;   overrideMachineDefinition,1
;   machineTypeOverride,0
;   strokeXoverride,300
;   strokeYoverride,300
;   strokeZoverride,400
;   originOffsetXoverride,0
;   originOffsetYoverride,0
;   originOffsetZoverride,0
;   homeXdirOverride,-1
;   homeYdirOverride,-1
;   homeZdirOverride,-1
;   flipXoverride,1
;   flipYoverride,-1
;   flipZoverride,1
;   toolheadOffsets,0,0|0,0|0,0|0,0|0,0|0,0
;   overrideFirmwareConfiguration,1
;   firmwareTypeOverride,RepRap (Marlin/Repetier/Sprinter)
;   GPXconfigOverride,r2
;   baudRateOverride,250000
;   overridePrinterModels,1
;   printerModelsOverride
;   startingGcode,;,; -]H.P.B[- MarshMalloW  ,; $VER: StartScript 1.02 (26.12.2019) MarshMalloW,;,; Begin Startcode,;,M117 *Preheat*     	; Preheat,;extruder0_temperature,M104 S[extruder0_temperature]  ,M109 S[extruder0_temperature] ,M109 R[extruder0_temperature] ,;,M117 *Auto-leveling*     	; Auto-leveling,M107                   	; Turn layer fan off,G21                    	; Set to metric [change to G20 if you want Imperial],G90                    	; Force coordinates to be absolute relative to the origin,G28                    	; Home X/Y/Z axis,G29                    	; Auto-leveling (BL-Touch),;,M117 *Start Clean*     	; Indicate nozzle clean in progress on LCD,G92 E0                 	; Set Extruder to 0 ,G1 X0 Y0 F2000         	; Move X and Y to 0 with speed 2000 (mm/min),G1 Z0.1 F1000          	; Move Z to   0.1 with speed 1000 (mm/min),G1 X8.0 F2000          	; Move X to   8.0 with speed 2000 (mm/min),G1 Y60.0 E4.0 F1000.0  	; Move Y to  60 and Extruder with 4.0 with speed 1000 (mm/min),G1 Y100.0 E8.5 F1000.0 	; Move Y to 100 and Extruder with 8.5 with speed 1000 (mm/min),G92 E0                 	; Set extruder to 0,G1 X16.0 F3000         	; Move X to 16.0 with speed 3000 (mm/min),G1 Y60.0 F3000         	; Move Y to 60.0 with speed 3000 (mm/min),M117 *End Clean*       	; Indicate nozzle clean in progress on LCD,G1 Z5 F3000            	; Move Z to  5.0 with speed 3000 (mm/min),G1 X20.0 F3000         	; Move X to 20.0 with speed 3000 (mm/min),G1 Y20.0 F3000         	; Move Y to 20.0 with speed 3000 (mm/min),; ,M117 *Printing...*     	; Start printing msg on LCD,;,; End Startcode,;,; Begin printing with sliced GCode after here,;
;   layerChangeGcode,
;   retractionGcode,
;   toolChangeGcode,
;   endingGcode,;,; init 181010,;,;M107 			; Fan off,;G1 E-1 F300 			; Retract the filament a bit before lifting the nozzle,;M104 S0 			; Turn off extruder,;M140 S0 			; Turn off bed,;G91			; Relative positioning,;G28 X0 Y0 			; Move X/Y to min endstops so the head is out of teh way,;M84 			; Disable motors,;G90 			; Absolute positioning,;M117 Print ready...,,;,; // From Cura 181010,; // End_gcode,G92 E0			; Zero the extruded length,;G1 E-30 F300		; Retract E -30,M106 S0			; Turn off cooling fan,M104 S0			; Turn off temperature,M140 S0		     	; Turn off bed,G91			; Relative positioning,G1 E-1 F300			; Retract the filament a bit before lifting the nozzle to release some of the pressure,G1 Z+20 E-5 X-20 Y-20 F7200	; Move Z up a bit and retract filament even more,G1 X0 Y150 F10000		; Move right min,M107			; Turn off layer fan,M84			; Disable motors,G90			; Absolute positioning,M117 *The-End* 		; End msg,;,
;   exportFileFormat,gcode
;   celebration,0
;   celebrationSong,Star Wars
;   postProcessing,|{REPLACE "; layer " "M117 INDICATOR-Layer"}|{REPLACE ", Z = " "\n; Z="}
;   defaultSpeed,2400
;   outlineUnderspeed,0.6
;   solidInfillUnderspeed,0.8
;   supportUnderspeed,0.8
;   rapidXYspeed,3600
;   rapidZspeed,900
;   minBridgingArea,50
;   bridgingExtraInflation,0.2
;   bridgingExtrusionMultiplier,1
;   bridgingSpeedMultiplier,0.6
;   useFixedBridgingAngle,0
;   fixedBridgingAngle,0
;   applyBridgingToPerimeters,0
;   filamentDiameters,1.75|1.75|1.75|1.75|1.75|1.75
;   filamentPricesPerKg,30|46|46|46|46|46
;   filamentDensities,1.25|1.25|1.25|1.25|1.25|1.25
;   useMinPrintHeight,0
;   minPrintHeight,0
;   useMaxPrintHeight,0
;   maxPrintHeight,50
;   useDiaphragm,0
;   diaphragmLayerInterval,20
;   robustSlicing,1
;   mergeAllIntoSolid,0
;   onlyRetractWhenCrossingOutline,1
;   retractBetweenLayers,1
;   useRetractionMinTravel,0
;   retractionMinTravel,3
;   retractWhileWiping,1
;   onlyWipeOutlines,1
;   avoidCrossingOutline,1
;   maxMovementDetourFactor,3
;   toolChangeRetractionDistance,12
;   toolChangeExtraRestartDistance,-0.5
;   toolChangeRetractionSpeed,600
;   externalThinWallType,1
;   internalThinWallType,1
;   thinWallAllowedOverlapPercentage,20
;   singleExtrusionMinLength,1
;   singleExtrusionMinPrintingWidthPercentage,50
;   singleExtrusionMaxPrintingWidthPercentage,200
;   singleExtrusionEndpointExtension,0.2
;   horizontalSizeCompensation,0
G90
M82
M106 S0
M140 S55
M190 S55
;
; -]H.P.B[- MarshMalloW  
; $VER: StartScript 1.02 (26.12.2019) MarshMalloW
;
; Begin Startcode
;
M117 *Preheat*     	; Preheat
;extruder0_temperature
M104 S215  
M109 S215 
M109 R215 
;
M117 *Auto-leveling*     	; Auto-leveling
M107                   	; Turn layer fan off
G21                    	; Set to metric [change to G20 if you want Imperial]
G90                    	; Force coordinates to be absolute relative to the origin
G28                    	; Home X/Y/Z axis
G29                    	; Auto-leveling (BL-Touch)
;
M117 *Start Clean*     	; Indicate nozzle clean in progress on LCD
G92 E0                 	; Set Extruder to 0 
G1 X0 Y0 F2000         	; Move X and Y to 0 with speed 2000 (mm/min)
G1 Z0.1 F1000          	; Move Z to   0.1 with speed 1000 (mm/min)
G1 X8.0 F2000          	; Move X to   8.0 with speed 2000 (mm/min)
G1 Y60.0 E4.0 F1000.0  	; Move Y to  60 and Extruder with 4.0 with speed 1000 (mm/min)
G1 Y100.0 E8.5 F1000.0 	; Move Y to 100 and Extruder with 8.5 with speed 1000 (mm/min)
G92 E0                 	; Set extruder to 0
G1 X16.0 F3000         	; Move X to 16.0 with speed 3000 (mm/min)
G1 Y60.0 F3000         	; Move Y to 60.0 with speed 3000 (mm/min)
M117 *End Clean*       	; Indicate nozzle clean in progress on LCD
G1 Z5 F3000            	; Move Z to  5.0 with speed 3000 (mm/min)
G1 X20.0 F3000         	; Move X to 20.0 with speed 3000 (mm/min)
G1 Y20.0 F3000         	; Move Y to 20.0 with speed 3000 (mm/min)
; 
M117 *Printing...*     	; Start printing msg on LCD
;
; End Startcode
;
; Begin printing with sliced GCode after here
;
; process Process1
M117 INDICATOR-Layer1
; Z=0.180
T0
G92 E0.0000
G1 E-4.0000 F6000
; feature skirt
; tool H0.180 W0.350
G1 Z0.180 F900
G1 X135.188 Y43.093 F3600
G1 E0.0000 F6000
G92 E0.0000
G1 X136.434 Y43.175 E0.0311 F960
G1 X136.662 Y43.205 E0.0368
G1 X137.887 Y43.449 E0.0679
G1 X138.055 Y43.491 E0.0722
G1 X138.721 Y43.693 E0.0895
G1 X138.884 Y43.751 E0.0938
G1 X140.038 Y44.229 E0.1249
G1 X140.245 Y44.331 E0.1306
G1 X141.326 Y44.955 E0.1617
G1 X141.471 Y45.049 E0.1660
G1 X142.037 Y45.455 E0.1833
G1 X142.173 Y45.563 E0.1876
G1 X143.090 Y46.367 E0.2180
G1 X143.214 Y46.487 E0.2223
G1 X143.690 Y46.995 E0.2396
G1 X143.802 Y47.127 E0.2439
G1 X144.545 Y48.095 E0.2743
G1 X144.643 Y48.237 E0.2786
G1 X145.011 Y48.829 E0.2959
G1 X145.095 Y48.980 E0.3002
G1 X145.634 Y50.074 E0.3306
G1 X145.703 Y50.233 E0.3349
G1 X145.949 Y50.884 E0.3522
G1 X146.002 Y51.049 E0.3565
G1 X146.317 Y52.227 E0.3868
G1 X146.354 Y52.396 E0.3912
G1 X146.463 Y53.055 E0.4078
G1 X146.478 Y53.169 E0.4106
G1 X146.543 Y53.834 E0.4273
G1 X146.552 Y54.007 E0.4316
G1 X146.552 Y55.255 E0.4626
G1 X146.536 Y55.486 E0.4684
G1 X146.374 Y56.723 E0.4994
G1 X146.343 Y56.894 E0.5037
G1 X146.184 Y57.572 E0.5211
G1 X146.137 Y57.738 E0.5254
G1 X145.745 Y58.893 E0.5557
G1 X145.681 Y59.054 E0.5600
G1 X145.394 Y59.689 E0.5774
G1 X145.315 Y59.842 E0.5817
G1 X144.705 Y60.899 E0.6120
G1 X144.611 Y61.044 E0.6163
G1 X144.205 Y61.610 E0.6337
G1 X144.098 Y61.746 E0.6380
G1 X143.294 Y62.663 E0.6683
G1 X143.173 Y62.787 E0.6726
G1 X142.665 Y63.263 E0.6899
G1 X142.533 Y63.375 E0.6942
G1 X141.543 Y64.135 E0.7253
G1 X141.351 Y64.263 E0.7310
G1 X140.270 Y64.888 E0.7621
G1 X140.116 Y64.967 E0.7664
G1 X139.507 Y65.242 E0.7830
G1 X139.401 Y65.286 E0.7859
G1 X138.776 Y65.522 E0.8025
G1 X138.611 Y65.575 E0.8068
G1 X137.405 Y65.898 E0.8379
G1 X137.179 Y65.943 E0.8436
G1 X135.941 Y66.106 E0.8747
G1 X135.769 Y66.120 E0.8790
G1 X135.101 Y66.142 E0.8956
G1 X134.986 Y66.142 E0.8985
G1 X134.319 Y66.120 E0.9151
G1 X134.146 Y66.106 E0.9194
G1 X132.937 Y65.946 E0.9498
G1 X132.767 Y65.915 E0.9541
G1 X132.088 Y65.757 E0.9714
G1 X131.922 Y65.710 E0.9757
G1 X130.740 Y65.308 E1.0068
G1 X130.527 Y65.220 E1.0125
G1 X129.407 Y64.668 E1.0436
G1 X129.256 Y64.584 E1.0479
G1 X128.664 Y64.216 E1.0652
G1 X128.522 Y64.118 E1.0695
G1 X127.554 Y63.375 E1.0999
G1 X127.422 Y63.263 E1.1042
G1 X126.935 Y62.807 E1.1208
G1 X126.853 Y62.725 E1.1236
G1 X126.397 Y62.238 E1.1403
G1 X126.285 Y62.106 E1.1446
G1 X125.525 Y61.115 E1.1756
G1 X125.397 Y60.924 E1.1814
G1 X124.773 Y59.842 E1.2124
G1 X124.694 Y59.688 E1.2168
G1 X124.406 Y59.054 E1.2341
G1 X124.343 Y58.893 E1.2384
G1 X123.951 Y57.738 E1.2687
G1 X123.903 Y57.572 E1.2730
G1 X123.745 Y56.893 E1.2904
G1 X123.714 Y56.723 E1.2947
G1 X123.555 Y55.514 E1.3250
G1 X123.541 Y55.342 E1.3293
G1 X123.519 Y54.674 E1.3459
G1 X123.519 Y54.559 E1.3488
G1 X123.541 Y53.891 E1.3654
G1 X123.555 Y53.719 E1.3697
G1 X123.718 Y52.481 E1.4008
G1 X123.763 Y52.255 E1.4065
G1 X124.086 Y51.049 E1.4376
G1 X124.139 Y50.884 E1.4419
G1 X124.375 Y50.257 E1.4586
G1 X124.419 Y50.151 E1.4614
G1 X124.694 Y49.543 E1.4781
G1 X124.774 Y49.389 E1.4824
G1 X125.397 Y48.309 E1.5134
G1 X125.525 Y48.118 E1.5191
G1 X126.285 Y47.127 E1.5502
G1 X126.397 Y46.995 E1.5545
G1 X126.853 Y46.508 E1.5711
G1 X126.935 Y46.426 E1.5740
G1 X127.422 Y45.970 E1.5906
G1 X127.554 Y45.858 E1.5949
G1 X128.522 Y45.116 E1.6252
G1 X128.664 Y45.017 E1.6295
G1 X129.256 Y44.649 E1.6469
G1 X129.407 Y44.565 E1.6512
G1 X130.527 Y44.013 E1.6823
G1 X130.740 Y43.925 E1.6880
G1 X131.922 Y43.523 E1.7191
G1 X132.088 Y43.476 E1.7234
G1 X132.767 Y43.318 E1.7407
G1 X132.937 Y43.287 E1.7450
G1 X134.146 Y43.128 E1.7753
G1 X134.319 Y43.113 E1.7797
G1 X135.015 Y43.091 E1.7970
G1 X135.188 Y43.093 E1.8013
G92 E0.0000
G1 E-4.0000 F6000
G1 Z0.280 F900
G1 X135.044 Y46.792 F3600
G1 X134.532 Y46.808
G1 X134.198 Y46.841
G1 X130.468 Y60.959
G1 X130.696 Y61.123
G1 X131.131 Y61.393
G1 X129.569 Y64.358
G1 Z0.180 F900
G1 E0.0000 F6000
G92 E0.0000
G1 X129.433 Y64.282 E0.0039 F960
G1 X128.856 Y63.923 E0.0208
G1 X128.728 Y63.835 E0.0247
G1 X127.774 Y63.103 E0.0546
G1 X127.655 Y63.002 E0.0585
G1 X127.178 Y62.555 E0.0747
G1 X127.105 Y62.482 E0.0773
G1 X126.658 Y62.005 E0.0936
G1 X126.557 Y61.886 E0.0974
G1 X125.810 Y60.911 E0.1280
G1 X125.694 Y60.739 E0.1332
G1 X125.080 Y59.675 E0.1637
G1 X125.009 Y59.536 E0.1676
G1 X124.728 Y58.917 E0.1845
G1 X124.671 Y58.773 E0.1884
G1 X124.285 Y57.634 E0.2183
G1 X124.242 Y57.484 E0.2222
G1 X124.088 Y56.822 E0.2391
G1 X124.060 Y56.669 E0.2430
G1 X123.903 Y55.477 E0.2729
G1 X123.890 Y55.322 E0.2768
G1 X123.869 Y54.669 E0.2930
G1 X123.869 Y54.565 E0.2956
G1 X123.890 Y53.911 E0.3119
G1 X123.903 Y53.756 E0.3158
G1 X124.063 Y52.538 E0.3463
G1 X124.104 Y52.335 E0.3515
G1 X124.422 Y51.148 E0.3821
G1 X124.469 Y50.999 E0.3860
G1 X124.700 Y50.386 E0.4023
G1 X124.740 Y50.290 E0.4048
G1 X125.010 Y49.695 E0.4211
G1 X125.081 Y49.557 E0.4250
G1 X125.694 Y48.494 E0.4555
G1 X125.810 Y48.322 E0.4607
G1 X126.557 Y47.347 E0.4912
G1 X126.658 Y47.228 E0.4951
G1 X127.105 Y46.751 E0.5114
G1 X127.178 Y46.678 E0.5139
G1 X127.655 Y46.231 E0.5302
G1 X127.774 Y46.130 E0.5341
G1 X128.728 Y45.398 E0.5640
G1 X128.856 Y45.310 E0.5679
G1 X129.433 Y44.951 E0.5848
G1 X129.570 Y44.875 E0.5887
G1 X130.671 Y44.332 E0.6192
G1 X130.863 Y44.252 E0.6244
G1 X132.026 Y43.858 E0.6550
G1 X132.176 Y43.815 E0.6588
G1 X132.838 Y43.661 E0.6757
G1 X132.991 Y43.633 E0.6796
G1 X134.183 Y43.476 E0.7095
G1 X134.339 Y43.463 E0.7134
G1 X135.018 Y43.441 E0.7303
G1 X135.174 Y43.443 E0.7342
G1 X136.399 Y43.524 E0.7648
G1 X136.605 Y43.551 E0.7699
G1 X137.810 Y43.790 E0.8005
G1 X137.961 Y43.828 E0.8044
G1 X138.611 Y44.026 E0.8213
G1 X138.758 Y44.078 E0.8252
G1 X139.893 Y44.548 E0.8557
G1 X140.079 Y44.640 E0.8609
G1 X141.143 Y45.254 E0.8915
G1 X141.274 Y45.339 E0.8953
G1 X141.827 Y45.734 E0.9123
G1 X141.949 Y45.831 E0.9161
G1 X142.853 Y46.624 E0.9461
G1 X142.965 Y46.732 E0.9499
G1 X143.429 Y47.228 E0.9668
G1 X143.530 Y47.347 E0.9707
G1 X144.262 Y48.301 E1.0006
G1 X144.351 Y48.429 E1.0045
G1 X144.709 Y49.006 E1.0214
G1 X144.785 Y49.142 E1.0253
G1 X145.317 Y50.221 E1.0552
G1 X145.379 Y50.364 E1.0591
G1 X145.618 Y51.000 E1.0760
G1 X145.666 Y51.148 E1.0799
G1 X145.977 Y52.309 E1.1098
G1 X146.010 Y52.462 E1.1137
G1 X146.116 Y53.106 E1.1299
G1 X146.130 Y53.209 E1.1325
G1 X146.194 Y53.860 E1.1488
G1 X146.202 Y54.015 E1.1527
G1 X146.202 Y55.244 E1.1832
G1 X146.188 Y55.451 E1.1884
G1 X146.028 Y56.669 E1.2190
