; G-Code generated by Simplify3D(R) Version 4.1.2
; Jan 29, 2021 at 7:11:53 PM
; Settings Summary
;   processName,Process1
;   applyToModels,base
;   profileName,A10-04-15 Tevo Tornado
;   profileVersion,2020-12-06 16:18:07
;   baseProfile,Creality CR-10(2)
;   printMaterial,PLA
;   printQuality,Medium
;   printExtruders,
;   extruderName,Primary Extruder
;   extruderToolheadNumber,0
;   extruderDiameter,0.4
;   extruderAutoWidth,0
;   extruderWidth,0.35
;   extrusionMultiplier,0.95
;   extruderUseRetract,1
;   extruderRetractionDistance,4
;   extruderExtraRestartDistance,0
;   extruderRetractionZLift,0.1
;   extruderRetractionSpeed,6000
;   extruderUseCoasting,1
;   extruderCoastingDistance,0.4
;   extruderUseWipe,1
;   extruderWipeDistance,5
;   primaryExtruder,0
;   layerHeight,0.15
;   topSolidLayers,5
;   bottomSolidLayers,4
;   perimeterOutlines,3
;   printPerimetersInsideOut,0
;   startPointOption,1
;   startPointOriginX,0
;   startPointOriginY,300
;   sequentialIslands,0
;   spiralVaseMode,0
;   firstLayerHeightPercentage,120
;   firstLayerWidthPercentage,100
;   firstLayerUnderspeed,0.4
;   useRaft,0
;   raftExtruder,0
;   raftTopLayers,3
;   raftBaseLayers,2
;   raftOffset,3
;   raftSeparationDistance,0.14
;   raftTopInfill,100
;   aboveRaftSpeedMultiplier,0.3
;   useSkirt,1
;   skirtExtruder,0
;   skirtLayers,1
;   skirtOutlines,2
;   skirtOffset,3
;   usePrimePillar,0
;   primePillarExtruder,999
;   primePillarWidth,12
;   primePillarLocation,7
;   primePillarSpeedMultiplier,1
;   useOozeShield,0
;   oozeShieldExtruder,999
;   oozeShieldOffset,2
;   oozeShieldOutlines,1
;   oozeShieldSidewallShape,1
;   oozeShieldSidewallAngle,30
;   oozeShieldSpeedMultiplier,1
;   infillExtruder,0
;   internalInfillPattern,Rectilinear
;   externalInfillPattern,Rectilinear
;   infillPercentage,15
;   outlineOverlapPercentage,15
;   infillExtrusionWidthPercentage,100
;   minInfillLength,5
;   infillLayerInterval,1
;   internalInfillAngles,45,-45
;   overlapInternalInfillAngles,0
;   externalInfillAngles,45,-45
;   generateSupport,0
;   supportExtruder,0
;   supportInfillPercentage,30
;   supportExtraInflation,0
;   supportBaseLayers,0
;   denseSupportExtruder,0
;   denseSupportLayers,0
;   denseSupportInfillPercentage,70
;   supportLayerInterval,1
;   supportHorizontalPartOffset,0.4
;   supportUpperSeparationLayers,1
;   supportLowerSeparationLayers,1
;   supportType,0
;   supportGridSpacing,4.5
;   maxOverhangAngle,45
;   supportAngles,0
;   temperatureName,Primary Extruder,Heated Bed
;   temperatureNumber,0,0
;   temperatureSetpointCount,2,2
;   temperatureSetpointLayers,1,2,1,2
;   temperatureSetpointTemperatures,215,210,55,50
;   temperatureStabilizeAtStartup,1,1
;   temperatureHeatedBed,0,1
;   fanLayers,1,2
;   fanSpeeds,0,100
;   blipFanToFullPower,0
;   adjustSpeedForCooling,1
;   minSpeedLayerTime,15
;   minCoolingSpeedSlowdown,20
;   increaseFanForCooling,1
;   minFanLayerTime,25
;   maxCoolingFanSpeed,100
;   increaseFanForBridging,1
;   bridgingFanSpeed,100
;   use5D,1
;   relativeEdistances,0
;   allowEaxisZeroing,1
;   independentExtruderAxes,0
;   includeM10123,0
;   stickySupport,1
;   applyToolheadOffsets,0
;   gcodeXoffset,0
;   gcodeYoffset,0
;   gcodeZoffset,0
;   overrideMachineDefinition,1
;   machineTypeOverride,0
;   strokeXoverride,300
;   strokeYoverride,300
;   strokeZoverride,400
;   originOffsetXoverride,0
;   originOffsetYoverride,0
;   originOffsetZoverride,0
;   homeXdirOverride,-1
;   homeYdirOverride,-1
;   homeZdirOverride,-1
;   flipXoverride,1
;   flipYoverride,-1
;   flipZoverride,1
;   toolheadOffsets,0,0|0,0|0,0|0,0|0,0|0,0
;   overrideFirmwareConfiguration,1
;   firmwareTypeOverride,RepRap (Marlin/Repetier/Sprinter)
;   GPXconfigOverride,r2
;   baudRateOverride,250000
;   overridePrinterModels,1
;   printerModelsOverride
;   startingGcode,;,; -]H.P.B[- MarshMalloW  ,; $VER: StartScript 1.02 (26.12.2019) MarshMalloW,;,; Begin Startcode,;,M117 *Preheat*     	; Preheat,;extruder0_temperature,M104 S[extruder0_temperature]  ,M109 S[extruder0_temperature] ,M109 R[extruder0_temperature] ,;,M117 *Auto-leveling*     	; Auto-leveling,M107                   	; Turn layer fan off,G21                    	; Set to metric [change to G20 if you want Imperial],G90                    	; Force coordinates to be absolute relative to the origin,G28                    	; Home X/Y/Z axis,G29                    	; Auto-leveling (BL-Touch),;,M117 *Start Clean*     	; Indicate nozzle clean in progress on LCD,G92 E0                 	; Set Extruder to 0 ,G1 X0 Y0 F2000         	; Move X and Y to 0 with speed 2000 (mm/min),G1 Z0.1 F1000          	; Move Z to   0.1 with speed 1000 (mm/min),G1 X8.0 F2000          	; Move X to   8.0 with speed 2000 (mm/min),G1 Y60.0 E4.0 F1000.0  	; Move Y to  60 and Extruder with 4.0 with speed 1000 (mm/min),G1 Y100.0 E8.5 F1000.0 	; Move Y to 100 and Extruder with 8.5 with speed 1000 (mm/min),G92 E0                 	; Set extruder to 0,G1 X16.0 F3000         	; Move X to 16.0 with speed 3000 (mm/min),G1 Y60.0 F3000         	; Move Y to 60.0 with speed 3000 (mm/min),M117 *End Clean*       	; Indicate nozzle clean in progress on LCD,G1 Z5 F3000            	; Move Z to  5.0 with speed 3000 (mm/min),G1 X20.0 F3000         	; Move X to 20.0 with speed 3000 (mm/min),G1 Y20.0 F3000         	; Move Y to 20.0 with speed 3000 (mm/min),; ,M117 *Printing...*     	; Start printing msg on LCD,;,; End Startcode,;,; Begin printing with sliced GCode after here,;
;   layerChangeGcode,
;   retractionGcode,
;   toolChangeGcode,
;   endingGcode,;,; init 181010,;,;M107 			; Fan off,;G1 E-1 F300 			; Retract the filament a bit before lifting the nozzle,;M104 S0 			; Turn off extruder,;M140 S0 			; Turn off bed,;G91			; Relative positioning,;G28 X0 Y0 			; Move X/Y to min endstops so the head is out of teh way,;M84 			; Disable motors,;G90 			; Absolute positioning,;M117 Print ready...,,;,; // From Cura 181010,; // End_gcode,G92 E0			; Zero the extruded length,;G1 E-30 F300		; Retract E -30,M106 S0			; Turn off cooling fan,M104 S0			; Turn off temperature,M140 S0		     	; Turn off bed,G91			; Relative positioning,G1 E-1 F300			; Retract the filament a bit before lifting the nozzle to release some of the pressure,G1 Z+20 E-5 X-20 Y-20 F7200	; Move Z up a bit and retract filament even more,G1 X0 Y150 F10000		; Move right min,M107			; Turn off layer fan,M84			; Disable motors,G90			; Absolute positioning,M117 *The-End* 		; End msg,;,
;   exportFileFormat,gcode
;   celebration,0
;   celebrationSong,Star Wars
;   postProcessing,|{REPLACE "; layer " "M117 INDICATOR-Layer"}|{REPLACE ", Z = " "\n; Z="}
;   defaultSpeed,2400
;   outlineUnderspeed,0.6
;   solidInfillUnderspeed,0.8
;   supportUnderspeed,0.8
;   rapidXYspeed,3600
;   rapidZspeed,900
;   minBridgingArea,50
;   bridgingExtraInflation,0.2
;   bridgingExtrusionMultiplier,1
;   bridgingSpeedMultiplier,0.6
;   useFixedBridgingAngle,0
;   fixedBridgingAngle,0
;   applyBridgingToPerimeters,0
;   filamentDiameters,1.75|1.75|1.75|1.75|1.75|1.75
;   filamentPricesPerKg,30|46|46|46|46|46
;   filamentDensities,1.25|1.25|1.25|1.25|1.25|1.25
;   useMinPrintHeight,0
;   minPrintHeight,0
;   useMaxPrintHeight,0
;   maxPrintHeight,50
;   useDiaphragm,0
;   diaphragmLayerInterval,20
;   robustSlicing,1
;   mergeAllIntoSolid,0
;   onlyRetractWhenCrossingOutline,1
;   retractBetweenLayers,1
;   useRetractionMinTravel,0
;   retractionMinTravel,3
;   retractWhileWiping,1
;   onlyWipeOutlines,1
;   avoidCrossingOutline,1
;   maxMovementDetourFactor,3
;   toolChangeRetractionDistance,12
;   toolChangeExtraRestartDistance,-0.5
;   toolChangeRetractionSpeed,600
;   externalThinWallType,1
;   internalThinWallType,1
;   thinWallAllowedOverlapPercentage,20
;   singleExtrusionMinLength,1
;   singleExtrusionMinPrintingWidthPercentage,50
;   singleExtrusionMaxPrintingWidthPercentage,200
;   singleExtrusionEndpointExtension,0.2
;   horizontalSizeCompensation,0
G90
M82
M106 S0
M140 S55
M190 S55
;
; -]H.P.B[- MarshMalloW  
; $VER: StartScript 1.02 (26.12.2019) MarshMalloW
;
; Begin Startcode
;
M117 *Preheat*     	; Preheat
;extruder0_temperature
M104 S215  
M109 S215 
M109 R215 
;
M117 *Auto-leveling*     	; Auto-leveling
M107                   	; Turn layer fan off
G21                    	; Set to metric [change to G20 if you want Imperial]
G90                    	; Force coordinates to be absolute relative to the origin
G28                    	; Home X/Y/Z axis
G29                    	; Auto-leveling (BL-Touch)
;
M117 *Start Clean*     	; Indicate nozzle clean in progress on LCD
G92 E0                 	; Set Extruder to 0 
G1 X0 Y0 F2000         	; Move X and Y to 0 with speed 2000 (mm/min)
G1 Z0.1 F1000          	; Move Z to   0.1 with speed 1000 (mm/min)
G1 X8.0 F2000          	; Move X to   8.0 with speed 2000 (mm/min)
G1 Y60.0 E4.0 F1000.0  	; Move Y to  60 and Extruder with 4.0 with speed 1000 (mm/min)
G1 Y100.0 E8.5 F1000.0 	; Move Y to 100 and Extruder with 8.5 with speed 1000 (mm/min)
G92 E0                 	; Set extruder to 0
G1 X16.0 F3000         	; Move X to 16.0 with speed 3000 (mm/min)
G1 Y60.0 F3000         	; Move Y to 60.0 with speed 3000 (mm/min)
M117 *End Clean*       	; Indicate nozzle clean in progress on LCD
G1 Z5 F3000            	; Move Z to  5.0 with speed 3000 (mm/min)
G1 X20.0 F3000         	; Move X to 20.0 with speed 3000 (mm/min)
G1 Y20.0 F3000         	; Move Y to 20.0 with speed 3000 (mm/min)
; 
M117 *Printing...*     	; Start printing msg on LCD
;
; End Startcode
;
; Begin printing with sliced GCode after here
;
; process Process1
M117 INDICATOR-Layer1
; Z=0.180
T0
G92 E0.0000
G1 E-4.0000 F6000
; feature skirt
; tool H0.180 W0.350
G1 Z0.180 F900
G1 X151.648 Y25.456 F3600
G1 E0.0000 F6000
G92 E0.0000
G1 X151.706 Y25.458 E0.0014 F960
G1 X154.201 Y25.581 E0.0636
G1 X154.259 Y25.585 E0.0650
G1 X156.749 Y25.789 E0.1272
G1 X156.806 Y25.794 E0.1286
G1 X159.288 Y26.080 E0.1908
G1 X159.346 Y26.087 E0.1923
G1 X161.817 Y26.454 E0.2544
G1 X161.874 Y26.463 E0.2559
G1 X164.332 Y26.911 E0.3180
G1 X164.389 Y26.922 E0.3195
G1 X166.831 Y27.449 E0.3816
G1 X166.887 Y27.463 E0.3831
G1 X169.311 Y28.070 E0.4452
G1 X169.366 Y28.085 E0.4467
G1 X171.769 Y28.771 E0.5088
G1 X171.824 Y28.787 E0.5103
G1 X174.203 Y29.552 E0.5724
G1 X174.258 Y29.570 E0.5739
G1 X176.610 Y30.412 E0.6361
G1 X176.664 Y30.432 E0.6375
G1 X178.988 Y31.350 E0.6997
G1 X179.041 Y31.373 E0.7011
G1 X181.333 Y32.366 E0.7633
G1 X181.386 Y32.390 E0.7647
G1 X183.644 Y33.458 E0.8269
G1 X183.696 Y33.484 E0.8283
G1 X185.919 Y34.625 E0.8905
G1 X185.969 Y34.653 E0.8919
G1 X188.153 Y35.866 E0.9541
G1 X188.203 Y35.895 E0.9555
G1 X190.346 Y37.180 E1.0177
G1 X190.395 Y37.210 E1.0191
G1 X192.495 Y38.564 E1.0813
G1 X192.543 Y38.596 E1.0827
G1 X194.598 Y40.018 E1.1449
G1 X194.645 Y40.052 E1.1463
G1 X196.651 Y41.540 E1.2085
G1 X196.697 Y41.575 E1.2099
G1 X198.654 Y43.128 E1.2721
G1 X198.699 Y43.165 E1.2735
G1 X200.604 Y44.781 E1.3357
G1 X200.647 Y44.819 E1.3371
G1 X202.499 Y46.497 E1.3993
G1 X202.541 Y46.537 E1.4008
G1 X204.336 Y48.274 E1.4629
G1 X204.377 Y48.315 E1.4644
G1 X206.115 Y50.110 E1.5265
G1 X206.154 Y50.153 E1.5280
G1 X207.832 Y52.004 E1.5901
G1 X207.870 Y52.047 E1.5916
G1 X209.486 Y53.952 E1.6537
G1 X209.523 Y53.997 E1.6552
G1 X211.076 Y55.954 E1.7173
G1 X211.111 Y56.000 E1.7188
G1 X212.600 Y58.007 E1.7809
G1 X212.633 Y58.054 E1.7824
G1 X214.055 Y60.108 E1.8446
G1 X214.087 Y60.156 E1.8460
G1 X215.441 Y62.256 E1.9082
G1 X215.472 Y62.305 E1.9096
G1 X216.756 Y64.448 E1.9718
G1 X216.785 Y64.498 E1.9732
G1 X217.999 Y66.682 E2.0354
G1 X218.026 Y66.733 E2.0368
G1 X219.167 Y68.955 E2.0990
G1 X219.193 Y69.007 E2.1004
G1 X220.261 Y71.266 E2.1626
G1 X220.285 Y71.318 E2.1640
G1 X221.279 Y73.610 E2.2262
G1 X221.301 Y73.664 E2.2276
G1 X222.219 Y75.987 E2.2898
G1 X222.239 Y76.041 E2.2912
G1 X223.081 Y78.394 E2.3534
G1 X223.100 Y78.448 E2.3548
G1 X223.864 Y80.827 E2.4170
G1 X223.881 Y80.882 E2.4184
G1 X224.567 Y83.285 E2.4806
G1 X224.582 Y83.340 E2.4820
G1 X225.189 Y85.764 E2.5442
G1 X225.202 Y85.820 E2.5456
G1 X225.729 Y88.263 E2.6078
G1 X225.741 Y88.319 E2.6092
G1 X226.188 Y90.777 E2.6714
G1 X226.197 Y90.834 E2.6729
G1 X226.564 Y93.306 E2.7350
G1 X226.571 Y93.363 E2.7365
G1 X226.857 Y95.845 E2.7986
G1 X226.863 Y95.902 E2.8001
G1 X227.067 Y98.393 E2.8622
G1 X227.071 Y98.450 E2.8637
G1 X227.193 Y100.946 E2.9258
G1 X227.195 Y101.003 E2.9273
G1 X227.236 Y103.501 E2.9894
G1 X227.236 Y103.559 E2.9909
G1 X227.195 Y106.057 E3.0531
G1 X227.193 Y106.115 E3.0545
G1 X227.071 Y108.611 E3.1167
G1 X227.067 Y108.668 E3.1181
G1 X226.863 Y111.158 E3.1803
G1 X226.857 Y111.216 E3.1817
G1 X226.571 Y113.698 E3.2439
G1 X226.564 Y113.755 E3.2453
G1 X226.197 Y116.226 E3.3075
G1 X226.188 Y116.283 E3.3089
G1 X225.741 Y118.741 E3.3711
G1 X225.729 Y118.798 E3.3725
G1 X225.202 Y121.240 E3.4347
G1 X225.189 Y121.297 E3.4361
G1 X224.582 Y123.720 E3.4983
G1 X224.567 Y123.776 E3.4997
G1 X223.881 Y126.178 E3.5619
G1 X223.864 Y126.233 E3.5633
G1 X223.100 Y128.612 E3.6255
G1 X223.081 Y128.667 E3.6269
G1 X222.239 Y131.019 E3.6891
G1 X222.219 Y131.073 E3.6905
G1 X221.301 Y133.397 E3.7527
G1 X221.279 Y133.450 E3.7541
G1 X220.285 Y135.743 E3.8163
G1 X220.261 Y135.795 E3.8177
G1 X219.193 Y138.054 E3.8799
G1 X219.167 Y138.106 E3.8814
G1 X218.026 Y140.328 E3.9435
G1 X217.999 Y140.379 E3.9450
G1 X216.785 Y142.563 E4.0071
G1 X216.756 Y142.613 E4.0086
G1 X215.472 Y144.756 E4.0707
G1 X215.441 Y144.805 E4.0722
G1 X214.087 Y146.905 E4.1343
G1 X214.055 Y146.953 E4.1358
G1 X212.633 Y149.007 E4.1979
G1 X212.600 Y149.054 E4.1994
G1 X211.111 Y151.061 E4.2616
G1 X211.076 Y151.107 E4.2630
G1 X209.523 Y153.064 E4.3252
G1 X209.486 Y153.108 E4.3266
G1 X207.870 Y155.013 E4.3888
G1 X207.832 Y155.057 E4.3902
G1 X206.154 Y156.908 E4.4524
G1 X206.115 Y156.950 E4.4538
G1 X204.377 Y158.746 E4.5160
G1 X204.336 Y158.786 E4.5174
G1 X202.541 Y160.524 E4.5796
G1 X202.499 Y160.563 E4.5810
G1 X200.647 Y162.241 E4.6432
G1 X200.604 Y162.279 E4.6446
G1 X198.699 Y163.896 E4.7068
G1 X198.654 Y163.932 E4.7082
G1 X196.697 Y165.486 E4.7704
G1 X196.651 Y165.521 E4.7718
G1 X194.645 Y167.009 E4.8340
G1 X194.598 Y167.043 E4.8354
G1 X192.543 Y168.464 E4.8976
G1 X192.495 Y168.497 E4.8990
G1 X190.395 Y169.850 E4.9612
G1 X190.346 Y169.881 E4.9626
G1 X188.203 Y171.165 E5.0248
G1 X188.153 Y171.194 E5.0262
G1 X185.970 Y172.408 E5.0884
G1 X185.919 Y172.435 E5.0899
G1 X183.696 Y173.577 E5.1520
G1 X183.644 Y173.602 E5.1535
G1 X181.386 Y174.670 E5.2156
G1 X181.333 Y174.694 E5.2171
G1 X179.041 Y175.688 E5.2792
G1 X178.988 Y175.710 E5.2807
G1 X176.664 Y176.628 E5.3428
G1 X176.610 Y176.649 E5.3443
G1 X174.258 Y177.490 E5.4064
G1 X174.203 Y177.509 E5.4079
G1 X171.824 Y178.273 E5.4700
G1 X171.769 Y178.290 E5.4715
G1 X169.366 Y178.976 E5.5337
G1 X169.311 Y178.991 E5.5351
G1 X166.887 Y179.598 E5.5973
G1 X166.831 Y179.611 E5.5987
G1 X164.389 Y180.139 E5.6609
G1 X164.332 Y180.150 E5.6623
G1 X161.874 Y180.597 E5.7245
G1 X161.817 Y180.607 E5.7259
G1 X159.346 Y180.973 E5.7881
G1 X159.288 Y180.981 E5.7895
G1 X156.806 Y181.266 E5.8517
G1 X156.749 Y181.272 E5.8531
G1 X154.259 Y181.476 E5.9153
G1 X154.201 Y181.480 E5.9167
G1 X151.706 Y181.602 E5.9789
G1 X151.648 Y181.604 E5.9803
G1 X149.150 Y181.645 E6.0425
G1 X149.092 Y181.645 E6.0439
G1 X146.594 Y181.604 E6.1061
G1 X146.536 Y181.602 E6.1075
G1 X144.041 Y181.480 E6.1697
G1 X143.983 Y181.476 E6.1711
G1 X141.493 Y181.272 E6.2333
G1 X141.436 Y181.266 E6.2347
G1 X138.953 Y180.981 E6.2969
G1 X138.896 Y180.973 E6.2984
G1 X136.425 Y180.607 E6.3605
G1 X136.368 Y180.597 E6.3620
G1 X133.910 Y180.150 E6.4241
G1 X133.853 Y180.139 E6.4256
G1 X131.411 Y179.611 E6.4877
G1 X131.355 Y179.598 E6.4892
G1 X128.931 Y178.991 E6.5513
G1 X128.875 Y178.976 E6.5528
G1 X126.473 Y178.290 E6.6149
G1 X126.418 Y178.273 E6.6164
G1 X124.039 Y177.509 E6.6786
G1 X123.984 Y177.490 E6.6800
G1 X121.632 Y176.649 E6.7422
G1 X121.578 Y176.628 E6.7436
G1 X119.254 Y175.710 E6.8058
G1 X119.201 Y175.688 E6.8072
G1 X116.909 Y174.694 E6.8694
G1 X116.856 Y174.671 E6.8708
G1 X114.597 Y173.602 E6.9330
