; G-Code generated by Simplify3D(R) Version 4.1.2
; Feb 11, 2021 at 7:49:48 PM
; Settings Summary
;   processName,Process1
;   applyToModels,HandleForTopWithCapsule
;   profileName,A10-04-15 Tevo Tornado
;   profileVersion,2020-12-06 16:18:07
;   baseProfile,Creality CR-10(2)
;   printMaterial,PLA
;   printQuality,Medium
;   printExtruders,
;   extruderName,Primary Extruder
;   extruderToolheadNumber,0
;   extruderDiameter,0.4
;   extruderAutoWidth,0
;   extruderWidth,0.35
;   extrusionMultiplier,0.95
;   extruderUseRetract,1
;   extruderRetractionDistance,4
;   extruderExtraRestartDistance,0
;   extruderRetractionZLift,0.1
;   extruderRetractionSpeed,6000
;   extruderUseCoasting,1
;   extruderCoastingDistance,0.4
;   extruderUseWipe,1
;   extruderWipeDistance,5
;   primaryExtruder,0
;   layerHeight,0.15
;   topSolidLayers,5
;   bottomSolidLayers,4
;   perimeterOutlines,3
;   printPerimetersInsideOut,0
;   startPointOption,1
;   startPointOriginX,0
;   startPointOriginY,300
;   sequentialIslands,0
;   spiralVaseMode,0
;   firstLayerHeightPercentage,120
;   firstLayerWidthPercentage,100
;   firstLayerUnderspeed,0.4
;   useRaft,0
;   raftExtruder,0
;   raftTopLayers,3
;   raftBaseLayers,2
;   raftOffset,3
;   raftSeparationDistance,0.14
;   raftTopInfill,100
;   aboveRaftSpeedMultiplier,0.3
;   useSkirt,1
;   skirtExtruder,0
;   skirtLayers,1
;   skirtOutlines,2
;   skirtOffset,3
;   usePrimePillar,0
;   primePillarExtruder,999
;   primePillarWidth,12
;   primePillarLocation,7
;   primePillarSpeedMultiplier,1
;   useOozeShield,0
;   oozeShieldExtruder,999
;   oozeShieldOffset,2
;   oozeShieldOutlines,1
;   oozeShieldSidewallShape,1
;   oozeShieldSidewallAngle,30
;   oozeShieldSpeedMultiplier,1
;   infillExtruder,0
;   internalInfillPattern,Rectilinear
;   externalInfillPattern,Rectilinear
;   infillPercentage,15
;   outlineOverlapPercentage,15
;   infillExtrusionWidthPercentage,100
;   minInfillLength,5
;   infillLayerInterval,1
;   internalInfillAngles,45,-45
;   overlapInternalInfillAngles,0
;   externalInfillAngles,45,-45
;   generateSupport,0
;   supportExtruder,0
;   supportInfillPercentage,30
;   supportExtraInflation,0
;   supportBaseLayers,0
;   denseSupportExtruder,0
;   denseSupportLayers,0
;   denseSupportInfillPercentage,70
;   supportLayerInterval,1
;   supportHorizontalPartOffset,0.4
;   supportUpperSeparationLayers,1
;   supportLowerSeparationLayers,1
;   supportType,0
;   supportGridSpacing,4.5
;   maxOverhangAngle,45
;   supportAngles,0
;   temperatureName,Primary Extruder,Heated Bed
;   temperatureNumber,0,0
;   temperatureSetpointCount,2,2
;   temperatureSetpointLayers,1,2,1,2
;   temperatureSetpointTemperatures,215,210,55,50
;   temperatureStabilizeAtStartup,1,1
;   temperatureHeatedBed,0,1
;   fanLayers,1,2
;   fanSpeeds,0,100
;   blipFanToFullPower,0
;   adjustSpeedForCooling,1
;   minSpeedLayerTime,15
;   minCoolingSpeedSlowdown,20
;   increaseFanForCooling,1
;   minFanLayerTime,25
;   maxCoolingFanSpeed,100
;   increaseFanForBridging,1
;   bridgingFanSpeed,100
;   use5D,1
;   relativeEdistances,0
;   allowEaxisZeroing,1
;   independentExtruderAxes,0
;   includeM10123,0
;   stickySupport,1
;   applyToolheadOffsets,0
;   gcodeXoffset,0
;   gcodeYoffset,0
;   gcodeZoffset,0
;   overrideMachineDefinition,1
;   machineTypeOverride,0
;   strokeXoverride,300
;   strokeYoverride,300
;   strokeZoverride,400
;   originOffsetXoverride,0
;   originOffsetYoverride,0
;   originOffsetZoverride,0
;   homeXdirOverride,-1
;   homeYdirOverride,-1
;   homeZdirOverride,-1
;   flipXoverride,1
;   flipYoverride,-1
;   flipZoverride,1
;   toolheadOffsets,0,0|0,0|0,0|0,0|0,0|0,0
;   overrideFirmwareConfiguration,1
;   firmwareTypeOverride,RepRap (Marlin/Repetier/Sprinter)
;   GPXconfigOverride,r2
;   baudRateOverride,250000
;   overridePrinterModels,1
;   printerModelsOverride
;   startingGcode,;,; -]H.P.B[- MarshMalloW  ,; $VER: StartScript 1.02 (26.12.2019) MarshMalloW,;,; Begin Startcode,;,M117 *Preheat*     	; Preheat,;extruder0_temperature,M104 S[extruder0_temperature]  ,M109 S[extruder0_temperature] ,M109 R[extruder0_temperature] ,;,M117 *Auto-leveling*     	; Auto-leveling,M107                   	; Turn layer fan off,G21                    	; Set to metric [change to G20 if you want Imperial],G90                    	; Force coordinates to be absolute relative to the origin,G28                    	; Home X/Y/Z axis,G29                    	; Auto-leveling (BL-Touch),;,M117 *Start Clean*     	; Indicate nozzle clean in progress on LCD,G92 E0                 	; Set Extruder to 0 ,G1 X0 Y0 F2000         	; Move X and Y to 0 with speed 2000 (mm/min),G1 Z0.1 F1000          	; Move Z to   0.1 with speed 1000 (mm/min),G1 X8.0 F2000          	; Move X to   8.0 with speed 2000 (mm/min),G1 Y60.0 E4.0 F1000.0  	; Move Y to  60 and Extruder with 4.0 with speed 1000 (mm/min),G1 Y100.0 E8.5 F1000.0 	; Move Y to 100 and Extruder with 8.5 with speed 1000 (mm/min),G92 E0                 	; Set extruder to 0,G1 X16.0 F3000         	; Move X to 16.0 with speed 3000 (mm/min),G1 Y60.0 F3000         	; Move Y to 60.0 with speed 3000 (mm/min),M117 *End Clean*       	; Indicate nozzle clean in progress on LCD,G1 Z5 F3000            	; Move Z to  5.0 with speed 3000 (mm/min),G1 X20.0 F3000         	; Move X to 20.0 with speed 3000 (mm/min),G1 Y20.0 F3000         	; Move Y to 20.0 with speed 3000 (mm/min),; ,M117 *Printing...*     	; Start printing msg on LCD,;,; End Startcode,;,; Begin printing with sliced GCode after here,;
;   layerChangeGcode,
;   retractionGcode,
;   toolChangeGcode,
;   endingGcode,;,; init 181010,;,;M107 			; Fan off,;G1 E-1 F300 			; Retract the filament a bit before lifting the nozzle,;M104 S0 			; Turn off extruder,;M140 S0 			; Turn off bed,;G91			; Relative positioning,;G28 X0 Y0 			; Move X/Y to min endstops so the head is out of teh way,;M84 			; Disable motors,;G90 			; Absolute positioning,;M117 Print ready...,,;,; // From Cura 181010,; // End_gcode,G92 E0			; Zero the extruded length,;G1 E-30 F300		; Retract E -30,M106 S0			; Turn off cooling fan,M104 S0			; Turn off temperature,M140 S0		     	; Turn off bed,G91			; Relative positioning,G1 E-1 F300			; Retract the filament a bit before lifting the nozzle to release some of the pressure,G1 Z+20 E-5 X-20 Y-20 F7200	; Move Z up a bit and retract filament even more,G1 X0 Y150 F10000		; Move right min,M107			; Turn off layer fan,M84			; Disable motors,G90			; Absolute positioning,M117 *The-End* 		; End msg,;,
;   exportFileFormat,gcode
;   celebration,0
;   celebrationSong,Star Wars
;   postProcessing,|{REPLACE "; layer " "M117 INDICATOR-Layer"}|{REPLACE ", Z = " "\n; Z="}
;   defaultSpeed,2400
;   outlineUnderspeed,0.6
;   solidInfillUnderspeed,0.8
;   supportUnderspeed,0.8
;   rapidXYspeed,3600
;   rapidZspeed,900
;   minBridgingArea,50
;   bridgingExtraInflation,0.2
;   bridgingExtrusionMultiplier,1
;   bridgingSpeedMultiplier,0.6
;   useFixedBridgingAngle,0
;   fixedBridgingAngle,0
;   applyBridgingToPerimeters,0
;   filamentDiameters,1.75|1.75|1.75|1.75|1.75|1.75
;   filamentPricesPerKg,30|46|46|46|46|46
;   filamentDensities,1.25|1.25|1.25|1.25|1.25|1.25
;   useMinPrintHeight,0
;   minPrintHeight,0
;   useMaxPrintHeight,0
;   maxPrintHeight,50
;   useDiaphragm,0
;   diaphragmLayerInterval,20
;   robustSlicing,1
;   mergeAllIntoSolid,0
;   onlyRetractWhenCrossingOutline,1
;   retractBetweenLayers,1
;   useRetractionMinTravel,0
;   retractionMinTravel,3
;   retractWhileWiping,1
;   onlyWipeOutlines,1
;   avoidCrossingOutline,1
;   maxMovementDetourFactor,3
;   toolChangeRetractionDistance,12
;   toolChangeExtraRestartDistance,-0.5
;   toolChangeRetractionSpeed,600
;   externalThinWallType,1
;   internalThinWallType,1
;   thinWallAllowedOverlapPercentage,20
;   singleExtrusionMinLength,1
;   singleExtrusionMinPrintingWidthPercentage,50
;   singleExtrusionMaxPrintingWidthPercentage,200
;   singleExtrusionEndpointExtension,0.2
;   horizontalSizeCompensation,0
G90
M82
M106 S0
M140 S55
M190 S55
;
; -]H.P.B[- MarshMalloW  
; $VER: StartScript 1.02 (26.12.2019) MarshMalloW
;
; Begin Startcode
;
M117 *Preheat*     	; Preheat
;extruder0_temperature
M104 S215  
M109 S215 
M109 R215 
;
M117 *Auto-leveling*     	; Auto-leveling
M107                   	; Turn layer fan off
G21                    	; Set to metric [change to G20 if you want Imperial]
G90                    	; Force coordinates to be absolute relative to the origin
G28                    	; Home X/Y/Z axis
G29                    	; Auto-leveling (BL-Touch)
;
M117 *Start Clean*     	; Indicate nozzle clean in progress on LCD
G92 E0                 	; Set Extruder to 0 
G1 X0 Y0 F2000         	; Move X and Y to 0 with speed 2000 (mm/min)
G1 Z0.1 F1000          	; Move Z to   0.1 with speed 1000 (mm/min)
G1 X8.0 F2000          	; Move X to   8.0 with speed 2000 (mm/min)
G1 Y60.0 E4.0 F1000.0  	; Move Y to  60 and Extruder with 4.0 with speed 1000 (mm/min)
G1 Y100.0 E8.5 F1000.0 	; Move Y to 100 and Extruder with 8.5 with speed 1000 (mm/min)
G92 E0                 	; Set extruder to 0
G1 X16.0 F3000         	; Move X to 16.0 with speed 3000 (mm/min)
G1 Y60.0 F3000         	; Move Y to 60.0 with speed 3000 (mm/min)
M117 *End Clean*       	; Indicate nozzle clean in progress on LCD
G1 Z5 F3000            	; Move Z to  5.0 with speed 3000 (mm/min)
G1 X20.0 F3000         	; Move X to 20.0 with speed 3000 (mm/min)
G1 Y20.0 F3000         	; Move Y to 20.0 with speed 3000 (mm/min)
; 
M117 *Printing...*     	; Start printing msg on LCD
;
; End Startcode
;
; Begin printing with sliced GCode after here
;
; process Process1
M117 INDICATOR-Layer1
; Z=0.180
T0
G92 E0.0000
G1 E-4.0000 F6000
; feature skirt
; tool H0.180 W0.350
G1 Z0.180 F900
G1 X121.733 Y39.102 F3600
G1 E0.0000 F6000
G92 E0.0000
G1 X122.362 Y39.133 E0.0157 F960
G1 X122.494 Y39.145 E0.0190
G1 X123.636 Y39.288 E0.0476
G1 X123.809 Y39.318 E0.0520
G1 X124.952 Y39.579 E0.0812
G1 X125.121 Y39.627 E0.0855
G1 X126.233 Y40.001 E0.1147
G1 X126.397 Y40.065 E0.1191
G1 X127.466 Y40.547 E0.1483
G1 X127.622 Y40.627 E0.1526
G1 X128.638 Y41.214 E0.1818
G1 X128.785 Y41.309 E0.1862
G1 X129.738 Y41.994 E0.2154
G1 X129.875 Y42.103 E0.2198
G1 X130.754 Y42.879 E0.2489
G1 X130.880 Y43.002 E0.2533
G1 X131.678 Y43.862 E0.2825
G1 X131.791 Y43.996 E0.2869
G1 X132.499 Y44.931 E0.3160
G1 X132.598 Y45.076 E0.3204
G1 X133.210 Y46.077 E0.3496
G1 X133.294 Y46.231 E0.3540
G1 X133.802 Y47.288 E0.3832
G1 X133.871 Y47.450 E0.3875
G1 X134.272 Y48.552 E0.4167
G1 X134.324 Y48.720 E0.4211
G1 X134.613 Y49.857 E0.4503
G1 X134.648 Y50.029 E0.4546
G1 X134.819 Y51.167 E0.4833
G1 X134.834 Y51.298 E0.4866
G1 X134.881 Y51.927 E0.5022
G1 X134.886 Y52.058 E0.5055
G1 X134.886 Y53.209 E0.5342
G1 X134.877 Y53.385 E0.5385
G1 X134.761 Y54.552 E0.5677
G1 X134.734 Y54.725 E0.5721
G1 X134.502 Y55.875 E0.6013
G1 X134.459 Y56.045 E0.6056
G1 X134.113 Y57.166 E0.6348
G1 X134.053 Y57.331 E0.6392
G1 X133.597 Y58.412 E0.6684
G1 X133.521 Y58.570 E0.6728
G1 X132.960 Y59.600 E0.7019
G1 X132.869 Y59.750 E0.7063
G1 X132.208 Y60.719 E0.7355
G1 X132.102 Y60.859 E0.7399
G1 X131.348 Y61.758 E0.7691
G1 X131.228 Y61.886 E0.7734
G1 X130.389 Y62.705 E0.8026
G1 X130.257 Y62.822 E0.8070
G1 X129.340 Y63.553 E0.8362
G1 X129.197 Y63.656 E0.8405
G1 X128.212 Y64.292 E0.8697
G1 X128.060 Y64.380 E0.8741
G1 X127.016 Y64.915 E0.9033
G1 X126.856 Y64.987 E0.9076
G1 X125.765 Y65.415 E0.9368
G1 X125.598 Y65.471 E0.9412
G1 X124.469 Y65.789 E0.9704
G1 X124.298 Y65.828 E0.9748
G1 X123.143 Y66.032 E1.0039
G1 X122.968 Y66.054 E1.0083
G1 X121.799 Y66.141 E1.0375
G1 X121.623 Y66.146 E1.0419
G1 X120.451 Y66.116 E1.0711
G1 X120.275 Y66.103 E1.0754
G1 X119.133 Y65.960 E1.1041
G1 X119.003 Y65.939 E1.1073
G1 X118.385 Y65.814 E1.1230
G1 X118.257 Y65.783 E1.1263
G1 X117.149 Y65.471 E1.1549
G1 X116.983 Y65.415 E1.1593
G1 X115.891 Y64.987 E1.1885
G1 X115.731 Y64.915 E1.1929
G1 X114.687 Y64.380 E1.2221
G1 X114.535 Y64.292 E1.2264
G1 X113.550 Y63.655 E1.2556
G1 X113.407 Y63.553 E1.2600
G1 X112.490 Y62.822 E1.2892
G1 X112.358 Y62.705 E1.2935
G1 X111.519 Y61.886 E1.3227
G1 X111.399 Y61.758 E1.3271
G1 X110.646 Y60.859 E1.3563
G1 X110.539 Y60.719 E1.3607
G1 X109.879 Y59.750 E1.3898
G1 X109.787 Y59.600 E1.3942
G1 X109.226 Y58.570 E1.4234
G1 X109.150 Y58.412 E1.4278
G1 X108.694 Y57.331 E1.4569
G1 X108.634 Y57.166 E1.4613
G1 X108.289 Y56.045 E1.4905
G1 X108.245 Y55.875 E1.4949
G1 X108.013 Y54.725 E1.5241
G1 X107.987 Y54.552 E1.5284
G1 X107.870 Y53.385 E1.5576
G1 X107.861 Y53.209 E1.5620
G1 X107.861 Y52.036 E1.5912
G1 X107.870 Y51.861 E1.5955
G1 X107.987 Y50.694 E1.6247
G1 X108.013 Y50.520 E1.6291
G1 X108.245 Y49.370 E1.6583
G1 X108.289 Y49.200 E1.6627
G1 X108.634 Y48.080 E1.6918
G1 X108.694 Y47.914 E1.6962
G1 X109.150 Y46.834 E1.7254
G1 X109.226 Y46.675 E1.7298
G1 X109.787 Y45.645 E1.7589
G1 X109.879 Y45.495 E1.7633
G1 X110.539 Y44.526 E1.7925
G1 X110.645 Y44.386 E1.7969
G1 X111.399 Y43.488 E1.8261
G1 X111.519 Y43.359 E1.8304
G1 X112.358 Y42.540 E1.8596
G1 X112.490 Y42.424 E1.8640
G1 X113.407 Y41.693 E1.8932
G1 X113.550 Y41.590 E1.8975
G1 X114.535 Y40.954 E1.9267
G1 X114.687 Y40.866 E1.9311
G1 X115.731 Y40.331 E1.9603
G1 X115.891 Y40.258 E1.9647
G1 X116.983 Y39.830 E1.9938
G1 X117.149 Y39.774 E1.9982
G1 X118.257 Y39.462 E2.0268
G1 X118.385 Y39.431 E2.0301
G1 X119.003 Y39.306 E2.0458
G1 X119.133 Y39.285 E2.0491
G1 X120.275 Y39.142 E2.0777
G1 X120.451 Y39.129 E2.0821
G1 X121.601 Y39.100 E2.1107
G1 X121.733 Y39.102 E2.1140
G92 E0.0000
G1 E-4.0000 F6000
G1 Z0.280 F900
G1 X121.619 Y42.801 F3600
G1 X121.129 Y42.801
G1 X120.905 Y42.812
G1 X116.777 Y61.303
G1 X116.891 Y61.366
G1 X117.333 Y61.578
G1 X116.027 Y64.664
G1 Z0.180 F900
G1 E0.0000 F6000
G92 E0.0000
G1 X115.883 Y64.599 E0.0039 F960
G1 X114.855 Y64.072 E0.0327
G1 X114.718 Y63.993 E0.0366
G1 X113.747 Y63.366 E0.0654
G1 X113.619 Y63.274 E0.0693
G1 X112.715 Y62.553 E0.0981
G1 X112.597 Y62.449 E0.1020
G1 X111.770 Y61.642 E0.1307
G1 X111.662 Y61.526 E0.1347
G1 X110.919 Y60.641 E0.1634
G1 X110.824 Y60.515 E0.1674
G1 X110.173 Y59.560 E0.1961
G1 X110.090 Y59.425 E0.2001
G1 X109.538 Y58.410 E0.2288
G1 X109.469 Y58.268 E0.2327
G1 X109.020 Y57.203 E0.2615
G1 X108.966 Y57.054 E0.2654
G1 X108.626 Y55.950 E0.2942
G1 X108.587 Y55.797 E0.2981
G1 X108.358 Y54.665 E0.3269
G1 X108.334 Y54.508 E0.3308
G1 X108.219 Y53.359 E0.3596
G1 X108.211 Y53.200 E0.3635
G1 X108.211 Y52.045 E0.3922
G1 X108.219 Y51.887 E0.3962
G1 X108.334 Y50.737 E0.4249
G1 X108.358 Y50.581 E0.4289
G1 X108.587 Y49.448 E0.4576
G1 X108.626 Y49.295 E0.4616
G1 X108.966 Y48.191 E0.4903
G1 X109.020 Y48.042 E0.4942
G1 X109.469 Y46.978 E0.5230
G1 X109.538 Y46.835 E0.5269
G1 X110.090 Y45.820 E0.5557
G1 X110.173 Y45.685 E0.5596
G1 X110.824 Y44.731 E0.5884
G1 X110.919 Y44.604 E0.5923
G1 X111.662 Y43.719 E0.6210
G1 X111.770 Y43.603 E0.6250
G1 X112.597 Y42.797 E0.6537
G1 X112.715 Y42.692 E0.6577
G1 X113.619 Y41.972 E0.6864
G1 X113.747 Y41.879 E0.6904
G1 X114.718 Y41.252 E0.7191
G1 X114.855 Y41.173 E0.7231
G1 X115.883 Y40.646 E0.7518
G1 X116.027 Y40.581 E0.7557
G1 X117.103 Y40.159 E0.7845
G1 X117.253 Y40.109 E0.7884
G1 X118.346 Y39.801 E0.8167
G1 X118.461 Y39.773 E0.8196
G1 X119.066 Y39.651 E0.8350
G1 X119.183 Y39.632 E0.8380
G1 X120.310 Y39.490 E0.8662
G1 X120.468 Y39.479 E0.8701
G1 X121.603 Y39.450 E0.8984
G1 X121.722 Y39.452 E0.9014
G1 X122.338 Y39.483 E0.9167
G1 X122.457 Y39.493 E0.9197
G1 X123.584 Y39.634 E0.9479
G1 X123.739 Y39.662 E0.9519
G1 X124.866 Y39.919 E0.9806
G1 X125.018 Y39.962 E0.9846
G1 X126.113 Y40.330 E1.0133
G1 X126.261 Y40.387 E1.0172
G1 X127.314 Y40.863 E1.0460
G1 X127.455 Y40.935 E1.0499
G1 X128.455 Y41.512 E1.0787
G1 X128.588 Y41.598 E1.0826
G1 X129.526 Y42.273 E1.1114
G1 X129.650 Y42.371 E1.1153
G1 X130.516 Y43.136 E1.1440
G1 X130.630 Y43.246 E1.1480
G1 X131.415 Y44.093 E1.1767
G1 X131.517 Y44.215 E1.1807
G1 X132.215 Y45.136 E1.2094
G1 X132.304 Y45.266 E1.2134
G1 X132.906 Y46.252 E1.2421
G1 X132.982 Y46.391 E1.2460
G1 X133.483 Y47.432 E1.2748
G1 X133.545 Y47.578 E1.2787
G1 X133.940 Y48.664 E1.3075
G1 X133.987 Y48.815 E1.3114
