; G-Code generated by Simplify3D(R) Version 4.1.2
; Jan 29, 2021 at 7:15:37 PM
; Settings Summary
;   processName,Process1
;   applyToModels,top
;   profileName,A10-04-15 Tevo Tornado
;   profileVersion,2020-12-06 16:18:07
;   baseProfile,Creality CR-10(2)
;   printMaterial,PLA
;   printQuality,Medium
;   printExtruders,
;   extruderName,Primary Extruder
;   extruderToolheadNumber,0
;   extruderDiameter,0.4
;   extruderAutoWidth,0
;   extruderWidth,0.35
;   extrusionMultiplier,0.95
;   extruderUseRetract,1
;   extruderRetractionDistance,4
;   extruderExtraRestartDistance,0
;   extruderRetractionZLift,0.1
;   extruderRetractionSpeed,6000
;   extruderUseCoasting,1
;   extruderCoastingDistance,0.4
;   extruderUseWipe,1
;   extruderWipeDistance,5
;   primaryExtruder,0
;   layerHeight,0.15
;   topSolidLayers,5
;   bottomSolidLayers,4
;   perimeterOutlines,3
;   printPerimetersInsideOut,0
;   startPointOption,1
;   startPointOriginX,0
;   startPointOriginY,300
;   sequentialIslands,0
;   spiralVaseMode,0
;   firstLayerHeightPercentage,120
;   firstLayerWidthPercentage,100
;   firstLayerUnderspeed,0.4
;   useRaft,0
;   raftExtruder,0
;   raftTopLayers,3
;   raftBaseLayers,2
;   raftOffset,3
;   raftSeparationDistance,0.14
;   raftTopInfill,100
;   aboveRaftSpeedMultiplier,0.3
;   useSkirt,1
;   skirtExtruder,0
;   skirtLayers,1
;   skirtOutlines,2
;   skirtOffset,3
;   usePrimePillar,0
;   primePillarExtruder,999
;   primePillarWidth,12
;   primePillarLocation,7
;   primePillarSpeedMultiplier,1
;   useOozeShield,0
;   oozeShieldExtruder,999
;   oozeShieldOffset,2
;   oozeShieldOutlines,1
;   oozeShieldSidewallShape,1
;   oozeShieldSidewallAngle,30
;   oozeShieldSpeedMultiplier,1
;   infillExtruder,0
;   internalInfillPattern,Rectilinear
;   externalInfillPattern,Rectilinear
;   infillPercentage,15
;   outlineOverlapPercentage,15
;   infillExtrusionWidthPercentage,100
;   minInfillLength,5
;   infillLayerInterval,1
;   internalInfillAngles,45,-45
;   overlapInternalInfillAngles,0
;   externalInfillAngles,45,-45
;   generateSupport,0
;   supportExtruder,0
;   supportInfillPercentage,30
;   supportExtraInflation,0
;   supportBaseLayers,0
;   denseSupportExtruder,0
;   denseSupportLayers,0
;   denseSupportInfillPercentage,70
;   supportLayerInterval,1
;   supportHorizontalPartOffset,0.4
;   supportUpperSeparationLayers,1
;   supportLowerSeparationLayers,1
;   supportType,0
;   supportGridSpacing,4.5
;   maxOverhangAngle,45
;   supportAngles,0
;   temperatureName,Primary Extruder,Heated Bed
;   temperatureNumber,0,0
;   temperatureSetpointCount,2,2
;   temperatureSetpointLayers,1,2,1,2
;   temperatureSetpointTemperatures,215,210,55,50
;   temperatureStabilizeAtStartup,1,1
;   temperatureHeatedBed,0,1
;   fanLayers,1,2
;   fanSpeeds,0,100
;   blipFanToFullPower,0
;   adjustSpeedForCooling,1
;   minSpeedLayerTime,15
;   minCoolingSpeedSlowdown,20
;   increaseFanForCooling,1
;   minFanLayerTime,25
;   maxCoolingFanSpeed,100
;   increaseFanForBridging,1
;   bridgingFanSpeed,100
;   use5D,1
;   relativeEdistances,0
;   allowEaxisZeroing,1
;   independentExtruderAxes,0
;   includeM10123,0
;   stickySupport,1
;   applyToolheadOffsets,0
;   gcodeXoffset,0
;   gcodeYoffset,0
;   gcodeZoffset,0
;   overrideMachineDefinition,1
;   machineTypeOverride,0
;   strokeXoverride,300
;   strokeYoverride,300
;   strokeZoverride,400
;   originOffsetXoverride,0
;   originOffsetYoverride,0
;   originOffsetZoverride,0
;   homeXdirOverride,-1
;   homeYdirOverride,-1
;   homeZdirOverride,-1
;   flipXoverride,1
;   flipYoverride,-1
;   flipZoverride,1
;   toolheadOffsets,0,0|0,0|0,0|0,0|0,0|0,0
;   overrideFirmwareConfiguration,1
;   firmwareTypeOverride,RepRap (Marlin/Repetier/Sprinter)
;   GPXconfigOverride,r2
;   baudRateOverride,250000
;   overridePrinterModels,1
;   printerModelsOverride
;   startingGcode,;,; -]H.P.B[- MarshMalloW  ,; $VER: StartScript 1.02 (26.12.2019) MarshMalloW,;,; Begin Startcode,;,M117 *Preheat*     	; Preheat,;extruder0_temperature,M104 S[extruder0_temperature]  ,M109 S[extruder0_temperature] ,M109 R[extruder0_temperature] ,;,M117 *Auto-leveling*     	; Auto-leveling,M107                   	; Turn layer fan off,G21                    	; Set to metric [change to G20 if you want Imperial],G90                    	; Force coordinates to be absolute relative to the origin,G28                    	; Home X/Y/Z axis,G29                    	; Auto-leveling (BL-Touch),;,M117 *Start Clean*     	; Indicate nozzle clean in progress on LCD,G92 E0                 	; Set Extruder to 0 ,G1 X0 Y0 F2000         	; Move X and Y to 0 with speed 2000 (mm/min),G1 Z0.1 F1000          	; Move Z to   0.1 with speed 1000 (mm/min),G1 X8.0 F2000          	; Move X to   8.0 with speed 2000 (mm/min),G1 Y60.0 E4.0 F1000.0  	; Move Y to  60 and Extruder with 4.0 with speed 1000 (mm/min),G1 Y100.0 E8.5 F1000.0 	; Move Y to 100 and Extruder with 8.5 with speed 1000 (mm/min),G92 E0                 	; Set extruder to 0,G1 X16.0 F3000         	; Move X to 16.0 with speed 3000 (mm/min),G1 Y60.0 F3000         	; Move Y to 60.0 with speed 3000 (mm/min),M117 *End Clean*       	; Indicate nozzle clean in progress on LCD,G1 Z5 F3000            	; Move Z to  5.0 with speed 3000 (mm/min),G1 X20.0 F3000         	; Move X to 20.0 with speed 3000 (mm/min),G1 Y20.0 F3000         	; Move Y to 20.0 with speed 3000 (mm/min),; ,M117 *Printing...*     	; Start printing msg on LCD,;,; End Startcode,;,; Begin printing with sliced GCode after here,;
;   layerChangeGcode,
;   retractionGcode,
;   toolChangeGcode,
;   endingGcode,;,; init 181010,;,;M107 			; Fan off,;G1 E-1 F300 			; Retract the filament a bit before lifting the nozzle,;M104 S0 			; Turn off extruder,;M140 S0 			; Turn off bed,;G91			; Relative positioning,;G28 X0 Y0 			; Move X/Y to min endstops so the head is out of teh way,;M84 			; Disable motors,;G90 			; Absolute positioning,;M117 Print ready...,,;,; // From Cura 181010,; // End_gcode,G92 E0			; Zero the extruded length,;G1 E-30 F300		; Retract E -30,M106 S0			; Turn off cooling fan,M104 S0			; Turn off temperature,M140 S0		     	; Turn off bed,G91			; Relative positioning,G1 E-1 F300			; Retract the filament a bit before lifting the nozzle to release some of the pressure,G1 Z+20 E-5 X-20 Y-20 F7200	; Move Z up a bit and retract filament even more,G1 X0 Y150 F10000		; Move right min,M107			; Turn off layer fan,M84			; Disable motors,G90			; Absolute positioning,M117 *The-End* 		; End msg,;,
;   exportFileFormat,gcode
;   celebration,0
;   celebrationSong,Star Wars
;   postProcessing,|{REPLACE "; layer " "M117 INDICATOR-Layer"}|{REPLACE ", Z = " "\n; Z="}
;   defaultSpeed,2400
;   outlineUnderspeed,0.6
;   solidInfillUnderspeed,0.8
;   supportUnderspeed,0.8
;   rapidXYspeed,3600
;   rapidZspeed,900
;   minBridgingArea,50
;   bridgingExtraInflation,0.2
;   bridgingExtrusionMultiplier,1
;   bridgingSpeedMultiplier,0.6
;   useFixedBridgingAngle,0
;   fixedBridgingAngle,0
;   applyBridgingToPerimeters,0
;   filamentDiameters,1.75|1.75|1.75|1.75|1.75|1.75
;   filamentPricesPerKg,30|46|46|46|46|46
;   filamentDensities,1.25|1.25|1.25|1.25|1.25|1.25
;   useMinPrintHeight,0
;   minPrintHeight,0
;   useMaxPrintHeight,0
;   maxPrintHeight,50
;   useDiaphragm,0
;   diaphragmLayerInterval,20
;   robustSlicing,1
;   mergeAllIntoSolid,0
;   onlyRetractWhenCrossingOutline,1
;   retractBetweenLayers,1
;   useRetractionMinTravel,0
;   retractionMinTravel,3
;   retractWhileWiping,1
;   onlyWipeOutlines,1
;   avoidCrossingOutline,1
;   maxMovementDetourFactor,3
;   toolChangeRetractionDistance,12
;   toolChangeExtraRestartDistance,-0.5
;   toolChangeRetractionSpeed,600
;   externalThinWallType,1
;   internalThinWallType,1
;   thinWallAllowedOverlapPercentage,20
;   singleExtrusionMinLength,1
;   singleExtrusionMinPrintingWidthPercentage,50
;   singleExtrusionMaxPrintingWidthPercentage,200
;   singleExtrusionEndpointExtension,0.2
;   horizontalSizeCompensation,0
G90
M82
M106 S0
M140 S55
M190 S55
;
; -]H.P.B[- MarshMalloW  
; $VER: StartScript 1.02 (26.12.2019) MarshMalloW
;
; Begin Startcode
;
M117 *Preheat*     	; Preheat
;extruder0_temperature
M104 S215  
M109 S215 
M109 R215 
;
M117 *Auto-leveling*     	; Auto-leveling
M107                   	; Turn layer fan off
G21                    	; Set to metric [change to G20 if you want Imperial]
G90                    	; Force coordinates to be absolute relative to the origin
G28                    	; Home X/Y/Z axis
G29                    	; Auto-leveling (BL-Touch)
;
M117 *Start Clean*     	; Indicate nozzle clean in progress on LCD
G92 E0                 	; Set Extruder to 0 
G1 X0 Y0 F2000         	; Move X and Y to 0 with speed 2000 (mm/min)
G1 Z0.1 F1000          	; Move Z to   0.1 with speed 1000 (mm/min)
G1 X8.0 F2000          	; Move X to   8.0 with speed 2000 (mm/min)
G1 Y60.0 E4.0 F1000.0  	; Move Y to  60 and Extruder with 4.0 with speed 1000 (mm/min)
G1 Y100.0 E8.5 F1000.0 	; Move Y to 100 and Extruder with 8.5 with speed 1000 (mm/min)
G92 E0                 	; Set extruder to 0
G1 X16.0 F3000         	; Move X to 16.0 with speed 3000 (mm/min)
G1 Y60.0 F3000         	; Move Y to 60.0 with speed 3000 (mm/min)
M117 *End Clean*       	; Indicate nozzle clean in progress on LCD
G1 Z5 F3000            	; Move Z to  5.0 with speed 3000 (mm/min)
G1 X20.0 F3000         	; Move X to 20.0 with speed 3000 (mm/min)
G1 Y20.0 F3000         	; Move Y to 20.0 with speed 3000 (mm/min)
; 
M117 *Printing...*     	; Start printing msg on LCD
;
; End Startcode
;
; Begin printing with sliced GCode after here
;
; process Process1
M117 INDICATOR-Layer1
; Z=0.180
T0
G92 E0.0000
G1 E-4.0000 F6000
; feature skirt
; tool H0.180 W0.350
G1 Z0.180 F900
G1 X136.162 Y35.950 F3600
G1 E0.0000 F6000
G92 E0.0000
G1 X136.249 Y35.953 E0.0022 F960
G1 X138.594 Y36.107 E0.0606
G1 X138.680 Y36.115 E0.0628
G1 X139.890 Y36.254 E0.0931
G1 X139.976 Y36.266 E0.0953
G1 X142.295 Y36.649 E0.1537
G1 X142.380 Y36.665 E0.1559
G1 X143.571 Y36.922 E0.1862
G1 X143.655 Y36.943 E0.1883
G1 X145.925 Y37.551 E0.2468
G1 X146.008 Y37.575 E0.2490
G1 X147.168 Y37.948 E0.2793
G1 X147.249 Y37.977 E0.2814
G1 X149.449 Y38.804 E0.3399
G1 X149.529 Y38.837 E0.3421
G1 X150.647 Y39.322 E0.3724
G1 X150.726 Y39.358 E0.3745
G1 X152.833 Y40.397 E0.4330
G1 X152.910 Y40.437 E0.4352
G1 X153.975 Y41.029 E0.4655
G1 X154.049 Y41.073 E0.4676
G1 X156.045 Y42.314 E0.5261
G1 X156.117 Y42.362 E0.5283
G1 X157.119 Y43.055 E0.5586
G1 X157.189 Y43.106 E0.5607
G1 X159.054 Y44.537 E0.6192
G1 X159.121 Y44.591 E0.6214
G1 X160.039 Y45.370 E0.6513
G1 X160.082 Y45.408 E0.6528
G1 X160.974 Y46.216 E0.6827
G1 X161.037 Y46.276 E0.6849
G1 X162.709 Y47.948 E0.7437
G1 X162.788 Y48.032 E0.7466
G1 X164.347 Y49.810 E0.8054
G1 X164.402 Y49.876 E0.8076
G1 X165.160 Y50.831 E0.8379
G1 X165.212 Y50.900 E0.8400
G1 X166.581 Y52.810 E0.8985
G1 X166.629 Y52.882 E0.9007
G1 X167.282 Y53.893 E0.9306
G1 X167.312 Y53.942 E0.9321
G1 X167.931 Y54.975 E0.9620
G1 X167.974 Y55.050 E0.9642
G1 X169.082 Y57.123 E1.0226
G1 X169.121 Y57.200 E1.0248
G1 X169.641 Y58.302 E1.0551
G1 X169.677 Y58.381 E1.0573
G1 X170.576 Y60.552 E1.1157
G1 X170.607 Y60.633 E1.1179
G1 X171.018 Y61.780 E1.1482
G1 X171.045 Y61.862 E1.1504
G1 X171.731 Y64.125 E1.2092
G1 X171.761 Y64.236 E1.2121
G1 X172.301 Y66.551 E1.2712
G1 X172.323 Y66.662 E1.2740
G1 X172.677 Y68.786 E1.3276
G1 X172.688 Y68.866 E1.3296
G1 X172.857 Y70.267 E1.3647
G1 X172.864 Y70.333 E1.3664
G1 X172.962 Y71.538 E1.3965
G1 X172.967 Y71.624 E1.3986
G1 X173.045 Y73.988 E1.4575
G1 X173.045 Y74.103 E1.4603
G1 X172.967 Y76.466 E1.5192
G1 X172.962 Y76.552 E1.5213
G1 X172.864 Y77.757 E1.5514
G1 X172.857 Y77.823 E1.5530
G1 X172.688 Y79.224 E1.5882
G1 X172.677 Y79.304 E1.5902
G1 X172.323 Y81.429 E1.6438
G1 X172.301 Y81.539 E1.6466
G1 X171.764 Y83.840 E1.7054
G1 X171.742 Y83.924 E1.7075
G1 X171.412 Y85.082 E1.7375
G1 X171.395 Y85.137 E1.7389
G1 X171.027 Y86.283 E1.7689
G1 X170.998 Y86.365 E1.7710
G1 X170.165 Y88.578 E1.8299
G1 X170.121 Y88.684 E1.8327
G1 X169.145 Y90.838 E1.8916
G1 X169.108 Y90.916 E1.8937
G1 X168.558 Y91.987 E1.9237
G1 X168.530 Y92.038 E1.9251
G1 X167.946 Y93.090 E1.9551
G1 X167.902 Y93.165 E1.9572
G1 X166.653 Y95.173 E2.0161
G1 X166.589 Y95.269 E2.0189
G1 X165.212 Y97.191 E2.0778
G1 X165.160 Y97.260 E2.0799
G1 X164.402 Y98.214 E2.1102
G1 X164.347 Y98.280 E2.1124
G1 X162.797 Y100.047 E2.1709
G1 X162.739 Y100.111 E2.1730
G1 X161.901 Y100.976 E2.2030
G1 X161.861 Y101.017 E2.2044
G1 X160.996 Y101.854 E2.2344
G1 X160.932 Y101.913 E2.2365
G1 X159.162 Y103.465 E2.2951
G1 X159.088 Y103.526 E2.2975
G1 X157.967 Y104.407 E2.3330
G1 X157.902 Y104.455 E2.3350
G1 X156.150 Y105.707 E2.3886
G1 X156.056 Y105.769 E2.3914
G1 X154.049 Y107.017 E2.4501
G1 X153.975 Y107.061 E2.4523
G1 X152.910 Y107.653 E2.4826
G1 X152.833 Y107.693 E2.4848
G1 X150.726 Y108.733 E2.5432
G1 X150.647 Y108.769 E2.5454
G1 X149.529 Y109.254 E2.5757
G1 X149.449 Y109.286 E2.5779
G1 X147.249 Y110.114 E2.6363
G1 X147.168 Y110.142 E2.6385
G1 X146.008 Y110.515 E2.6688
G1 X145.925 Y110.539 E2.6710
G1 X143.655 Y111.148 E2.7294
G1 X143.571 Y111.168 E2.7316
G1 X142.380 Y111.425 E2.7619
G1 X142.295 Y111.441 E2.7641
G1 X139.976 Y111.824 E2.8225
G1 X139.890 Y111.836 E2.8247
G1 X138.694 Y111.974 E2.8547
G1 X138.637 Y111.979 E2.8561
G1 X137.437 Y112.078 E2.8860
G1 X137.351 Y112.083 E2.8882
G1 X134.987 Y112.160 E2.9470
G1 X134.872 Y112.160 E2.9499
G1 X132.509 Y112.083 E3.0087
G1 X132.422 Y112.078 E3.0109
G1 X131.208 Y111.978 E3.0412
G1 X131.122 Y111.969 E3.0434
G1 X128.792 Y111.662 E3.1018
G1 X128.707 Y111.649 E3.1040
G1 X127.522 Y111.433 E3.1340
G1 X127.466 Y111.422 E3.1354
G1 X126.289 Y111.168 E3.1653
G1 X126.205 Y111.148 E3.1675
G1 X123.922 Y110.536 E3.2263
G1 X123.814 Y110.503 E3.2291
G1 X121.774 Y109.814 E3.2827
G1 X121.698 Y109.787 E3.2847
G1 X120.369 Y109.270 E3.3202
G1 X120.281 Y109.233 E3.3225
G1 X118.137 Y108.261 E3.3811
G1 X118.059 Y108.223 E3.3833
G1 X116.976 Y107.667 E3.4136
G1 X116.903 Y107.627 E3.4156
G1 X115.048 Y106.561 E3.4689
G1 X114.979 Y106.519 E3.4709
G1 X113.789 Y105.760 E3.5060
G1 X113.734 Y105.723 E3.5077
G1 X112.740 Y105.035 E3.5377
G1 X112.670 Y104.984 E3.5399
G1 X110.806 Y103.554 E3.5984
G1 X110.739 Y103.499 E3.6005
G1 X109.809 Y102.711 E3.6308
G1 X109.745 Y102.654 E3.6330
G1 X108.019 Y101.037 E3.6918
G1 X107.938 Y100.956 E3.6947
G1 X106.321 Y99.230 E3.7535
G1 X106.264 Y99.165 E3.7557
G1 X105.475 Y98.236 E3.7860
G1 X105.421 Y98.169 E3.7881
G1 X103.990 Y96.305 E3.8466
G1 X103.939 Y96.235 E3.8488
G1 X103.254 Y95.245 E3.8787
G1 X103.222 Y95.197 E3.8802
G1 X102.570 Y94.185 E3.9101
G1 X102.525 Y94.111 E3.9123
G1 X101.343 Y92.063 E3.9711
G1 X101.288 Y91.962 E3.9740
G1 X100.242 Y89.841 E4.0328
G1 X100.206 Y89.762 E4.0350
G1 X99.727 Y88.658 E4.0649
G1 X99.705 Y88.604 E4.0664
G1 X99.263 Y87.485 E4.0963
G1 X99.233 Y87.404 E4.0985
G1 X98.473 Y85.165 E4.1573
G1 X98.439 Y85.054 E4.1602
G1 X97.827 Y82.770 E4.2190
G1 X97.807 Y82.686 E4.2212
G1 X97.553 Y81.509 E4.2511
G1 X97.541 Y81.453 E4.2526
G1 X97.326 Y80.268 E4.2825
G1 X97.313 Y80.183 E4.2847
G1 X97.004 Y77.839 E4.3435
G1 X96.993 Y77.724 E4.3464
G1 X96.838 Y75.364 E4.4052
G1 X96.834 Y75.278 E4.4074
G1 X96.815 Y74.074 E4.4373
G1 X96.815 Y74.016 E4.4388
G1 X96.834 Y72.812 E4.4687
G1 X96.838 Y72.726 E4.4709
G1 X96.993 Y70.367 E4.5297
G1 X97.004 Y70.252 E4.5326
G1 X97.313 Y67.908 E4.5914
G1 X97.326 Y67.822 E4.5936
G1 X97.541 Y66.638 E4.6235
G1 X97.553 Y66.581 E4.6250
G1 X97.807 Y65.404 E4.6549
G1 X97.827 Y65.320 E4.6571
G1 X98.439 Y63.036 E4.7159
G1 X98.473 Y62.926 E4.7188
G1 X99.233 Y60.687 E4.7776
G1 X99.263 Y60.606 E4.7798
G1 X99.705 Y59.486 E4.8097
G1 X99.727 Y59.433 E4.8112
G1 X100.206 Y58.328 E4.8411
G1 X100.242 Y58.249 E4.8433
G1 X101.288 Y56.129 E4.9021
G1 X101.343 Y56.027 E4.9050
G1 X102.525 Y53.979 E4.9638
G1 X102.570 Y53.905 E4.9660
G1 X103.222 Y52.894 E4.9959
G1 X103.254 Y52.846 E4.9974
G1 X103.939 Y51.856 E5.0273
G1 X103.990 Y51.786 E5.0295
G1 X105.421 Y49.921 E5.0879
G1 X105.475 Y49.854 E5.0901
G1 X106.264 Y48.925 E5.1204
G1 X106.321 Y48.860 E5.1226
