; G-Code generated by Simplify3D(R) Version 4.1.2
;
;
;
;
; Oct 18, 2022 at 7:30:59 PM
; Settings Summary
;   processName,A12-04-50 Tevo Tornado
;   applyToModels,30mm_honeycomb_reduced_fan_cover
;   profileName,A13-04-25 Tevo Tornado
;   profileVersion,2022-10-18 18:26:25
;   baseProfile,Creality CR-10(2)
;   printMaterial,PLA
;   printQuality,Medium
;   printExtruders,
;   extruderName,Primary Extruder
;   extruderToolheadNumber,0
;   extruderDiameter,0.4
;   extruderAutoWidth,0
;   extruderWidth,0.35
;   extrusionMultiplier,0.95
;   extruderUseRetract,1
;   extruderRetractionDistance,4
;   extruderExtraRestartDistance,0
;   extruderRetractionZLift,0.3
;   extruderRetractionSpeed,3600
;   extruderUseCoasting,0
;   extruderCoastingDistance,0.5
;   extruderUseWipe,0
;   extruderWipeDistance,5
;   primaryExtruder,0
;   layerHeight,0.15
;   topSolidLayers,4
;   bottomSolidLayers,3
;   perimeterOutlines,3
;   printPerimetersInsideOut,0
;   startPointOption,2
;   startPointOriginX,0
;   startPointOriginY,300
;   sequentialIslands,0
;   spiralVaseMode,0
;   firstLayerHeightPercentage,120
;   firstLayerWidthPercentage,100
;   firstLayerUnderspeed,0.5
;   useRaft,0
;   raftExtruder,0
;   raftTopLayers,3
;   raftBaseLayers,2
;   raftOffset,3
;   raftSeparationDistance,0.14
;   raftTopInfill,100
;   aboveRaftSpeedMultiplier,0.3
;   useSkirt,1
;   skirtExtruder,0
;   skirtLayers,1
;   skirtOutlines,2
;   skirtOffset,3
;   usePrimePillar,0
;   primePillarExtruder,999
;   primePillarWidth,12
;   primePillarLocation,7
;   primePillarSpeedMultiplier,1
;   useOozeShield,0
;   oozeShieldExtruder,999
;   oozeShieldOffset,2
;   oozeShieldOutlines,1
;   oozeShieldSidewallShape,1
;   oozeShieldSidewallAngle,30
;   oozeShieldSpeedMultiplier,1
;   infillExtruder,0
;   internalInfillPattern,Rectilinear
;   externalInfillPattern,Rectilinear
;   infillPercentage,25
;   outlineOverlapPercentage,15
;   infillExtrusionWidthPercentage,100
;   minInfillLength,5
;   infillLayerInterval,1
;   internalInfillAngles,45,-45
;   overlapInternalInfillAngles,0
;   externalInfillAngles,45,-45
;   generateSupport,0
;   supportExtruder,0
;   supportInfillPercentage,30
;   supportExtraInflation,0
;   supportBaseLayers,0
;   denseSupportExtruder,0
;   denseSupportLayers,0
;   denseSupportInfillPercentage,70
;   supportLayerInterval,1
;   supportHorizontalPartOffset,0.4
;   supportUpperSeparationLayers,1
;   supportLowerSeparationLayers,1
;   supportType,0
;   supportGridSpacing,4.5
;   maxOverhangAngle,45
;   supportAngles,0
;   temperatureName,Primary Extruder,Heated Bed
;   temperatureNumber,0,0
;   temperatureSetpointCount,2,2
;   temperatureSetpointLayers,1,2,1,2
;   temperatureSetpointTemperatures,205,200,55,50
;   temperatureStabilizeAtStartup,1,1
;   temperatureHeatedBed,0,1
;   fanLayers,1,2
;   fanSpeeds,0,100
;   blipFanToFullPower,0
;   adjustSpeedForCooling,1
;   minSpeedLayerTime,15
;   minCoolingSpeedSlowdown,20
;   increaseFanForCooling,1
;   minFanLayerTime,25
;   maxCoolingFanSpeed,100
;   increaseFanForBridging,1
;   bridgingFanSpeed,100
;   use5D,1
;   relativeEdistances,0
;   allowEaxisZeroing,1
;   independentExtruderAxes,0
;   includeM10123,0
;   stickySupport,1
;   applyToolheadOffsets,0
;   gcodeXoffset,0
;   gcodeYoffset,0
;   gcodeZoffset,0
;   overrideMachineDefinition,1
;   machineTypeOverride,0
;   strokeXoverride,300
;   strokeYoverride,300
;   strokeZoverride,400
;   originOffsetXoverride,0
;   originOffsetYoverride,0
;   originOffsetZoverride,0
;   homeXdirOverride,-1
;   homeYdirOverride,-1
;   homeZdirOverride,-1
;   flipXoverride,1
;   flipYoverride,-1
;   flipZoverride,1
;   toolheadOffsets,0,0|0,0|0,0|0,0|0,0|0,0
;   overrideFirmwareConfiguration,1
;   firmwareTypeOverride,RepRap (Marlin/Repetier/Sprinter)
;   GPXconfigOverride,r2
;   baudRateOverride,250000
;   overridePrinterModels,1
;   printerModelsOverride
;   startingGcode,;,; -]H.P.B[- MarshMalloW  ,; $VER: StartScript 1.02 (26.12.2019) MarshMalloW,;,; Begin Startcode,;,M117 *Preheat*     	; Preheat,;extruder0_temperature,M104 S[extruder0_temperature]  ,M109 S[extruder0_temperature] ,M109 R[extruder0_temperature] ,;,M117 *Auto-leveling*     	; Auto-leveling,M107                   	; Turn layer fan off,G21                    	; Set to metric [change to G20 if you want Imperial],G90                    	; Force coordinates to be absolute relative to the origin,G28                    	; Home X/Y/Z axis,G29                    	; Auto-leveling (BL-Touch),;,M117 *Start Clean*     	; Indicate nozzle clean in progress on LCD,G92 E0                 	; Set Extruder to 0 ,G1 X0 Y0 F2000         	; Move X and Y to 0 with speed 2000 (mm/min),G1 Z0.1 F1000          	; Move Z to   0.1 with speed 1000 (mm/min),G1 X8.0 F2000          	; Move X to   8.0 with speed 2000 (mm/min),G1 Y60.0 E4.0 F1000.0  	; Move Y to  60 and Extruder with 4.0 with speed 1000 (mm/min),G1 Y100.0 E8.5 F1000.0 	; Move Y to 100 and Extruder with 8.5 with speed 1000 (mm/min),G92 E0                 	; Set extruder to 0,G1 X16.0 F3000         	; Move X to 16.0 with speed 3000 (mm/min),G1 Y60.0 F3000         	; Move Y to 60.0 with speed 3000 (mm/min),M117 *End Clean*       	; Indicate nozzle clean in progress on LCD,G1 Z5 F3000            	; Move Z to  5.0 with speed 3000 (mm/min),G1 X20.0 F3000         	; Move X to 20.0 with speed 3000 (mm/min),G1 Y20.0 F3000         	; Move Y to 20.0 with speed 3000 (mm/min),; ,M117 *Printing...*     	; Start printing msg on LCD,;,; End Startcode,;,; Begin printing with sliced GCode after here,;
;   layerChangeGcode,
;   retractionGcode,
;   toolChangeGcode,
;   endingGcode,;,; init 181010,;,;M107 			; Fan off,;G1 E-1 F300 			; Retract the filament a bit before lifting the nozzle,;M104 S0 			; Turn off extruder,;M140 S0 			; Turn off bed,;G91			; Relative positioning,;G28 X0 Y0 			; Move X/Y to min endstops so the head is out of teh way,;M84 			; Disable motors,;G90 			; Absolute positioning,;M117 Print ready...,,;,; // From Cura 181010,; // End_gcode,G92 E0			; Zero the extruded length,;G1 E-30 F300		; Retract E -30,M106 S0			; Turn off cooling fan,M104 S0			; Turn off temperature,M140 S0		     	; Turn off bed,G91			; Relative positioning,G1 E-1 F300			; Retract the filament a bit before lifting the nozzle to release some of the pressure,G1 Z+20 E-5 X-20 Y-20 F7200	; Move Z up a bit and retract filament even more,G1 X0 Y150 F10000		; Move right min,M107			; Turn off layer fan,M84			; Disable motors,G90			; Absolute positioning,M117 *The-End* 		; End msg,;,
;   exportFileFormat,gcode
;   celebration,0
;   celebrationSong,Star Wars
;   postProcessing,D:\S3D_Thumbs\S3D_Thumbs.exe f="[output_filepath]" x=600 y=110 w=953 lw=400 lh=300 sw=32 sh=32 d=Y
;   defaultSpeed,1800
;   outlineUnderspeed,0.5
;   solidInfillUnderspeed,0.8
;   supportUnderspeed,0.8
;   rapidXYspeed,6000
;   rapidZspeed,1002
;   minBridgingArea,50
;   bridgingExtraInflation,0.2
;   bridgingExtrusionMultiplier,1
;   bridgingSpeedMultiplier,0.8
;   useFixedBridgingAngle,0
;   fixedBridgingAngle,0
;   applyBridgingToPerimeters,0
;   filamentDiameters,1.75|1.75|1.75|1.75|1.75|1.75
;   filamentPricesPerKg,30|46|46|46|46|46
;   filamentDensities,1.25|1.25|1.25|1.25|1.25|1.25
;   useMinPrintHeight,0
;   minPrintHeight,0
;   useMaxPrintHeight,0
;   maxPrintHeight,50
;   useDiaphragm,0
;   diaphragmLayerInterval,20
;   robustSlicing,1
;   mergeAllIntoSolid,0
;   onlyRetractWhenCrossingOutline,1
;   retractBetweenLayers,1
;   useRetractionMinTravel,0
;   retractionMinTravel,3
;   retractWhileWiping,0
;   onlyWipeOutlines,1
;   avoidCrossingOutline,0
;   maxMovementDetourFactor,3
;   toolChangeRetractionDistance,12
;   toolChangeExtraRestartDistance,-0.5
;   toolChangeRetractionSpeed,600
;   externalThinWallType,0
;   internalThinWallType,1
;   thinWallAllowedOverlapPercentage,10
;   singleExtrusionMinLength,1
;   singleExtrusionMinPrintingWidthPercentage,50
;   singleExtrusionMaxPrintingWidthPercentage,200
;   singleExtrusionEndpointExtension,0.2
;   horizontalSizeCompensation,0
G90
M82
M106 S0
M140 S55
M190 S55
;
; -]H.P.B[- MarshMalloW  
; $VER: StartScript 1.02 (26.12.2019) MarshMalloW
;
; Begin Startcode
;
M117 *Preheat*     	; Preheat
;extruder0_temperature
M104 S205  
M109 S205 
M109 R205 
;
M117 *Auto-leveling*     	; Auto-leveling
M107                   	; Turn layer fan off
G21                    	; Set to metric [change to G20 if you want Imperial]
G90                    	; Force coordinates to be absolute relative to the origin
G28                    	; Home X/Y/Z axis
G29                    	; Auto-leveling (BL-Touch)
;
M117 *Start Clean*     	; Indicate nozzle clean in progress on LCD
G92 E0                 	; Set Extruder to 0 
G1 X0 Y0 F2000         	; Move X and Y to 0 with speed 2000 (mm/min)
G1 Z0.1 F1000          	; Move Z to   0.1 with speed 1000 (mm/min)
G1 X8.0 F2000          	; Move X to   8.0 with speed 2000 (mm/min)
G1 Y60.0 E4.0 F1000.0  	; Move Y to  60 and Extruder with 4.0 with speed 1000 (mm/min)
G1 Y100.0 E8.5 F1000.0 	; Move Y to 100 and Extruder with 8.5 with speed 1000 (mm/min)
G92 E0                 	; Set extruder to 0
G1 X16.0 F3000         	; Move X to 16.0 with speed 3000 (mm/min)
G1 Y60.0 F3000         	; Move Y to 60.0 with speed 3000 (mm/min)
M117 *End Clean*       	; Indicate nozzle clean in progress on LCD
G1 Z5 F3000            	; Move Z to  5.0 with speed 3000 (mm/min)
G1 X20.0 F3000         	; Move X to 20.0 with speed 3000 (mm/min)
G1 Y20.0 F3000         	; Move Y to 20.0 with speed 3000 (mm/min)
; 
M117 *Printing...*     	; Start printing msg on LCD
;
; End Startcode
;
; Begin printing with sliced GCode after here
;
; process A12-04-50 Tevo Tornado
; layer 1, Z = 0.180
M117 INDICATOR-Layer1
M117 DASHBOARD_LAYER_INDICATOR 1
T0
G92 E0.0000
G1 E-4.0000 F3600
; feature skirt
; tool H0.180 W0.350
G1 Z0.300 F1002
G1 X133.535 Y133.234 F6000
G1 Z0.180 F1002
G1 E0.0000 F3600
G92 E0.0000
G1 X134.537 Y132.465 E0.0314 F900
G1 X134.937 Y132.234 E0.0429
G1 X136.088 Y131.757 E0.0739
G1 X136.534 Y131.637 E0.0854
G1 X137.654 Y131.490 E0.1135
G1 X137.885 Y131.475 E0.1193
G1 X162.115 Y131.475 E0.7222
G1 X162.346 Y131.490 E0.7279
G1 X163.466 Y131.637 E0.7561
G1 X163.912 Y131.757 E0.7676
G1 X165.063 Y132.234 E0.7985
G1 X165.463 Y132.465 E0.8100
G1 X166.451 Y133.223 E0.8410
G1 X166.777 Y133.549 E0.8525
G1 X167.535 Y134.537 E0.8835
G1 X167.766 Y134.938 E0.8950
G1 X168.243 Y136.088 E0.9260
G1 X168.362 Y136.534 E0.9375
G1 X168.510 Y137.654 E0.9656
G1 X168.525 Y137.885 E0.9713
G1 X168.525 Y162.115 E1.5743
G1 X168.510 Y162.346 E1.5800
G1 X168.362 Y163.466 E1.6081
G1 X168.243 Y163.912 E1.6196
G1 X167.800 Y164.982 E1.6484
G1 X167.591 Y165.352 E1.6590
G1 X166.814 Y166.409 E1.6916
G1 X166.465 Y166.766 E1.7041
G1 X165.463 Y167.535 E1.7355
G1 X165.062 Y167.766 E1.7470
G1 X163.912 Y168.243 E1.7780
G1 X163.466 Y168.362 E1.7895
G1 X162.346 Y168.510 E1.8176
G1 X162.115 Y168.525 E1.8233
G1 X137.885 Y168.525 E2.4263
G1 X137.654 Y168.510 E2.4320
G1 X136.534 Y168.362 E2.4601
G1 X136.088 Y168.243 E2.4716
G1 X134.938 Y167.766 E2.5026
G1 X134.537 Y167.535 E2.5141
G1 X133.535 Y166.766 E2.5455
G1 X133.186 Y166.409 E2.5580
G1 X132.409 Y165.352 E2.5906
G1 X132.200 Y164.982 E2.6012
G1 X131.757 Y163.912 E2.6300
G1 X131.637 Y163.466 E2.6415
G1 X131.490 Y162.346 E2.6696
G1 X131.475 Y162.115 E2.6753
G1 X131.475 Y137.885 E3.2783
G1 X131.490 Y137.654 E3.2840
G1 X131.637 Y136.534 E3.3121
G1 X131.757 Y136.088 E3.3236
G1 X132.200 Y135.018 E3.3524
G1 X132.409 Y134.648 E3.3630
G1 X133.186 Y133.591 E3.3957
G1 X133.535 Y133.234 E3.4081
G92 E0.0000
G1 E-4.0000 F3600
G1 Z0.480 F1002
G1 X133.768 Y133.497 F6000
G1 Z0.180 F1002
G1 E0.0000 F3600
G92 E0.0000
G1 X134.732 Y132.756 E0.0303 F900
G1 X135.093 Y132.548 E0.0406
G1 X136.201 Y132.089 E0.0705
G1 X136.603 Y131.982 E0.0808
G1 X137.689 Y131.839 E0.1081
G1 X137.896 Y131.825 E0.1132
G1 X162.104 Y131.825 E0.7156
G1 X162.311 Y131.839 E0.7208
G1 X163.397 Y131.982 E0.7480
G1 X163.799 Y132.089 E0.7584
G1 X164.907 Y132.548 E0.7882
G1 X165.268 Y132.756 E0.7986
G1 X166.219 Y133.487 E0.8284
G1 X166.513 Y133.781 E0.8388
G1 X167.244 Y134.732 E0.8686
G1 X167.452 Y135.093 E0.8790
G1 X167.911 Y136.201 E0.9088
G1 X168.018 Y136.603 E0.9192
G1 X168.161 Y137.689 E0.9464
G1 X168.175 Y137.896 E0.9516
G1 X168.175 Y162.104 E1.5540
G1 X168.161 Y162.311 E1.5591
G1 X168.018 Y163.397 E1.5864
G1 X167.911 Y163.799 E1.5967
G1 X167.485 Y164.828 E1.6245
G1 X167.297 Y165.162 E1.6340
G1 X166.547 Y166.182 E1.6655
G1 X166.232 Y166.503 E1.6767
G1 X165.268 Y167.244 E1.7069
G1 X164.907 Y167.452 E1.7173
G1 X163.799 Y167.911 E1.7471
G1 X163.397 Y168.018 E1.7575
G1 X162.311 Y168.161 E1.7847
G1 X162.104 Y168.175 E1.7899
G1 X137.896 Y168.175 E2.3923
G1 X137.689 Y168.161 E2.3974
G1 X136.603 Y168.018 E2.4247
G1 X136.201 Y167.911 E2.4350
G1 X135.093 Y167.452 E2.4649
G1 X134.732 Y167.244 E2.4753
G1 X133.768 Y166.503 E2.5055
G1 X133.453 Y166.182 E2.5167
G1 X132.703 Y165.162 E2.5482
G1 X132.515 Y164.828 E2.5577
G1 X132.089 Y163.799 E2.5854
G1 X131.982 Y163.397 E2.5958
G1 X131.839 Y162.311 E2.6230
G1 X131.825 Y162.104 E2.6282
G1 X131.825 Y137.896 E3.2306
G1 X131.839 Y137.689 E3.2357
G1 X131.982 Y136.603 E3.2630
G1 X132.089 Y136.201 E3.2734
G1 X132.515 Y135.172 E3.3011
G1 X132.703 Y134.838 E3.3106
G1 X133.453 Y133.818 E3.3421
G1 X133.768 Y133.497 E3.3533
G92 E0.0000
G1 E-4.0000 F3600
; feature outer perimeter
G1 Z0.480 F1002
G1 X136.004 Y136.004 F6000
G1 Z0.180 F1002
G1 E0.0000 F3600
G92 E0.0000
G1 X136.588 Y135.555 E0.0183 F450
G1 X137.269 Y135.273 E0.0367
G1 X138.011 Y135.175 E0.0553
G1 X161.989 Y135.175 E0.6519
G1 X162.731 Y135.273 E0.6706
G1 X163.412 Y135.555 E0.6889
G1 X163.996 Y136.004 E0.7072
G1 X164.445 Y136.588 E0.7256
G1 X164.463 Y136.631 E0.7267
G1 X164.727 Y137.269 E0.7439
G1 X164.825 Y138.011 E0.7625
G1 X164.825 Y161.989 E1.3592
G1 X164.727 Y162.731 E1.3778
G1 X164.463 Y163.369 E1.3950
G1 X164.445 Y163.412 E1.3961
G1 X163.996 Y163.996 E1.4145
G1 X163.412 Y164.445 E1.4328
G1 X162.731 Y164.727 E1.4511
G1 X161.989 Y164.825 E1.4698
G1 X138.011 Y164.825 E2.0664
G1 X137.269 Y164.727 E2.0850
G1 X136.588 Y164.445 E2.1034
G1 X136.004 Y163.996 E2.1217
G1 X135.555 Y163.412 E2.1400
G1 X135.537 Y163.369 E2.1412
G1 X135.273 Y162.731 E2.1584
G1 X135.175 Y161.989 E2.1770
G1 X135.175 Y138.011 E2.7736
G1 X135.273 Y137.269 E2.7923
G1 X135.537 Y136.631 E2.8095
G1 X135.555 Y136.588 E2.8106
G1 X136.004 Y136.004 E2.8289
; feature inner perimeter
G1 X136.021 Y136.556 F6000
G92 E0.0000
G1 X136.269 Y136.733 E0.0076 F675
G1 X136.038 Y137.079 E0.0179
G1 X135.786 Y136.944 E0.0250
G1 X135.860 Y136.765 E0.0298
G1 X136.021 Y136.556 E0.0364
G1 X135.688 Y137.182 F6000
G92 E0.0000
G1 X135.961 Y137.264 E0.0071 F675
G1 X135.880 Y137.671 E0.0174
G1 X135.579 Y137.621 E0.0250
G1 X135.614 Y137.361 E0.0316
G1 X135.688 Y137.182 E0.0364
G1 X135.809 Y137.972 F6000
G92 E0.0000
G1 X135.976 Y138.810 E0.0213 F675
G1 X136.452 Y139.543 E0.0430
G1 X137.078 Y139.962 E0.0618
G1 X136.944 Y140.214 E0.0689
G1 X136.395 Y139.986 E0.0836
G1 X136.395 Y160.014 E0.5820
G1 X136.944 Y159.786 E0.5968
G1 X137.078 Y160.038 E0.6039
G1 X136.455 Y160.455 E0.6225
G1 X135.996 Y161.141 E0.6431
G1 X135.807 Y162.029 E0.6657
G1 X135.525 Y162.000 E0.6727
G1 X135.525 Y138.000 E1.2699
G1 X135.809 Y137.972 E1.2770
G1 X136.733 Y136.269 F6000
G92 E0.0000
G1 X136.556 Y136.021 E0.0076 F675
G1 X136.765 Y135.860 E0.0141
G1 X136.944 Y135.786 E0.0190
G1 X137.078 Y136.038 E0.0261
G1 X136.733 Y136.269 E0.0364
G1 X137.264 Y135.961 F6000
G92 E0.0000
G1 X137.182 Y135.688 E0.0071 F675
G1 X137.361 Y135.614 E0.0119
G1 X137.621 Y135.579 E0.0185
G1 X137.671 Y135.880 E0.0261
G1 X137.264 Y135.961 E0.0364
G1 X137.972 Y135.809 F6000
G92 E0.0000
G1 X138.000 Y135.525 E0.0071 F675
G1 X162.000 Y135.525 E0.6043
G1 X162.028 Y135.809 E0.6114
G1 X161.164 Y135.981 E0.6333
G1 X160.455 Y136.455 E0.6545
G1 X160.038 Y137.079 E0.6732
G1 X159.786 Y136.944 E0.6803
G1 X160.013 Y136.395 E0.6951
G1 X158.683 Y136.395 E0.7282
G1 X158.498 Y137.083 E0.7459
G1 X157.306 Y136.395 E0.7802
G1 X155.006 Y136.395 E0.8374
