; G-Code generated by Simplify3D(R) Version 4.1.2
;
;
;
;
; Oct 18, 2022 at 10:29:22 PM
; Settings Summary
;   processName,A13-04
;   applyToModels,CaseWithLayers_LayerForUseFan
;   profileName,A13-04-25 Tevo Tornado
;   profileVersion,2022-10-18 18:26:25
;   baseProfile,Creality CR-10(2)
;   printMaterial,PLA
;   printQuality,Medium
;   printExtruders,
;   extruderName,Primary Extruder
;   extruderToolheadNumber,0
;   extruderDiameter,0.4
;   extruderAutoWidth,0
;   extruderWidth,0.35
;   extrusionMultiplier,0.95
;   extruderUseRetract,1
;   extruderRetractionDistance,4
;   extruderExtraRestartDistance,0
;   extruderRetractionZLift,0.3
;   extruderRetractionSpeed,3600
;   extruderUseCoasting,0
;   extruderCoastingDistance,0.5
;   extruderUseWipe,0
;   extruderWipeDistance,5
;   primaryExtruder,0
;   layerHeight,0.15
;   topSolidLayers,4
;   bottomSolidLayers,3
;   perimeterOutlines,3
;   printPerimetersInsideOut,0
;   startPointOption,2
;   startPointOriginX,0
;   startPointOriginY,300
;   sequentialIslands,0
;   spiralVaseMode,0
;   firstLayerHeightPercentage,120
;   firstLayerWidthPercentage,100
;   firstLayerUnderspeed,0.5
;   useRaft,0
;   raftExtruder,0
;   raftTopLayers,3
;   raftBaseLayers,2
;   raftOffset,3
;   raftSeparationDistance,0.14
;   raftTopInfill,100
;   aboveRaftSpeedMultiplier,0.3
;   useSkirt,1
;   skirtExtruder,0
;   skirtLayers,1
;   skirtOutlines,2
;   skirtOffset,3
;   usePrimePillar,0
;   primePillarExtruder,999
;   primePillarWidth,12
;   primePillarLocation,7
;   primePillarSpeedMultiplier,1
;   useOozeShield,0
;   oozeShieldExtruder,999
;   oozeShieldOffset,2
;   oozeShieldOutlines,1
;   oozeShieldSidewallShape,1
;   oozeShieldSidewallAngle,30
;   oozeShieldSpeedMultiplier,1
;   infillExtruder,0
;   internalInfillPattern,Rectilinear
;   externalInfillPattern,Rectilinear
;   infillPercentage,25
;   outlineOverlapPercentage,15
;   infillExtrusionWidthPercentage,100
;   minInfillLength,5
;   infillLayerInterval,1
;   internalInfillAngles,45,-45
;   overlapInternalInfillAngles,0
;   externalInfillAngles,45,-45
;   generateSupport,0
;   supportExtruder,0
;   supportInfillPercentage,30
;   supportExtraInflation,0
;   supportBaseLayers,0
;   denseSupportExtruder,0
;   denseSupportLayers,0
;   denseSupportInfillPercentage,70
;   supportLayerInterval,1
;   supportHorizontalPartOffset,0.4
;   supportUpperSeparationLayers,1
;   supportLowerSeparationLayers,1
;   supportType,0
;   supportGridSpacing,4.5
;   maxOverhangAngle,45
;   supportAngles,0
;   temperatureName,Primary Extruder,Heated Bed
;   temperatureNumber,0,0
;   temperatureSetpointCount,2,2
;   temperatureSetpointLayers,1,2,1,2
;   temperatureSetpointTemperatures,205,200,55,50
;   temperatureStabilizeAtStartup,1,1
;   temperatureHeatedBed,0,1
;   fanLayers,1,2
;   fanSpeeds,0,100
;   blipFanToFullPower,0
;   adjustSpeedForCooling,1
;   minSpeedLayerTime,15
;   minCoolingSpeedSlowdown,20
;   increaseFanForCooling,1
;   minFanLayerTime,25
;   maxCoolingFanSpeed,100
;   increaseFanForBridging,1
;   bridgingFanSpeed,100
;   use5D,1
;   relativeEdistances,0
;   allowEaxisZeroing,1
;   independentExtruderAxes,0
;   includeM10123,0
;   stickySupport,1
;   applyToolheadOffsets,0
;   gcodeXoffset,0
;   gcodeYoffset,0
;   gcodeZoffset,0
;   overrideMachineDefinition,1
;   machineTypeOverride,0
;   strokeXoverride,300
;   strokeYoverride,300
;   strokeZoverride,400
;   originOffsetXoverride,0
;   originOffsetYoverride,0
;   originOffsetZoverride,0
;   homeXdirOverride,-1
;   homeYdirOverride,-1
;   homeZdirOverride,-1
;   flipXoverride,1
;   flipYoverride,-1
;   flipZoverride,1
;   toolheadOffsets,0,0|0,0|0,0|0,0|0,0|0,0
;   overrideFirmwareConfiguration,1
;   firmwareTypeOverride,RepRap (Marlin/Repetier/Sprinter)
;   GPXconfigOverride,r2
;   baudRateOverride,250000
;   overridePrinterModels,1
;   printerModelsOverride
;   startingGcode,;,; -]H.P.B[- MarshMalloW  ,; $VER: StartScript 1.02 (26.12.2019) MarshMalloW,;,; Begin Startcode,;,M117 *Preheat*     	; Preheat,;extruder0_temperature,M104 S[extruder0_temperature]  ,M109 S[extruder0_temperature] ,M109 R[extruder0_temperature] ,;,M117 *Auto-leveling*     	; Auto-leveling,M107                   	; Turn layer fan off,G21                    	; Set to metric [change to G20 if you want Imperial],G90                    	; Force coordinates to be absolute relative to the origin,G28                    	; Home X/Y/Z axis,G29                    	; Auto-leveling (BL-Touch),;,M117 *Start Clean*     	; Indicate nozzle clean in progress on LCD,G92 E0                 	; Set Extruder to 0 ,G1 X0 Y0 F2000         	; Move X and Y to 0 with speed 2000 (mm/min),G1 Z0.1 F1000          	; Move Z to   0.1 with speed 1000 (mm/min),G1 X8.0 F2000          	; Move X to   8.0 with speed 2000 (mm/min),G1 Y60.0 E4.0 F1000.0  	; Move Y to  60 and Extruder with 4.0 with speed 1000 (mm/min),G1 Y100.0 E8.5 F1000.0 	; Move Y to 100 and Extruder with 8.5 with speed 1000 (mm/min),G92 E0                 	; Set extruder to 0,G1 X16.0 F3000         	; Move X to 16.0 with speed 3000 (mm/min),G1 Y60.0 F3000         	; Move Y to 60.0 with speed 3000 (mm/min),M117 *End Clean*       	; Indicate nozzle clean in progress on LCD,G1 Z5 F3000            	; Move Z to  5.0 with speed 3000 (mm/min),G1 X20.0 F3000         	; Move X to 20.0 with speed 3000 (mm/min),G1 Y20.0 F3000         	; Move Y to 20.0 with speed 3000 (mm/min),; ,M117 *Printing...*     	; Start printing msg on LCD,;,; End Startcode,;,; Begin printing with sliced GCode after here,;
;   layerChangeGcode,
;   retractionGcode,
;   toolChangeGcode,
;   endingGcode,;,; init 181010,;,;M107 			; Fan off,;G1 E-1 F300 			; Retract the filament a bit before lifting the nozzle,;M104 S0 			; Turn off extruder,;M140 S0 			; Turn off bed,;G91			; Relative positioning,;G28 X0 Y0 			; Move X/Y to min endstops so the head is out of teh way,;M84 			; Disable motors,;G90 			; Absolute positioning,;M117 Print ready...,,;,; // From Cura 181010,; // End_gcode,G92 E0			; Zero the extruded length,;G1 E-30 F300		; Retract E -30,M106 S0			; Turn off cooling fan,M104 S0			; Turn off temperature,M140 S0		     	; Turn off bed,G91			; Relative positioning,G1 E-1 F300			; Retract the filament a bit before lifting the nozzle to release some of the pressure,G1 Z+20 E-5 X-20 Y-20 F7200	; Move Z up a bit and retract filament even more,G1 X0 Y150 F10000		; Move right min,M107			; Turn off layer fan,M84			; Disable motors,G90			; Absolute positioning,M117 *The-End* 		; End msg,;,
;   exportFileFormat,gcode
;   celebration,0
;   celebrationSong,Star Wars
;   postProcessing,D:\S3D_Thumbs\S3D_Thumbs.exe f="[output_filepath]" x=600 y=110 w=953 lw=400 lh=300 sw=32 sh=32 d=Y
;   defaultSpeed,1800
;   outlineUnderspeed,0.5
;   solidInfillUnderspeed,0.8
;   supportUnderspeed,0.8
;   rapidXYspeed,6000
;   rapidZspeed,1002
;   minBridgingArea,50
;   bridgingExtraInflation,0.2
;   bridgingExtrusionMultiplier,1
;   bridgingSpeedMultiplier,0.8
;   useFixedBridgingAngle,0
;   fixedBridgingAngle,0
;   applyBridgingToPerimeters,0
;   filamentDiameters,1.75|1.75|1.75|1.75|1.75|1.75
;   filamentPricesPerKg,30|46|46|46|46|46
;   filamentDensities,1.25|1.25|1.25|1.25|1.25|1.25
;   useMinPrintHeight,0
;   minPrintHeight,0
;   useMaxPrintHeight,0
;   maxPrintHeight,50
;   useDiaphragm,0
;   diaphragmLayerInterval,20
;   robustSlicing,1
;   mergeAllIntoSolid,0
;   onlyRetractWhenCrossingOutline,1
;   retractBetweenLayers,1
;   useRetractionMinTravel,0
;   retractionMinTravel,3
;   retractWhileWiping,0
;   onlyWipeOutlines,1
;   avoidCrossingOutline,0
;   maxMovementDetourFactor,3
;   toolChangeRetractionDistance,12
;   toolChangeExtraRestartDistance,-0.5
;   toolChangeRetractionSpeed,600
;   externalThinWallType,0
;   internalThinWallType,1
;   thinWallAllowedOverlapPercentage,10
;   singleExtrusionMinLength,1
;   singleExtrusionMinPrintingWidthPercentage,50
;   singleExtrusionMaxPrintingWidthPercentage,200
;   singleExtrusionEndpointExtension,0.2
;   horizontalSizeCompensation,0
G90
M82
M106 S0
M140 S55
M190 S55
;
; -]H.P.B[- MarshMalloW  
; $VER: StartScript 1.02 (26.12.2019) MarshMalloW
;
; Begin Startcode
;
M117 *Preheat*     	; Preheat
;extruder0_temperature
M104 S205  
M109 S205 
M109 R205 
;
M117 *Auto-leveling*     	; Auto-leveling
M107                   	; Turn layer fan off
G21                    	; Set to metric [change to G20 if you want Imperial]
G90                    	; Force coordinates to be absolute relative to the origin
G28                    	; Home X/Y/Z axis
G29                    	; Auto-leveling (BL-Touch)
;
M117 *Start Clean*     	; Indicate nozzle clean in progress on LCD
G92 E0                 	; Set Extruder to 0 
G1 X0 Y0 F2000         	; Move X and Y to 0 with speed 2000 (mm/min)
G1 Z0.1 F1000          	; Move Z to   0.1 with speed 1000 (mm/min)
G1 X8.0 F2000          	; Move X to   8.0 with speed 2000 (mm/min)
G1 Y60.0 E4.0 F1000.0  	; Move Y to  60 and Extruder with 4.0 with speed 1000 (mm/min)
G1 Y100.0 E8.5 F1000.0 	; Move Y to 100 and Extruder with 8.5 with speed 1000 (mm/min)
G92 E0                 	; Set extruder to 0
G1 X16.0 F3000         	; Move X to 16.0 with speed 3000 (mm/min)
G1 Y60.0 F3000         	; Move Y to 60.0 with speed 3000 (mm/min)
M117 *End Clean*       	; Indicate nozzle clean in progress on LCD
G1 Z5 F3000            	; Move Z to  5.0 with speed 3000 (mm/min)
G1 X20.0 F3000         	; Move X to 20.0 with speed 3000 (mm/min)
G1 Y20.0 F3000         	; Move Y to 20.0 with speed 3000 (mm/min)
; 
M117 *Printing...*     	; Start printing msg on LCD
;
; End Startcode
;
; Begin printing with sliced GCode after here
;
; process A13-04
; layer 1, Z = 0.180
T0
G92 E0.0000
G1 E-4.0000 F3600
; feature skirt
; tool H0.180 W0.350
G1 Z0.300 F1002
G1 X100.001 Y113.820 F6000
G1 Z0.180 F1002
G1 E0.0000 F3600
G92 E0.0000
G1 X100.140 Y113.713 E0.0044 F900
G1 X100.640 Y113.367 E0.0195
G1 X100.827 Y113.253 E0.0249
G1 X101.568 Y112.866 E0.0457
G1 X101.767 Y112.777 E0.0512
G1 X102.337 Y112.563 E0.0663
G1 X102.504 Y112.510 E0.0707
G1 X103.114 Y112.349 E0.0864
G1 X103.372 Y112.301 E0.0929
G1 X104.450 Y112.182 E0.1199
G1 X104.712 Y112.173 E0.1264
G1 X105.386 Y112.199 E0.1432
G1 X105.647 Y112.229 E0.1497
G1 X106.713 Y112.431 E0.1767
G1 X106.966 Y112.499 E0.1833
G1 X107.582 Y112.715 E0.1995
G1 X107.783 Y112.800 E0.2049
G1 X108.532 Y113.172 E0.2257
G1 X108.722 Y113.281 E0.2312
G1 X109.247 Y113.629 E0.2469
G1 X109.422 Y113.761 E0.2523
G1 X109.927 Y114.194 E0.2688
G1 X190.062 Y114.194 E2.2628
G1 X190.175 Y114.091 E2.2666
G1 X190.630 Y113.720 E2.2812
G1 X190.771 Y113.617 E2.2856
G1 X191.260 Y113.293 E2.3002
G1 X191.411 Y113.204 E2.3045
G1 X191.930 Y112.930 E2.3191
G1 X192.088 Y112.856 E2.3235
G1 X192.632 Y112.635 E2.3381
G1 X192.797 Y112.577 E2.3424
G1 X193.359 Y112.411 E2.3570
G1 X193.529 Y112.370 E2.3614
G1 X194.106 Y112.260 E2.3760
G1 X194.279 Y112.236 E2.3803
G1 X194.863 Y112.184 E2.3949
G1 X195.038 Y112.177 E2.3993
G1 X195.625 Y112.184 E2.4139
G1 X195.799 Y112.194 E2.4182
G1 X196.383 Y112.258 E2.4328
G1 X196.555 Y112.286 E2.4372
G1 X197.129 Y112.408 E2.4518
G1 X197.298 Y112.453 E2.4561
G1 X197.857 Y112.631 E2.4707
G1 X198.021 Y112.692 E2.4751
G1 X198.560 Y112.925 E2.4897
G1 X198.717 Y113.002 E2.4941
G1 X199.230 Y113.287 E2.5087
G1 X199.378 Y113.379 E2.5130
G1 X199.860 Y113.713 E2.5276
G1 X199.999 Y113.820 E2.5320
G1 X200.446 Y114.200 E2.5466
G1 X200.573 Y114.320 E2.5509
G1 X200.995 Y114.759 E2.5660
G1 X201.137 Y114.925 E2.5715
G1 X201.637 Y115.595 E2.5923
G1 X201.757 Y115.778 E2.5977
G1 X202.059 Y116.306 E2.6129
G1 X202.138 Y116.462 E2.6172
G1 X202.376 Y116.998 E2.6318
G1 X202.439 Y117.162 E2.6362
G1 X202.624 Y117.718 E2.6508
G1 X202.670 Y117.887 E2.6551
G1 X202.799 Y118.460 E2.6697
G1 X202.828 Y118.632 E2.6741
G1 X202.899 Y119.214 E2.6887
G1 X202.912 Y119.389 E2.6930
G1 X202.925 Y119.997 E2.7082
G1 X202.916 Y120.216 E2.7136
G1 X202.831 Y121.047 E2.7344
G1 X202.795 Y121.263 E2.7399
G1 X202.659 Y121.856 E2.7550
G1 X202.611 Y122.025 E2.7594
G1 X202.423 Y122.580 E2.7740
G1 X202.359 Y122.743 E2.7783
G1 X202.118 Y123.278 E2.7929
G1 X202.038 Y123.433 E2.7973
G1 X201.744 Y123.941 E2.8119
G1 X201.649 Y124.088 E2.8162
G1 X201.307 Y124.565 E2.8308
G1 X201.198 Y124.701 E2.8352
G1 X200.810 Y125.141 E2.8498
G1 X200.688 Y125.267 E2.8541
G1 X200.258 Y125.666 E2.8687
G1 X200.124 Y125.779 E2.8731
G1 X199.640 Y126.147 E2.8882
G1 X199.458 Y126.268 E2.8936
G1 X198.716 Y126.699 E2.9150
G1 X198.480 Y126.814 E2.9215
G1 X197.775 Y127.092 E2.9404
G1 X197.775 Y172.902 E4.0803
G1 X197.969 Y172.971 E4.0854
G1 X198.531 Y173.211 E4.1006
G1 X198.688 Y173.287 E4.1049
G1 X199.223 Y173.581 E4.1201
G1 X199.408 Y173.699 E4.1256
G1 X200.086 Y174.191 E4.1464
G1 X200.256 Y174.330 E4.1519
G1 X200.701 Y174.746 E4.1670
G1 X200.823 Y174.872 E4.1714
G1 X201.211 Y175.315 E4.1860
G1 X201.320 Y175.452 E4.1904
G1 X201.662 Y175.931 E4.2050
G1 X201.757 Y176.078 E4.2094
G1 X202.049 Y176.588 E4.2240
G1 X202.129 Y176.745 E4.2284
G1 X202.378 Y177.301 E4.2436
G1 X202.455 Y177.506 E4.2490
G1 X202.701 Y178.308 E4.2699
G1 X202.752 Y178.521 E4.2753
G1 X202.856 Y179.122 E4.2905
G1 X202.878 Y179.296 E4.2949
G1 X202.921 Y179.882 E4.3095
G1 X202.925 Y180.058 E4.3139
G1 X202.909 Y180.668 E4.3291
G1 X202.890 Y180.886 E4.3345
G1 X202.760 Y181.736 E4.3559
G1 X202.702 Y181.993 E4.3625
G1 X202.441 Y182.835 E4.3844
G1 X202.345 Y183.080 E4.3910
G1 X201.971 Y183.855 E4.4124
G1 X201.864 Y184.046 E4.4178
G1 X201.533 Y184.558 E4.4330
G1 X201.431 Y184.701 E4.4373
G1 X201.064 Y185.161 E4.4520
G1 X200.948 Y185.292 E4.4563
G1 X200.538 Y185.713 E4.4710
G1 X200.409 Y185.833 E4.4753
G1 X199.942 Y186.225 E4.4905
G1 X199.766 Y186.355 E4.4960
G1 X199.063 Y186.811 E4.5168
G1 X198.871 Y186.918 E4.5223
G1 X198.302 Y187.193 E4.5380
G1 X198.100 Y187.276 E4.5435
G1 X197.306 Y187.544 E4.5643
G1 X197.094 Y187.601 E4.5698
G1 X196.475 Y187.728 E4.5855
G1 X196.258 Y187.758 E4.5910
G1 X195.400 Y187.825 E4.6123
G1 X195.137 Y187.825 E4.6189
G1 X194.279 Y187.763 E4.6403
G1 X194.062 Y187.734 E4.6457
G1 X193.464 Y187.615 E4.6609
G1 X193.294 Y187.572 E4.6653
G1 X192.710 Y187.394 E4.6805
G1 X192.505 Y187.317 E4.6859
G1 X191.740 Y186.975 E4.7068
G1 X191.546 Y186.873 E4.7122
G1 X191.005 Y186.546 E4.7280
G1 X190.825 Y186.421 E4.7334
G1 X190.222 Y185.944 E4.7526
G1 X109.781 Y185.944 E6.7541
G1 X109.726 Y185.994 E6.7560
G1 X109.591 Y186.106 E6.7604
G1 X109.121 Y186.459 E6.7750
G1 X108.976 Y186.557 E6.7794
G1 X108.454 Y186.873 E6.7945
G1 X108.260 Y186.975 E6.8000
G1 X107.495 Y187.317 E6.8208
G1 X107.290 Y187.394 E6.8263
G1 X106.706 Y187.572 E6.8415
G1 X106.536 Y187.615 E6.8458
G1 X105.959 Y187.730 E6.8605
G1 X105.786 Y187.755 E6.8648
G1 X105.200 Y187.812 E6.8795
G1 X105.025 Y187.820 E6.8838
G1 X104.437 Y187.819 E6.8985
G1 X104.262 Y187.810 E6.9028
G1 X103.677 Y187.750 E6.9175
G1 X103.504 Y187.724 E6.9218
G1 X102.927 Y187.606 E6.9365
G1 X102.758 Y187.562 E6.9408
G1 X102.196 Y187.388 E6.9555
G1 X102.031 Y187.328 E6.9598
G1 X101.490 Y187.099 E6.9745
G1 X101.332 Y187.022 E6.9788
G1 X100.816 Y186.740 E6.9934
G1 X100.666 Y186.649 E6.9978
G1 X100.181 Y186.317 E7.0124
G1 X100.041 Y186.211 E7.0168
G1 X99.591 Y185.833 E7.0314
G1 X99.462 Y185.713 E7.0358
G1 X99.052 Y185.292 E7.0504
G1 X98.936 Y185.161 E7.0548
G1 X98.569 Y184.701 E7.0694
G1 X98.467 Y184.558 E7.0738
G1 X98.148 Y184.064 E7.0884
G1 X98.060 Y183.913 E7.0928
G1 X97.792 Y183.389 E7.1074
G1 X97.719 Y183.229 E7.1118
G1 X97.504 Y182.682 E7.1264
G1 X97.448 Y182.516 E7.1308
G1 X97.283 Y181.929 E7.1460
G1 X97.236 Y181.715 E7.1514
G1 X97.110 Y180.886 E7.1723
G1 X97.091 Y180.668 E7.1777
G1 X97.075 Y180.058 E7.1929
G1 X97.079 Y179.882 E7.1973
G1 X97.124 Y179.274 E7.2125
G1 X97.153 Y179.057 E7.2179
G1 X97.318 Y178.235 E7.2388
G1 X97.374 Y178.023 E7.2442
G1 X97.567 Y177.445 E7.2594
G1 X97.631 Y177.281 E7.2638
G1 X97.871 Y176.745 E7.2784
G1 X97.951 Y176.588 E7.2828
G1 X98.243 Y176.078 E7.2974
G1 X98.338 Y175.931 E7.3018
G1 X98.680 Y175.452 E7.3164
G1 X98.789 Y175.315 E7.3207
G1 X99.177 Y174.872 E7.3354
G1 X99.299 Y174.746 E7.3397
G1 X99.728 Y174.345 E7.3544
