; G-Code generated by Simplify3D(R) Version 4.1.2
;
;
;
;
; Oct 18, 2022 at 6:26:41 PM
; Settings Summary
;   processName,A12-04-50 Tevo Tornado
;   applyToModels,CaseWithLayers_LayerForUseFan
;   profileName,A13-04-10 Tevo Tornado
;   profileVersion,2022-10-18 18:24:57
;   baseProfile,Creality CR-10(2)
;   printMaterial,PLA
;   printQuality,Medium
;   printExtruders,
;   extruderName,Primary Extruder
;   extruderToolheadNumber,0
;   extruderDiameter,0.4
;   extruderAutoWidth,0
;   extruderWidth,0.35
;   extrusionMultiplier,0.95
;   extruderUseRetract,1
;   extruderRetractionDistance,4
;   extruderExtraRestartDistance,0
;   extruderRetractionZLift,0.3
;   extruderRetractionSpeed,3600
;   extruderUseCoasting,0
;   extruderCoastingDistance,0.5
;   extruderUseWipe,0
;   extruderWipeDistance,5
;   primaryExtruder,0
;   layerHeight,0.15
;   topSolidLayers,4
;   bottomSolidLayers,3
;   perimeterOutlines,3
;   printPerimetersInsideOut,0
;   startPointOption,2
;   startPointOriginX,0
;   startPointOriginY,300
;   sequentialIslands,0
;   spiralVaseMode,0
;   firstLayerHeightPercentage,120
;   firstLayerWidthPercentage,100
;   firstLayerUnderspeed,0.5
;   useRaft,0
;   raftExtruder,0
;   raftTopLayers,3
;   raftBaseLayers,2
;   raftOffset,3
;   raftSeparationDistance,0.14
;   raftTopInfill,100
;   aboveRaftSpeedMultiplier,0.3
;   useSkirt,1
;   skirtExtruder,0
;   skirtLayers,1
;   skirtOutlines,2
;   skirtOffset,3
;   usePrimePillar,0
;   primePillarExtruder,999
;   primePillarWidth,12
;   primePillarLocation,7
;   primePillarSpeedMultiplier,1
;   useOozeShield,0
;   oozeShieldExtruder,999
;   oozeShieldOffset,2
;   oozeShieldOutlines,1
;   oozeShieldSidewallShape,1
;   oozeShieldSidewallAngle,30
;   oozeShieldSpeedMultiplier,1
;   infillExtruder,0
;   internalInfillPattern,Rectilinear
;   externalInfillPattern,Rectilinear
;   infillPercentage,10
;   outlineOverlapPercentage,15
;   infillExtrusionWidthPercentage,100
;   minInfillLength,5
;   infillLayerInterval,1
;   internalInfillAngles,45,-45
;   overlapInternalInfillAngles,0
;   externalInfillAngles,45,-45
;   generateSupport,0
;   supportExtruder,0
;   supportInfillPercentage,30
;   supportExtraInflation,0
;   supportBaseLayers,0
;   denseSupportExtruder,0
;   denseSupportLayers,0
;   denseSupportInfillPercentage,70
;   supportLayerInterval,1
;   supportHorizontalPartOffset,0.4
;   supportUpperSeparationLayers,1
;   supportLowerSeparationLayers,1
;   supportType,0
;   supportGridSpacing,4.5
;   maxOverhangAngle,45
;   supportAngles,0
;   temperatureName,Primary Extruder,Heated Bed
;   temperatureNumber,0,0
;   temperatureSetpointCount,2,2
;   temperatureSetpointLayers,1,2,1,2
;   temperatureSetpointTemperatures,205,200,55,50
;   temperatureStabilizeAtStartup,1,1
;   temperatureHeatedBed,0,1
;   fanLayers,1,2
;   fanSpeeds,0,100
;   blipFanToFullPower,0
;   adjustSpeedForCooling,1
;   minSpeedLayerTime,15
;   minCoolingSpeedSlowdown,20
;   increaseFanForCooling,1
;   minFanLayerTime,25
;   maxCoolingFanSpeed,100
;   increaseFanForBridging,1
;   bridgingFanSpeed,100
;   use5D,1
;   relativeEdistances,0
;   allowEaxisZeroing,1
;   independentExtruderAxes,0
;   includeM10123,0
;   stickySupport,1
;   applyToolheadOffsets,0
;   gcodeXoffset,0
;   gcodeYoffset,0
;   gcodeZoffset,0
;   overrideMachineDefinition,1
;   machineTypeOverride,0
;   strokeXoverride,300
;   strokeYoverride,300
;   strokeZoverride,400
;   originOffsetXoverride,0
;   originOffsetYoverride,0
;   originOffsetZoverride,0
;   homeXdirOverride,-1
;   homeYdirOverride,-1
;   homeZdirOverride,-1
;   flipXoverride,1
;   flipYoverride,-1
;   flipZoverride,1
;   toolheadOffsets,0,0|0,0|0,0|0,0|0,0|0,0
;   overrideFirmwareConfiguration,1
;   firmwareTypeOverride,RepRap (Marlin/Repetier/Sprinter)
;   GPXconfigOverride,r2
;   baudRateOverride,250000
;   overridePrinterModels,1
;   printerModelsOverride
;   startingGcode,;,; -]H.P.B[- MarshMalloW  ,; $VER: StartScript 1.02 (26.12.2019) MarshMalloW,;,; Begin Startcode,;,M117 *Preheat*     	; Preheat,;extruder0_temperature,M104 S[extruder0_temperature]  ,M109 S[extruder0_temperature] ,M109 R[extruder0_temperature] ,;,M117 *Auto-leveling*     	; Auto-leveling,M107                   	; Turn layer fan off,G21                    	; Set to metric [change to G20 if you want Imperial],G90                    	; Force coordinates to be absolute relative to the origin,G28                    	; Home X/Y/Z axis,G29                    	; Auto-leveling (BL-Touch),;,M117 *Start Clean*     	; Indicate nozzle clean in progress on LCD,G92 E0                 	; Set Extruder to 0 ,G1 X0 Y0 F2000         	; Move X and Y to 0 with speed 2000 (mm/min),G1 Z0.1 F1000          	; Move Z to   0.1 with speed 1000 (mm/min),G1 X8.0 F2000          	; Move X to   8.0 with speed 2000 (mm/min),G1 Y60.0 E4.0 F1000.0  	; Move Y to  60 and Extruder with 4.0 with speed 1000 (mm/min),G1 Y100.0 E8.5 F1000.0 	; Move Y to 100 and Extruder with 8.5 with speed 1000 (mm/min),G92 E0                 	; Set extruder to 0,G1 X16.0 F3000         	; Move X to 16.0 with speed 3000 (mm/min),G1 Y60.0 F3000         	; Move Y to 60.0 with speed 3000 (mm/min),M117 *End Clean*       	; Indicate nozzle clean in progress on LCD,G1 Z5 F3000            	; Move Z to  5.0 with speed 3000 (mm/min),G1 X20.0 F3000         	; Move X to 20.0 with speed 3000 (mm/min),G1 Y20.0 F3000         	; Move Y to 20.0 with speed 3000 (mm/min),; ,M117 *Printing...*     	; Start printing msg on LCD,;,; End Startcode,;,; Begin printing with sliced GCode after here,;
;   layerChangeGcode,
;   retractionGcode,
;   toolChangeGcode,
;   endingGcode,;,; init 181010,;,;M107 			; Fan off,;G1 E-1 F300 			; Retract the filament a bit before lifting the nozzle,;M104 S0 			; Turn off extruder,;M140 S0 			; Turn off bed,;G91			; Relative positioning,;G28 X0 Y0 			; Move X/Y to min endstops so the head is out of teh way,;M84 			; Disable motors,;G90 			; Absolute positioning,;M117 Print ready...,,;,; // From Cura 181010,; // End_gcode,G92 E0			; Zero the extruded length,;G1 E-30 F300		; Retract E -30,M106 S0			; Turn off cooling fan,M104 S0			; Turn off temperature,M140 S0		     	; Turn off bed,G91			; Relative positioning,G1 E-1 F300			; Retract the filament a bit before lifting the nozzle to release some of the pressure,G1 Z+20 E-5 X-20 Y-20 F7200	; Move Z up a bit and retract filament even more,G1 X0 Y150 F10000		; Move right min,M107			; Turn off layer fan,M84			; Disable motors,G90			; Absolute positioning,M117 *The-End* 		; End msg,;,
;   exportFileFormat,gcode
;   celebration,0
;   celebrationSong,Star Wars
;   postProcessing,D:\S3D_Thumbs\S3D_Thumbs.exe f="[output_filepath]" x=600 y=110 w=953 lw=400 lh=300 sw=32 sh=32 d=Y
;   defaultSpeed,1800
;   outlineUnderspeed,0.5
;   solidInfillUnderspeed,0.8
;   supportUnderspeed,0.8
;   rapidXYspeed,6000
;   rapidZspeed,1002
;   minBridgingArea,50
;   bridgingExtraInflation,0.2
;   bridgingExtrusionMultiplier,1
;   bridgingSpeedMultiplier,0.8
;   useFixedBridgingAngle,0
;   fixedBridgingAngle,0
;   applyBridgingToPerimeters,0
;   filamentDiameters,1.75|1.75|1.75|1.75|1.75|1.75
;   filamentPricesPerKg,30|46|46|46|46|46
;   filamentDensities,1.25|1.25|1.25|1.25|1.25|1.25
;   useMinPrintHeight,0
;   minPrintHeight,0
;   useMaxPrintHeight,0
;   maxPrintHeight,50
;   useDiaphragm,0
;   diaphragmLayerInterval,20
;   robustSlicing,1
;   mergeAllIntoSolid,0
;   onlyRetractWhenCrossingOutline,1
;   retractBetweenLayers,1
;   useRetractionMinTravel,0
;   retractionMinTravel,3
;   retractWhileWiping,0
;   onlyWipeOutlines,1
;   avoidCrossingOutline,0
;   maxMovementDetourFactor,3
;   toolChangeRetractionDistance,12
;   toolChangeExtraRestartDistance,-0.5
;   toolChangeRetractionSpeed,600
;   externalThinWallType,0
;   internalThinWallType,1
;   thinWallAllowedOverlapPercentage,10
;   singleExtrusionMinLength,1
;   singleExtrusionMinPrintingWidthPercentage,50
;   singleExtrusionMaxPrintingWidthPercentage,200
;   singleExtrusionEndpointExtension,0.2
;   horizontalSizeCompensation,0
G90
M82
M106 S0
M140 S55
M190 S55
;
; -]H.P.B[- MarshMalloW  
; $VER: StartScript 1.02 (26.12.2019) MarshMalloW
;
; Begin Startcode
;
M117 *Preheat*     	; Preheat
;extruder0_temperature
M104 S205  
M109 S205 
M109 R205 
;
M117 *Auto-leveling*     	; Auto-leveling
M107                   	; Turn layer fan off
G21                    	; Set to metric [change to G20 if you want Imperial]
G90                    	; Force coordinates to be absolute relative to the origin
G28                    	; Home X/Y/Z axis
G29                    	; Auto-leveling (BL-Touch)
;
M117 *Start Clean*     	; Indicate nozzle clean in progress on LCD
G92 E0                 	; Set Extruder to 0 
G1 X0 Y0 F2000         	; Move X and Y to 0 with speed 2000 (mm/min)
G1 Z0.1 F1000          	; Move Z to   0.1 with speed 1000 (mm/min)
G1 X8.0 F2000          	; Move X to   8.0 with speed 2000 (mm/min)
G1 Y60.0 E4.0 F1000.0  	; Move Y to  60 and Extruder with 4.0 with speed 1000 (mm/min)
G1 Y100.0 E8.5 F1000.0 	; Move Y to 100 and Extruder with 8.5 with speed 1000 (mm/min)
G92 E0                 	; Set extruder to 0
G1 X16.0 F3000         	; Move X to 16.0 with speed 3000 (mm/min)
G1 Y60.0 F3000         	; Move Y to 60.0 with speed 3000 (mm/min)
M117 *End Clean*       	; Indicate nozzle clean in progress on LCD
G1 Z5 F3000            	; Move Z to  5.0 with speed 3000 (mm/min)
G1 X20.0 F3000         	; Move X to 20.0 with speed 3000 (mm/min)
G1 Y20.0 F3000         	; Move Y to 20.0 with speed 3000 (mm/min)
; 
M117 *Printing...*     	; Start printing msg on LCD
;
; End Startcode
;
; Begin printing with sliced GCode after here
;
; process A12-04-50 Tevo Tornado
; layer 1, Z = 0.180
M117 INDICATOR-Layer1
M117 DASHBOARD_LAYER_INDICATOR 1
T0
G92 E0.0000
G1 E-4.0000 F3600
; feature skirt
; tool H0.180 W0.350
G1 Z0.300 F1002
G1 X99.744 Y114.096 F6000
G1 Z0.180 F1002
G1 E0.0000 F3600
G92 E0.0000
G1 X99.912 Y113.954 E0.0055 F900
G1 X100.586 Y113.452 E0.0264
G1 X100.770 Y113.332 E0.0319
G1 X101.303 Y113.030 E0.0471
G1 X101.460 Y112.951 E0.0515
G1 X102.000 Y112.713 E0.0661
G1 X102.164 Y112.650 E0.0705
G1 X102.725 Y112.467 E0.0852
G1 X102.894 Y112.421 E0.0896
G1 X103.492 Y112.290 E0.1048
G1 X103.709 Y112.256 E0.1103
G1 X104.546 Y112.180 E0.1312
G1 X104.766 Y112.174 E0.1366
G1 X105.400 Y112.195 E0.1524
G1 X105.618 Y112.216 E0.1579
G1 X106.448 Y112.348 E0.1788
G1 X106.663 Y112.397 E0.1843
G1 X107.251 Y112.568 E0.1995
G1 X107.417 Y112.625 E0.2039
G1 X107.964 Y112.845 E0.2186
G1 X108.124 Y112.919 E0.2229
G1 X108.646 Y113.193 E0.2376
G1 X108.798 Y113.282 E0.2420
G1 X109.309 Y113.619 E0.2572
G1 X109.484 Y113.751 E0.2627
G1 X110.002 Y114.193 E0.2796
G1 X190.137 Y114.193 E2.2736
G1 X190.260 Y114.083 E2.2777
G1 X190.718 Y113.711 E2.2924
G1 X190.860 Y113.607 E2.2968
G1 X191.353 Y113.282 E2.3115
G1 X191.504 Y113.193 E2.3158
G1 X192.027 Y112.919 E2.3305
G1 X192.186 Y112.845 E2.3349
G1 X192.733 Y112.625 E2.3496
G1 X192.900 Y112.568 E2.3539
G1 X193.466 Y112.403 E2.3686
G1 X193.637 Y112.362 E2.3730
G1 X194.217 Y112.255 E2.3877
G1 X194.391 Y112.231 E2.3920
G1 X194.979 Y112.182 E2.4067
G1 X195.155 Y112.176 E2.4111
G1 X195.745 Y112.186 E2.4258
G1 X195.920 Y112.197 E2.4302
G1 X196.506 Y112.266 E2.4448
G1 X196.680 Y112.295 E2.4492
G1 X197.256 Y112.421 E2.4639
G1 X197.425 Y112.467 E2.4683
G1 X197.986 Y112.650 E2.4829
G1 X198.150 Y112.713 E2.4873
G1 X198.710 Y112.960 E2.5025
G1 X198.905 Y113.061 E2.5080
G1 X199.626 Y113.493 E2.5289
G1 X199.808 Y113.618 E2.5344
G1 X200.306 Y114.009 E2.5502
G1 X200.471 Y114.155 E2.5556
G1 X201.062 Y114.752 E2.5766
G1 X201.207 Y114.918 E2.5820
G1 X201.594 Y115.420 E2.5978
G1 X201.717 Y115.602 E2.6033
G1 X202.143 Y116.326 E2.6242
G1 X202.243 Y116.522 E2.6297
G1 X202.494 Y117.104 E2.6454
G1 X202.568 Y117.311 E2.6509
G1 X202.802 Y118.119 E2.6718
G1 X202.850 Y118.333 E2.6773
G1 X202.950 Y118.959 E2.6931
G1 X202.970 Y119.178 E2.6985
G1 X202.999 Y120.040 E2.7200
G1 X202.988 Y120.304 E2.7266
G1 X202.887 Y121.160 E2.7480
G1 X202.848 Y121.377 E2.7535
G1 X202.702 Y121.971 E2.7687
G1 X202.651 Y122.139 E2.7731
G1 X202.454 Y122.695 E2.7878
G1 X202.387 Y122.858 E2.7921
G1 X202.135 Y123.391 E2.8068
G1 X202.052 Y123.546 E2.8112
G1 X201.737 Y124.071 E2.8264
G1 X201.612 Y124.252 E2.8319
G1 X201.079 Y124.930 E2.8534
G1 X200.901 Y125.125 E2.8599
G1 X200.257 Y125.732 E2.8819
G1 X200.052 Y125.898 E2.8885
G1 X199.600 Y126.211 E2.9022
G1 X199.600 Y173.789 E4.0861
G1 X200.024 Y174.080 E4.0988
G1 X200.228 Y174.243 E4.1053
G1 X200.853 Y174.825 E4.1266
G1 X201.003 Y174.983 E4.1320
G1 X201.406 Y175.464 E4.1476
G1 X201.535 Y175.640 E4.1531
G1 X201.987 Y176.338 E4.1738
G1 X202.093 Y176.528 E4.1792
G1 X202.357 Y177.074 E4.1943
G1 X202.425 Y177.234 E4.1986
G1 X202.634 Y177.803 E4.2137
G1 X202.696 Y178.012 E4.2191
G1 X202.889 Y178.843 E4.2403
G1 X202.929 Y179.102 E4.2468
G1 X202.997 Y179.953 E4.2681
G1 X203.001 Y180.171 E4.2735
G1 X202.975 Y180.776 E4.2886
G1 X202.959 Y180.949 E4.2929
G1 X202.873 Y181.549 E4.3080
G1 X202.829 Y181.762 E4.3134
G1 X202.610 Y182.565 E4.3341
G1 X202.540 Y182.771 E4.3395
G1 X202.302 Y183.352 E4.3552
G1 X202.207 Y183.548 E4.3606
G1 X201.798 Y184.273 E4.3813
G1 X201.680 Y184.456 E4.3867
G1 X201.307 Y184.961 E4.4023
G1 X201.167 Y185.128 E4.4077
G1 X200.593 Y185.731 E4.4284
G1 X200.434 Y185.879 E4.4339
G1 X199.949 Y186.277 E4.4495
G1 X199.772 Y186.405 E4.4549
G1 X199.069 Y186.850 E4.4756
G1 X198.878 Y186.954 E4.4810
G1 X198.310 Y187.222 E4.4966
G1 X198.108 Y187.302 E4.5021
G1 X197.317 Y187.562 E4.5228
G1 X197.106 Y187.617 E4.5282
G1 X196.490 Y187.737 E4.5438
G1 X196.274 Y187.766 E4.5492
G1 X195.444 Y187.824 E4.5699
G1 X195.226 Y187.825 E4.5754
G1 X194.600 Y187.792 E4.5910
G1 X194.383 Y187.767 E4.5964
G1 X193.543 Y187.616 E4.6176
G1 X193.290 Y187.551 E4.6241
G1 X192.480 Y187.278 E4.6454
G1 X192.279 Y187.196 E4.6508
G1 X191.713 Y186.923 E4.6664
G1 X191.523 Y186.817 E4.6718
G1 X190.824 Y186.366 E4.6926
G1 X190.648 Y186.237 E4.6980
G1 X190.297 Y185.943 E4.7094
G1 X109.856 Y185.943 E6.7109
G1 X109.813 Y185.984 E6.7124
G1 X109.679 Y186.095 E6.7168
G1 X109.213 Y186.447 E6.7313
G1 X109.069 Y186.545 E6.7356
G1 X108.570 Y186.849 E6.7502
G1 X108.417 Y186.933 E6.7545
G1 X107.891 Y187.186 E6.7690
G1 X107.731 Y187.254 E6.7734
G1 X107.182 Y187.454 E6.7879
G1 X107.016 Y187.506 E6.7922
G1 X106.450 Y187.651 E6.8068
G1 X106.279 Y187.686 E6.8111
G1 X105.702 Y187.775 E6.8256
G1 X105.529 Y187.793 E6.8300
G1 X104.945 Y187.824 E6.8445
G1 X104.771 Y187.825 E6.8488
G1 X104.188 Y187.799 E6.8634
G1 X104.014 Y187.782 E6.8677
G1 X103.436 Y187.699 E6.8822
G1 X103.265 Y187.665 E6.8866
G1 X102.698 Y187.525 E6.9011
G1 X102.532 Y187.475 E6.9054
G1 X101.981 Y187.279 E6.9200
G1 X101.820 Y187.213 E6.9243
G1 X101.272 Y186.954 E6.9394
G1 X101.081 Y186.850 E6.9448
G1 X100.359 Y186.393 E6.9660
G1 X100.150 Y186.238 E6.9726
G1 X99.486 Y185.665 E6.9943
G1 X99.302 Y185.480 E7.0008
G1 X98.745 Y184.833 E7.0221
G1 X98.613 Y184.660 E7.0275
G1 X98.265 Y184.137 E7.0431
G1 X98.156 Y183.949 E7.0486
G1 X97.784 Y183.204 E7.0693
G1 X97.699 Y183.004 E7.0747
G1 X97.490 Y182.412 E7.0903
G1 X97.430 Y182.203 E7.0957
G1 X97.246 Y181.369 E7.1170
G1 X97.209 Y181.110 E7.1235
G1 X97.151 Y180.258 E7.1447
G1 X97.149 Y180.040 E7.1501
G1 X97.184 Y179.413 E7.1658
G1 X97.209 Y179.197 E7.1712
G1 X97.361 Y178.357 E7.1924
G1 X97.427 Y178.104 E7.1989
G1 X97.708 Y177.274 E7.2207
G1 X97.810 Y177.034 E7.2272
G1 X98.201 Y176.274 E7.2485
G1 X98.312 Y176.087 E7.2539
G1 X98.653 Y175.586 E7.2690
G1 X98.758 Y175.448 E7.2733
G1 X99.148 Y174.983 E7.2884
G1 X99.297 Y174.825 E7.2938
G1 X99.922 Y174.243 E7.3150
G1 X100.126 Y174.080 E7.3216
G1 X100.550 Y173.789 E7.3343
G1 X100.550 Y170.102 E7.4261
G1 X98.707 Y169.825 E7.4724
G1 X97.000 Y167.842 E7.5376
G1 X97.000 Y159.226 E7.7520
G1 X98.707 Y157.243 E7.8171
G1 X100.550 Y156.965 E7.8634
G1 X100.550 Y143.034 E8.2101
G1 X98.707 Y142.757 E8.2565
G1 X97.000 Y140.774 E8.3216
G1 X97.000 Y132.157 E8.5360
G1 X98.707 Y130.174 E8.6011
G1 X100.550 Y129.897 E8.6474
G1 X100.550 Y126.224 E8.7388
G1 X100.540 Y126.218 E8.7391
