; G-Code generated by Simplify3D(R) Version 4.1.2
;
;
;
;
; Oct 18, 2022 at 8:49:22 PM
; Settings Summary
;   processName,A13-04
;   applyToModels,CaseWithLayers_LayerForUseFan
;   profileName,A13-04-25 Tevo Tornado
;   profileVersion,2022-10-18 18:26:25
;   baseProfile,Creality CR-10(2)
;   printMaterial,PLA
;   printQuality,Medium
;   printExtruders,
;   extruderName,Primary Extruder
;   extruderToolheadNumber,0
;   extruderDiameter,0.4
;   extruderAutoWidth,0
;   extruderWidth,0.35
;   extrusionMultiplier,0.95
;   extruderUseRetract,1
;   extruderRetractionDistance,4
;   extruderExtraRestartDistance,0
;   extruderRetractionZLift,0.3
;   extruderRetractionSpeed,3600
;   extruderUseCoasting,0
;   extruderCoastingDistance,0.5
;   extruderUseWipe,0
;   extruderWipeDistance,5
;   primaryExtruder,0
;   layerHeight,0.15
;   topSolidLayers,4
;   bottomSolidLayers,3
;   perimeterOutlines,3
;   printPerimetersInsideOut,0
;   startPointOption,2
;   startPointOriginX,0
;   startPointOriginY,300
;   sequentialIslands,0
;   spiralVaseMode,0
;   firstLayerHeightPercentage,120
;   firstLayerWidthPercentage,100
;   firstLayerUnderspeed,0.5
;   useRaft,0
;   raftExtruder,0
;   raftTopLayers,3
;   raftBaseLayers,2
;   raftOffset,3
;   raftSeparationDistance,0.14
;   raftTopInfill,100
;   aboveRaftSpeedMultiplier,0.3
;   useSkirt,1
;   skirtExtruder,0
;   skirtLayers,1
;   skirtOutlines,2
;   skirtOffset,3
;   usePrimePillar,0
;   primePillarExtruder,999
;   primePillarWidth,12
;   primePillarLocation,7
;   primePillarSpeedMultiplier,1
;   useOozeShield,0
;   oozeShieldExtruder,999
;   oozeShieldOffset,2
;   oozeShieldOutlines,1
;   oozeShieldSidewallShape,1
;   oozeShieldSidewallAngle,30
;   oozeShieldSpeedMultiplier,1
;   infillExtruder,0
;   internalInfillPattern,Rectilinear
;   externalInfillPattern,Rectilinear
;   infillPercentage,25
;   outlineOverlapPercentage,15
;   infillExtrusionWidthPercentage,100
;   minInfillLength,5
;   infillLayerInterval,1
;   internalInfillAngles,45,-45
;   overlapInternalInfillAngles,0
;   externalInfillAngles,45,-45
;   generateSupport,0
;   supportExtruder,0
;   supportInfillPercentage,30
;   supportExtraInflation,0
;   supportBaseLayers,0
;   denseSupportExtruder,0
;   denseSupportLayers,0
;   denseSupportInfillPercentage,70
;   supportLayerInterval,1
;   supportHorizontalPartOffset,0.4
;   supportUpperSeparationLayers,1
;   supportLowerSeparationLayers,1
;   supportType,0
;   supportGridSpacing,4.5
;   maxOverhangAngle,45
;   supportAngles,0
;   temperatureName,Primary Extruder,Heated Bed
;   temperatureNumber,0,0
;   temperatureSetpointCount,2,2
;   temperatureSetpointLayers,1,2,1,2
;   temperatureSetpointTemperatures,205,200,55,50
;   temperatureStabilizeAtStartup,1,1
;   temperatureHeatedBed,0,1
;   fanLayers,1,2
;   fanSpeeds,0,100
;   blipFanToFullPower,0
;   adjustSpeedForCooling,1
;   minSpeedLayerTime,15
;   minCoolingSpeedSlowdown,20
;   increaseFanForCooling,1
;   minFanLayerTime,25
;   maxCoolingFanSpeed,100
;   increaseFanForBridging,1
;   bridgingFanSpeed,100
;   use5D,1
;   relativeEdistances,0
;   allowEaxisZeroing,1
;   independentExtruderAxes,0
;   includeM10123,0
;   stickySupport,1
;   applyToolheadOffsets,0
;   gcodeXoffset,0
;   gcodeYoffset,0
;   gcodeZoffset,0
;   overrideMachineDefinition,1
;   machineTypeOverride,0
;   strokeXoverride,300
;   strokeYoverride,300
;   strokeZoverride,400
;   originOffsetXoverride,0
;   originOffsetYoverride,0
;   originOffsetZoverride,0
;   homeXdirOverride,-1
;   homeYdirOverride,-1
;   homeZdirOverride,-1
;   flipXoverride,1
;   flipYoverride,-1
;   flipZoverride,1
;   toolheadOffsets,0,0|0,0|0,0|0,0|0,0|0,0
;   overrideFirmwareConfiguration,1
;   firmwareTypeOverride,RepRap (Marlin/Repetier/Sprinter)
;   GPXconfigOverride,r2
;   baudRateOverride,250000
;   overridePrinterModels,1
;   printerModelsOverride
;   startingGcode,;,; -]H.P.B[- MarshMalloW  ,; $VER: StartScript 1.02 (26.12.2019) MarshMalloW,;,; Begin Startcode,;,M117 *Preheat*     	; Preheat,;extruder0_temperature,M104 S[extruder0_temperature]  ,M109 S[extruder0_temperature] ,M109 R[extruder0_temperature] ,;,M117 *Auto-leveling*     	; Auto-leveling,M107                   	; Turn layer fan off,G21                    	; Set to metric [change to G20 if you want Imperial],G90                    	; Force coordinates to be absolute relative to the origin,G28                    	; Home X/Y/Z axis,G29                    	; Auto-leveling (BL-Touch),;,M117 *Start Clean*     	; Indicate nozzle clean in progress on LCD,G92 E0                 	; Set Extruder to 0 ,G1 X0 Y0 F2000         	; Move X and Y to 0 with speed 2000 (mm/min),G1 Z0.1 F1000          	; Move Z to   0.1 with speed 1000 (mm/min),G1 X8.0 F2000          	; Move X to   8.0 with speed 2000 (mm/min),G1 Y60.0 E4.0 F1000.0  	; Move Y to  60 and Extruder with 4.0 with speed 1000 (mm/min),G1 Y100.0 E8.5 F1000.0 	; Move Y to 100 and Extruder with 8.5 with speed 1000 (mm/min),G92 E0                 	; Set extruder to 0,G1 X16.0 F3000         	; Move X to 16.0 with speed 3000 (mm/min),G1 Y60.0 F3000         	; Move Y to 60.0 with speed 3000 (mm/min),M117 *End Clean*       	; Indicate nozzle clean in progress on LCD,G1 Z5 F3000            	; Move Z to  5.0 with speed 3000 (mm/min),G1 X20.0 F3000         	; Move X to 20.0 with speed 3000 (mm/min),G1 Y20.0 F3000         	; Move Y to 20.0 with speed 3000 (mm/min),; ,M117 *Printing...*     	; Start printing msg on LCD,;,; End Startcode,;,; Begin printing with sliced GCode after here,;
;   layerChangeGcode,
;   retractionGcode,
;   toolChangeGcode,
;   endingGcode,;,; init 181010,;,;M107 			; Fan off,;G1 E-1 F300 			; Retract the filament a bit before lifting the nozzle,;M104 S0 			; Turn off extruder,;M140 S0 			; Turn off bed,;G91			; Relative positioning,;G28 X0 Y0 			; Move X/Y to min endstops so the head is out of teh way,;M84 			; Disable motors,;G90 			; Absolute positioning,;M117 Print ready...,,;,; // From Cura 181010,; // End_gcode,G92 E0			; Zero the extruded length,;G1 E-30 F300		; Retract E -30,M106 S0			; Turn off cooling fan,M104 S0			; Turn off temperature,M140 S0		     	; Turn off bed,G91			; Relative positioning,G1 E-1 F300			; Retract the filament a bit before lifting the nozzle to release some of the pressure,G1 Z+20 E-5 X-20 Y-20 F7200	; Move Z up a bit and retract filament even more,G1 X0 Y150 F10000		; Move right min,M107			; Turn off layer fan,M84			; Disable motors,G90			; Absolute positioning,M117 *The-End* 		; End msg,;,
;   exportFileFormat,gcode
;   celebration,0
;   celebrationSong,Star Wars
;   postProcessing,D:\S3D_Thumbs\S3D_Thumbs.exe f="[output_filepath]" x=600 y=110 w=953 lw=400 lh=300 sw=32 sh=32 d=Y
;   defaultSpeed,1800
;   outlineUnderspeed,0.5
;   solidInfillUnderspeed,0.8
;   supportUnderspeed,0.8
;   rapidXYspeed,6000
;   rapidZspeed,1002
;   minBridgingArea,50
;   bridgingExtraInflation,0.2
;   bridgingExtrusionMultiplier,1
;   bridgingSpeedMultiplier,0.8
;   useFixedBridgingAngle,0
;   fixedBridgingAngle,0
;   applyBridgingToPerimeters,0
;   filamentDiameters,1.75|1.75|1.75|1.75|1.75|1.75
;   filamentPricesPerKg,30|46|46|46|46|46
;   filamentDensities,1.25|1.25|1.25|1.25|1.25|1.25
;   useMinPrintHeight,0
;   minPrintHeight,0
;   useMaxPrintHeight,0
;   maxPrintHeight,50
;   useDiaphragm,0
;   diaphragmLayerInterval,20
;   robustSlicing,1
;   mergeAllIntoSolid,0
;   onlyRetractWhenCrossingOutline,1
;   retractBetweenLayers,1
;   useRetractionMinTravel,0
;   retractionMinTravel,3
;   retractWhileWiping,0
;   onlyWipeOutlines,1
;   avoidCrossingOutline,0
;   maxMovementDetourFactor,3
;   toolChangeRetractionDistance,12
;   toolChangeExtraRestartDistance,-0.5
;   toolChangeRetractionSpeed,600
;   externalThinWallType,0
;   internalThinWallType,1
;   thinWallAllowedOverlapPercentage,10
;   singleExtrusionMinLength,1
;   singleExtrusionMinPrintingWidthPercentage,50
;   singleExtrusionMaxPrintingWidthPercentage,200
;   singleExtrusionEndpointExtension,0.2
;   horizontalSizeCompensation,0
G90
M82
M106 S0
M140 S55
M190 S55
;
; -]H.P.B[- MarshMalloW  
; $VER: StartScript 1.02 (26.12.2019) MarshMalloW
;
; Begin Startcode
;
M117 *Preheat*     	; Preheat
;extruder0_temperature
M104 S205  
M109 S205 
M109 R205 
;
M117 *Auto-leveling*     	; Auto-leveling
M107                   	; Turn layer fan off
G21                    	; Set to metric [change to G20 if you want Imperial]
G90                    	; Force coordinates to be absolute relative to the origin
G28                    	; Home X/Y/Z axis
G29                    	; Auto-leveling (BL-Touch)
;
M117 *Start Clean*     	; Indicate nozzle clean in progress on LCD
G92 E0                 	; Set Extruder to 0 
G1 X0 Y0 F2000         	; Move X and Y to 0 with speed 2000 (mm/min)
G1 Z0.1 F1000          	; Move Z to   0.1 with speed 1000 (mm/min)
G1 X8.0 F2000          	; Move X to   8.0 with speed 2000 (mm/min)
G1 Y60.0 E4.0 F1000.0  	; Move Y to  60 and Extruder with 4.0 with speed 1000 (mm/min)
G1 Y100.0 E8.5 F1000.0 	; Move Y to 100 and Extruder with 8.5 with speed 1000 (mm/min)
G92 E0                 	; Set extruder to 0
G1 X16.0 F3000         	; Move X to 16.0 with speed 3000 (mm/min)
G1 Y60.0 F3000         	; Move Y to 60.0 with speed 3000 (mm/min)
M117 *End Clean*       	; Indicate nozzle clean in progress on LCD
G1 Z5 F3000            	; Move Z to  5.0 with speed 3000 (mm/min)
G1 X20.0 F3000         	; Move X to 20.0 with speed 3000 (mm/min)
G1 Y20.0 F3000         	; Move Y to 20.0 with speed 3000 (mm/min)
; 
M117 *Printing...*     	; Start printing msg on LCD
;
; End Startcode
;
; Begin printing with sliced GCode after here
;
; process A13-04
; layer 1, Z = 0.180
M117 INDICATOR-Layer1
M117 DASHBOARD_LAYER_INDICATOR 1
T0
G92 E0.0000
G1 E-4.0000 F3600
; feature skirt
; tool H0.180 W0.350
G1 Z0.300 F1002
G1 X99.913 Y113.891 F6000
G1 Z0.180 F1002
G1 E0.0000 F3600
G92 E0.0000
G1 X100.084 Y113.754 E0.0055 F900
G1 X100.584 Y113.403 E0.0207
G1 X100.733 Y113.310 E0.0250
G1 X101.246 Y113.021 E0.0397
G1 X101.403 Y112.943 E0.0440
G1 X101.942 Y112.706 E0.0587
G1 X102.106 Y112.644 E0.0631
G1 X102.667 Y112.462 E0.0777
G1 X102.836 Y112.417 E0.0821
G1 X103.411 Y112.292 E0.0967
G1 X103.585 Y112.263 E0.1011
G1 X104.170 Y112.196 E0.1158
G1 X104.345 Y112.185 E0.1201
G1 X104.956 Y112.176 E0.1353
G1 X105.175 Y112.187 E0.1408
G1 X106.009 Y112.279 E0.1617
G1 X106.225 Y112.317 E0.1671
G1 X106.841 Y112.464 E0.1829
G1 X107.050 Y112.528 E0.1883
G1 X107.836 Y112.823 E0.2092
G1 X108.036 Y112.912 E0.2147
G1 X108.577 Y113.196 E0.2299
G1 X108.728 Y113.286 E0.2342
G1 X109.220 Y113.610 E0.2489
G1 X109.361 Y113.714 E0.2533
G1 X109.818 Y114.085 E0.2679
G1 X109.938 Y114.193 E0.2719
G1 X190.062 Y114.193 E2.2656
G1 X190.182 Y114.085 E2.2697
G1 X190.639 Y113.714 E2.2843
G1 X190.780 Y113.610 E2.2887
G1 X191.272 Y113.286 E2.3033
G1 X191.423 Y113.196 E2.3077
G1 X191.944 Y112.923 E2.3223
G1 X192.104 Y112.849 E2.3267
G1 X192.650 Y112.628 E2.3414
G1 X192.815 Y112.571 E2.3457
G1 X193.381 Y112.405 E2.3604
G1 X193.551 Y112.365 E2.3648
G1 X194.130 Y112.256 E2.3794
G1 X194.304 Y112.233 E2.3838
G1 X194.891 Y112.183 E2.3984
G1 X195.066 Y112.177 E2.4028
G1 X195.655 Y112.185 E2.4174
G1 X195.830 Y112.196 E2.4218
G1 X196.415 Y112.263 E2.4365
G1 X196.589 Y112.292 E2.4408
G1 X197.164 Y112.417 E2.4555
G1 X197.333 Y112.462 E2.4599
G1 X197.894 Y112.644 E2.4745
G1 X198.058 Y112.706 E2.4789
G1 X198.597 Y112.942 E2.4935
G1 X198.754 Y113.021 E2.4979
G1 X199.267 Y113.310 E2.5125
G1 X199.416 Y113.403 E2.5169
G1 X199.916 Y113.754 E2.5321
G1 X200.087 Y113.891 E2.5376
G1 X200.709 Y114.455 E2.5585
G1 X200.862 Y114.612 E2.5639
G1 X201.260 Y115.075 E2.5791
G1 X201.367 Y115.214 E2.5835
G1 X201.717 Y115.715 E2.5987
G1 X201.832 Y115.902 E2.6041
G1 X202.234 Y116.663 E2.6256
G1 X202.339 Y116.905 E2.6321
G1 X202.623 Y117.718 E2.6535
G1 X202.682 Y117.929 E2.6590
G1 X202.811 Y118.526 E2.6742
G1 X202.839 Y118.700 E2.6786
G1 X202.905 Y119.285 E2.6932
G1 X202.916 Y119.460 E2.6976
G1 X202.923 Y120.071 E2.7128
G1 X202.912 Y120.290 E2.7182
G1 X202.816 Y121.145 E2.7397
G1 X202.767 Y121.404 E2.7462
G1 X202.545 Y122.236 E2.7677
G1 X202.475 Y122.444 E2.7731
G1 X202.245 Y123.010 E2.7883
G1 X202.171 Y123.169 E2.7927
G1 X201.896 Y123.690 E2.8073
G1 X201.806 Y123.841 E2.8117
G1 X201.481 Y124.332 E2.8264
G1 X201.377 Y124.473 E2.8307
G1 X201.004 Y124.929 E2.8454
G1 X200.887 Y125.059 E2.8497
G1 X200.471 Y125.476 E2.8644
G1 X200.341 Y125.594 E2.8688
G1 X199.885 Y125.968 E2.8834
G1 X199.744 Y126.072 E2.8878
G1 X199.254 Y126.398 E2.9024
G1 X199.103 Y126.488 E2.9068
G1 X198.583 Y126.764 E2.9215
G1 X198.525 Y126.791 E2.9230
G1 X198.525 Y173.214 E4.0782
G1 X198.777 Y173.333 E4.0851
G1 X198.933 Y173.416 E4.0895
G1 X199.440 Y173.719 E4.1042
G1 X199.586 Y173.816 E4.1086
G1 X200.060 Y174.168 E4.1233
G1 X200.196 Y174.280 E4.1276
G1 X200.632 Y174.678 E4.1423
G1 X200.756 Y174.802 E4.1467
G1 X201.166 Y175.258 E4.1619
G1 X201.302 Y175.430 E4.1674
G1 X201.782 Y176.121 E4.1884
G1 X201.897 Y176.309 E4.1938
G1 X202.181 Y176.852 E4.2091
G1 X202.255 Y177.011 E4.2134
G1 X202.483 Y177.579 E4.2287
G1 X202.553 Y177.788 E4.2342
G1 X202.767 Y178.602 E4.2551
G1 X202.810 Y178.817 E4.2606
G1 X202.891 Y179.424 E4.2758
G1 X202.906 Y179.600 E4.2802
G1 X202.926 Y180.212 E4.2954
G1 X202.920 Y180.432 E4.3009
G1 X202.841 Y181.291 E4.3224
G1 X202.797 Y181.552 E4.3289
G1 X202.585 Y182.411 E4.3510
G1 X202.503 Y182.662 E4.3575
G1 X202.166 Y183.481 E4.3796
G1 X202.047 Y183.717 E4.3861
G1 X201.603 Y184.457 E4.4076
G1 X201.478 Y184.638 E4.4131
G1 X201.099 Y185.119 E4.4283
G1 X200.984 Y185.252 E4.4327
G1 X200.560 Y185.694 E4.4480
G1 X200.397 Y185.843 E4.4534
G1 X199.744 Y186.372 E4.4744
G1 X199.564 Y186.499 E4.4798
G1 X199.044 Y186.822 E4.4951
G1 X198.890 Y186.907 E4.4995
G1 X198.320 Y187.187 E4.5152
G1 X198.075 Y187.285 E4.5218
G1 X197.034 Y187.613 E4.5490
G1 X196.777 Y187.674 E4.5555
G1 X196.150 Y187.772 E4.5713
G1 X195.975 Y187.791 E4.5757
G1 X195.386 Y187.824 E4.5904
G1 X195.210 Y187.825 E4.5948
G1 X194.620 Y187.799 E4.6095
G1 X194.445 Y187.783 E4.6138
G1 X193.839 Y187.695 E4.6291
G1 X193.623 Y187.650 E4.6346
G1 X192.791 Y187.421 E4.6560
G1 X192.542 Y187.333 E4.6626
G1 X191.753 Y186.982 E4.6841
G1 X191.558 Y186.880 E4.6896
G1 X191.015 Y186.552 E4.7054
G1 X190.834 Y186.427 E4.7108
G1 X190.221 Y185.943 E4.7303
G1 X109.780 Y185.943 E6.7318
G1 X109.704 Y186.014 E6.7344
G1 X109.533 Y186.152 E6.7399
G1 X108.847 Y186.640 E6.7608
G1 X108.660 Y186.756 E6.7663
G1 X108.121 Y187.046 E6.7816
G1 X107.962 Y187.121 E6.7859
G1 X107.416 Y187.347 E6.8006
G1 X107.250 Y187.407 E6.8050
G1 X106.685 Y187.577 E6.8197
G1 X106.515 Y187.620 E6.8241
G1 X105.935 Y187.733 E6.8388
G1 X105.761 Y187.758 E6.8431
G1 X105.173 Y187.814 E6.8578
G1 X104.997 Y187.821 E6.8622
G1 X104.407 Y187.818 E6.8769
G1 X104.231 Y187.808 E6.8813
G1 X103.644 Y187.745 E6.8960
G1 X103.470 Y187.718 E6.9004
G1 X102.893 Y187.597 E6.9150
G1 X102.722 Y187.553 E6.9194
G1 X102.159 Y187.375 E6.9341
G1 X101.994 Y187.314 E6.9385
G1 X101.452 Y187.081 E6.9532
G1 X101.294 Y187.003 E6.9576
G1 X100.739 Y186.696 E6.9733
G1 X100.518 Y186.551 E6.9799
G1 X99.652 Y185.886 E7.0071
G1 X99.456 Y185.710 E7.0137
G1 X99.016 Y185.252 E7.0294
G1 X98.901 Y185.119 E7.0338
G1 X98.522 Y184.638 E7.0491
G1 X98.397 Y184.457 E7.0545
G1 X97.953 Y183.717 E7.0760
G1 X97.834 Y183.481 E7.0826
G1 X97.505 Y182.683 E7.1041
G1 X97.434 Y182.475 E7.1095
G1 X97.273 Y181.884 E7.1248
G1 X97.235 Y181.712 E7.1292
G1 X97.137 Y181.130 E7.1438
G1 X97.117 Y180.955 E7.1482
G1 X97.076 Y180.344 E7.1635
G1 X97.075 Y180.124 E7.1689
G1 X97.124 Y179.284 E7.1899
G1 X97.151 Y179.066 E7.1953
G1 X97.262 Y178.463 E7.2106
G1 X97.303 Y178.292 E7.2150
G1 X97.467 Y177.725 E7.2296
G1 X97.525 Y177.559 E7.2340
G1 X97.745 Y177.011 E7.2487
G1 X97.819 Y176.852 E7.2531
G1 X98.093 Y176.329 E7.2678
G1 X98.183 Y176.177 E7.2722
G1 X98.507 Y175.684 E7.2869
G1 X98.611 Y175.542 E7.2912
G1 X98.984 Y175.084 E7.3059
G1 X99.101 Y174.953 E7.3103
G1 X99.517 Y174.534 E7.3250
G1 X99.648 Y174.416 E7.3294
G1 X100.103 Y174.041 E7.3441
G1 X100.245 Y173.936 E7.3484
