; G-Code generated by Simplify3D(R) Version 4.0.1
; Dec 20, 2018 at 1:48:01 PM
; Settings Summary
;   processName,Tevo Tornado 001
;   applyToModels,35mm_Extension,C525_Camera_Mount,Tevo_Tornado_Rail_Mount
;   profileName,008 Tevo Tornado (experimental) 06-04 (modified)
;   profileVersion,2018-12-16 11:00:31
;   baseProfile,Creality CR-10(2)
;   printMaterial,PLA
;   printQuality,Medium
;   printExtruders,
;   extruderName,Primary Extruder
;   extruderToolheadNumber,0
;   extruderDiameter,0.4
;   extruderAutoWidth,0
;   extruderWidth,0.4
;   extrusionMultiplier,1
;   extruderUseRetract,1
;   extruderRetractionDistance,6.5
;   extruderExtraRestartDistance,0
;   extruderRetractionZLift,0
;   extruderRetractionSpeed,1800
;   extruderUseCoasting,0
;   extruderCoastingDistance,0.2
;   extruderUseWipe,0
;   extruderWipeDistance,4
;   primaryExtruder,0
;   layerHeight,0.2
;   topSolidLayers,5
;   bottomSolidLayers,4
;   perimeterOutlines,3
;   printPerimetersInsideOut,1
;   startPointOption,2
;   startPointOriginX,0
;   startPointOriginY,500
;   sequentialIslands,0
;   spiralVaseMode,0
;   firstLayerHeightPercentage,150
;   firstLayerWidthPercentage,100
;   firstLayerUnderspeed,0.25
;   useRaft,0
;   raftExtruder,0
;   raftTopLayers,3
;   raftBaseLayers,2
;   raftOffset,3
;   raftSeparationDistance,0.14
;   raftTopInfill,100
;   aboveRaftSpeedMultiplier,0.3
;   useSkirt,1
;   skirtExtruder,0
;   skirtLayers,1
;   skirtOutlines,4
;   skirtOffset,0
;   usePrimePillar,0
;   primePillarExtruder,999
;   primePillarWidth,12
;   primePillarLocation,7
;   primePillarSpeedMultiplier,1
;   useOozeShield,0
;   oozeShieldExtruder,999
;   oozeShieldOffset,2
;   oozeShieldOutlines,1
;   oozeShieldSidewallShape,1
;   oozeShieldSidewallAngle,30
;   oozeShieldSpeedMultiplier,1
;   infillExtruder,0
;   internalInfillPattern,Rectilinear
;   externalInfillPattern,Rectilinear
;   infillPercentage,25
;   outlineOverlapPercentage,30
;   infillExtrusionWidthPercentage,125
;   minInfillLength,5
;   infillLayerInterval,1
;   internalInfillAngles,45,-45
;   overlapInternalInfillAngles,0
;   externalInfillAngles,45,-45
;   generateSupport,0
;   supportExtruder,0
;   supportInfillPercentage,30
;   supportExtraInflation,0
;   supportBaseLayers,0
;   denseSupportExtruder,0
;   denseSupportLayers,0
;   denseSupportInfillPercentage,70
;   supportLayerInterval,1
;   supportHorizontalPartOffset,0.4
;   supportUpperSeparationLayers,1
;   supportLowerSeparationLayers,1
;   supportType,0
;   supportGridSpacing,4.5
;   maxOverhangAngle,45
;   supportAngles,0
;   temperatureName,Primary Extruder,Heated Bed
;   temperatureNumber,0,0
;   temperatureSetpointCount,4,2
;   temperatureSetpointLayers,1,2,3,4,1,2
;   temperatureSetpointTemperatures,210,205,200,195,65,60
;   temperatureStabilizeAtStartup,1,1
;   temperatureHeatedBed,0,1
;   temperatureRelayBetweenLayers,0,0
;   temperatureRelayBetweenLoops,0,0
;   fanLayers,1,2
;   fanSpeeds,0,100
;   blipFanToFullPower,1
;   adjustSpeedForCooling,1
;   minSpeedLayerTime,15
;   minCoolingSpeedSlowdown,50
;   increaseFanForCooling,0
;   minFanLayerTime,45
;   maxCoolingFanSpeed,100
;   increaseFanForBridging,1
;   bridgingFanSpeed,100
;   use5D,1
;   relativeEdistances,0
;   allowEaxisZeroing,1
;   independentExtruderAxes,0
;   includeM10123,0
;   stickySupport,1
;   applyToolheadOffsets,0
;   gcodeXoffset,0
;   gcodeYoffset,0
;   gcodeZoffset,0
;   overrideMachineDefinition,1
;   machineTypeOverride,0
;   strokeXoverride,300
;   strokeYoverride,300
;   strokeZoverride,400
;   originOffsetXoverride,0
;   originOffsetYoverride,0
;   originOffsetZoverride,0
;   homeXdirOverride,-1
;   homeYdirOverride,-1
;   homeZdirOverride,-1
;   flipXoverride,1
;   flipYoverride,-1
;   flipZoverride,1
;   toolheadOffsets,0,0|0,0|0,0|0,0|0,0|0,0
;   overrideFirmwareConfiguration,0
;   firmwareTypeOverride,RepRap (Marlin/Repetier/Sprinter)
;   GPXconfigOverride,r2
;   baudRateOverride,250000
;   overridePrinterModels,1
;   printerModelsOverride
;   startingGcode,;Init 181010,;G28 ; home all axes,;G1 Z5 F3000 ; lift,;G92 E0 ; reset extrusion distance,;From Cura 181010,; start_gcode,M117 Start Clean	; Indicate nozzle clean in progress on LCD,;,M104 S[extruder0_temperature] ,M109 S[extruder0_temperature] ,M109 R[extruder0_temperature] ,;,M107		; Turn layer fan off,G21		; Set to metric [change to G20 if you want Imperial],G90	 	; Force coordinates to be absolute relative to the origin,G28		; Home X/Y/Z axis,;,G1 X3 Y1 Z15 F9000	; Move safe Z height to shear strings,G0 X1 Y1 Z0.2 F9000	; Move in 1mm from edge and up [z] 0.2mm,G92 E0		; Set extruder to [0] zero,G1 X100 E12 F500	; Extrude 30mm filiment along X axis 100mm long to prime and clean the nozzle,G92 E0		; Reset extruder to [0] zero end of cleaning run,G1 E-1 F500		; Retract filiment by 1 mm to reduce string effect,G1 X180 F4000		; quick wipe away from the filament line / purge,M117 End Clean		; Indicate nozzle clean in progress on LCD,;,M117 IMPRESSION...	; start msg,; Begin printing with sliced GCode after here,;
;   layerChangeGcode,
;   retractionGcode,
;   toolChangeGcode,
;   endingGcode,;,; init 181010,;,;M107 ; Fan off,;G1 E-1 F300 ; Retract the filament a bit before lifting the nozzle,;M104 S0 ; turn off extruder,;M140 S0 ; turn off bed,;G91 ; Relative positioning,;G28 X0 Y0 ; Move X/Y to min endstops so the head is out of teh way,;M84 ; disable motors,;G90 ; Absolute positioning,;M117 Print ready...,,;,;From Cura 181010,;,; end_gcode,G92 E0		; zero the extruded length,G1 E-5 F9000		; retract,M104 S0		; turn off temperature,M140 S0		; turn off bed,G91		; relative positioning,G1 E-1 F300		; retract the filament a bit before lifting the nozzle to release some of the pressure,G1 Z+20 E-5 X-20 Y-20 F7200	; move Z up a bit and retract filament even more,G1 X320 Y150 F10000	; move right mid,M107		; turn off layer fan,M84		; disable motors,G90		; absolute positioning,M117 IMPRESSION TERMINEE	; end msg,;,;EOF
;   exportFileFormat,gcode
;   celebration,0
;   celebrationSong,Star Wars
;   postProcessing,
;   defaultSpeed,4200
;   outlineUnderspeed,0.5
;   solidInfillUnderspeed,0.8
;   supportUnderspeed,0.8
;   rapidXYspeed,6000
;   rapidZspeed,1002
;   minBridgingArea,50
;   bridgingExtraInflation,0
;   bridgingExtrusionMultiplier,0.85
;   bridgingSpeedMultiplier,1.05
;   useFixedBridgingAngle,0
;   fixedBridgingAngle,0
;   applyBridgingToPerimeters,0
;   filamentDiameters,1.75|1.75|1.75|1.75|1.75|1.75
;   filamentPricesPerKg,30|46|46|46|46|46
;   filamentDensities,1.25|1.25|1.25|1.25|1.25|1.25
;   useMinPrintHeight,0
;   minPrintHeight,0
;   useMaxPrintHeight,0
;   maxPrintHeight,9
;   useDiaphragm,0
;   diaphragmLayerInterval,20
;   robustSlicing,1
;   mergeAllIntoSolid,0
;   onlyRetractWhenCrossingOutline,1
;   retractBetweenLayers,1
;   useRetractionMinTravel,1
;   retractionMinTravel,3
;   retractWhileWiping,1
;   onlyWipeOutlines,1
;   avoidCrossingOutline,1
;   maxMovementDetourFactor,3
;   toolChangeRetractionDistance,12
;   toolChangeExtraRestartDistance,-0.5
;   toolChangeRetractionSpeed,600
;   externalThinWallType,0
;   internalThinWallType,2
;   thinWallAllowedOverlapPercentage,15
;   singleExtrusionMinLength,1
;   singleExtrusionMinPrintingWidthPercentage,50
;   singleExtrusionMaxPrintingWidthPercentage,200
;   singleExtrusionEndpointExtension,0.2
;   horizontalSizeCompensation,0
G90
M82
M106 S255
G4 P500
M106 S0
M140 S65
M190 S65
;Init 181010
;G28 ; home all axes
;G1 Z5 F3000 ; lift
;G92 E0 ; reset extrusion distance
;From Cura 181010
; start_gcode
M117 Start Clean	; Indicate nozzle clean in progress on LCD
;
M104 S210 
M109 S210 
M109 R210 
;
M107		; Turn layer fan off
G21		; Set to metric [change to G20 if you want Imperial]
G90	 	; Force coordinates to be absolute relative to the origin
G28		; Home X/Y/Z axis
;
G1 X3 Y1 Z15 F9000	; Move safe Z height to shear strings
G0 X1 Y1 Z0.2 F9000	; Move in 1mm from edge and up [z] 0.2mm
G92 E0		; Set extruder to [0] zero
G1 X100 E12 F500	; Extrude 30mm filiment along X axis 100mm long to prime and clean the nozzle
G92 E0		; Reset extruder to [0] zero end of cleaning run
G1 E-1 F500		; Retract filiment by 1 mm to reduce string effect
G1 X180 F4000		; quick wipe away from the filament line / purge
M117 End Clean		; Indicate nozzle clean in progress on LCD
;
M117 IMPRESSION...	; start msg
; Begin printing with sliced GCode after here
;
G92 E0
G1 E-6.5000 F1800
G1 Z0.300 F1002
; process Tevo Tornado 001
; layer 1, Z = 0.300
T0
; tool H0.300 W0.400
; skirt
G1 X117.701 Y113.051 F6000
G1 E0.0000 F540
G92 E0
G1 X118.521 Y112.231 E0.0579 F1050
G1 X132.246 Y112.231 E0.7426
G1 X133.066 Y113.051 E0.8005
G1 X133.066 Y131.843 E1.7380
G1 X144.192 Y131.843 E2.2930
G1 X145.012 Y132.663 E2.3509
G1 X145.012 Y137.211 E2.5778
G1 X144.592 Y137.631 E2.6074
G1 X145.012 Y138.051 E2.6371
G1 X145.012 Y142.601 E2.8641
G1 X144.192 Y143.421 E2.9219
G1 X133.066 Y143.421 E3.4770
G1 X133.066 Y162.211 E4.4144
G1 X132.246 Y163.031 E4.4723
G1 X118.521 Y163.031 E5.1570
G1 X117.701 Y162.211 E5.2149
G1 X117.701 Y154.752 E5.5870
G1 X118.521 Y153.931 E5.6449
G1 X121.181 Y153.931 E5.7776
G1 X122.001 Y154.752 E5.8355
G1 X122.001 Y155.325 E5.8641
G1 X122.757 Y156.231 E5.9230
G1 X126.266 Y156.231 E6.0980
G1 X126.266 Y119.031 E7.9540
G1 X122.757 Y119.031 E8.1290
G1 X122.001 Y119.938 E8.1879
G1 X122.001 Y120.511 E8.2165
G1 X121.181 Y121.331 E8.2744
G1 X118.521 Y121.331 E8.4071
G1 X117.701 Y120.511 E8.4649
G1 X117.701 Y113.051 E8.8371
G92 E0
G1 E-6.5000 F1800
G1 X119.297 Y113.827 F6000
G1 X127.234 Y113.827 F6000
G1 X147.212 Y115.454 F6000
G1 E0.0000 F1800
G92 E0
G1 X148.032 Y114.634 E0.0579 F1050
G1 X181.479 Y114.634 E1.7265
G1 X182.299 Y115.454 E1.7844
G1 X182.299 Y127.467 E2.3838
G1 X182.147 Y127.909 E2.4071
G1 X169.216 Y144.514 E3.4571
G1 X169.216 Y148.080 E3.6350
G1 X169.002 Y148.594 E3.6627
G1 X167.962 Y149.635 E3.7361
G1 X167.448 Y149.848 E3.7639
G1 X165.489 Y149.848 E3.8616
G1 X164.755 Y149.113 E3.9134
G1 X164.021 Y149.848 E3.9652
G1 X162.025 Y149.848 E4.0648
G1 X161.453 Y149.576 E4.0964
G1 X160.577 Y148.497 E4.1657
G1 X160.416 Y148.042 E4.1898
G1 X160.416 Y144.518 E4.3656
G1 X147.366 Y127.914 E5.4193
G1 X147.212 Y127.469 E5.4427
G1 X147.212 Y115.454 E6.0422
G92 E0
G1 E-6.5000 F1800
G1 X148.808 Y116.230 F6000
G1 X148.808 Y118.236 F6000
G1 X164.461 Y145.524 F6000
G1 E0.0000 F1800
G92 E0
G1 X164.339 Y145.618 E0.0077 F1050
G1 X164.246 Y145.740 E0.0153
G1 X164.187 Y145.881 E0.0230
G1 X164.167 Y146.034 E0.0306
G1 X164.187 Y146.186 E0.0383
G1 X164.246 Y146.328 E0.0459
G1 X164.692 Y146.909 E0.0825
G1 X164.755 Y147.094 E0.0923
G1 X164.818 Y146.909 E0.1020
G1 X165.264 Y146.328 E0.1386
G1 X165.323 Y146.186 E0.1463
G1 X165.343 Y146.034 E0.1539
G1 X165.323 Y145.881 E0.1616
G1 X165.264 Y145.740 E0.1692
G1 X165.171 Y145.618 E0.1769
G1 X165.049 Y145.524 E0.1845
G1 X164.907 Y145.466 E0.1922
G1 X164.755 Y145.446 E0.1999
G1 X164.603 Y145.466 E0.2075
G1 X164.461 Y145.524 E0.2152
G92 E0
G1 E-6.5000 F1800
G1 X163.656 Y144.130 F6000
G1 X163.201 Y144.480 F6000
G1 X162.852 Y144.935 F6000
G1 X162.632 Y145.465 F6000
G1 X162.557 Y146.034 F6000
G1 X162.632 Y146.602 F6000
G1 X162.776 Y146.949 F6000
G1 X136.899 Y168.832 F6000
G1 E0.0000 F1800
G92 E0
G1 X138.526 Y170.952 E0.1334 F1050
G1 X138.618 Y171.111 E0.1425
G1 X139.641 Y173.581 E0.2759
G1 X139.688 Y173.758 E0.2850
G1 X140.037 Y176.408 E0.4184
G1 X140.037 Y176.592 E0.4275
G1 X139.688 Y179.242 E0.5609
G1 X139.641 Y179.419 E0.5700
G1 X138.618 Y181.888 E0.7034
G1 X138.526 Y182.047 E0.7126
G1 X136.899 Y184.168 E0.8459
G1 X136.769 Y184.298 E0.8551
G1 X134.649 Y185.925 E0.9884
G1 X134.490 Y186.017 E0.9976
G1 X132.020 Y187.040 E1.1309
G1 X131.843 Y187.087 E1.1401
G1 X129.655 Y187.375 E1.2502
G1 X129.101 Y186.889 E1.2869
G1 X128.547 Y187.375 E1.3237
G1 X126.359 Y187.087 E1.4338
G1 X126.182 Y187.040 E1.4430
G1 X123.713 Y186.017 E1.5763
G1 X123.554 Y185.925 E1.5855
G1 X121.433 Y184.298 E1.7188
G1 X121.303 Y184.168 E1.7280
G1 X119.676 Y182.047 E1.8613
G1 X119.584 Y181.888 E1.8705
G1 X118.561 Y179.419 E2.0038
G1 X118.514 Y179.242 E2.0130
G1 X118.165 Y176.592 E2.1464
G1 X118.165 Y176.408 E2.1555
G1 X118.514 Y173.758 E2.2889
G1 X118.561 Y173.581 E2.2980
G1 X119.584 Y171.111 E2.4314
G1 X119.676 Y170.952 E2.4405
G1 X121.303 Y168.832 E2.5739
G1 X121.433 Y168.702 E2.5830
G1 X123.554 Y167.075 E2.7164
G1 X123.713 Y166.983 E2.7255
G1 X126.182 Y165.960 E2.8589
G1 X126.359 Y165.912 E2.8681
G1 X128.547 Y165.624 E2.9782
G1 X129.101 Y166.110 E3.0149
G1 X129.655 Y165.624 E3.0517
G1 X131.843 Y165.912 E3.1618
G1 X132.020 Y165.960 E3.1709
G1 X134.490 Y166.983 E3.3043
G1 X134.649 Y167.075 E3.3134
G1 X136.769 Y168.702 E3.4468
G1 X136.899 Y168.832 E3.4559
G92 E0
G1 E-6.5000 F1800
G1 X135.705 Y169.896 F6000
G1 X135.742 Y169.945 F6000
G1 X133.426 Y172.175 F6000
G1 E0.0000 F1800
G92 E0
G1 X132.159 Y171.204 E0.0796 F1050
G1 X130.684 Y170.593 E0.1593
G1 X129.396 Y170.423 E0.2241
G1 X129.101 Y170.087 E0.2464
G1 X128.806 Y170.423 E0.2687
G1 X127.518 Y170.593 E0.3335
G1 X126.043 Y171.204 E0.4132
G1 X124.777 Y172.175 E0.4928
G1 X123.805 Y173.442 E0.5725
G1 X123.194 Y174.917 E0.6521
G1 X122.986 Y176.500 E0.7318
G1 X123.194 Y178.083 E0.8114
G1 X123.805 Y179.558 E0.8911
G1 X124.777 Y180.824 E0.9707
G1 X126.043 Y181.796 E1.0504
G1 X127.518 Y182.407 E1.1300
G1 X128.806 Y182.577 E1.1948
G1 X129.101 Y182.913 E1.2171
G1 X129.396 Y182.577 E1.2395
G1 X130.684 Y182.407 E1.3043
G1 X132.159 Y181.796 E1.3839
G1 X133.425 Y180.824 E1.4636
G1 X134.397 Y179.558 E1.5432
G1 X135.008 Y178.083 E1.6229
G1 X135.217 Y176.500 E1.7025
G1 X135.008 Y174.917 E1.7822
G1 X134.397 Y173.442 E1.8618
G1 X133.425 Y172.175 E1.9415
G1 X133.711 Y171.890 F6000
G92 E0
G1 X132.361 Y170.854 E0.0849 F1050
G1 X130.788 Y170.203 E0.1698
G1 X129.597 Y170.046 E0.2297
G1 X129.101 Y169.480 E0.2673
G1 X128.605 Y170.046 E0.3048
G1 X127.414 Y170.203 E0.3648
G1 X125.842 Y170.854 E0.4497
G1 X124.492 Y171.890 E0.5346
G1 X123.456 Y173.240 E0.6195
G1 X122.804 Y174.813 E0.7044
G1 X122.582 Y176.500 E0.7893
G1 X122.804 Y178.187 E0.8742
G1 X123.456 Y179.759 E0.9591
G1 X124.492 Y181.109 E1.0440
G1 X125.842 Y182.145 E1.1289
G1 X127.414 Y182.797 E1.2138
G1 X128.605 Y182.953 E1.2737
G1 X129.101 Y183.519 E1.3113
G1 X129.597 Y182.953 E1.3488
G1 X130.788 Y182.797 E1.4088
G1 X132.361 Y182.145 E1.4937
G1 X133.711 Y181.109 E1.5786
G1 X134.747 Y179.759 E1.6635
G1 X135.398 Y178.187 E1.7484
G1 X135.620 Y176.500 E1.8333
G1 X135.398 Y174.813 E1.9182
G1 X134.747 Y173.240 E2.0031
G1 X133.711 Y171.890 E2.0880
G92 E0
G1 E-6.5000 F1800
G1 X136.598 Y169.096 F6000
G1 E0.0000 F1800
G92 E0
G1 X138.193 Y171.175 E0.1307 F1050
G1 X138.259 Y171.288 E0.1373
G1 X139.261 Y173.710 E0.2680
G1 X139.295 Y173.836 E0.2746
G1 X139.637 Y176.434 E0.4053
G1 X139.637 Y176.565 E0.4118
G1 X139.295 Y179.163 E0.5426
G1 X139.261 Y179.290 E0.5491
G1 X138.259 Y181.711 E0.6799
G1 X138.193 Y181.825 E0.6864
G1 X136.598 Y183.904 E0.8171
G1 X136.505 Y183.996 E0.8237
G1 X134.426 Y185.592 E0.9544
G1 X134.313 Y185.657 E0.9610
G1 X131.891 Y186.660 E1.0917
G1 X131.765 Y186.694 E1.0982
G1 X129.782 Y186.955 E1.1980
G1 X129.101 Y186.357 E1.2432
G1 X128.420 Y186.955 E1.2884
G1 X126.438 Y186.694 E1.3882
G1 X126.311 Y186.660 E1.3947
G1 X123.890 Y185.657 E1.5254
G1 X123.776 Y185.592 E1.5320
G1 X121.697 Y183.996 E1.6627
G1 X121.605 Y183.904 E1.6693
G1 X120.009 Y181.825 E1.8000
G1 X119.944 Y181.711 E1.8065
G1 X118.941 Y179.290 E1.9373
G1 X118.907 Y179.163 E1.9438
G1 X118.565 Y176.565 E2.0746
G1 X118.565 Y176.434 E2.0811
G1 X118.907 Y173.836 E2.2118
G1 X118.941 Y173.710 E2.2184
G1 X119.944 Y171.288 E2.3491
G1 X120.009 Y171.175 E2.3556
G1 X121.605 Y169.096 E2.4864
G1 X121.697 Y169.003 E2.4929
G1 X123.776 Y167.408 E2.6237
G1 X123.890 Y167.342 E2.6302
G1 X126.311 Y166.340 E2.7609
G1 X126.438 Y166.306 E2.7675
G1 X128.420 Y166.045 E2.8672
G1 X129.101 Y166.642 E2.9125
G1 X129.782 Y166.045 E2.9577
G1 X131.765 Y166.306 E3.0574
G1 X131.891 Y166.340 E3.0640
G1 X134.313 Y167.342 E3.1947
G1 X134.426 Y167.408 E3.2012
G1 X136.505 Y169.003 E3.3320
G1 X136.598 Y169.096 E3.3385
G1 X132.081 Y162.631 F6000
