; G-Code generated by Simplify3D(R) Version 4.1.2
; Sep 24, 2022 at 10:28:35 PM
; Settings Summary
;   processName,A11-04-15 Tevo Tornado
;   applyToModels,UseTheForce_BackPlane
;   profileName,A11-04-15 Tevo Tornado
;   profileVersion,2022-06-10 08:06:42
;   baseProfile,Creality CR-10(2)
;   printMaterial,PLA
;   printQuality,Medium
;   printExtruders,
;   extruderName,Primary Extruder
;   extruderToolheadNumber,0
;   extruderDiameter,0.4
;   extruderAutoWidth,0
;   extruderWidth,0.35
;   extrusionMultiplier,0.95
;   extruderUseRetract,1
;   extruderRetractionDistance,4
;   extruderExtraRestartDistance,0
;   extruderRetractionZLift,0.1
;   extruderRetractionSpeed,6000
;   extruderUseCoasting,1
;   extruderCoastingDistance,0.6
;   extruderUseWipe,1
;   extruderWipeDistance,5
;   primaryExtruder,0
;   layerHeight,0.15
;   topSolidLayers,5
;   bottomSolidLayers,4
;   perimeterOutlines,3
;   printPerimetersInsideOut,0
;   startPointOption,1
;   startPointOriginX,0
;   startPointOriginY,300
;   sequentialIslands,0
;   spiralVaseMode,0
;   firstLayerHeightPercentage,120
;   firstLayerWidthPercentage,100
;   firstLayerUnderspeed,0.4
;   useRaft,0
;   raftExtruder,0
;   raftTopLayers,3
;   raftBaseLayers,2
;   raftOffset,3
;   raftSeparationDistance,0.14
;   raftTopInfill,100
;   aboveRaftSpeedMultiplier,0.3
;   useSkirt,1
;   skirtExtruder,0
;   skirtLayers,1
;   skirtOutlines,2
;   skirtOffset,3
;   usePrimePillar,0
;   primePillarExtruder,999
;   primePillarWidth,12
;   primePillarLocation,7
;   primePillarSpeedMultiplier,1
;   useOozeShield,0
;   oozeShieldExtruder,999
;   oozeShieldOffset,2
;   oozeShieldOutlines,1
;   oozeShieldSidewallShape,1
;   oozeShieldSidewallAngle,30
;   oozeShieldSpeedMultiplier,1
;   infillExtruder,0
;   internalInfillPattern,Rectilinear
;   externalInfillPattern,Rectilinear
;   infillPercentage,15
;   outlineOverlapPercentage,15
;   infillExtrusionWidthPercentage,100
;   minInfillLength,5
;   infillLayerInterval,1
;   internalInfillAngles,45,-45
;   overlapInternalInfillAngles,0
;   externalInfillAngles,45,-45
;   generateSupport,0
;   supportExtruder,0
;   supportInfillPercentage,30
;   supportExtraInflation,0
;   supportBaseLayers,0
;   denseSupportExtruder,0
;   denseSupportLayers,0
;   denseSupportInfillPercentage,70
;   supportLayerInterval,1
;   supportHorizontalPartOffset,0.4
;   supportUpperSeparationLayers,1
;   supportLowerSeparationLayers,1
;   supportType,0
;   supportGridSpacing,4.5
;   maxOverhangAngle,45
;   supportAngles,0
;   temperatureName,Primary Extruder,Heated Bed
;   temperatureNumber,0,0
;   temperatureSetpointCount,2,2
;   temperatureSetpointLayers,1,2,1,2
;   temperatureSetpointTemperatures,215,210,55,50
;   temperatureStabilizeAtStartup,1,1
;   temperatureHeatedBed,0,1
;   fanLayers,1,2
;   fanSpeeds,0,100
;   blipFanToFullPower,0
;   adjustSpeedForCooling,1
;   minSpeedLayerTime,15
;   minCoolingSpeedSlowdown,20
;   increaseFanForCooling,1
;   minFanLayerTime,25
;   maxCoolingFanSpeed,100
;   increaseFanForBridging,1
;   bridgingFanSpeed,100
;   use5D,1
;   relativeEdistances,0
;   allowEaxisZeroing,1
;   independentExtruderAxes,0
;   includeM10123,0
;   stickySupport,1
;   applyToolheadOffsets,0
;   gcodeXoffset,0
;   gcodeYoffset,0
;   gcodeZoffset,0
;   overrideMachineDefinition,1
;   machineTypeOverride,0
;   strokeXoverride,300
;   strokeYoverride,300
;   strokeZoverride,400
;   originOffsetXoverride,0
;   originOffsetYoverride,0
;   originOffsetZoverride,0
;   homeXdirOverride,-1
;   homeYdirOverride,-1
;   homeZdirOverride,-1
;   flipXoverride,1
;   flipYoverride,-1
;   flipZoverride,1
;   toolheadOffsets,0,0|0,0|0,0|0,0|0,0|0,0
;   overrideFirmwareConfiguration,1
;   firmwareTypeOverride,RepRap (Marlin/Repetier/Sprinter)
;   GPXconfigOverride,r2
;   baudRateOverride,250000
;   overridePrinterModels,1
;   printerModelsOverride
;   startingGcode,;,; -]H.P.B[- MarshMalloW  ,; $VER: StartScript 1.02 (26.12.2019) MarshMalloW,;,; Begin Startcode,;,M117 *Preheat*     	; Preheat,;extruder0_temperature,M104 S[extruder0_temperature]  ,M109 S[extruder0_temperature] ,M109 R[extruder0_temperature] ,;,M117 *Auto-leveling*     	; Auto-leveling,M107                   	; Turn layer fan off,G21                    	; Set to metric [change to G20 if you want Imperial],G90                    	; Force coordinates to be absolute relative to the origin,G28                    	; Home X/Y/Z axis,G29                    	; Auto-leveling (BL-Touch),;,M117 *Start Clean*     	; Indicate nozzle clean in progress on LCD,G92 E0                 	; Set Extruder to 0 ,G1 X0 Y0 F2000         	; Move X and Y to 0 with speed 2000 (mm/min),G1 Z0.1 F1000          	; Move Z to   0.1 with speed 1000 (mm/min),G1 X8.0 F2000          	; Move X to   8.0 with speed 2000 (mm/min),G1 Y60.0 E4.0 F1000.0  	; Move Y to  60 and Extruder with 4.0 with speed 1000 (mm/min),G1 Y100.0 E8.5 F1000.0 	; Move Y to 100 and Extruder with 8.5 with speed 1000 (mm/min),G92 E0                 	; Set extruder to 0,G1 X16.0 F3000         	; Move X to 16.0 with speed 3000 (mm/min),G1 Y60.0 F3000         	; Move Y to 60.0 with speed 3000 (mm/min),M117 *End Clean*       	; Indicate nozzle clean in progress on LCD,G1 Z5 F3000            	; Move Z to  5.0 with speed 3000 (mm/min),G1 X20.0 F3000         	; Move X to 20.0 with speed 3000 (mm/min),G1 Y20.0 F3000         	; Move Y to 20.0 with speed 3000 (mm/min),; ,M117 *Printing...*     	; Start printing msg on LCD,;,; End Startcode,;,; Begin printing with sliced GCode after here,;
;   layerChangeGcode,
;   retractionGcode,
;   toolChangeGcode,
;   endingGcode,;,; init 181010,;,;M107 			; Fan off,;G1 E-1 F300 			; Retract the filament a bit before lifting the nozzle,;M104 S0 			; Turn off extruder,;M140 S0 			; Turn off bed,;G91			; Relative positioning,;G28 X0 Y0 			; Move X/Y to min endstops so the head is out of teh way,;M84 			; Disable motors,;G90 			; Absolute positioning,;M117 Print ready...,,;,; // From Cura 181010,; // End_gcode,G92 E0			; Zero the extruded length,;G1 E-30 F300		; Retract E -30,M106 S0			; Turn off cooling fan,M104 S0			; Turn off temperature,M140 S0		     	; Turn off bed,G91			; Relative positioning,G1 E-1 F300			; Retract the filament a bit before lifting the nozzle to release some of the pressure,G1 Z+20 E-5 X-20 Y-20 F7200	; Move Z up a bit and retract filament even more,G1 X0 Y150 F10000		; Move right min,M107			; Turn off layer fan,M84			; Disable motors,G90			; Absolute positioning,M117 *The-End* 		; End msg,;,
;   exportFileFormat,gcode
;   celebration,0
;   celebrationSong,Star Wars
;   postProcessing,|{REPLACE "; layer " "M117 INDICATOR-Layer"}|{REPLACE ", Z = " "\n; Z="}
;   defaultSpeed,2400
;   outlineUnderspeed,0.6
;   solidInfillUnderspeed,0.8
;   supportUnderspeed,0.8
;   rapidXYspeed,3600
;   rapidZspeed,900
;   minBridgingArea,50
;   bridgingExtraInflation,0.2
;   bridgingExtrusionMultiplier,1
;   bridgingSpeedMultiplier,0.6
;   useFixedBridgingAngle,0
;   fixedBridgingAngle,0
;   applyBridgingToPerimeters,0
;   filamentDiameters,1.75|1.75|1.75|1.75|1.75|1.75
;   filamentPricesPerKg,30|46|46|46|46|46
;   filamentDensities,1.25|1.25|1.25|1.25|1.25|1.25
;   useMinPrintHeight,0
;   minPrintHeight,2
;   useMaxPrintHeight,0
;   maxPrintHeight,50
;   useDiaphragm,0
;   diaphragmLayerInterval,20
;   robustSlicing,1
;   mergeAllIntoSolid,0
;   onlyRetractWhenCrossingOutline,1
;   retractBetweenLayers,1
;   useRetractionMinTravel,0
;   retractionMinTravel,3
;   retractWhileWiping,1
;   onlyWipeOutlines,1
;   avoidCrossingOutline,1
;   maxMovementDetourFactor,3
;   toolChangeRetractionDistance,12
;   toolChangeExtraRestartDistance,-0.5
;   toolChangeRetractionSpeed,600
;   externalThinWallType,1
;   internalThinWallType,1
;   thinWallAllowedOverlapPercentage,20
;   singleExtrusionMinLength,1
;   singleExtrusionMinPrintingWidthPercentage,50
;   singleExtrusionMaxPrintingWidthPercentage,200
;   singleExtrusionEndpointExtension,0.2
;   horizontalSizeCompensation,0
G90
M82
M106 S0
M140 S55
M190 S55
;
; -]H.P.B[- MarshMalloW  
; $VER: StartScript 1.02 (26.12.2019) MarshMalloW
;
; Begin Startcode
;
M117 *Preheat*     	; Preheat
;extruder0_temperature
M104 S215  
M109 S215 
M109 R215 
;
M117 *Auto-leveling*     	; Auto-leveling
M107                   	; Turn layer fan off
G21                    	; Set to metric [change to G20 if you want Imperial]
G90                    	; Force coordinates to be absolute relative to the origin
G28                    	; Home X/Y/Z axis
G29                    	; Auto-leveling (BL-Touch)
;
M117 *Start Clean*     	; Indicate nozzle clean in progress on LCD
G92 E0                 	; Set Extruder to 0 
G1 X0 Y0 F2000         	; Move X and Y to 0 with speed 2000 (mm/min)
G1 Z0.1 F1000          	; Move Z to   0.1 with speed 1000 (mm/min)
G1 X8.0 F2000          	; Move X to   8.0 with speed 2000 (mm/min)
G1 Y60.0 E4.0 F1000.0  	; Move Y to  60 and Extruder with 4.0 with speed 1000 (mm/min)
G1 Y100.0 E8.5 F1000.0 	; Move Y to 100 and Extruder with 8.5 with speed 1000 (mm/min)
G92 E0                 	; Set extruder to 0
G1 X16.0 F3000         	; Move X to 16.0 with speed 3000 (mm/min)
G1 Y60.0 F3000         	; Move Y to 60.0 with speed 3000 (mm/min)
M117 *End Clean*       	; Indicate nozzle clean in progress on LCD
G1 Z5 F3000            	; Move Z to  5.0 with speed 3000 (mm/min)
G1 X20.0 F3000         	; Move X to 20.0 with speed 3000 (mm/min)
G1 Y20.0 F3000         	; Move Y to 20.0 with speed 3000 (mm/min)
; 
M117 *Printing...*     	; Start printing msg on LCD
;
; End Startcode
;
; Begin printing with sliced GCode after here
;
; process A11-04-15 Tevo Tornado
M117 INDICATOR-Layer1
; Z=0.180
T0
G92 E0.0000
G1 E-4.0000 F6000
; feature skirt
; tool H0.180 W0.350
G1 Z0.180 F900
G1 X195.750 Y66.497 F3600
G1 E0.0000 F6000
G92 E0.0000
G1 X196.899 Y66.611 E0.0287 F960
G1 X197.070 Y66.636 E0.0330
G1 X198.202 Y66.861 E0.0617
G1 X198.370 Y66.903 E0.0661
G1 X199.474 Y67.238 E0.0948
G1 X199.637 Y67.297 E0.0991
G1 X200.690 Y67.733 E0.1274
G1 X200.820 Y67.793 E0.1310
G1 X201.452 Y68.117 E0.1487
G1 X201.558 Y68.176 E0.1517
G1 X202.446 Y68.711 E0.1775
G1 X202.587 Y68.805 E0.1817
G1 X203.512 Y69.492 E0.2104
G1 X203.646 Y69.601 E0.2147
G1 X204.501 Y70.377 E0.2434
G1 X204.623 Y70.499 E0.2477
G1 X205.399 Y71.354 E0.2764
G1 X205.508 Y71.488 E0.2807
G1 X206.196 Y72.415 E0.3094
G1 X206.292 Y72.559 E0.3138
G1 X206.885 Y73.549 E0.3425
G1 X206.967 Y73.702 E0.3468
G1 X207.461 Y74.745 E0.3755
G1 X207.527 Y74.905 E0.3798
G1 X207.916 Y75.992 E0.4085
G1 X207.966 Y76.157 E0.4128
G1 X208.246 Y77.277 E0.4416
G1 X208.280 Y77.447 E0.4459
G1 X208.446 Y78.567 E0.4740
G1 X208.461 Y78.696 E0.4773
G1 X208.506 Y79.315 E0.4927
G1 X208.511 Y79.444 E0.4959
G1 X208.523 Y220.043 E3.9944
G1 X208.521 Y220.130 E3.9966
G1 X208.466 Y221.239 E4.0242
G1 X208.449 Y221.412 E4.0285
G1 X208.283 Y222.532 E4.0567
G1 X208.259 Y222.660 E4.0599
G1 X208.127 Y223.250 E4.0750
G1 X208.102 Y223.347 E4.0775
G1 X207.913 Y224.010 E4.0946
G1 X207.876 Y224.125 E4.0977
G1 X207.524 Y225.101 E4.1235
G1 X207.460 Y225.257 E4.1277
G1 X206.973 Y226.285 E4.1560
G1 X206.907 Y226.412 E4.1595
G1 X206.552 Y227.028 E4.1772
G1 X206.488 Y227.130 E4.1802
G1 X205.922 Y227.973 E4.2055
G1 X205.848 Y228.075 E4.2086
G1 X205.468 Y228.563 E4.2240
G1 X205.384 Y228.662 E4.2272
G1 X204.638 Y229.485 E4.2549
G1 X204.547 Y229.578 E4.2581
G1 X204.098 Y230.006 E4.2735
G1 X204.001 Y230.092 E4.2768
G1 X203.125 Y230.810 E4.3050
G1 X202.986 Y230.913 E4.3093
G1 X202.026 Y231.555 E4.3380
G1 X201.878 Y231.644 E4.3423
G1 X200.879 Y232.177 E4.3705
G1 X200.762 Y232.234 E4.3737
G1 X200.195 Y232.486 E4.3891
G1 X200.075 Y232.534 E4.3924
G1 X199.008 Y232.916 E4.4206
G1 X198.843 Y232.966 E4.4249
G1 X197.723 Y233.246 E4.4536
G1 X197.553 Y233.280 E4.4579
G1 X196.433 Y233.446 E4.4861
G1 X196.304 Y233.461 E4.4893
G1 X195.685 Y233.506 E4.5047
G1 X195.556 Y233.511 E4.5080
G1 X104.957 Y233.523 E6.7623
G1 X104.870 Y233.521 E6.7645
G1 X103.761 Y233.466 E6.7921
G1 X103.588 Y233.449 E6.7964
G1 X102.468 Y233.283 E6.8246
G1 X102.340 Y233.260 E6.8278
G1 X101.756 Y233.128 E6.8427
G1 X101.672 Y233.107 E6.8449
G1 X101.095 Y232.948 E6.8598
G1 X100.971 Y232.908 E6.8630
G1 X99.905 Y232.527 E6.8912
G1 X99.745 Y232.461 E6.8955
G1 X98.721 Y231.976 E6.9237
G1 X98.606 Y231.917 E6.9269
G1 X98.085 Y231.621 E6.9418
G1 X98.011 Y231.577 E6.9440
G1 X97.505 Y231.256 E6.9589
G1 X97.398 Y231.183 E6.9621
G1 X96.505 Y230.521 E6.9897
G1 X96.404 Y230.440 E6.9930
G1 X95.934 Y230.035 E7.0084
G1 X95.839 Y229.947 E7.0116
G1 X95.038 Y229.146 E7.0398
G1 X94.922 Y229.017 E7.0441
G1 X94.190 Y228.125 E7.0729
G1 X94.087 Y227.986 E7.0772
G1 X93.457 Y227.044 E7.1053
G1 X93.389 Y226.934 E7.1086
G1 X93.083 Y226.394 E7.1240
G1 X93.024 Y226.279 E7.1272
G1 X92.539 Y225.255 E7.1554
G1 X92.473 Y225.095 E7.1597
G1 X92.092 Y224.029 E7.1879
G1 X92.052 Y223.905 E7.1911
G1 X91.893 Y223.328 E7.2060
G1 X91.872 Y223.244 E7.2082
G1 X91.740 Y222.660 E7.2231
G1 X91.717 Y222.532 E7.2263
G1 X91.551 Y221.412 E7.2545
G1 X91.534 Y221.239 E7.2588
G1 X91.479 Y220.130 E7.2865
G1 X91.477 Y220.043 E7.2886
G1 X91.477 Y79.957 E10.7743
G1 X91.479 Y79.870 E10.7765
G1 X91.534 Y78.761 E10.8041
G1 X91.551 Y78.588 E10.8085
G1 X91.717 Y77.468 E10.8366
G1 X91.740 Y77.340 E10.8399
G1 X91.876 Y76.735 E10.8553
G1 X91.910 Y76.609 E10.8585
G1 X92.232 Y75.546 E10.8862
G1 X92.274 Y75.424 E10.8894
G1 X92.492 Y74.859 E10.9045
G1 X92.531 Y74.767 E10.9070
G1 X92.815 Y74.138 E10.9241
G1 X92.868 Y74.030 E10.9271
G1 X93.360 Y73.116 E10.9529
G1 X93.447 Y72.972 E10.9571
G1 X94.075 Y72.032 E10.9853
G1 X94.151 Y71.927 E10.9885
G1 X94.532 Y71.437 E11.0039
G1 X94.616 Y71.338 E11.0072
G1 X95.362 Y70.515 E11.0348
G1 X95.453 Y70.422 E11.0380
G1 X95.902 Y69.994 E11.0535
G1 X95.999 Y69.908 E11.0567
G1 X96.858 Y69.203 E11.0843
G1 X96.961 Y69.125 E11.0876
G1 X97.469 Y68.768 E11.1030
G1 X97.577 Y68.697 E11.1062
G1 X98.549 Y68.115 E11.1344
G1 X98.702 Y68.033 E11.1387
G1 X99.745 Y67.539 E11.1675
G1 X99.905 Y67.473 E11.1718
G1 X100.992 Y67.084 E11.2005
G1 X101.157 Y67.034 E11.2048
G1 X102.277 Y66.754 E11.2335
G1 X102.447 Y66.720 E11.2378
G1 X103.567 Y66.554 E11.2660
G1 X103.696 Y66.539 E11.2692
G1 X104.315 Y66.494 E11.2847
G1 X104.445 Y66.489 E11.2879
G1 X195.577 Y66.489 E13.5555
G1 X195.750 Y66.497 E13.5598
G92 E0.0000
G1 E-4.0000 F6000
G1 Z0.280 F900
G1 X195.482 Y70.189 F3600
G1 X194.998 Y70.177
G1 X193.574 Y70.177
G1 X99.967 Y228.435
G1 X99.950 Y228.425
G1 X98.261 Y231.319
G1 Z0.180 F900
G1 E0.0000 F6000
G92 E0.0000
G1 X98.194 Y231.279 E0.0019 F960
G1 X97.697 Y230.964 E0.0166
G1 X97.601 Y230.898 E0.0195
G1 X96.719 Y230.244 E0.0468
G1 X96.628 Y230.171 E0.0497
G1 X96.168 Y229.774 E0.0648
G1 X96.082 Y229.694 E0.0677
G1 X95.292 Y228.904 E0.0955
G1 X95.187 Y228.789 E0.0994
G1 X94.466 Y227.910 E0.1277
G1 X94.373 Y227.785 E0.1316
G1 X93.752 Y226.855 E0.1594
G1 X93.691 Y226.756 E0.1623
G1 X93.391 Y226.227 E0.1774
G1 X93.337 Y226.123 E0.1803
G1 X92.860 Y225.113 E0.2082
G1 X92.800 Y224.969 E0.2120
G1 X92.423 Y223.917 E0.2398
G1 X92.388 Y223.805 E0.2427
G1 X92.231 Y223.239 E0.2574
G1 X92.212 Y223.163 E0.2593
G1 X92.083 Y222.589 E0.2740
G1 X92.062 Y222.474 E0.2769
G1 X91.898 Y221.369 E0.3047
G1 X91.883 Y221.214 E0.3086
G1 X91.829 Y220.117 E0.3359
G1 X91.827 Y220.039 E0.3378
G1 X91.827 Y79.961 E3.8233
G1 X91.829 Y79.883 E3.8253
G1 X91.883 Y78.786 E3.8526
G1 X91.898 Y78.631 E3.8565
G1 X92.062 Y77.526 E3.8843
G1 X92.083 Y77.411 E3.8872
G1 X92.217 Y76.818 E3.9023
G1 X92.246 Y76.705 E3.9052
G1 X92.565 Y75.654 E3.9325
G1 X92.603 Y75.544 E3.9355
G1 X92.817 Y74.989 E3.9502
G1 X92.852 Y74.906 E3.9525
G1 X93.131 Y74.288 E3.9694
G1 X93.180 Y74.190 E3.9721
G1 X93.664 Y73.289 E3.9975
G1 X93.742 Y73.159 E4.0013
G1 X94.362 Y72.232 E4.0291
G1 X94.431 Y72.137 E4.0320
G1 X94.804 Y71.658 E4.0471
G1 X94.880 Y71.568 E4.0500
G1 X95.617 Y70.755 E4.0773
G1 X95.699 Y70.671 E4.0802
G1 X96.139 Y70.252 E4.0954
G1 X96.226 Y70.175 E4.0983
G1 X97.075 Y69.478 E4.1256
G1 X97.168 Y69.407 E4.1285
G1 X97.665 Y69.057 E4.1436
G1 X97.763 Y68.994 E4.1465
G1 X98.722 Y68.419 E4.1743
