; G-Code generated by Simplify3D(R) Version 4.1.2
; Sep 30, 2022 at 6:25:09 PM
; Settings Summary
;   processName,A12-04 Tevo Tornado
;   applyToModels,UseTheForce_BackPlane
;   profileName,A12-04-15-04 Tevo Tornado
;   profileVersion,2022-09-29 17:21:54
;   baseProfile,Creality CR-10(2)
;   printMaterial,PLA
;   printQuality,Medium
;   printExtruders,
;   extruderName,Primary Extruder
;   extruderToolheadNumber,0
;   extruderDiameter,0.4
;   extruderAutoWidth,0
;   extruderWidth,0.35
;   extrusionMultiplier,0.95
;   extruderUseRetract,1
;   extruderRetractionDistance,4
;   extruderExtraRestartDistance,0
;   extruderRetractionZLift,0.3
;   extruderRetractionSpeed,3600
;   extruderUseCoasting,0
;   extruderCoastingDistance,0.5
;   extruderUseWipe,0
;   extruderWipeDistance,5
;   primaryExtruder,0
;   layerHeight,0.15
;   topSolidLayers,4
;   bottomSolidLayers,3
;   perimeterOutlines,3
;   printPerimetersInsideOut,0
;   startPointOption,2
;   startPointOriginX,0
;   startPointOriginY,300
;   sequentialIslands,0
;   spiralVaseMode,0
;   firstLayerHeightPercentage,120
;   firstLayerWidthPercentage,100
;   firstLayerUnderspeed,0.5
;   useRaft,0
;   raftExtruder,0
;   raftTopLayers,3
;   raftBaseLayers,2
;   raftOffset,3
;   raftSeparationDistance,0.14
;   raftTopInfill,100
;   aboveRaftSpeedMultiplier,0.3
;   useSkirt,1
;   skirtExtruder,0
;   skirtLayers,1
;   skirtOutlines,2
;   skirtOffset,3
;   usePrimePillar,0
;   primePillarExtruder,999
;   primePillarWidth,12
;   primePillarLocation,7
;   primePillarSpeedMultiplier,1
;   useOozeShield,0
;   oozeShieldExtruder,999
;   oozeShieldOffset,2
;   oozeShieldOutlines,1
;   oozeShieldSidewallShape,1
;   oozeShieldSidewallAngle,30
;   oozeShieldSpeedMultiplier,1
;   infillExtruder,0
;   internalInfillPattern,Rectilinear
;   externalInfillPattern,Rectilinear
;   infillPercentage,10
;   outlineOverlapPercentage,15
;   infillExtrusionWidthPercentage,100
;   minInfillLength,5
;   infillLayerInterval,1
;   internalInfillAngles,45,-45
;   overlapInternalInfillAngles,0
;   externalInfillAngles,45,-45
;   generateSupport,1
;   supportExtruder,0
;   supportInfillPercentage,30
;   supportExtraInflation,0
;   supportBaseLayers,0
;   denseSupportExtruder,0
;   denseSupportLayers,0
;   denseSupportInfillPercentage,70
;   supportLayerInterval,1
;   supportHorizontalPartOffset,0.4
;   supportUpperSeparationLayers,1
;   supportLowerSeparationLayers,1
;   supportType,0
;   supportGridSpacing,4.5
;   maxOverhangAngle,45
;   supportAngles,0
;   temperatureName,Primary Extruder,Heated Bed
;   temperatureNumber,0,0
;   temperatureSetpointCount,2,2
;   temperatureSetpointLayers,1,2,1,2
;   temperatureSetpointTemperatures,205,200,55,50
;   temperatureStabilizeAtStartup,1,1
;   temperatureHeatedBed,0,1
;   fanLayers,1,2
;   fanSpeeds,0,100
;   blipFanToFullPower,0
;   adjustSpeedForCooling,1
;   minSpeedLayerTime,15
;   minCoolingSpeedSlowdown,20
;   increaseFanForCooling,1
;   minFanLayerTime,25
;   maxCoolingFanSpeed,100
;   increaseFanForBridging,1
;   bridgingFanSpeed,100
;   use5D,1
;   relativeEdistances,0
;   allowEaxisZeroing,1
;   independentExtruderAxes,0
;   includeM10123,0
;   stickySupport,1
;   applyToolheadOffsets,0
;   gcodeXoffset,0
;   gcodeYoffset,0
;   gcodeZoffset,0
;   overrideMachineDefinition,1
;   machineTypeOverride,0
;   strokeXoverride,300
;   strokeYoverride,300
;   strokeZoverride,400
;   originOffsetXoverride,0
;   originOffsetYoverride,0
;   originOffsetZoverride,0
;   homeXdirOverride,-1
;   homeYdirOverride,-1
;   homeZdirOverride,-1
;   flipXoverride,1
;   flipYoverride,-1
;   flipZoverride,1
;   toolheadOffsets,0,0|0,0|0,0|0,0|0,0|0,0
;   overrideFirmwareConfiguration,1
;   firmwareTypeOverride,RepRap (Marlin/Repetier/Sprinter)
;   GPXconfigOverride,r2
;   baudRateOverride,250000
;   overridePrinterModels,1
;   printerModelsOverride
;   startingGcode,;,; -]H.P.B[- MarshMalloW  ,; $VER: StartScript 1.02 (26.12.2019) MarshMalloW,;,; Begin Startcode,;,M117 *Preheat*     	; Preheat,;extruder0_temperature,M104 S[extruder0_temperature]  ,M109 S[extruder0_temperature] ,M109 R[extruder0_temperature] ,;,M117 *Auto-leveling*     	; Auto-leveling,M107                   	; Turn layer fan off,G21                    	; Set to metric [change to G20 if you want Imperial],G90                    	; Force coordinates to be absolute relative to the origin,G28                    	; Home X/Y/Z axis,G29                    	; Auto-leveling (BL-Touch),;,M117 *Start Clean*     	; Indicate nozzle clean in progress on LCD,G92 E0                 	; Set Extruder to 0 ,G1 X0 Y0 F2000         	; Move X and Y to 0 with speed 2000 (mm/min),G1 Z0.1 F1000          	; Move Z to   0.1 with speed 1000 (mm/min),G1 X8.0 F2000          	; Move X to   8.0 with speed 2000 (mm/min),G1 Y60.0 E4.0 F1000.0  	; Move Y to  60 and Extruder with 4.0 with speed 1000 (mm/min),G1 Y100.0 E8.5 F1000.0 	; Move Y to 100 and Extruder with 8.5 with speed 1000 (mm/min),G92 E0                 	; Set extruder to 0,G1 X16.0 F3000         	; Move X to 16.0 with speed 3000 (mm/min),G1 Y60.0 F3000         	; Move Y to 60.0 with speed 3000 (mm/min),M117 *End Clean*       	; Indicate nozzle clean in progress on LCD,G1 Z5 F3000            	; Move Z to  5.0 with speed 3000 (mm/min),G1 X20.0 F3000         	; Move X to 20.0 with speed 3000 (mm/min),G1 Y20.0 F3000         	; Move Y to 20.0 with speed 3000 (mm/min),; ,M117 *Printing...*     	; Start printing msg on LCD,;,; End Startcode,;,; Begin printing with sliced GCode after here,;
;   layerChangeGcode,
;   retractionGcode,
;   toolChangeGcode,
;   endingGcode,;,; init 181010,;,;M107 			; Fan off,;G1 E-1 F300 			; Retract the filament a bit before lifting the nozzle,;M104 S0 			; Turn off extruder,;M140 S0 			; Turn off bed,;G91			; Relative positioning,;G28 X0 Y0 			; Move X/Y to min endstops so the head is out of teh way,;M84 			; Disable motors,;G90 			; Absolute positioning,;M117 Print ready...,,;,; // From Cura 181010,; // End_gcode,G92 E0			; Zero the extruded length,;G1 E-30 F300		; Retract E -30,M106 S0			; Turn off cooling fan,M104 S0			; Turn off temperature,M140 S0		     	; Turn off bed,G91			; Relative positioning,G1 E-1 F300			; Retract the filament a bit before lifting the nozzle to release some of the pressure,G1 Z+20 E-5 X-20 Y-20 F7200	; Move Z up a bit and retract filament even more,G1 X0 Y150 F10000		; Move right min,M107			; Turn off layer fan,M84			; Disable motors,G90			; Absolute positioning,M117 *The-End* 		; End msg,;,
;   exportFileFormat,gcode
;   celebration,0
;   celebrationSong,Star Wars
;   postProcessing,|{REPLACE "; layer " "M117 INDICATOR-Layer"}|{REPLACE ", Z = " "\n; Z="}
;   defaultSpeed,1800
;   outlineUnderspeed,0.5
;   solidInfillUnderspeed,0.8
;   supportUnderspeed,0.8
;   rapidXYspeed,6000
;   rapidZspeed,1002
;   minBridgingArea,50
;   bridgingExtraInflation,0.2
;   bridgingExtrusionMultiplier,1
;   bridgingSpeedMultiplier,0.8
;   useFixedBridgingAngle,0
;   fixedBridgingAngle,0
;   applyBridgingToPerimeters,0
;   filamentDiameters,1.75|1.75|1.75|1.75|1.75|1.75
;   filamentPricesPerKg,30|46|46|46|46|46
;   filamentDensities,1.25|1.25|1.25|1.25|1.25|1.25
;   useMinPrintHeight,0
;   minPrintHeight,0
;   useMaxPrintHeight,0
;   maxPrintHeight,50
;   useDiaphragm,0
;   diaphragmLayerInterval,20
;   robustSlicing,1
;   mergeAllIntoSolid,0
;   onlyRetractWhenCrossingOutline,1
;   retractBetweenLayers,1
;   useRetractionMinTravel,0
;   retractionMinTravel,3
;   retractWhileWiping,0
;   onlyWipeOutlines,1
;   avoidCrossingOutline,0
;   maxMovementDetourFactor,3
;   toolChangeRetractionDistance,12
;   toolChangeExtraRestartDistance,-0.5
;   toolChangeRetractionSpeed,600
;   externalThinWallType,0
;   internalThinWallType,1
;   thinWallAllowedOverlapPercentage,10
;   singleExtrusionMinLength,1
;   singleExtrusionMinPrintingWidthPercentage,50
;   singleExtrusionMaxPrintingWidthPercentage,200
;   singleExtrusionEndpointExtension,0.2
;   horizontalSizeCompensation,0
G90
M82
M106 S0
M140 S55
M190 S55
;
; -]H.P.B[- MarshMalloW  
; $VER: StartScript 1.02 (26.12.2019) MarshMalloW
;
; Begin Startcode
;
M117 *Preheat*     	; Preheat
;extruder0_temperature
M104 S205  
M109 S205 
M109 R205 
;
M117 *Auto-leveling*     	; Auto-leveling
M107                   	; Turn layer fan off
G21                    	; Set to metric [change to G20 if you want Imperial]
G90                    	; Force coordinates to be absolute relative to the origin
G28                    	; Home X/Y/Z axis
G29                    	; Auto-leveling (BL-Touch)
;
M117 *Start Clean*     	; Indicate nozzle clean in progress on LCD
G92 E0                 	; Set Extruder to 0 
G1 X0 Y0 F2000         	; Move X and Y to 0 with speed 2000 (mm/min)
G1 Z0.1 F1000          	; Move Z to   0.1 with speed 1000 (mm/min)
G1 X8.0 F2000          	; Move X to   8.0 with speed 2000 (mm/min)
G1 Y60.0 E4.0 F1000.0  	; Move Y to  60 and Extruder with 4.0 with speed 1000 (mm/min)
G1 Y100.0 E8.5 F1000.0 	; Move Y to 100 and Extruder with 8.5 with speed 1000 (mm/min)
G92 E0                 	; Set extruder to 0
G1 X16.0 F3000         	; Move X to 16.0 with speed 3000 (mm/min)
G1 Y60.0 F3000         	; Move Y to 60.0 with speed 3000 (mm/min)
M117 *End Clean*       	; Indicate nozzle clean in progress on LCD
G1 Z5 F3000            	; Move Z to  5.0 with speed 3000 (mm/min)
G1 X20.0 F3000         	; Move X to 20.0 with speed 3000 (mm/min)
G1 Y20.0 F3000         	; Move Y to 20.0 with speed 3000 (mm/min)
; 
M117 *Printing...*     	; Start printing msg on LCD
;
; End Startcode
;
; Begin printing with sliced GCode after here
;
; process A12-04 Tevo Tornado
M117 INDICATOR-Layer1
; Z=0.180
T0
G92 E0.0000
G1 E-4.0000 F3600
; feature skirt
; tool H0.180 W0.350
G1 Z0.300 F1002
G1 X94.163 Y71.911 F6000
G1 Z0.180 F1002
G1 E0.0000 F3600
G92 E0.0000
G1 X94.604 Y71.353 E0.0177 F900
G1 X94.683 Y71.261 E0.0207
G1 X95.371 Y70.505 E0.0461
G1 X95.468 Y70.407 E0.0496
G1 X95.986 Y69.921 E0.0672
G1 X96.077 Y69.842 E0.0702
G1 X96.863 Y69.200 E0.0955
G1 X96.963 Y69.124 E0.0986
G1 X97.469 Y68.768 E0.1140
G1 X97.577 Y68.697 E0.1173
G1 X98.549 Y68.115 E0.1454
G1 X98.702 Y68.033 E0.1497
G1 X99.745 Y67.539 E0.1785
G1 X99.905 Y67.473 E0.1828
G1 X100.992 Y67.084 E0.2115
G1 X101.157 Y67.034 E0.2158
G1 X102.262 Y66.757 E0.2441
G1 X102.402 Y66.728 E0.2477
G1 X103.104 Y66.612 E0.2654
G1 X103.224 Y66.596 E0.2684
G1 X104.256 Y66.497 E0.2942
G1 X104.425 Y66.489 E0.2984
G1 X195.577 Y66.489 E2.5665
G1 X195.750 Y66.497 E2.5708
G1 X196.899 Y66.611 E2.5996
G1 X197.070 Y66.636 E2.6039
G1 X198.202 Y66.861 E2.6326
G1 X198.370 Y66.903 E2.6369
G1 X199.474 Y67.238 E2.6656
G1 X199.637 Y67.297 E2.6699
G1 X200.704 Y67.738 E2.6986
G1 X200.860 Y67.812 E2.7029
G1 X201.878 Y68.356 E2.7317
G1 X202.026 Y68.445 E2.7360
G1 X202.968 Y69.075 E2.7642
G1 X203.073 Y69.151 E2.7674
G1 X203.563 Y69.532 E2.7828
G1 X203.662 Y69.616 E2.7861
G1 X204.485 Y70.362 E2.8137
G1 X204.578 Y70.453 E2.8169
G1 X205.006 Y70.902 E2.8324
G1 X205.092 Y70.999 E2.8356
G1 X205.810 Y71.875 E2.8638
G1 X205.913 Y72.014 E2.8681
G1 X206.555 Y72.974 E2.8968
G1 X206.644 Y73.122 E2.9011
G1 X207.188 Y74.140 E2.9298
G1 X207.262 Y74.296 E2.9341
G1 X207.705 Y75.368 E2.9630
G1 X207.767 Y75.541 E2.9676
G1 X208.121 Y76.734 E2.9985
G1 X208.161 Y76.896 E3.0027
G1 X208.365 Y77.936 E3.0291
G1 X208.390 Y78.103 E3.0333
G1 X208.502 Y79.250 E3.0619
G1 X208.511 Y79.423 E3.0662
G1 X208.523 Y220.043 E6.5653
G1 X208.521 Y220.130 E6.5674
G1 X208.466 Y221.239 E6.5951
G1 X208.449 Y221.412 E6.5994
G1 X208.283 Y222.532 E6.6275
G1 X208.259 Y222.660 E6.6308
G1 X208.127 Y223.250 E6.6458
G1 X208.102 Y223.347 E6.6483
G1 X207.913 Y224.010 E6.6655
G1 X207.876 Y224.125 E6.6685
G1 X207.524 Y225.101 E6.6943
G1 X207.460 Y225.257 E6.6985
G1 X206.973 Y226.285 E6.7268
G1 X206.907 Y226.412 E6.7304
G1 X206.552 Y227.028 E6.7481
G1 X206.488 Y227.130 E6.7511
G1 X205.922 Y227.973 E6.7763
G1 X205.848 Y228.075 E6.7795
G1 X205.468 Y228.563 E6.7948
G1 X205.384 Y228.662 E6.7981
G1 X204.638 Y229.485 E6.8257
G1 X204.547 Y229.578 E6.8289
G1 X204.098 Y230.006 E6.8444
G1 X204.001 Y230.092 E6.8476
G1 X203.125 Y230.810 E6.8758
G1 X202.986 Y230.913 E6.8801
G1 X202.026 Y231.555 E6.9088
G1 X201.878 Y231.644 E6.9131
G1 X200.879 Y232.177 E6.9413
G1 X200.762 Y232.234 E6.9445
G1 X200.195 Y232.486 E6.9600
G1 X200.075 Y232.534 E6.9632
G1 X199.008 Y232.916 E6.9914
G1 X198.843 Y232.966 E6.9957
G1 X197.723 Y233.246 E7.0244
G1 X197.553 Y233.280 E7.0287
G1 X196.433 Y233.446 E7.0569
G1 X196.304 Y233.461 E7.0601
G1 X195.685 Y233.506 E7.0756
G1 X195.556 Y233.511 E7.0788
G1 X104.957 Y233.523 E9.3331
G1 X104.870 Y233.521 E9.3353
G1 X103.761 Y233.466 E9.3629
G1 X103.588 Y233.449 E9.3673
G1 X102.468 Y233.283 E9.3954
G1 X102.340 Y233.260 E9.3987
G1 X101.756 Y233.128 E9.4136
G1 X101.672 Y233.107 E9.4157
G1 X101.095 Y232.948 E9.4306
G1 X100.971 Y232.908 E9.4339
G1 X99.905 Y232.527 E9.4620
G1 X99.745 Y232.461 E9.4663
G1 X98.721 Y231.976 E9.4945
G1 X98.606 Y231.917 E9.4978
G1 X98.085 Y231.621 E9.5127
G1 X98.011 Y231.577 E9.5148
G1 X97.505 Y231.256 E9.5297
G1 X97.398 Y231.183 E9.5329
G1 X96.505 Y230.521 E9.5606
G1 X96.404 Y230.440 E9.5638
G1 X95.934 Y230.035 E9.5792
G1 X95.839 Y229.947 E9.5825
G1 X95.038 Y229.146 E9.6107
G1 X94.922 Y229.017 E9.6150
G1 X94.190 Y228.125 E9.6437
G1 X94.087 Y227.986 E9.6480
G1 X93.457 Y227.044 E9.6762
G1 X93.389 Y226.934 E9.6794
G1 X93.083 Y226.394 E9.6948
G1 X93.024 Y226.279 E9.6981
G1 X92.539 Y225.255 E9.7263
G1 X92.473 Y225.095 E9.7306
G1 X92.092 Y224.029 E9.7587
G1 X92.052 Y223.905 E9.7620
G1 X91.893 Y223.328 E9.7769
G1 X91.872 Y223.244 E9.7790
G1 X91.740 Y222.660 E9.7939
G1 X91.717 Y222.532 E9.7972
G1 X91.551 Y221.412 E9.8253
G1 X91.534 Y221.239 E9.8297
G1 X91.479 Y220.130 E9.8573
G1 X91.477 Y220.043 E9.8594
G1 X91.477 Y79.957 E13.3452
G1 X91.479 Y79.870 E13.3473
G1 X91.533 Y78.782 E13.3744
G1 X91.544 Y78.653 E13.3777
G1 X91.617 Y78.058 E13.3926
G1 X91.630 Y77.973 E13.3947
G1 X91.732 Y77.383 E13.4096
G1 X91.759 Y77.256 E13.4129
G1 X92.034 Y76.157 E13.4410
G1 X92.084 Y75.992 E13.4453
G1 X92.466 Y74.925 E13.4735
G1 X92.514 Y74.805 E13.4768
G1 X92.766 Y74.237 E13.4922
G1 X92.823 Y74.121 E13.4954
G1 X93.356 Y73.122 E13.5236
G1 X93.445 Y72.974 E13.5279
G1 X94.078 Y72.026 E13.5563
G1 X94.163 Y71.911 E13.5598
G92 E0.0000
G1 E-4.0000 F3600
G1 Z0.480 F1002
G1 X94.441 Y72.123 F6000
G1 Z0.180 F1002
G1 E0.0000 F3600
G92 E0.0000
G1 X94.875 Y71.575 E0.0174 F900
G1 X94.945 Y71.492 E0.0201
G1 X95.625 Y70.746 E0.0452
G1 X95.713 Y70.657 E0.0483
G1 X96.221 Y70.181 E0.0656
G1 X96.303 Y70.109 E0.0683
G1 X97.080 Y69.475 E0.0933
G1 X97.170 Y69.406 E0.0961
G1 X97.665 Y69.057 E0.1112
G1 X97.763 Y68.994 E0.1141
G1 X98.722 Y68.419 E0.1419
G1 X98.859 Y68.346 E0.1458
G1 X99.887 Y67.860 E0.1741
G1 X100.031 Y67.800 E0.1780
G1 X101.101 Y67.417 E0.2063
G1 X101.251 Y67.372 E0.2101
G1 X102.341 Y67.099 E0.2381
G1 X102.467 Y67.072 E0.2413
G1 X103.155 Y66.958 E0.2587
G1 X103.263 Y66.944 E0.2614
G1 X104.282 Y66.846 E0.2868
G1 X104.433 Y66.839 E0.2906
G1 X195.569 Y66.839 E2.5583
G1 X195.724 Y66.847 E2.5622
G1 X196.856 Y66.958 E2.5905
G1 X197.010 Y66.981 E2.5944
G1 X198.125 Y67.203 E2.6226
G1 X198.276 Y67.241 E2.6265
G1 X199.364 Y67.571 E2.6548
G1 X199.511 Y67.623 E2.6587
G1 X200.562 Y68.058 E2.6870
G1 X200.703 Y68.125 E2.6909
G1 X201.705 Y68.661 E2.7192
G1 X201.839 Y68.741 E2.7230
G1 X202.768 Y69.362 E2.7508
G1 X202.863 Y69.431 E2.7538
G1 X203.342 Y69.804 E2.7689
G1 X203.432 Y69.880 E2.7718
G1 X204.245 Y70.617 E2.7991
G1 X204.329 Y70.699 E2.8020
G1 X204.748 Y71.139 E2.8171
G1 X204.825 Y71.226 E2.8200
G1 X205.534 Y72.090 E2.8478
G1 X205.627 Y72.215 E2.8517
G1 X206.259 Y73.161 E2.8800
G1 X206.339 Y73.295 E2.8839
G1 X206.875 Y74.297 E2.9122
G1 X206.942 Y74.438 E2.9161
G1 X207.379 Y75.493 E2.9445
G1 X207.434 Y75.649 E2.9486
G1 X207.783 Y76.826 E2.9791
G1 X207.819 Y76.972 E2.9829
G1 X208.020 Y77.996 E3.0088
G1 X208.042 Y78.146 E3.0126
G1 X208.153 Y79.276 E3.0409
G1 X208.161 Y79.431 E3.0447
G1 X208.173 Y220.039 E6.5434
G1 X208.171 Y220.117 E6.5454
G1 X208.117 Y221.214 E6.5727
