; G-Code generated by Simplify3D(R) Version 4.0.1
; Sep 25, 2022 at 7:51:31 PM
; Settings Summary
;   processName,A11-04-50 Tevo Tornado Test
;   applyToModels,use_the_force V2
;   profileName,A11-04-50 Tevo Tornado Test
;   profileVersion,2022-09-25 19:43:08
;   baseProfile,Creality CR-10(2)
;   printMaterial,PLA
;   printQuality,Medium
;   printExtruders,
;   extruderName,Primary Extruder
;   extruderToolheadNumber,0
;   extruderDiameter,0.4
;   extruderAutoWidth,0
;   extruderWidth,0.35
;   extrusionMultiplier,0.95
;   extruderUseRetract,1
;   extruderRetractionDistance,4
;   extruderExtraRestartDistance,0
;   extruderRetractionZLift,0.1
;   extruderRetractionSpeed,6600
;   extruderUseCoasting,1
;   extruderCoastingDistance,0.6
;   extruderUseWipe,1
;   extruderWipeDistance,5
;   primaryExtruder,0
;   layerHeight,0.15
;   topSolidLayers,7
;   bottomSolidLayers,4
;   perimeterOutlines,3
;   printPerimetersInsideOut,0
;   startPointOption,1
;   startPointOriginX,0
;   startPointOriginY,300
;   sequentialIslands,0
;   spiralVaseMode,0
;   firstLayerHeightPercentage,120
;   firstLayerWidthPercentage,100
;   firstLayerUnderspeed,0.4
;   useRaft,0
;   raftExtruder,0
;   raftTopLayers,3
;   raftBaseLayers,2
;   raftOffset,3
;   raftSeparationDistance,0.14
;   raftTopInfill,100
;   aboveRaftSpeedMultiplier,0.3
;   useSkirt,0
;   skirtExtruder,0
;   skirtLayers,1
;   skirtOutlines,2
;   skirtOffset,3
;   usePrimePillar,0
;   primePillarExtruder,999
;   primePillarWidth,12
;   primePillarLocation,7
;   primePillarSpeedMultiplier,1
;   useOozeShield,0
;   oozeShieldExtruder,999
;   oozeShieldOffset,2
;   oozeShieldOutlines,1
;   oozeShieldSidewallShape,1
;   oozeShieldSidewallAngle,30
;   oozeShieldSpeedMultiplier,1
;   infillExtruder,0
;   internalInfillPattern,Full Honeycomb
;   externalInfillPattern,Rectilinear
;   infillPercentage,50
;   outlineOverlapPercentage,15
;   infillExtrusionWidthPercentage,100
;   minInfillLength,5
;   infillLayerInterval,1
;   internalInfillAngles,0,120,-120
;   overlapInternalInfillAngles,0
;   externalInfillAngles,45,-45
;   generateSupport,0
;   supportExtruder,0
;   supportInfillPercentage,30
;   supportExtraInflation,0
;   supportBaseLayers,0
;   denseSupportExtruder,0
;   denseSupportLayers,0
;   denseSupportInfillPercentage,70
;   supportLayerInterval,1
;   supportHorizontalPartOffset,0.4
;   supportUpperSeparationLayers,1
;   supportLowerSeparationLayers,1
;   supportType,0
;   supportGridSpacing,4.5
;   maxOverhangAngle,45
;   supportAngles,0
;   temperatureName,Primary Extruder,Heated Bed
;   temperatureNumber,0,0
;   temperatureSetpointCount,2,2
;   temperatureSetpointLayers,1,2,1,2
;   temperatureSetpointTemperatures,215,205,55,50
;   temperatureStabilizeAtStartup,1,1
;   temperatureHeatedBed,0,1
;   temperatureRelayBetweenLayers,0,0
;   temperatureRelayBetweenLoops,0,0
;   fanLayers,1,2
;   fanSpeeds,0,100
;   blipFanToFullPower,0
;   adjustSpeedForCooling,1
;   minSpeedLayerTime,15
;   minCoolingSpeedSlowdown,20
;   increaseFanForCooling,1
;   minFanLayerTime,25
;   maxCoolingFanSpeed,100
;   increaseFanForBridging,1
;   bridgingFanSpeed,100
;   use5D,1
;   relativeEdistances,0
;   allowEaxisZeroing,1
;   independentExtruderAxes,0
;   includeM10123,0
;   stickySupport,1
;   applyToolheadOffsets,0
;   gcodeXoffset,0
;   gcodeYoffset,0
;   gcodeZoffset,0
;   overrideMachineDefinition,1
;   machineTypeOverride,0
;   strokeXoverride,300
;   strokeYoverride,300
;   strokeZoverride,400
;   originOffsetXoverride,0
;   originOffsetYoverride,0
;   originOffsetZoverride,0
;   homeXdirOverride,-1
;   homeYdirOverride,-1
;   homeZdirOverride,-1
;   flipXoverride,1
;   flipYoverride,-1
;   flipZoverride,1
;   toolheadOffsets,0,0|0,0|0,0|0,0|0,0|0,0
;   overrideFirmwareConfiguration,1
;   firmwareTypeOverride,RepRap (Marlin/Repetier/Sprinter)
;   GPXconfigOverride,r2
;   baudRateOverride,250000
;   overridePrinterModels,1
;   printerModelsOverride
;   startingGcode,;,; -]H.P.B[- MarshMalloW  ,; $VER: StartScript 1.02 (26.12.2019) MarshMalloW,;,; Begin Startcode,;,M117 *Preheat*     	; Preheat,;extruder0_temperature,M104 S[extruder0_temperature]  ,M109 S[extruder0_temperature] ,M109 R[extruder0_temperature] ,;,M117 *Auto-leveling*     	; Auto-leveling,M107                   	; Turn layer fan off,G21                    	; Set to metric [change to G20 if you want Imperial],G90                    	; Force coordinates to be absolute relative to the origin,G28                    	; Home X/Y/Z axis,;G29                    	; Auto-leveling (BL-Touch),;,M117 *Start Clean*     	; Indicate nozzle clean in progress on LCD,G92 E0                 	; Set Extruder to 0 ,G1 X0 Y0 F2000         	; Move X and Y to 0 with speed 2000 (mm/min),G1 Z0.1 F1000          	; Move Z to   0.1 with speed 1000 (mm/min),G1 X8.0 F2000          	; Move X to   8.0 with speed 2000 (mm/min),G1 Y60.0 E4.0 F1000.0  	; Move Y to  60 and Extruder with 4.0 with speed 1000 (mm/min),G1 Y100.0 E8.5 F1000.0 	; Move Y to 100 and Extruder with 8.5 with speed 1000 (mm/min),G92 E0                 	; Set extruder to 0,G1 X16.0 F3000         	; Move X to 16.0 with speed 3000 (mm/min),G1 Y60.0 F3000         	; Move Y to 60.0 with speed 3000 (mm/min),M117 *End Clean*       	; Indicate nozzle clean in progress on LCD,G1 Z5 F3000            	; Move Z to  5.0 with speed 3000 (mm/min),G1 X20.0 F3000         	; Move X to 20.0 with speed 3000 (mm/min),G1 Y20.0 F3000         	; Move Y to 20.0 with speed 3000 (mm/min),; ,M117 *Printing...*     	; Start printing msg on LCD,;,; End Startcode,;,; Begin printing with sliced GCode after here,;
;   layerChangeGcode,
;   retractionGcode,
;   toolChangeGcode,
;   endingGcode,;,; init 181010,;,;M107 			; Fan off,;G1 E-1 F300 			; Retract the filament a bit before lifting the nozzle,;M104 S0 			; Turn off extruder,;M140 S0 			; Turn off bed,;G91			; Relative positioning,;G28 X0 Y0 			; Move X/Y to min endstops so the head is out of teh way,;M84 			; Disable motors,;G90 			; Absolute positioning,;M117 Print ready...,,;,; // From Cura 181010,; // End_gcode,G92 E0			; Zero the extruded length,;G1 E-30 F300		; Retract E -30,M106 S0			; Turn off cooling fan,M104 S0			; Turn off temperature,M140 S0		     	; Turn off bed,G91			; Relative positioning,G1 E-1 F300			; Retract the filament a bit before lifting the nozzle to release some of the pressure,G1 Z+20 E-5 X-20 Y-20 F7200	; Move Z up a bit and retract filament even more,G1 X0 Y150 F10000		; Move right min,M107			; Turn off layer fan,M84			; Disable motors,G90			; Absolute positioning,M117 *The-End* 		; End msg,;,
;   exportFileFormat,gcode
;   celebration,0
;   celebrationSong,Star Wars
;   postProcessing,|{REPLACE "; layer " "M117 INDICATOR-Layer"}|{REPLACE ", Z = " "\n; Z="}
;   defaultSpeed,2400
;   outlineUnderspeed,0.6
;   solidInfillUnderspeed,0.8
;   supportUnderspeed,0.8
;   rapidXYspeed,3600
;   rapidZspeed,900
;   minBridgingArea,50
;   bridgingExtraInflation,0.2
;   bridgingExtrusionMultiplier,1
;   bridgingSpeedMultiplier,0.6
;   useFixedBridgingAngle,0
;   fixedBridgingAngle,0
;   applyBridgingToPerimeters,0
;   filamentDiameters,1.75|1.75|1.75|1.75|1.75|1.75
;   filamentPricesPerKg,30|46|46|46|46|46
;   filamentDensities,1.25|1.25|1.25|1.25|1.25|1.25
;   useMinPrintHeight,0
;   minPrintHeight,0
;   useMaxPrintHeight,0
;   maxPrintHeight,50
;   useDiaphragm,0
;   diaphragmLayerInterval,20
;   robustSlicing,1
;   mergeAllIntoSolid,0
;   onlyRetractWhenCrossingOutline,1
;   retractBetweenLayers,1
;   useRetractionMinTravel,0
;   retractionMinTravel,3
;   retractWhileWiping,1
;   onlyWipeOutlines,0
;   avoidCrossingOutline,1
;   maxMovementDetourFactor,3
;   toolChangeRetractionDistance,12
;   toolChangeExtraRestartDistance,-0.5
;   toolChangeRetractionSpeed,600
;   externalThinWallType,1
;   internalThinWallType,1
;   thinWallAllowedOverlapPercentage,20
;   singleExtrusionMinLength,1
;   singleExtrusionMinPrintingWidthPercentage,50
;   singleExtrusionMaxPrintingWidthPercentage,200
;   singleExtrusionEndpointExtension,0.2
;   horizontalSizeCompensation,0
G90
M82
M106 S0
M140 S55
M190 S55
;
; -]H.P.B[- MarshMalloW  
; $VER: StartScript 1.02 (26.12.2019) MarshMalloW
;
; Begin Startcode
;
M117 *Preheat*     	; Preheat
;extruder0_temperature
M104 S215  
M109 S215 
M109 R215 
;
M117 *Auto-leveling*     	; Auto-leveling
M107                   	; Turn layer fan off
G21                    	; Set to metric [change to G20 if you want Imperial]
G90                    	; Force coordinates to be absolute relative to the origin
G28                    	; Home X/Y/Z axis
;G29                    	; Auto-leveling (BL-Touch)
;
M117 *Start Clean*     	; Indicate nozzle clean in progress on LCD
G92 E0                 	; Set Extruder to 0 
G1 X0 Y0 F2000         	; Move X and Y to 0 with speed 2000 (mm/min)
G1 Z0.1 F1000          	; Move Z to   0.1 with speed 1000 (mm/min)
G1 X8.0 F2000          	; Move X to   8.0 with speed 2000 (mm/min)
G1 Y60.0 E4.0 F1000.0  	; Move Y to  60 and Extruder with 4.0 with speed 1000 (mm/min)
G1 Y100.0 E8.5 F1000.0 	; Move Y to 100 and Extruder with 8.5 with speed 1000 (mm/min)
G92 E0                 	; Set extruder to 0
G1 X16.0 F3000         	; Move X to 16.0 with speed 3000 (mm/min)
G1 Y60.0 F3000         	; Move Y to 60.0 with speed 3000 (mm/min)
M117 *End Clean*       	; Indicate nozzle clean in progress on LCD
G1 Z5 F3000            	; Move Z to  5.0 with speed 3000 (mm/min)
G1 X20.0 F3000         	; Move X to 20.0 with speed 3000 (mm/min)
G1 Y20.0 F3000         	; Move Y to 20.0 with speed 3000 (mm/min)
; 
M117 *Printing...*     	; Start printing msg on LCD
;
; End Startcode
;
; Begin printing with sliced GCode after here
;
G92 E0
G1 E-4.0000 F6600
G1 Z0.280 F900
; process A11-04-50 Tevo Tornado Test
M117 INDICATOR-Layer1
; Z=0.180
T0
; tool H0.180 W0.350
; outer perimeter
G1 X199.824 Y78.149 F3600
G1 Z0.180 F900
G1 E0.0000 F1980
G92 E0
G1 X199.824 Y81.801 E0.0909 F576
G1 X100.176 Y81.801 E2.5704
G1 X100.176 Y78.149 E2.6613
G1 X199.224 Y78.149 E5.1258
G1 X199.824 Y78.149 F576
G1 X199.824 Y81.801 F2400
G1 X198.476 Y81.801 F2400
; inner perimeter
G1 X199.474 Y81.451 F3600
G92 E0
G1 X100.526 Y81.451 E2.4621 F768
G1 X100.526 Y78.499 E2.5356
G1 X199.474 Y78.499 E4.9976
G1 X199.474 Y80.851 E5.0562
G1 X199.474 Y81.451 F768
G1 X194.474 Y81.451 F2400
G1 X199.124 Y81.101 F3600
G92 E0
G1 X100.876 Y81.101 E2.4447 F768
G1 X100.876 Y78.849 E2.5007
G1 X199.124 Y78.849 E4.9454
G1 X199.124 Y80.501 E4.9865
G1 X199.124 Y81.101 F768
G1 X194.124 Y81.101 F2400
; solid layer
G1 X198.435 Y79.146 F3600
G92 E0
G1 X198.826 Y79.538 E0.0138 F768
G1 X198.826 Y80.033 E0.0261
G1 X197.940 Y79.146 E0.0573
G1 X197.445 Y79.146 E0.0696
G1 X198.826 Y80.528 E0.1182
G1 X198.826 Y80.803 E0.1250
G1 X198.607 Y80.803 E0.1305
G1 X196.950 Y79.146 E0.1888
G1 X196.456 Y79.146 E0.2011
G1 X198.113 Y80.803 E0.2594
G1 X197.618 Y80.803 E0.2717
G1 X195.961 Y79.146 E0.3300
G1 X195.466 Y79.146 E0.3424
G1 X197.123 Y80.803 E0.4007
G1 X196.628 Y80.803 E0.4130
G1 X194.971 Y79.146 E0.4713
G1 X194.476 Y79.146 E0.4836
G1 X196.133 Y80.803 E0.5419
G1 X195.638 Y80.803 E0.5542
G1 X193.981 Y79.146 E0.6125
G1 X193.486 Y79.146 E0.6249
G1 X195.143 Y80.803 E0.6832
G1 X194.648 Y80.803 E0.6955
G1 X192.991 Y79.146 E0.7538
G1 X192.496 Y79.146 E0.7661
G1 X194.153 Y80.803 E0.8244
G1 X193.658 Y80.803 E0.8367
G1 X192.001 Y79.146 E0.8951
G1 X191.506 Y79.146 E0.9074
G1 X193.163 Y80.803 E0.9657
G1 X192.668 Y80.803 E0.9780
G1 X191.011 Y79.146 E1.0363
G1 X190.516 Y79.146 E1.0486
G1 X192.173 Y80.803 E1.1069
G1 X191.678 Y80.803 E1.1192
G1 X190.021 Y79.146 E1.1776
G1 X189.526 Y79.146 E1.1899
G1 X191.183 Y80.803 E1.2482
G1 X190.688 Y80.803 E1.2605
G1 X189.031 Y79.146 E1.3188
G1 X188.536 Y79.146 E1.3311
G1 X190.193 Y80.803 E1.3894
G1 X189.698 Y80.803 E1.4017
G1 X188.041 Y79.146 E1.4601
G1 X187.546 Y79.146 E1.4724
G1 X189.203 Y80.803 E1.5307
G1 X188.708 Y80.803 E1.5430
G1 X187.051 Y79.146 E1.6013
G1 X186.556 Y79.146 E1.6136
G1 X188.213 Y80.803 E1.6719
G1 X187.718 Y80.803 E1.6842
G1 X186.061 Y79.146 E1.7426
G1 X185.566 Y79.146 E1.7549
G1 X187.223 Y80.803 E1.8132
G1 X186.728 Y80.803 E1.8255
G1 X185.071 Y79.146 E1.8838
G1 X184.576 Y79.146 E1.8961
G1 X186.233 Y80.803 E1.9544
G1 X185.738 Y80.803 E1.9667
G1 X184.081 Y79.146 E2.0251
G1 X183.586 Y79.146 E2.0374
G1 X185.243 Y80.803 E2.0957
G1 X184.748 Y80.803 E2.1080
G1 X183.091 Y79.146 E2.1663
G1 X182.596 Y79.146 E2.1786
G1 X184.253 Y80.803 E2.2369
G1 X183.758 Y80.803 E2.2492
G1 X182.101 Y79.146 E2.3076
G1 X181.606 Y79.146 E2.3199
G1 X183.263 Y80.803 E2.3782
G1 X182.768 Y80.803 E2.3905
G1 X181.111 Y79.146 E2.4488
G1 X180.616 Y79.146 E2.4611
G1 X182.273 Y80.803 E2.5194
G1 X181.778 Y80.803 E2.5317
G1 X180.121 Y79.146 E2.5901
G1 X179.626 Y79.146 E2.6024
G1 X181.283 Y80.803 E2.6607
G1 X180.788 Y80.803 E2.6730
G1 X179.131 Y79.146 E2.7313
G1 X178.636 Y79.146 E2.7436
G1 X180.293 Y80.803 E2.8019
G1 X179.798 Y80.803 E2.8143
G1 X178.141 Y79.146 E2.8726
G1 X177.646 Y79.146 E2.8849
G1 X179.303 Y80.803 E2.9432
G1 X178.809 Y80.803 E2.9555
G1 X177.152 Y79.146 E3.0138
G1 X176.657 Y79.146 E3.0261
G1 X178.314 Y80.803 E3.0844
G1 X177.819 Y80.803 E3.0968
G1 X176.162 Y79.146 E3.1551
G1 X175.667 Y79.146 E3.1674
G1 X177.324 Y80.803 E3.2257
G1 X176.829 Y80.803 E3.2380
G1 X175.172 Y79.146 E3.2963
G1 X174.677 Y79.146 E3.3086
G1 X176.334 Y80.803 E3.3669
G1 X175.839 Y80.803 E3.3793
G1 X174.182 Y79.146 E3.4376
G1 X173.687 Y79.146 E3.4499
G1 X175.344 Y80.803 E3.5082
G1 X174.849 Y80.803 E3.5205
G1 X173.192 Y79.146 E3.5788
G1 X172.697 Y79.146 E3.5911
G1 X174.354 Y80.803 E3.6494
G1 X173.859 Y80.803 E3.6618
G1 X172.202 Y79.146 E3.7201
G1 X171.707 Y79.146 E3.7324
G1 X173.364 Y80.803 E3.7907
G1 X172.869 Y80.803 E3.8030
G1 X171.212 Y79.146 E3.8613
G1 X170.717 Y79.146 E3.8736
G1 X172.374 Y80.803 E3.9319
G1 X171.879 Y80.803 E3.9443
G1 X170.222 Y79.146 E4.0026
G1 X169.727 Y79.146 E4.0149
G1 X171.384 Y80.803 E4.0732
G1 X170.889 Y80.803 E4.0855
G1 X169.232 Y79.146 E4.1438
G1 X168.737 Y79.146 E4.1561
G1 X170.394 Y80.803 E4.2144
G1 X169.899 Y80.803 E4.2268
G1 X168.242 Y79.146 E4.2851
G1 X167.747 Y79.146 E4.2974
G1 X169.404 Y80.803 E4.3557
G1 X168.909 Y80.803 E4.3680
G1 X167.252 Y79.146 E4.4263
G1 X166.757 Y79.146 E4.4386
G1 X168.414 Y80.803 E4.4969
G1 X167.919 Y80.803 E4.5093
G1 X166.262 Y79.146 E4.5676
G1 X165.767 Y79.146 E4.5799
G1 X167.424 Y80.803 E4.6382
G1 X166.929 Y80.803 E4.6505
G1 X165.272 Y79.146 E4.7088
G1 X164.777 Y79.146 E4.7211
G1 X166.434 Y80.803 E4.7794
G1 X165.939 Y80.803 E4.7918
G1 X164.282 Y79.146 E4.8501
G1 X163.787 Y79.146 E4.8624
G1 X165.444 Y80.803 E4.9207
G1 X164.949 Y80.803 E4.9330
G1 X163.292 Y79.146 E4.9913
G1 X162.797 Y79.146 E5.0036
G1 X164.454 Y80.803 E5.0619
G1 X163.959 Y80.803 E5.0743
G1 X162.302 Y79.146 E5.1326
G1 X161.807 Y79.146 E5.1449
G1 X163.464 Y80.803 E5.2032
G1 X162.969 Y80.803 E5.2155
G1 X161.312 Y79.146 E5.2738
G1 X160.817 Y79.146 E5.2861
G1 X162.474 Y80.803 E5.3444
G1 X161.979 Y80.803 E5.3568
G1 X160.322 Y79.146 E5.4151
G1 X159.827 Y79.146 E5.4274
G1 X161.484 Y80.803 E5.4857
G1 X160.989 Y80.803 E5.4980
G1 X159.332 Y79.146 E5.5563
G1 X158.837 Y79.146 E5.5686
G1 X160.494 Y80.803 E5.6269
G1 X159.999 Y80.803 E5.6393
G1 X158.342 Y79.146 E5.6976
G1 X157.847 Y79.146 E5.7099
G1 X159.504 Y80.803 E5.7682
G1 X159.010 Y80.803 E5.7805
G1 X157.353 Y79.146 E5.8388
G1 X156.858 Y79.146 E5.8511
G1 X158.515 Y80.803 E5.9094
G1 X158.020 Y80.803 E5.9218
G1 X156.363 Y79.146 E5.9801
G1 X155.868 Y79.146 E5.9924
G1 X157.525 Y80.803 E6.0507
G1 X157.030 Y80.803 E6.0630
G1 X155.373 Y79.146 E6.1213
G1 X154.878 Y79.146 E6.1336
G1 X156.535 Y80.803 E6.1920
G1 X156.040 Y80.803 E6.2043
G1 X154.383 Y79.146 E6.2626
G1 X153.888 Y79.146 E6.2749
G1 X155.545 Y80.803 E6.3332
G1 X155.050 Y80.803 E6.3455
G1 X153.393 Y79.146 E6.4038
G1 X152.898 Y79.146 E6.4161
G1 X154.555 Y80.803 E6.4745
G1 X154.060 Y80.803 E6.4868
G1 X152.403 Y79.146 E6.5451
G1 X151.908 Y79.146 E6.5574
G1 X153.565 Y80.803 E6.6157
G1 X153.070 Y80.803 E6.6280
G1 X151.413 Y79.146 E6.6863
G1 X150.918 Y79.146 E6.6986
G1 X152.575 Y80.803 E6.7570
