; G-Code generated by Simplify3D(R) Version 4.1.2
; Sep 24, 2022 at 10:27:52 PM
; Settings Summary
;   processName,A11-04-15 Tevo Tornado
;   applyToModels,use_the_force V2
;   profileName,A11-04-15 Tevo Tornado (modified)
;   profileVersion,2022-06-10 08:06:42
;   baseProfile,Creality CR-10(2)
;   printMaterial,PLA
;   printQuality,Medium
;   printExtruders,
;   extruderName,Primary Extruder
;   extruderToolheadNumber,0
;   extruderDiameter,0.4
;   extruderAutoWidth,0
;   extruderWidth,0.35
;   extrusionMultiplier,0.95
;   extruderUseRetract,1
;   extruderRetractionDistance,4
;   extruderExtraRestartDistance,0
;   extruderRetractionZLift,0.1
;   extruderRetractionSpeed,6000
;   extruderUseCoasting,1
;   extruderCoastingDistance,0.6
;   extruderUseWipe,1
;   extruderWipeDistance,5
;   primaryExtruder,0
;   layerHeight,0.15
;   topSolidLayers,5
;   bottomSolidLayers,4
;   perimeterOutlines,3
;   printPerimetersInsideOut,0
;   startPointOption,1
;   startPointOriginX,0
;   startPointOriginY,300
;   sequentialIslands,0
;   spiralVaseMode,0
;   firstLayerHeightPercentage,120
;   firstLayerWidthPercentage,100
;   firstLayerUnderspeed,0.4
;   useRaft,0
;   raftExtruder,0
;   raftTopLayers,3
;   raftBaseLayers,2
;   raftOffset,3
;   raftSeparationDistance,0.14
;   raftTopInfill,100
;   aboveRaftSpeedMultiplier,0.3
;   useSkirt,0
;   skirtExtruder,0
;   skirtLayers,1
;   skirtOutlines,2
;   skirtOffset,3
;   usePrimePillar,0
;   primePillarExtruder,999
;   primePillarWidth,12
;   primePillarLocation,7
;   primePillarSpeedMultiplier,1
;   useOozeShield,0
;   oozeShieldExtruder,999
;   oozeShieldOffset,2
;   oozeShieldOutlines,1
;   oozeShieldSidewallShape,1
;   oozeShieldSidewallAngle,30
;   oozeShieldSpeedMultiplier,1
;   infillExtruder,0
;   internalInfillPattern,Rectilinear
;   externalInfillPattern,Rectilinear
;   infillPercentage,15
;   outlineOverlapPercentage,15
;   infillExtrusionWidthPercentage,100
;   minInfillLength,5
;   infillLayerInterval,1
;   internalInfillAngles,45,-45
;   overlapInternalInfillAngles,0
;   externalInfillAngles,45,-45
;   generateSupport,0
;   supportExtruder,0
;   supportInfillPercentage,30
;   supportExtraInflation,0
;   supportBaseLayers,0
;   denseSupportExtruder,0
;   denseSupportLayers,0
;   denseSupportInfillPercentage,70
;   supportLayerInterval,1
;   supportHorizontalPartOffset,0.4
;   supportUpperSeparationLayers,1
;   supportLowerSeparationLayers,1
;   supportType,0
;   supportGridSpacing,4.5
;   maxOverhangAngle,45
;   supportAngles,0
;   temperatureName,Primary Extruder,Heated Bed
;   temperatureNumber,0,0
;   temperatureSetpointCount,2,2
;   temperatureSetpointLayers,1,2,1,2
;   temperatureSetpointTemperatures,215,210,55,50
;   temperatureStabilizeAtStartup,1,1
;   temperatureHeatedBed,0,1
;   fanLayers,1,2
;   fanSpeeds,0,100
;   blipFanToFullPower,0
;   adjustSpeedForCooling,1
;   minSpeedLayerTime,15
;   minCoolingSpeedSlowdown,20
;   increaseFanForCooling,1
;   minFanLayerTime,25
;   maxCoolingFanSpeed,100
;   increaseFanForBridging,1
;   bridgingFanSpeed,100
;   use5D,1
;   relativeEdistances,0
;   allowEaxisZeroing,1
;   independentExtruderAxes,0
;   includeM10123,0
;   stickySupport,1
;   applyToolheadOffsets,0
;   gcodeXoffset,0
;   gcodeYoffset,0
;   gcodeZoffset,0
;   overrideMachineDefinition,1
;   machineTypeOverride,0
;   strokeXoverride,300
;   strokeYoverride,300
;   strokeZoverride,400
;   originOffsetXoverride,0
;   originOffsetYoverride,0
;   originOffsetZoverride,0
;   homeXdirOverride,-1
;   homeYdirOverride,-1
;   homeZdirOverride,-1
;   flipXoverride,1
;   flipYoverride,-1
;   flipZoverride,1
;   toolheadOffsets,0,0|0,0|0,0|0,0|0,0|0,0
;   overrideFirmwareConfiguration,1
;   firmwareTypeOverride,RepRap (Marlin/Repetier/Sprinter)
;   GPXconfigOverride,r2
;   baudRateOverride,250000
;   overridePrinterModels,1
;   printerModelsOverride
;   startingGcode,;,; -]H.P.B[- MarshMalloW  ,; $VER: StartScript 1.02 (26.12.2019) MarshMalloW,;,; Begin Startcode,;,M117 *Preheat*     	; Preheat,;extruder0_temperature,M104 S[extruder0_temperature]  ,M109 S[extruder0_temperature] ,M109 R[extruder0_temperature] ,;,M117 *Auto-leveling*     	; Auto-leveling,M107                   	; Turn layer fan off,G21                    	; Set to metric [change to G20 if you want Imperial],G90                    	; Force coordinates to be absolute relative to the origin,G28                    	; Home X/Y/Z axis,G29                    	; Auto-leveling (BL-Touch),;,M117 *Start Clean*     	; Indicate nozzle clean in progress on LCD,G92 E0                 	; Set Extruder to 0 ,G1 X0 Y0 F2000         	; Move X and Y to 0 with speed 2000 (mm/min),G1 Z0.1 F1000          	; Move Z to   0.1 with speed 1000 (mm/min),G1 X8.0 F2000          	; Move X to   8.0 with speed 2000 (mm/min),G1 Y60.0 E4.0 F1000.0  	; Move Y to  60 and Extruder with 4.0 with speed 1000 (mm/min),G1 Y100.0 E8.5 F1000.0 	; Move Y to 100 and Extruder with 8.5 with speed 1000 (mm/min),G92 E0                 	; Set extruder to 0,G1 X16.0 F3000         	; Move X to 16.0 with speed 3000 (mm/min),G1 Y60.0 F3000         	; Move Y to 60.0 with speed 3000 (mm/min),M117 *End Clean*       	; Indicate nozzle clean in progress on LCD,G1 Z5 F3000            	; Move Z to  5.0 with speed 3000 (mm/min),G1 X20.0 F3000         	; Move X to 20.0 with speed 3000 (mm/min),G1 Y20.0 F3000         	; Move Y to 20.0 with speed 3000 (mm/min),; ,M117 *Printing...*     	; Start printing msg on LCD,;,; End Startcode,;,; Begin printing with sliced GCode after here,;
;   layerChangeGcode,
;   retractionGcode,
;   toolChangeGcode,
;   endingGcode,;,; init 181010,;,;M107 			; Fan off,;G1 E-1 F300 			; Retract the filament a bit before lifting the nozzle,;M104 S0 			; Turn off extruder,;M140 S0 			; Turn off bed,;G91			; Relative positioning,;G28 X0 Y0 			; Move X/Y to min endstops so the head is out of teh way,;M84 			; Disable motors,;G90 			; Absolute positioning,;M117 Print ready...,,;,; // From Cura 181010,; // End_gcode,G92 E0			; Zero the extruded length,;G1 E-30 F300		; Retract E -30,M106 S0			; Turn off cooling fan,M104 S0			; Turn off temperature,M140 S0		     	; Turn off bed,G91			; Relative positioning,G1 E-1 F300			; Retract the filament a bit before lifting the nozzle to release some of the pressure,G1 Z+20 E-5 X-20 Y-20 F7200	; Move Z up a bit and retract filament even more,G1 X0 Y150 F10000		; Move right min,M107			; Turn off layer fan,M84			; Disable motors,G90			; Absolute positioning,M117 *The-End* 		; End msg,;,
;   exportFileFormat,gcode
;   celebration,0
;   celebrationSong,Star Wars
;   postProcessing,|{REPLACE "; layer " "M117 INDICATOR-Layer"}|{REPLACE ", Z = " "\n; Z="}
;   defaultSpeed,2400
;   outlineUnderspeed,0.6
;   solidInfillUnderspeed,0.8
;   supportUnderspeed,0.8
;   rapidXYspeed,3600
;   rapidZspeed,900
;   minBridgingArea,50
;   bridgingExtraInflation,0.2
;   bridgingExtrusionMultiplier,1
;   bridgingSpeedMultiplier,0.6
;   useFixedBridgingAngle,0
;   fixedBridgingAngle,0
;   applyBridgingToPerimeters,0
;   filamentDiameters,1.75|1.75|1.75|1.75|1.75|1.75
;   filamentPricesPerKg,30|46|46|46|46|46
;   filamentDensities,1.25|1.25|1.25|1.25|1.25|1.25
;   useMinPrintHeight,1
;   minPrintHeight,2
;   useMaxPrintHeight,0
;   maxPrintHeight,50
;   useDiaphragm,0
;   diaphragmLayerInterval,20
;   robustSlicing,1
;   mergeAllIntoSolid,0
;   onlyRetractWhenCrossingOutline,1
;   retractBetweenLayers,1
;   useRetractionMinTravel,0
;   retractionMinTravel,3
;   retractWhileWiping,1
;   onlyWipeOutlines,1
;   avoidCrossingOutline,1
;   maxMovementDetourFactor,3
;   toolChangeRetractionDistance,12
;   toolChangeExtraRestartDistance,-0.5
;   toolChangeRetractionSpeed,600
;   externalThinWallType,1
;   internalThinWallType,1
;   thinWallAllowedOverlapPercentage,20
;   singleExtrusionMinLength,1
;   singleExtrusionMinPrintingWidthPercentage,50
;   singleExtrusionMaxPrintingWidthPercentage,200
;   singleExtrusionEndpointExtension,0.2
;   horizontalSizeCompensation,0
G90
M82
M106 S0
M140 S55
M190 S55
;
; -]H.P.B[- MarshMalloW  
; $VER: StartScript 1.02 (26.12.2019) MarshMalloW
;
; Begin Startcode
;
M117 *Preheat*     	; Preheat
;extruder0_temperature
M104 S215  
M109 S215 
M109 R215 
;
M117 *Auto-leveling*     	; Auto-leveling
M107                   	; Turn layer fan off
G21                    	; Set to metric [change to G20 if you want Imperial]
G90                    	; Force coordinates to be absolute relative to the origin
G28                    	; Home X/Y/Z axis
G29                    	; Auto-leveling (BL-Touch)
;
M117 *Start Clean*     	; Indicate nozzle clean in progress on LCD
G92 E0                 	; Set Extruder to 0 
G1 X0 Y0 F2000         	; Move X and Y to 0 with speed 2000 (mm/min)
G1 Z0.1 F1000          	; Move Z to   0.1 with speed 1000 (mm/min)
G1 X8.0 F2000          	; Move X to   8.0 with speed 2000 (mm/min)
G1 Y60.0 E4.0 F1000.0  	; Move Y to  60 and Extruder with 4.0 with speed 1000 (mm/min)
G1 Y100.0 E8.5 F1000.0 	; Move Y to 100 and Extruder with 8.5 with speed 1000 (mm/min)
G92 E0                 	; Set extruder to 0
G1 X16.0 F3000         	; Move X to 16.0 with speed 3000 (mm/min)
G1 Y60.0 F3000         	; Move Y to 60.0 with speed 3000 (mm/min)
M117 *End Clean*       	; Indicate nozzle clean in progress on LCD
G1 Z5 F3000            	; Move Z to  5.0 with speed 3000 (mm/min)
G1 X20.0 F3000         	; Move X to 20.0 with speed 3000 (mm/min)
G1 Y20.0 F3000         	; Move Y to 20.0 with speed 3000 (mm/min)
; 
M117 *Printing...*     	; Start printing msg on LCD
;
; End Startcode
;
; Begin printing with sliced GCode after here
;
; process A11-04-15 Tevo Tornado
M117 INDICATOR-Layer1
; Z=2.160
T0
G92 E0.0000
G1 E-4.0000 F6000
; feature outer perimeter
; tool H0.180 W0.350
G1 Z2.160 F900
G1 X199.824 Y81.801 F3600
G1 E0.0000 F6000
G92 E0.0000
G1 X100.176 Y81.801 E2.4795 F576
G1 X100.176 Y78.149 E2.5704
G1 X199.824 Y78.149 E5.0499
G1 X199.824 Y81.201 E5.1258
G1 X199.824 Y81.801 F576
G1 X194.824 Y81.801 F576
; feature inner perimeter
G1 X199.474 Y81.451 F3600
G92 E0.0000
G1 X100.526 Y81.451 E2.4621 F768
G1 X100.526 Y78.499 E2.5356
G1 X199.474 Y78.499 E4.9976
G1 X199.474 Y80.851 E5.0562
G1 X199.474 Y81.451 F768
G1 X199.124 Y81.101 F3600
G92 E0.0000
G1 X100.876 Y81.101 E2.4447 F768
G1 X100.876 Y78.849 E2.5007
G1 X199.124 Y78.849 E4.9454
G1 X199.124 Y80.501 E4.9865
G1 X199.124 Y81.101 F768
; feature bridge
M106 S255
G1 X198.650 Y79.146 F3600
G92 E0.0000
G1 X198.650 Y80.803 E0.0412 F576
G1 X198.300 Y80.803 E0.0499
G1 X198.300 Y79.146 E0.0912
G1 X197.950 Y79.146 E0.0999
G1 X197.950 Y80.803 E0.1411
G1 X197.600 Y80.803 E0.1498
G1 X197.600 Y79.146 E0.1910
G1 X197.250 Y79.146 E0.1998
G1 X197.250 Y80.803 E0.2410
G1 X196.900 Y80.803 E0.2497
G1 X196.900 Y79.146 E0.2909
G1 X196.550 Y79.146 E0.2996
G1 X196.550 Y80.803 E0.3409
G1 X196.200 Y80.803 E0.3496
G1 X196.200 Y79.146 E0.3908
G1 X195.850 Y79.146 E0.3995
G1 X195.850 Y80.803 E0.4407
G1 X195.500 Y80.803 E0.4495
G1 X195.500 Y79.146 E0.4907
G1 X195.150 Y79.146 E0.4994
G1 X195.150 Y80.803 E0.5406
G1 X194.800 Y80.803 E0.5493
G1 X194.800 Y79.146 E0.5906
G1 X194.450 Y79.146 E0.5993
G1 X194.450 Y80.803 E0.6405
G1 X194.100 Y80.803 E0.6492
G1 X194.100 Y79.146 E0.6904
G1 X193.750 Y79.146 E0.6992
G1 X193.750 Y80.803 E0.7404
G1 X193.400 Y80.803 E0.7491
G1 X193.400 Y79.146 E0.7903
G1 X193.050 Y79.146 E0.7990
G1 X193.050 Y80.803 E0.8403
G1 X192.700 Y80.803 E0.8490
G1 X192.700 Y79.146 E0.8902
G1 X192.350 Y79.146 E0.8989
G1 X192.350 Y80.803 E0.9401
G1 X192.000 Y80.803 E0.9489
G1 X192.000 Y79.146 E0.9901
G1 X191.650 Y79.146 E0.9988
G1 X191.650 Y80.803 E1.0400
G1 X191.300 Y80.803 E1.0487
G1 X191.300 Y79.146 E1.0900
G1 X190.950 Y79.146 E1.0987
G1 X190.950 Y80.803 E1.1399
G1 X190.600 Y80.803 E1.1486
G1 X190.600 Y79.146 E1.1898
G1 X190.250 Y79.146 E1.1986
G1 X190.250 Y80.803 E1.2398
G1 X189.900 Y80.803 E1.2485
G1 X189.900 Y79.146 E1.2897
G1 X189.550 Y79.146 E1.2984
G1 X189.550 Y80.803 E1.3397
G1 X189.200 Y80.803 E1.3484
G1 X189.200 Y79.146 E1.3896
G1 X188.850 Y79.146 E1.3983
G1 X188.850 Y80.803 E1.4395
G1 X188.500 Y80.803 E1.4483
G1 X188.500 Y79.146 E1.4895
G1 X188.150 Y79.146 E1.4982
G1 X188.150 Y80.803 E1.5394
G1 X187.800 Y80.803 E1.5481
G1 X187.800 Y79.146 E1.5894
G1 X187.450 Y79.146 E1.5981
G1 X187.450 Y80.803 E1.6393
G1 X187.100 Y80.803 E1.6480
G1 X187.100 Y79.146 E1.6892
G1 X186.750 Y79.146 E1.6979
G1 X186.750 Y80.803 E1.7392
G1 X186.400 Y80.803 E1.7479
G1 X186.400 Y79.146 E1.7891
G1 X186.050 Y79.146 E1.7978
G1 X186.050 Y80.803 E1.8391
G1 X185.700 Y80.803 E1.8478
G1 X185.700 Y79.146 E1.8890
G1 X185.350 Y79.146 E1.8977
G1 X185.350 Y80.803 E1.9389
G1 X185.000 Y80.803 E1.9476
G1 X185.000 Y79.146 E1.9889
G1 X184.650 Y79.146 E1.9976
G1 X184.650 Y80.803 E2.0388
G1 X184.300 Y80.803 E2.0475
G1 X184.300 Y79.146 E2.0888
G1 X183.950 Y79.146 E2.0975
G1 X183.950 Y80.803 E2.1387
G1 X183.600 Y80.803 E2.1474
G1 X183.600 Y79.146 E2.1886
G1 X183.250 Y79.146 E2.1973
G1 X183.250 Y80.803 E2.2386
G1 X182.900 Y80.803 E2.2473
G1 X182.900 Y79.146 E2.2885
G1 X182.550 Y79.146 E2.2972
G1 X182.550 Y80.803 E2.3385
G1 X182.200 Y80.803 E2.3472
G1 X182.200 Y79.146 E2.3884
G1 X181.850 Y79.146 E2.3971
G1 X181.850 Y80.803 E2.4383
G1 X181.500 Y80.803 E2.4470
G1 X181.500 Y79.146 E2.4883
G1 X181.150 Y79.146 E2.4970
G1 X181.150 Y80.803 E2.5382
G1 X180.800 Y80.803 E2.5469
G1 X180.800 Y79.146 E2.5882
G1 X180.450 Y79.146 E2.5969
G1 X180.450 Y80.803 E2.6381
G1 X180.100 Y80.803 E2.6468
G1 X180.100 Y79.146 E2.6880
G1 X179.750 Y79.146 E2.6967
G1 X179.750 Y80.803 E2.7380
G1 X179.400 Y80.803 E2.7467
G1 X179.400 Y79.146 E2.7879
G1 X179.050 Y79.146 E2.7966
G1 X179.050 Y80.803 E2.8379
G1 X178.700 Y80.803 E2.8466
G1 X178.700 Y79.146 E2.8878
G1 X178.350 Y79.146 E2.8965
G1 X178.350 Y80.803 E2.9377
G1 X178.000 Y80.803 E2.9464
G1 X178.000 Y79.146 E2.9877
G1 X177.650 Y79.146 E2.9964
G1 X177.650 Y80.803 E3.0376
G1 X177.300 Y80.803 E3.0463
G1 X177.300 Y79.146 E3.0875
G1 X176.950 Y79.146 E3.0963
G1 X176.950 Y80.803 E3.1375
G1 X176.600 Y80.803 E3.1462
G1 X176.600 Y79.146 E3.1874
G1 X176.250 Y79.146 E3.1961
G1 X176.250 Y80.803 E3.2374
G1 X175.900 Y80.803 E3.2461
G1 X175.900 Y79.146 E3.2873
G1 X175.550 Y79.146 E3.2960
G1 X175.550 Y80.803 E3.3372
G1 X175.200 Y80.803 E3.3460
G1 X175.200 Y79.146 E3.3872
G1 X174.850 Y79.146 E3.3959
G1 X174.850 Y80.803 E3.4371
G1 X174.500 Y80.803 E3.4458
G1 X174.500 Y79.146 E3.4871
G1 X174.150 Y79.146 E3.4958
G1 X174.150 Y80.803 E3.5370
G1 X173.800 Y80.803 E3.5457
G1 X173.800 Y79.146 E3.5869
G1 X173.450 Y79.146 E3.5957
G1 X173.450 Y80.803 E3.6369
G1 X173.100 Y80.803 E3.6456
G1 X173.100 Y79.146 E3.6868
G1 X172.750 Y79.146 E3.6955
G1 X172.750 Y80.803 E3.7368
G1 X172.400 Y80.803 E3.7455
G1 X172.400 Y79.146 E3.7867
G1 X172.050 Y79.146 E3.7954
G1 X172.050 Y80.803 E3.8366
G1 X171.700 Y80.803 E3.8454
G1 X171.700 Y79.146 E3.8866
G1 X171.350 Y79.146 E3.8953
G1 X171.350 Y80.803 E3.9365
G1 X171.000 Y80.803 E3.9452
G1 X171.000 Y79.146 E3.9865
G1 X170.650 Y79.146 E3.9952
G1 X170.650 Y80.803 E4.0364
G1 X170.300 Y80.803 E4.0451
G1 X170.300 Y79.146 E4.0863
G1 X169.950 Y79.146 E4.0951
G1 X169.950 Y80.803 E4.1363
G1 X169.600 Y80.803 E4.1450
G1 X169.600 Y79.146 E4.1862
G1 X169.250 Y79.146 E4.1949
G1 X169.250 Y80.803 E4.2362
G1 X168.900 Y80.803 E4.2449
G1 X168.900 Y79.146 E4.2861
G1 X168.550 Y79.146 E4.2948
G1 X168.550 Y80.803 E4.3360
G1 X168.200 Y80.803 E4.3448
G1 X168.200 Y79.146 E4.3860
G1 X167.850 Y79.146 E4.3947
G1 X167.850 Y80.803 E4.4359
G1 X167.500 Y80.803 E4.4446
G1 X167.500 Y79.146 E4.4859
G1 X167.150 Y79.146 E4.4946
G1 X167.150 Y80.803 E4.5358
G1 X166.800 Y80.803 E4.5445
G1 X166.800 Y79.146 E4.5857
G1 X166.450 Y79.146 E4.5944
G1 X166.450 Y80.803 E4.6357
G1 X166.100 Y80.803 E4.6444
G1 X166.100 Y79.146 E4.6856
G1 X165.750 Y79.146 E4.6943
G1 X165.750 Y80.803 E4.7356
G1 X165.400 Y80.803 E4.7443
G1 X165.400 Y79.146 E4.7855
G1 X165.050 Y79.146 E4.7942
G1 X165.050 Y80.803 E4.8354
G1 X164.700 Y80.803 E4.8441
G1 X164.700 Y79.146 E4.8854
G1 X164.350 Y79.146 E4.8941
G1 X164.350 Y80.803 E4.9353
G1 X164.000 Y80.803 E4.9440
