; G-Code generated by Simplify3D(R) Version 4.1.2
; Sep 25, 2022 at 7:24:56 PM
; Settings Summary
;   processName,A11-04-50 Tevo Tornado
;   applyToModels,use_the_force V2
;   profileName,A11-04-50 Tevo Tornado Test
;   profileVersion,2022-09-25 09:27:11
;   baseProfile,Creality CR-10(2)
;   printMaterial,PLA
;   printQuality,Medium
;   printExtruders,
;   extruderName,Primary Extruder
;   extruderToolheadNumber,0
;   extruderDiameter,0.4
;   extruderAutoWidth,0
;   extruderWidth,0.35
;   extrusionMultiplier,0.95
;   extruderUseRetract,1
;   extruderRetractionDistance,4
;   extruderExtraRestartDistance,0
;   extruderRetractionZLift,0.1
;   extruderRetractionSpeed,6600
;   extruderUseCoasting,1
;   extruderCoastingDistance,0.6
;   extruderUseWipe,1
;   extruderWipeDistance,5
;   primaryExtruder,0
;   layerHeight,0.15
;   topSolidLayers,7
;   bottomSolidLayers,4
;   perimeterOutlines,3
;   printPerimetersInsideOut,0
;   startPointOption,1
;   startPointOriginX,0
;   startPointOriginY,300
;   sequentialIslands,0
;   spiralVaseMode,0
;   firstLayerHeightPercentage,120
;   firstLayerWidthPercentage,100
;   firstLayerUnderspeed,0.4
;   useRaft,0
;   raftExtruder,0
;   raftTopLayers,3
;   raftBaseLayers,2
;   raftOffset,3
;   raftSeparationDistance,0.14
;   raftTopInfill,100
;   aboveRaftSpeedMultiplier,0.3
;   useSkirt,0
;   skirtExtruder,0
;   skirtLayers,1
;   skirtOutlines,2
;   skirtOffset,3
;   usePrimePillar,0
;   primePillarExtruder,999
;   primePillarWidth,12
;   primePillarLocation,7
;   primePillarSpeedMultiplier,1
;   useOozeShield,0
;   oozeShieldExtruder,999
;   oozeShieldOffset,2
;   oozeShieldOutlines,1
;   oozeShieldSidewallShape,1
;   oozeShieldSidewallAngle,30
;   oozeShieldSpeedMultiplier,1
;   infillExtruder,0
;   internalInfillPattern,Full Honeycomb
;   externalInfillPattern,Rectilinear
;   infillPercentage,50
;   outlineOverlapPercentage,15
;   infillExtrusionWidthPercentage,100
;   minInfillLength,5
;   infillLayerInterval,1
;   internalInfillAngles,0,120,-120
;   overlapInternalInfillAngles,0
;   externalInfillAngles,45,-45
;   generateSupport,0
;   supportExtruder,0
;   supportInfillPercentage,30
;   supportExtraInflation,0
;   supportBaseLayers,0
;   denseSupportExtruder,0
;   denseSupportLayers,0
;   denseSupportInfillPercentage,70
;   supportLayerInterval,1
;   supportHorizontalPartOffset,0.4
;   supportUpperSeparationLayers,1
;   supportLowerSeparationLayers,1
;   supportType,0
;   supportGridSpacing,4.5
;   maxOverhangAngle,45
;   supportAngles,0
;   temperatureName,Primary Extruder,Heated Bed
;   temperatureNumber,0,0
;   temperatureSetpointCount,2,2
;   temperatureSetpointLayers,1,2,1,2
;   temperatureSetpointTemperatures,215,205,55,50
;   temperatureStabilizeAtStartup,1,1
;   temperatureHeatedBed,0,1
;   fanLayers,1,2
;   fanSpeeds,0,100
;   blipFanToFullPower,0
;   adjustSpeedForCooling,1
;   minSpeedLayerTime,15
;   minCoolingSpeedSlowdown,20
;   increaseFanForCooling,1
;   minFanLayerTime,25
;   maxCoolingFanSpeed,100
;   increaseFanForBridging,1
;   bridgingFanSpeed,100
;   use5D,1
;   relativeEdistances,0
;   allowEaxisZeroing,1
;   independentExtruderAxes,0
;   includeM10123,0
;   stickySupport,1
;   applyToolheadOffsets,0
;   gcodeXoffset,0
;   gcodeYoffset,0
;   gcodeZoffset,0
;   overrideMachineDefinition,1
;   machineTypeOverride,0
;   strokeXoverride,300
;   strokeYoverride,300
;   strokeZoverride,400
;   originOffsetXoverride,0
;   originOffsetYoverride,0
;   originOffsetZoverride,0
;   homeXdirOverride,-1
;   homeYdirOverride,-1
;   homeZdirOverride,-1
;   flipXoverride,1
;   flipYoverride,-1
;   flipZoverride,1
;   toolheadOffsets,0,0|0,0|0,0|0,0|0,0|0,0
;   overrideFirmwareConfiguration,1
;   firmwareTypeOverride,RepRap (Marlin/Repetier/Sprinter)
;   GPXconfigOverride,r2
;   baudRateOverride,250000
;   overridePrinterModels,1
;   printerModelsOverride
;   startingGcode,;,; -]H.P.B[- MarshMalloW  ,; $VER: StartScript 1.02 (26.12.2019) MarshMalloW,;,; Begin Startcode,;,M117 *Preheat*     	; Preheat,;extruder0_temperature,M104 S[extruder0_temperature]  ,M109 S[extruder0_temperature] ,M109 R[extruder0_temperature] ,;,M117 *Auto-leveling*     	; Auto-leveling,M107                   	; Turn layer fan off,G21                    	; Set to metric [change to G20 if you want Imperial],G90                    	; Force coordinates to be absolute relative to the origin,G28                    	; Home X/Y/Z axis,G29                    	; Auto-leveling (BL-Touch),;,M117 *Start Clean*     	; Indicate nozzle clean in progress on LCD,G92 E0                 	; Set Extruder to 0 ,G1 X0 Y0 F2000         	; Move X and Y to 0 with speed 2000 (mm/min),G1 Z0.1 F1000          	; Move Z to   0.1 with speed 1000 (mm/min),G1 X8.0 F2000          	; Move X to   8.0 with speed 2000 (mm/min),G1 Y60.0 E4.0 F1000.0  	; Move Y to  60 and Extruder with 4.0 with speed 1000 (mm/min),G1 Y100.0 E8.5 F1000.0 	; Move Y to 100 and Extruder with 8.5 with speed 1000 (mm/min),G92 E0                 	; Set extruder to 0,G1 X16.0 F3000         	; Move X to 16.0 with speed 3000 (mm/min),G1 Y60.0 F3000         	; Move Y to 60.0 with speed 3000 (mm/min),M117 *End Clean*       	; Indicate nozzle clean in progress on LCD,G1 Z5 F3000            	; Move Z to  5.0 with speed 3000 (mm/min),G1 X20.0 F3000         	; Move X to 20.0 with speed 3000 (mm/min),G1 Y20.0 F3000         	; Move Y to 20.0 with speed 3000 (mm/min),; ,M117 *Printing...*     	; Start printing msg on LCD,;,; End Startcode,;,; Begin printing with sliced GCode after here,;
;   layerChangeGcode,
;   retractionGcode,
;   toolChangeGcode,
;   endingGcode,;,; init 181010,;,;M107 			; Fan off,;G1 E-1 F300 			; Retract the filament a bit before lifting the nozzle,;M104 S0 			; Turn off extruder,;M140 S0 			; Turn off bed,;G91			; Relative positioning,;G28 X0 Y0 			; Move X/Y to min endstops so the head is out of teh way,;M84 			; Disable motors,;G90 			; Absolute positioning,;M117 Print ready...,,;,; // From Cura 181010,; // End_gcode,G92 E0			; Zero the extruded length,;G1 E-30 F300		; Retract E -30,M106 S0			; Turn off cooling fan,M104 S0			; Turn off temperature,M140 S0		     	; Turn off bed,G91			; Relative positioning,G1 E-1 F300			; Retract the filament a bit before lifting the nozzle to release some of the pressure,G1 Z+20 E-5 X-20 Y-20 F7200	; Move Z up a bit and retract filament even more,G1 X0 Y150 F10000		; Move right min,M107			; Turn off layer fan,M84			; Disable motors,G90			; Absolute positioning,M117 *The-End* 		; End msg,;,
;   exportFileFormat,gcode
;   celebration,0
;   celebrationSong,Star Wars
;   postProcessing,|{REPLACE "; layer " "M117 INDICATOR-Layer"}|{REPLACE ", Z = " "\n; Z="}
;   defaultSpeed,2400
;   outlineUnderspeed,0.6
;   solidInfillUnderspeed,0.8
;   supportUnderspeed,0.8
;   rapidXYspeed,3600
;   rapidZspeed,900
;   minBridgingArea,50
;   bridgingExtraInflation,0.2
;   bridgingExtrusionMultiplier,1
;   bridgingSpeedMultiplier,0.6
;   useFixedBridgingAngle,0
;   fixedBridgingAngle,0
;   applyBridgingToPerimeters,0
;   filamentDiameters,1.75|1.75|1.75|1.75|1.75|1.75
;   filamentPricesPerKg,30|46|46|46|46|46
;   filamentDensities,1.25|1.25|1.25|1.25|1.25|1.25
;   useMinPrintHeight,0
;   minPrintHeight,0
;   useMaxPrintHeight,0
;   maxPrintHeight,50
;   useDiaphragm,0
;   diaphragmLayerInterval,20
;   robustSlicing,1
;   mergeAllIntoSolid,0
;   onlyRetractWhenCrossingOutline,1
;   retractBetweenLayers,1
;   useRetractionMinTravel,0
;   retractionMinTravel,3
;   retractWhileWiping,1
;   onlyWipeOutlines,0
;   avoidCrossingOutline,1
;   maxMovementDetourFactor,3
;   toolChangeRetractionDistance,12
;   toolChangeExtraRestartDistance,-0.5
;   toolChangeRetractionSpeed,600
;   externalThinWallType,1
;   internalThinWallType,1
;   thinWallAllowedOverlapPercentage,20
;   singleExtrusionMinLength,1
;   singleExtrusionMinPrintingWidthPercentage,50
;   singleExtrusionMaxPrintingWidthPercentage,200
;   singleExtrusionEndpointExtension,0.2
;   horizontalSizeCompensation,0
G90
M82
M106 S255
M140 S50
M190 S50
;
; -]H.P.B[- MarshMalloW  
; $VER: StartScript 1.02 (26.12.2019) MarshMalloW
;
; Begin Startcode
;
M117 *Preheat*     	; Preheat
;extruder0_temperature
M104 S205  
M109 S205 
M109 R205 
;
M117 *Auto-leveling*     	; Auto-leveling
M107                   	; Turn layer fan off
G21                    	; Set to metric [change to G20 if you want Imperial]
G90                    	; Force coordinates to be absolute relative to the origin
G28                    	; Home X/Y/Z axis
G29                    	; Auto-leveling (BL-Touch)
;
M117 *Start Clean*     	; Indicate nozzle clean in progress on LCD
G92 E0                 	; Set Extruder to 0 
G1 X0 Y0 F2000         	; Move X and Y to 0 with speed 2000 (mm/min)
G1 Z0.1 F1000          	; Move Z to   0.1 with speed 1000 (mm/min)
G1 X8.0 F2000          	; Move X to   8.0 with speed 2000 (mm/min)
G1 Y60.0 E4.0 F1000.0  	; Move Y to  60 and Extruder with 4.0 with speed 1000 (mm/min)
G1 Y100.0 E8.5 F1000.0 	; Move Y to 100 and Extruder with 8.5 with speed 1000 (mm/min)
G92 E0                 	; Set extruder to 0
G1 X16.0 F3000         	; Move X to 16.0 with speed 3000 (mm/min)
G1 Y60.0 F3000         	; Move Y to 60.0 with speed 3000 (mm/min)
M117 *End Clean*       	; Indicate nozzle clean in progress on LCD
G1 Z5 F3000            	; Move Z to  5.0 with speed 3000 (mm/min)
G1 X20.0 F3000         	; Move X to 20.0 with speed 3000 (mm/min)
G1 Y20.0 F3000         	; Move Y to 20.0 with speed 3000 (mm/min)
; 
M117 *Printing...*     	; Start printing msg on LCD
;
; End Startcode
;
; Begin printing with sliced GCode after here
;
; process A11-04-50 Tevo Tornado
M117 INDICATOR-Layer1
; Z=2.130
T0
G92 E0.0000
G1 E-4.0000 F6600
; feature outer perimeter
; tool H0.150 W0.350
G1 Z2.130 F900
G1 X199.824 Y81.801 F3600
G1 E0.0000 F6600
G92 E0.0000
G1 X100.176 Y81.801 E2.0663 F1440
G1 X100.176 Y78.149 E2.1420
G1 X199.824 Y78.149 E4.2083
G1 X199.824 Y81.201 E4.2715
G1 X199.824 Y81.801 F1440
G1 X194.824 Y81.801 F1440
; feature inner perimeter
G1 X199.474 Y81.451 F3600
G92 E0.0000
G1 X100.526 Y81.451 E2.0517 F1920
G1 X100.526 Y78.499 E2.1130
G1 X199.474 Y78.499 E4.1647
G1 X199.474 Y80.851 E4.2135
G1 X199.474 Y81.451 F1920
G1 X194.474 Y81.451 F1920
G1 X199.124 Y81.101 F3600
G92 E0.0000
G1 X100.876 Y81.101 E2.0372 F1920
G1 X100.876 Y78.849 E2.0839
G1 X199.124 Y78.849 E4.1212
G1 X199.124 Y80.501 E4.1554
G1 X199.124 Y81.101 F1920
G1 X194.124 Y81.101 F1920
; feature bridge
G1 X198.650 Y79.146 F3600
G92 E0.0000
G1 X198.650 Y80.803 E0.0344 F1440
G1 X198.300 Y80.803 E0.0416
G1 X198.300 Y79.146 E0.0760
G1 X197.950 Y79.146 E0.0832
G1 X197.950 Y80.803 E0.1176
G1 X197.600 Y80.803 E0.1248
G1 X197.600 Y79.146 E0.1592
G1 X197.250 Y79.146 E0.1665
G1 X197.250 Y80.803 E0.2008
G1 X196.900 Y80.803 E0.2081
G1 X196.900 Y79.146 E0.2424
G1 X196.550 Y79.146 E0.2497
G1 X196.550 Y80.803 E0.2841
G1 X196.200 Y80.803 E0.2913
G1 X196.200 Y79.146 E0.3257
G1 X195.850 Y79.146 E0.3329
G1 X195.850 Y80.803 E0.3673
G1 X195.500 Y80.803 E0.3745
G1 X195.500 Y79.146 E0.4089
G1 X195.150 Y79.146 E0.4162
G1 X195.150 Y80.803 E0.4505
G1 X194.800 Y80.803 E0.4578
G1 X194.800 Y79.146 E0.4921
G1 X194.450 Y79.146 E0.4994
G1 X194.450 Y80.803 E0.5338
G1 X194.100 Y80.803 E0.5410
G1 X194.100 Y79.146 E0.5754
G1 X193.750 Y79.146 E0.5826
G1 X193.750 Y80.803 E0.6170
G1 X193.400 Y80.803 E0.6242
G1 X193.400 Y79.146 E0.6586
G1 X193.050 Y79.146 E0.6659
G1 X193.050 Y80.803 E0.7002
G1 X192.700 Y80.803 E0.7075
G1 X192.700 Y79.146 E0.7418
G1 X192.350 Y79.146 E0.7491
G1 X192.350 Y80.803 E0.7835
G1 X192.000 Y80.803 E0.7907
G1 X192.000 Y79.146 E0.8251
G1 X191.650 Y79.146 E0.8323
G1 X191.650 Y80.803 E0.8667
G1 X191.300 Y80.803 E0.8739
G1 X191.300 Y79.146 E0.9083
G1 X190.950 Y79.146 E0.9156
G1 X190.950 Y80.803 E0.9499
G1 X190.600 Y80.803 E0.9572
G1 X190.600 Y79.146 E0.9915
G1 X190.250 Y79.146 E0.9988
G1 X190.250 Y80.803 E1.0332
G1 X189.900 Y80.803 E1.0404
G1 X189.900 Y79.146 E1.0748
G1 X189.550 Y79.146 E1.0820
G1 X189.550 Y80.803 E1.1164
G1 X189.200 Y80.803 E1.1236
G1 X189.200 Y79.146 E1.1580
G1 X188.850 Y79.146 E1.1653
G1 X188.850 Y80.803 E1.1996
G1 X188.500 Y80.803 E1.2069
G1 X188.500 Y79.146 E1.2412
G1 X188.150 Y79.146 E1.2485
G1 X188.150 Y80.803 E1.2829
G1 X187.800 Y80.803 E1.2901
G1 X187.800 Y79.146 E1.3245
G1 X187.450 Y79.146 E1.3317
G1 X187.450 Y80.803 E1.3661
G1 X187.100 Y80.803 E1.3733
G1 X187.100 Y79.146 E1.4077
G1 X186.750 Y79.146 E1.4150
G1 X186.750 Y80.803 E1.4493
G1 X186.400 Y80.803 E1.4566
G1 X186.400 Y79.146 E1.4909
G1 X186.050 Y79.146 E1.4982
G1 X186.050 Y80.803 E1.5325
G1 X185.700 Y80.803 E1.5398
G1 X185.700 Y79.146 E1.5742
G1 X185.350 Y79.146 E1.5814
G1 X185.350 Y80.803 E1.6158
G1 X185.000 Y80.803 E1.6230
G1 X185.000 Y79.146 E1.6574
G1 X184.650 Y79.146 E1.6647
G1 X184.650 Y80.803 E1.6990
G1 X184.300 Y80.803 E1.7063
G1 X184.300 Y79.146 E1.7406
G1 X183.950 Y79.146 E1.7479
G1 X183.950 Y80.803 E1.7822
G1 X183.600 Y80.803 E1.7895
G1 X183.600 Y79.146 E1.8239
G1 X183.250 Y79.146 E1.8311
G1 X183.250 Y80.803 E1.8655
G1 X182.900 Y80.803 E1.8727
G1 X182.900 Y79.146 E1.9071
G1 X182.550 Y79.146 E1.9144
G1 X182.550 Y80.803 E1.9487
G1 X182.200 Y80.803 E1.9560
G1 X182.200 Y79.146 E1.9903
G1 X181.850 Y79.146 E1.9976
G1 X181.850 Y80.803 E2.0319
G1 X181.500 Y80.803 E2.0392
G1 X181.500 Y79.146 E2.0736
G1 X181.150 Y79.146 E2.0808
G1 X181.150 Y80.803 E2.1152
G1 X180.800 Y80.803 E2.1224
G1 X180.800 Y79.146 E2.1568
G1 X180.450 Y79.146 E2.1641
G1 X180.450 Y80.803 E2.1984
G1 X180.100 Y80.803 E2.2057
G1 X180.100 Y79.146 E2.2400
G1 X179.750 Y79.146 E2.2473
G1 X179.750 Y80.803 E2.2816
G1 X179.400 Y80.803 E2.2889
G1 X179.400 Y79.146 E2.3233
G1 X179.050 Y79.146 E2.3305
G1 X179.050 Y80.803 E2.3649
G1 X178.700 Y80.803 E2.3721
G1 X178.700 Y79.146 E2.4065
G1 X178.350 Y79.146 E2.4138
G1 X178.350 Y80.803 E2.4481
G1 X178.000 Y80.803 E2.4554
G1 X178.000 Y79.146 E2.4897
G1 X177.650 Y79.146 E2.4970
G1 X177.650 Y80.803 E2.5313
G1 X177.300 Y80.803 E2.5386
G1 X177.300 Y79.146 E2.5730
G1 X176.950 Y79.146 E2.5802
G1 X176.950 Y80.803 E2.6146
G1 X176.600 Y80.803 E2.6218
G1 X176.600 Y79.146 E2.6562
G1 X176.250 Y79.146 E2.6634
G1 X176.250 Y80.803 E2.6978
G1 X175.900 Y80.803 E2.7051
G1 X175.900 Y79.146 E2.7394
G1 X175.550 Y79.146 E2.7467
G1 X175.550 Y80.803 E2.7810
G1 X175.200 Y80.803 E2.7883
G1 X175.200 Y79.146 E2.8227
G1 X174.850 Y79.146 E2.8299
G1 X174.850 Y80.803 E2.8643
G1 X174.500 Y80.803 E2.8715
G1 X174.500 Y79.146 E2.9059
G1 X174.150 Y79.146 E2.9131
G1 X174.150 Y80.803 E2.9475
G1 X173.800 Y80.803 E2.9548
G1 X173.800 Y79.146 E2.9891
G1 X173.450 Y79.146 E2.9964
G1 X173.450 Y80.803 E3.0307
G1 X173.100 Y80.803 E3.0380
G1 X173.100 Y79.146 E3.0724
G1 X172.750 Y79.146 E3.0796
G1 X172.750 Y80.803 E3.1140
G1 X172.400 Y80.803 E3.1212
G1 X172.400 Y79.146 E3.1556
G1 X172.050 Y79.146 E3.1628
G1 X172.050 Y80.803 E3.1972
G1 X171.700 Y80.803 E3.2045
G1 X171.700 Y79.146 E3.2388
G1 X171.350 Y79.146 E3.2461
G1 X171.350 Y80.803 E3.2804
G1 X171.000 Y80.803 E3.2877
G1 X171.000 Y79.146 E3.3221
G1 X170.650 Y79.146 E3.3293
G1 X170.650 Y80.803 E3.3637
G1 X170.300 Y80.803 E3.3709
G1 X170.300 Y79.146 E3.4053
G1 X169.950 Y79.146 E3.4125
G1 X169.950 Y80.803 E3.4469
G1 X169.600 Y80.803 E3.4542
G1 X169.600 Y79.146 E3.4885
G1 X169.250 Y79.146 E3.4958
G1 X169.250 Y80.803 E3.5301
G1 X168.900 Y80.803 E3.5374
G1 X168.900 Y79.146 E3.5718
G1 X168.550 Y79.146 E3.5790
G1 X168.550 Y80.803 E3.6134
G1 X168.200 Y80.803 E3.6206
G1 X168.200 Y79.146 E3.6550
G1 X167.850 Y79.146 E3.6622
G1 X167.850 Y80.803 E3.6966
G1 X167.500 Y80.803 E3.7039
G1 X167.500 Y79.146 E3.7382
G1 X167.150 Y79.146 E3.7455
G1 X167.150 Y80.803 E3.7798
G1 X166.800 Y80.803 E3.7871
G1 X166.800 Y79.146 E3.8214
G1 X166.450 Y79.146 E3.8287
G1 X166.450 Y80.803 E3.8631
G1 X166.100 Y80.803 E3.8703
G1 X166.100 Y79.146 E3.9047
G1 X165.750 Y79.146 E3.9119
G1 X165.750 Y80.803 E3.9463
G1 X165.400 Y80.803 E3.9536
G1 X165.400 Y79.146 E3.9879
G1 X165.050 Y79.146 E3.9952
G1 X165.050 Y80.803 E4.0295
G1 X164.700 Y80.803 E4.0368
G1 X164.700 Y79.146 E4.0711
G1 X164.350 Y79.146 E4.0784
