; G-Code generated by Simplify3D(R) Version 4.1.2
; Apr 9, 2020 at 4:38:03 PM
; Settings Summary
;   processName,Process1
;   applyToModels,Rail_medium-2_134mm_v6
;   profileName,A03-04-15 Tevo Tornado (experimental)
;   profileVersion,2020-04-01 17:30:42
;   baseProfile,Creality CR-10(2)
;   printMaterial,PLA
;   printQuality,Medium
;   printExtruders,
;   extruderName,Primary Extruder
;   extruderToolheadNumber,0
;   extruderDiameter,0.4
;   extruderAutoWidth,0
;   extruderWidth,0.35
;   extrusionMultiplier,0.95
;   extruderUseRetract,1
;   extruderRetractionDistance,4
;   extruderExtraRestartDistance,0
;   extruderRetractionZLift,0.3
;   extruderRetractionSpeed,3000
;   extruderUseCoasting,0
;   extruderCoastingDistance,0.2
;   extruderUseWipe,0
;   extruderWipeDistance,4
;   primaryExtruder,0
;   layerHeight,0.15
;   topSolidLayers,4
;   bottomSolidLayers,3
;   perimeterOutlines,3
;   printPerimetersInsideOut,0
;   startPointOption,1
;   startPointOriginX,0
;   startPointOriginY,300
;   sequentialIslands,0
;   spiralVaseMode,0
;   firstLayerHeightPercentage,120
;   firstLayerWidthPercentage,100
;   firstLayerUnderspeed,0.5
;   useRaft,0
;   raftExtruder,0
;   raftTopLayers,3
;   raftBaseLayers,2
;   raftOffset,3
;   raftSeparationDistance,0.14
;   raftTopInfill,100
;   aboveRaftSpeedMultiplier,0.3
;   useSkirt,1
;   skirtExtruder,0
;   skirtLayers,1
;   skirtOutlines,3
;   skirtOffset,2
;   usePrimePillar,0
;   primePillarExtruder,999
;   primePillarWidth,12
;   primePillarLocation,7
;   primePillarSpeedMultiplier,1
;   useOozeShield,0
;   oozeShieldExtruder,999
;   oozeShieldOffset,2
;   oozeShieldOutlines,1
;   oozeShieldSidewallShape,1
;   oozeShieldSidewallAngle,30
;   oozeShieldSpeedMultiplier,1
;   infillExtruder,0
;   internalInfillPattern,Rectilinear
;   externalInfillPattern,Rectilinear
;   infillPercentage,15
;   outlineOverlapPercentage,15
;   infillExtrusionWidthPercentage,100
;   minInfillLength,5
;   infillLayerInterval,1
;   internalInfillAngles,45,-45
;   overlapInternalInfillAngles,0
;   externalInfillAngles,45,-45
;   generateSupport,1
;   supportExtruder,0
;   supportInfillPercentage,30
;   supportExtraInflation,0
;   supportBaseLayers,0
;   denseSupportExtruder,0
;   denseSupportLayers,0
;   denseSupportInfillPercentage,70
;   supportLayerInterval,1
;   supportHorizontalPartOffset,0.4
;   supportUpperSeparationLayers,1
;   supportLowerSeparationLayers,1
;   supportType,0
;   supportGridSpacing,4.5
;   maxOverhangAngle,45
;   supportAngles,0
;   temperatureName,Primary Extruder,Heated Bed
;   temperatureNumber,0,0
;   temperatureSetpointCount,1,1
;   temperatureSetpointLayers,1,1
;   temperatureSetpointTemperatures,215,55
;   temperatureStabilizeAtStartup,1,1
;   temperatureHeatedBed,0,1
;   fanLayers,1,2
;   fanSpeeds,0,100
;   blipFanToFullPower,0
;   adjustSpeedForCooling,1
;   minSpeedLayerTime,15
;   minCoolingSpeedSlowdown,50
;   increaseFanForCooling,1
;   minFanLayerTime,25
;   maxCoolingFanSpeed,100
;   increaseFanForBridging,1
;   bridgingFanSpeed,100
;   use5D,1
;   relativeEdistances,0
;   allowEaxisZeroing,1
;   independentExtruderAxes,0
;   includeM10123,0
;   stickySupport,1
;   applyToolheadOffsets,0
;   gcodeXoffset,0
;   gcodeYoffset,0
;   gcodeZoffset,0
;   overrideMachineDefinition,1
;   machineTypeOverride,0
;   strokeXoverride,300
;   strokeYoverride,300
;   strokeZoverride,400
;   originOffsetXoverride,0
;   originOffsetYoverride,0
;   originOffsetZoverride,0
;   homeXdirOverride,-1
;   homeYdirOverride,-1
;   homeZdirOverride,-1
;   flipXoverride,1
;   flipYoverride,-1
;   flipZoverride,1
;   toolheadOffsets,0,0|0,0|0,0|0,0|0,0|0,0
;   overrideFirmwareConfiguration,1
;   firmwareTypeOverride,RepRap (Marlin/Repetier/Sprinter)
;   GPXconfigOverride,r2
;   baudRateOverride,250000
;   overridePrinterModels,1
;   printerModelsOverride
;   startingGcode,;,; -]H.P.B[- MarshMalloW  ,; $VER: StartScript 1.02 (26.12.2019) MarshMalloW,;,; Begin Startcode,;,M117 *Preheat*     	; Preheat,;extruder0_temperature,M104 S[extruder0_temperature]  ,M109 S[extruder0_temperature] ,M109 R[extruder0_temperature] ,;,M117 *Auto-leveling*     	; Auto-leveling,M107                   	; Turn layer fan off,G21                    	; Set to metric [change to G20 if you want Imperial],G90                    	; Force coordinates to be absolute relative to the origin,G28                    	; Home X/Y/Z axis,G29                    	; Auto-leveling (BL-Touch),;,M117 *Start Clean*     	; Indicate nozzle clean in progress on LCD,G92 E0                 	; Set Extruder to 0 ,G1 X0 Y0 F2000         	; Move X and Y to 0 with speed 2000 (mm/min),G1 Z0.1 F1000          	; Move Z to   0.1 with speed 1000 (mm/min),G1 X8.0 F2000          	; Move X to   8.0 with speed 2000 (mm/min),G1 Y60.0 E4.0 F1000.0  	; Move Y to  60 and Extruder with 4.0 with speed 1000 (mm/min),G1 Y100.0 E8.5 F1000.0 	; Move Y to 100 and Extruder with 8.5 with speed 1000 (mm/min),G92 E0                 	; Set extruder to 0,G1 X16.0 F3000         	; Move X to 16.0 with speed 3000 (mm/min),G1 Y60.0 F3000         	; Move Y to 60.0 with speed 3000 (mm/min),M117 *End Clean*       	; Indicate nozzle clean in progress on LCD,G1 Z5 F3000            	; Move Z to  5.0 with speed 3000 (mm/min),G1 X20.0 F3000         	; Move X to 20.0 with speed 3000 (mm/min),G1 Y20.0 F3000         	; Move Y to 20.0 with speed 3000 (mm/min),; ,M117 *Printing...*     	; Start printing msg on LCD,;,; End Startcode,;,; Begin printing with sliced GCode after here,;
;   layerChangeGcode,
;   retractionGcode,
;   toolChangeGcode,
;   endingGcode,;,; init 181010,;,;M107 			; Fan off,;G1 E-1 F300 			; Retract the filament a bit before lifting the nozzle,;M104 S0 			; Turn off extruder,;M140 S0 			; Turn off bed,;G91			; Relative positioning,;G28 X0 Y0 			; Move X/Y to min endstops so the head is out of teh way,;M84 			; Disable motors,;G90 			; Absolute positioning,;M117 Print ready...,,;,; // From Cura 181010,; // End_gcode,G92 E0			; Zero the extruded length,;G1 E-30 F300		; Retract E -30,M106 S0			; Turn off cooling fan,M104 S0			; Turn off temperature,M140 S0		     	; Turn off bed,G91			; Relative positioning,G1 E-1 F300			; Retract the filament a bit before lifting the nozzle to release some of the pressure,G1 Z+20 E-5 X-20 Y-20 F7200	; Move Z up a bit and retract filament even more,G1 X0 Y150 F10000		; Move right min,M107			; Turn off layer fan,M84			; Disable motors,G90			; Absolute positioning,M117 *The-End* 		; End msg,;,
;   exportFileFormat,gcode
;   celebration,0
;   celebrationSong,Star Wars
;   postProcessing,
;   defaultSpeed,1800
;   outlineUnderspeed,0.5
;   solidInfillUnderspeed,0.8
;   supportUnderspeed,0.8
;   rapidXYspeed,6000
;   rapidZspeed,1002
;   minBridgingArea,50
;   bridgingExtraInflation,0.2
;   bridgingExtrusionMultiplier,1
;   bridgingSpeedMultiplier,0.6
;   useFixedBridgingAngle,0
;   fixedBridgingAngle,0
;   applyBridgingToPerimeters,0
;   filamentDiameters,1.75|1.75|1.75|1.75|1.75|1.75
;   filamentPricesPerKg,30|46|46|46|46|46
;   filamentDensities,1.25|1.25|1.25|1.25|1.25|1.25
;   useMinPrintHeight,0
;   minPrintHeight,0
;   useMaxPrintHeight,0
;   maxPrintHeight,9
;   useDiaphragm,0
;   diaphragmLayerInterval,20
;   robustSlicing,1
;   mergeAllIntoSolid,0
;   onlyRetractWhenCrossingOutline,1
;   retractBetweenLayers,1
;   useRetractionMinTravel,0
;   retractionMinTravel,3
;   retractWhileWiping,0
;   onlyWipeOutlines,1
;   avoidCrossingOutline,0
;   maxMovementDetourFactor,3
;   toolChangeRetractionDistance,12
;   toolChangeExtraRestartDistance,-0.5
;   toolChangeRetractionSpeed,600
;   externalThinWallType,1
;   internalThinWallType,1
;   thinWallAllowedOverlapPercentage,10
;   singleExtrusionMinLength,1
;   singleExtrusionMinPrintingWidthPercentage,50
;   singleExtrusionMaxPrintingWidthPercentage,200
;   singleExtrusionEndpointExtension,0.2
;   horizontalSizeCompensation,0
G90
M82
M106 S0
M140 S55
M190 S55
;
; -]H.P.B[- MarshMalloW  
; $VER: StartScript 1.02 (26.12.2019) MarshMalloW
;
; Begin Startcode
;
M117 *Preheat*     	; Preheat
;extruder0_temperature
M104 S215  
M109 S215 
M109 R215 
;
M117 *Auto-leveling*     	; Auto-leveling
M107                   	; Turn layer fan off
G21                    	; Set to metric [change to G20 if you want Imperial]
G90                    	; Force coordinates to be absolute relative to the origin
G28                    	; Home X/Y/Z axis
G29                    	; Auto-leveling (BL-Touch)
;
M117 *Start Clean*     	; Indicate nozzle clean in progress on LCD
G92 E0                 	; Set Extruder to 0 
G1 X0 Y0 F2000         	; Move X and Y to 0 with speed 2000 (mm/min)
G1 Z0.1 F1000          	; Move Z to   0.1 with speed 1000 (mm/min)
G1 X8.0 F2000          	; Move X to   8.0 with speed 2000 (mm/min)
G1 Y60.0 E4.0 F1000.0  	; Move Y to  60 and Extruder with 4.0 with speed 1000 (mm/min)
G1 Y100.0 E8.5 F1000.0 	; Move Y to 100 and Extruder with 8.5 with speed 1000 (mm/min)
G92 E0                 	; Set extruder to 0
G1 X16.0 F3000         	; Move X to 16.0 with speed 3000 (mm/min)
G1 Y60.0 F3000         	; Move Y to 60.0 with speed 3000 (mm/min)
M117 *End Clean*       	; Indicate nozzle clean in progress on LCD
G1 Z5 F3000            	; Move Z to  5.0 with speed 3000 (mm/min)
G1 X20.0 F3000         	; Move X to 20.0 with speed 3000 (mm/min)
G1 Y20.0 F3000         	; Move Y to 20.0 with speed 3000 (mm/min)
; 
M117 *Printing...*     	; Start printing msg on LCD
;
; End Startcode
;
; Begin printing with sliced GCode after here
;
; process Process1
; layer 1, Z = 0.180
T0
G92 E0.0000
G1 E-4.0000 F3000
; feature skirt
; tool H0.180 W0.350
G1 Z0.300 F1002
G1 X107.880 Y66.192 F6000
G1 Z0.180 F1002
G1 E0.0000 F3000
G92 E0.0000
G1 X225.618 Y66.192 E2.9297 F900
G1 X226.088 Y65.722 E2.9462
G1 X233.410 Y65.722 E3.1284
G1 X235.094 Y67.406 E3.1876
G1 X235.094 Y67.803 E3.1975
G1 X236.124 Y68.833 E3.2338
G1 X236.124 Y72.015 E3.3129
G1 X235.094 Y73.045 E3.3492
G1 X235.094 Y74.728 E3.3911
G1 X233.410 Y76.412 E3.4503
G1 X229.124 Y76.412 E3.5570
G1 X229.124 Y76.929 E3.5698
G1 X229.797 Y76.929 E3.5866
G1 X230.143 Y76.584 E3.5987
G1 X233.051 Y76.584 E3.6711
G1 X233.396 Y76.929 E3.6833
G1 X234.340 Y76.929 E3.7067
G1 X236.024 Y78.614 E3.7660
G1 X236.024 Y81.795 E3.8452
G1 X234.735 Y83.085 E3.8906
G1 X234.735 Y83.258 E3.8949
G1 X233.051 Y84.942 E3.9541
G1 X230.143 Y84.942 E4.0265
G1 X228.791 Y83.591 E4.0740
G1 X227.440 Y84.942 E4.1216
G1 X106.058 Y84.942 E7.1419
G1 X104.707 Y83.591 E7.1894
G1 X103.356 Y84.942 E7.2370
G1 X100.448 Y84.942 E7.3093
G1 X98.764 Y83.258 E7.3686
G1 X98.764 Y83.022 E7.3745
G1 X97.474 Y81.732 E7.4199
G1 X97.474 Y78.550 E7.4990
G1 X99.158 Y76.866 E7.5583
G1 X100.174 Y76.866 E7.5836
G1 X100.448 Y76.592 E7.5932
G1 X103.356 Y76.592 E7.6656
G1 X103.630 Y76.866 E7.6752
G1 X104.374 Y76.866 E7.6937
G1 X104.374 Y76.412 E7.7050
G1 X100.088 Y76.412 E7.8117
G1 X98.404 Y74.728 E7.8709
G1 X98.404 Y72.994 E7.9141
G1 X97.474 Y72.064 E7.9468
G1 X97.474 Y68.882 E8.0260
G1 X98.404 Y67.952 E8.0587
G1 X98.404 Y67.406 E8.0723
G1 X100.088 Y65.722 E8.1316
G1 X107.410 Y65.722 E8.3138
G1 X107.880 Y66.192 E8.3303
G92 E0.0000
G1 E-4.0000 F3000
G1 Z0.480 F1002
G1 X104.690 Y83.066 F6000
G1 Z0.180 F1002
G1 E0.0000 F3000
G92 E0.0000
G1 X104.690 Y83.113 E0.0012 F900
G1 X103.211 Y84.592 E0.0532
G1 X100.593 Y84.592 E0.1184
G1 X99.114 Y83.113 E0.1704
G1 X99.114 Y82.877 E0.1763
G1 X97.824 Y81.587 E0.2217
G1 X97.824 Y78.695 E0.2936
G1 X99.303 Y77.216 E0.3457
G1 X100.319 Y77.216 E0.3709
G1 X100.593 Y76.942 E0.3806
G1 X103.211 Y76.942 E0.4457
G1 X103.485 Y77.216 E0.4554
G1 X104.724 Y77.216 E0.4862
G1 X104.724 Y76.062 E0.5149
G1 X100.233 Y76.062 E0.6267
G1 X98.754 Y74.583 E0.6787
G1 X98.754 Y72.849 E0.7219
G1 X97.824 Y71.919 E0.7546
G1 X97.824 Y69.027 E0.8265
G1 X98.754 Y68.097 E0.8593
G1 X98.754 Y67.551 E0.8729
G1 X100.233 Y66.072 E0.9249
G1 X107.265 Y66.072 E1.0999
G1 X107.735 Y66.542 E1.1164
G1 X225.763 Y66.542 E4.0533
G1 X226.233 Y66.072 E4.0698
G1 X233.265 Y66.072 E4.2448
G1 X234.744 Y67.551 E4.2968
G1 X234.744 Y67.948 E4.3067
G1 X235.774 Y68.978 E4.3430
G1 X235.774 Y71.870 E4.4149
G1 X234.744 Y72.900 E4.4512
G1 X234.744 Y74.583 E4.4930
G1 X233.265 Y76.062 E4.5451
G1 X228.774 Y76.062 E4.6568
G1 X228.774 Y77.279 E4.6871
G1 X229.942 Y77.279 E4.7162
G1 X230.288 Y76.934 E4.7283
G1 X232.906 Y76.934 E4.7935
G1 X233.251 Y77.279 E4.8056
G1 X234.195 Y77.279 E4.8291
G1 X235.674 Y78.759 E4.8812
G1 X235.674 Y81.650 E4.9531
G1 X234.385 Y82.940 E4.9985
G1 X234.385 Y83.113 E5.0028
G1 X232.906 Y84.592 E5.0549
G1 X230.288 Y84.592 E5.1200
G1 X228.825 Y83.129 E5.1715
G1 X228.758 Y83.129 E5.1732
G1 X227.295 Y84.592 E5.2246
G1 X106.203 Y84.592 E8.2377
G1 X104.724 Y83.113 E8.2898
G1 X104.724 Y83.066 E8.2909
G1 X104.690 Y83.066 E8.2918
G92 E0.0000
G1 E-4.0000 F3000
G1 Z0.480 F1002
G1 X228.424 Y75.712 F6000
G1 Z0.180 F1002
G1 E0.0000 F3000
G92 E0.0000
G1 X228.424 Y77.629 E0.0477 F900
G1 X230.087 Y77.629 E0.0891
G1 X230.433 Y77.284 E0.1012
G1 X232.761 Y77.284 E0.1592
G1 X233.106 Y77.629 E0.1713
G1 X234.050 Y77.629 E0.1948
G1 X235.324 Y78.904 E0.2397
G1 X235.324 Y81.505 E0.3044
G1 X234.050 Y82.779 E0.3492
G1 X234.035 Y82.779 E0.3496
G1 X234.035 Y82.968 E0.3543
G1 X232.761 Y84.242 E0.3991
G1 X230.433 Y84.242 E0.4571
G1 X229.158 Y82.968 E0.5019
G1 X229.158 Y82.779 E0.5066
G1 X228.424 Y82.779 E0.5249
G1 X228.424 Y82.968 E0.5295
G1 X227.150 Y84.242 E0.5744
G1 X106.348 Y84.242 E3.5803
G1 X105.074 Y82.968 E3.6251
G1 X105.074 Y82.716 E3.6313
G1 X104.340 Y82.716 E3.6496
G1 X104.340 Y82.968 E3.6559
G1 X103.066 Y84.242 E3.7007
G1 X100.738 Y84.242 E3.7586
G1 X99.464 Y82.968 E3.8035
G1 X99.464 Y82.716 E3.8097
G1 X99.448 Y82.716 E3.8101
G1 X98.174 Y81.442 E3.8550
G1 X98.174 Y78.840 E3.9197
G1 X99.448 Y77.566 E3.9645
G1 X100.464 Y77.566 E3.9898
G1 X100.738 Y77.292 E3.9994
G1 X103.066 Y77.292 E4.0574
G1 X103.340 Y77.566 E4.0670
G1 X105.074 Y77.566 E4.1102
G1 X105.074 Y75.712 E4.1563
G1 X100.378 Y75.712 E4.2732
G1 X99.104 Y74.438 E4.3180
G1 X99.104 Y72.704 E4.3611
G1 X98.174 Y71.774 E4.3939
G1 X98.174 Y69.172 E4.4586
G1 X99.104 Y68.242 E4.4913
G1 X99.104 Y67.696 E4.5049
G1 X100.378 Y66.422 E4.5498
G1 X107.120 Y66.422 E4.7175
G1 X107.590 Y66.892 E4.7340
G1 X225.908 Y66.892 E7.6781
G1 X226.378 Y66.422 E7.6947
G1 X233.120 Y66.422 E7.8624
G1 X234.394 Y67.696 E7.9073
G1 X234.394 Y68.093 E7.9171
G1 X235.424 Y69.123 E7.9534
G1 X235.424 Y71.725 E8.0181
G1 X234.394 Y72.755 E8.0544
G1 X234.394 Y74.438 E8.0962
G1 X233.120 Y75.712 E8.1411
G1 X228.424 Y75.712 E8.2579
G92 E0.0000
G1 E-4.0000 F3000
; feature outer perimeter
G1 Z0.480 F1002
G1 X101.464 Y70.248 F6000
G1 Z0.180 F1002
G1 E0.0000 F3000
G92 E0.0000
G1 X101.464 Y70.698 E0.0112 F450
G1 X100.524 Y70.698 E0.0346
G1 X100.524 Y70.248 E0.0458
G1 X101.464 Y70.248 E0.0692
G92 E0.0000
G1 E-4.0000 F3000
G1 Z0.480 F1002
G1 X102.340 Y80.366 F6000
G1 Z0.180 F1002
G1 E0.0000 F3000
G92 E0.0000
G1 X102.340 Y79.916 E0.0112 F450
G1 X107.424 Y79.916 E0.1377
G1 X107.424 Y70.698 E0.3671
G1 X102.340 Y70.698 E0.4936
G1 X102.340 Y70.248 E0.5048
G1 X107.424 Y70.248 E0.6313
G1 X107.424 Y69.242 E0.6563
G1 X226.074 Y69.242 E3.6087
G1 X226.074 Y70.199 E3.6325
G1 X231.158 Y70.199 E3.7590
G1 X231.158 Y70.649 E3.7702
G1 X226.074 Y70.649 E3.8967
G1 X226.074 Y79.979 E4.1289
G1 X231.158 Y79.979 E4.2554
G1 X231.158 Y80.429 E4.2666
G1 X226.074 Y80.429 E4.3931
G1 X226.074 Y81.892 E4.4295
G1 X107.424 Y81.892 E7.3818
G1 X107.424 Y80.366 E7.4198
G1 X102.340 Y80.366 E7.5463
G92 E0.0000
G1 E-4.0000 F3000
; feature inner perimeter
G1 Z0.480 F1002
G1 X107.774 Y81.542 F6000
G1 Z0.180 F1002
G1 E0.0000 F3000
G92 E0.0000
G1 X107.774 Y69.592 E0.2973 F675
G1 X225.724 Y69.592 E3.2323
G1 X225.724 Y81.542 E3.5296
G1 X107.774 Y81.542 E6.4645
G1 X108.124 Y81.192 F6000
G92 E0.0000
G1 X108.124 Y69.942 E0.2799 F675
G1 X225.374 Y69.942 E3.1974
G1 X225.374 Y81.192 E3.4774
G1 X108.124 Y81.192 E6.3949
; feature outer perimeter
G1 X117.074 Y79.642 F6000
G92 E0.0000
G1 X162.924 Y79.642 E1.1409 F450
G1 X162.924 Y71.500 E1.3435
G1 X117.074 Y71.500 E2.4843
G1 X117.074 Y79.642 E2.6870
