; G-Code generated by Simplify3D(R) Version 4.1.2
; Apr 5, 2020 at 1:02:39 AM
; Settings Summary
;   processName,Process1
;   applyToModels,Support_Couteaux_2e_part2
;   profileName,A03-04-15 Tevo Tornado (experimental)
;   profileVersion,2020-04-01 17:30:42
;   baseProfile,Creality CR-10(2)
;   printMaterial,PLA
;   printQuality,Medium
;   printExtruders,
;   extruderName,Primary Extruder
;   extruderToolheadNumber,0
;   extruderDiameter,0.4
;   extruderAutoWidth,0
;   extruderWidth,0.35
;   extrusionMultiplier,0.95
;   extruderUseRetract,1
;   extruderRetractionDistance,4
;   extruderExtraRestartDistance,0
;   extruderRetractionZLift,0.3
;   extruderRetractionSpeed,3000
;   extruderUseCoasting,0
;   extruderCoastingDistance,0.2
;   extruderUseWipe,0
;   extruderWipeDistance,4
;   primaryExtruder,0
;   layerHeight,0.15
;   topSolidLayers,4
;   bottomSolidLayers,3
;   perimeterOutlines,3
;   printPerimetersInsideOut,0
;   startPointOption,1
;   startPointOriginX,0
;   startPointOriginY,300
;   sequentialIslands,0
;   spiralVaseMode,0
;   firstLayerHeightPercentage,120
;   firstLayerWidthPercentage,100
;   firstLayerUnderspeed,0.5
;   useRaft,0
;   raftExtruder,0
;   raftTopLayers,3
;   raftBaseLayers,2
;   raftOffset,3
;   raftSeparationDistance,0.14
;   raftTopInfill,100
;   aboveRaftSpeedMultiplier,0.3
;   useSkirt,1
;   skirtExtruder,0
;   skirtLayers,1
;   skirtOutlines,3
;   skirtOffset,2
;   usePrimePillar,0
;   primePillarExtruder,999
;   primePillarWidth,12
;   primePillarLocation,7
;   primePillarSpeedMultiplier,1
;   useOozeShield,0
;   oozeShieldExtruder,999
;   oozeShieldOffset,2
;   oozeShieldOutlines,1
;   oozeShieldSidewallShape,1
;   oozeShieldSidewallAngle,30
;   oozeShieldSpeedMultiplier,1
;   infillExtruder,0
;   internalInfillPattern,Rectilinear
;   externalInfillPattern,Rectilinear
;   infillPercentage,15
;   outlineOverlapPercentage,15
;   infillExtrusionWidthPercentage,100
;   minInfillLength,5
;   infillLayerInterval,1
;   internalInfillAngles,45,-45
;   overlapInternalInfillAngles,0
;   externalInfillAngles,45,-45
;   generateSupport,0
;   supportExtruder,0
;   supportInfillPercentage,30
;   supportExtraInflation,0
;   supportBaseLayers,0
;   denseSupportExtruder,0
;   denseSupportLayers,0
;   denseSupportInfillPercentage,70
;   supportLayerInterval,1
;   supportHorizontalPartOffset,0.4
;   supportUpperSeparationLayers,1
;   supportLowerSeparationLayers,1
;   supportType,0
;   supportGridSpacing,4.5
;   maxOverhangAngle,45
;   supportAngles,0
;   temperatureName,Primary Extruder,Heated Bed
;   temperatureNumber,0,0
;   temperatureSetpointCount,1,1
;   temperatureSetpointLayers,1,1
;   temperatureSetpointTemperatures,215,55
;   temperatureStabilizeAtStartup,1,1
;   temperatureHeatedBed,0,1
;   fanLayers,1,2
;   fanSpeeds,0,100
;   blipFanToFullPower,0
;   adjustSpeedForCooling,1
;   minSpeedLayerTime,15
;   minCoolingSpeedSlowdown,50
;   increaseFanForCooling,1
;   minFanLayerTime,25
;   maxCoolingFanSpeed,100
;   increaseFanForBridging,1
;   bridgingFanSpeed,100
;   use5D,1
;   relativeEdistances,0
;   allowEaxisZeroing,1
;   independentExtruderAxes,0
;   includeM10123,0
;   stickySupport,1
;   applyToolheadOffsets,0
;   gcodeXoffset,0
;   gcodeYoffset,0
;   gcodeZoffset,0
;   overrideMachineDefinition,1
;   machineTypeOverride,0
;   strokeXoverride,300
;   strokeYoverride,300
;   strokeZoverride,400
;   originOffsetXoverride,0
;   originOffsetYoverride,0
;   originOffsetZoverride,0
;   homeXdirOverride,-1
;   homeYdirOverride,-1
;   homeZdirOverride,-1
;   flipXoverride,1
;   flipYoverride,-1
;   flipZoverride,1
;   toolheadOffsets,0,0|0,0|0,0|0,0|0,0|0,0
;   overrideFirmwareConfiguration,1
;   firmwareTypeOverride,RepRap (Marlin/Repetier/Sprinter)
;   GPXconfigOverride,r2
;   baudRateOverride,250000
;   overridePrinterModels,1
;   printerModelsOverride
;   startingGcode,;,; -]H.P.B[- MarshMalloW  ,; $VER: StartScript 1.02 (26.12.2019) MarshMalloW,;,; Begin Startcode,;,M117 *Preheat*     	; Preheat,;extruder0_temperature,M104 S[extruder0_temperature]  ,M109 S[extruder0_temperature] ,M109 R[extruder0_temperature] ,;,M117 *Auto-leveling*     	; Auto-leveling,M107                   	; Turn layer fan off,G21                    	; Set to metric [change to G20 if you want Imperial],G90                    	; Force coordinates to be absolute relative to the origin,G28                    	; Home X/Y/Z axis,G29                    	; Auto-leveling (BL-Touch),;,M117 *Start Clean*     	; Indicate nozzle clean in progress on LCD,G92 E0                 	; Set Extruder to 0 ,G1 X0 Y0 F2000         	; Move X and Y to 0 with speed 2000 (mm/min),G1 Z0.1 F1000          	; Move Z to   0.1 with speed 1000 (mm/min),G1 X8.0 F2000          	; Move X to   8.0 with speed 2000 (mm/min),G1 Y60.0 E4.0 F1000.0  	; Move Y to  60 and Extruder with 4.0 with speed 1000 (mm/min),G1 Y100.0 E8.5 F1000.0 	; Move Y to 100 and Extruder with 8.5 with speed 1000 (mm/min),G92 E0                 	; Set extruder to 0,G1 X16.0 F3000         	; Move X to 16.0 with speed 3000 (mm/min),G1 Y60.0 F3000         	; Move Y to 60.0 with speed 3000 (mm/min),M117 *End Clean*       	; Indicate nozzle clean in progress on LCD,G1 Z5 F3000            	; Move Z to  5.0 with speed 3000 (mm/min),G1 X20.0 F3000         	; Move X to 20.0 with speed 3000 (mm/min),G1 Y20.0 F3000         	; Move Y to 20.0 with speed 3000 (mm/min),; ,M117 *Printing...*     	; Start printing msg on LCD,;,; End Startcode,;,; Begin printing with sliced GCode after here,;
;   layerChangeGcode,
;   retractionGcode,
;   toolChangeGcode,
;   endingGcode,;,; init 181010,;,;M107 			; Fan off,;G1 E-1 F300 			; Retract the filament a bit before lifting the nozzle,;M104 S0 			; Turn off extruder,;M140 S0 			; Turn off bed,;G91			; Relative positioning,;G28 X0 Y0 			; Move X/Y to min endstops so the head is out of teh way,;M84 			; Disable motors,;G90 			; Absolute positioning,;M117 Print ready...,,;,; // From Cura 181010,; // End_gcode,G92 E0			; Zero the extruded length,;G1 E-30 F300		; Retract E -30,M106 S0			; Turn off cooling fan,M104 S0			; Turn off temperature,M140 S0		     	; Turn off bed,G91			; Relative positioning,G1 E-1 F300			; Retract the filament a bit before lifting the nozzle to release some of the pressure,G1 Z+20 E-5 X-20 Y-20 F7200	; Move Z up a bit and retract filament even more,G1 X0 Y150 F10000		; Move right min,M107			; Turn off layer fan,M84			; Disable motors,G90			; Absolute positioning,M117 *The-End* 		; End msg,;,
;   exportFileFormat,gcode
;   celebration,0
;   celebrationSong,Star Wars
;   postProcessing,
;   defaultSpeed,1800
;   outlineUnderspeed,0.5
;   solidInfillUnderspeed,0.8
;   supportUnderspeed,0.8
;   rapidXYspeed,6000
;   rapidZspeed,1002
;   minBridgingArea,50
;   bridgingExtraInflation,0.2
;   bridgingExtrusionMultiplier,1
;   bridgingSpeedMultiplier,0.6
;   useFixedBridgingAngle,0
;   fixedBridgingAngle,0
;   applyBridgingToPerimeters,0
;   filamentDiameters,1.75|1.75|1.75|1.75|1.75|1.75
;   filamentPricesPerKg,30|46|46|46|46|46
;   filamentDensities,1.25|1.25|1.25|1.25|1.25|1.25
;   useMinPrintHeight,0
;   minPrintHeight,0
;   useMaxPrintHeight,0
;   maxPrintHeight,9
;   useDiaphragm,0
;   diaphragmLayerInterval,20
;   robustSlicing,1
;   mergeAllIntoSolid,0
;   onlyRetractWhenCrossingOutline,1
;   retractBetweenLayers,1
;   useRetractionMinTravel,0
;   retractionMinTravel,3
;   retractWhileWiping,0
;   onlyWipeOutlines,1
;   avoidCrossingOutline,0
;   maxMovementDetourFactor,3
;   toolChangeRetractionDistance,12
;   toolChangeExtraRestartDistance,-0.5
;   toolChangeRetractionSpeed,600
;   externalThinWallType,1
;   internalThinWallType,1
;   thinWallAllowedOverlapPercentage,10
;   singleExtrusionMinLength,1
;   singleExtrusionMinPrintingWidthPercentage,50
;   singleExtrusionMaxPrintingWidthPercentage,200
;   singleExtrusionEndpointExtension,0.2
;   horizontalSizeCompensation,0
G90
M82
M106 S0
M140 S55
M190 S55
;
; -]H.P.B[- MarshMalloW  
; $VER: StartScript 1.02 (26.12.2019) MarshMalloW
;
; Begin Startcode
;
M117 *Preheat*     	; Preheat
;extruder0_temperature
M104 S215  
M109 S215 
M109 R215 
;
M117 *Auto-leveling*     	; Auto-leveling
M107                   	; Turn layer fan off
G21                    	; Set to metric [change to G20 if you want Imperial]
G90                    	; Force coordinates to be absolute relative to the origin
G28                    	; Home X/Y/Z axis
G29                    	; Auto-leveling (BL-Touch)
;
M117 *Start Clean*     	; Indicate nozzle clean in progress on LCD
G92 E0                 	; Set Extruder to 0 
G1 X0 Y0 F2000         	; Move X and Y to 0 with speed 2000 (mm/min)
G1 Z0.1 F1000          	; Move Z to   0.1 with speed 1000 (mm/min)
G1 X8.0 F2000          	; Move X to   8.0 with speed 2000 (mm/min)
G1 Y60.0 E4.0 F1000.0  	; Move Y to  60 and Extruder with 4.0 with speed 1000 (mm/min)
G1 Y100.0 E8.5 F1000.0 	; Move Y to 100 and Extruder with 8.5 with speed 1000 (mm/min)
G92 E0                 	; Set extruder to 0
G1 X16.0 F3000         	; Move X to 16.0 with speed 3000 (mm/min)
G1 Y60.0 F3000         	; Move Y to 60.0 with speed 3000 (mm/min)
M117 *End Clean*       	; Indicate nozzle clean in progress on LCD
G1 Z5 F3000            	; Move Z to  5.0 with speed 3000 (mm/min)
G1 X20.0 F3000         	; Move X to 20.0 with speed 3000 (mm/min)
G1 Y20.0 F3000         	; Move Y to 20.0 with speed 3000 (mm/min)
; 
M117 *Printing...*     	; Start printing msg on LCD
;
; End Startcode
;
; Begin printing with sliced GCode after here
;
; process Process1
; layer 1, Z = 0.180
T0
G92 E0.0000
G1 E-4.0000 F3000
; feature skirt
; tool H0.180 W0.350
G1 Z0.300 F1002
G1 X185.405 Y30.799 F6000
G1 Z0.180 F1002
G1 E0.0000 F3000
G92 E0.0000
G1 X185.405 Y212.290 E4.5160 F900
G1 X185.402 Y212.382 E4.5183
G1 X185.217 Y215.260 E4.5900
G1 X185.194 Y215.442 E4.5946
G1 X184.634 Y218.319 E4.6675
G1 X184.587 Y218.497 E4.6721
G1 X183.665 Y221.278 E4.7450
G1 X183.596 Y221.449 E4.7496
G1 X182.325 Y224.089 E4.8225
G1 X182.235 Y224.250 E4.8271
G1 X180.637 Y226.706 E4.9000
G1 X180.527 Y226.854 E4.9046
G1 X178.629 Y229.086 E4.9775
G1 X178.501 Y229.218 E4.9821
G1 X176.333 Y231.190 E5.0550
G1 X176.189 Y231.305 E5.0596
G1 X173.787 Y232.983 E5.1325
G1 X173.629 Y233.078 E5.1371
G1 X171.033 Y234.436 E5.2100
G1 X170.864 Y234.510 E5.2146
G1 X168.115 Y235.525 E5.2875
G1 X167.939 Y235.577 E5.2921
G1 X165.128 Y236.222 E5.3638
G1 X165.037 Y236.240 E5.3661
G1 X121.680 Y243.295 E6.4592
G1 X119.655 Y241.573 E6.5253
G1 X119.655 Y231.413 E6.7781
G1 X119.664 Y231.252 E6.7821
G1 X119.791 Y230.121 E6.8104
G1 X119.863 Y229.806 E6.8185
G1 X120.266 Y228.656 E6.8488
G1 X120.406 Y228.365 E6.8568
G1 X121.054 Y227.333 E6.8871
G1 X121.256 Y227.081 E6.8952
G1 X122.117 Y226.219 E6.9255
G1 X122.212 Y226.144 E6.9285
G1 X122.117 Y226.068 E6.9315
G1 X121.256 Y225.206 E6.9619
G1 X121.054 Y224.954 E6.9699
G1 X120.406 Y223.922 E7.0002
G1 X120.266 Y223.631 E7.0083
G1 X119.863 Y222.481 E7.0386
G1 X119.791 Y222.166 E7.0466
G1 X119.664 Y221.035 E7.0749
G1 X119.655 Y220.874 E7.0789
G1 X119.655 Y207.213 E7.4189
G1 X119.664 Y207.052 E7.4229
G1 X119.791 Y205.921 E7.4512
G1 X119.863 Y205.606 E7.4592
G1 X120.266 Y204.456 E7.4896
G1 X120.406 Y204.165 E7.4976
G1 X121.054 Y203.133 E7.5279
G1 X121.256 Y202.881 E7.5359
G1 X122.093 Y202.044 E7.5654
G1 X121.256 Y201.206 E7.5949
G1 X121.054 Y200.954 E7.6029
G1 X120.406 Y199.922 E7.6332
G1 X120.266 Y199.631 E7.6413
G1 X119.863 Y198.481 E7.6716
G1 X119.791 Y198.166 E7.6796
G1 X119.664 Y197.035 E7.7079
G1 X119.655 Y196.874 E7.7120
G1 X119.655 Y179.513 E8.1439
G1 X119.664 Y179.352 E8.1480
G1 X119.791 Y178.221 E8.1763
G1 X119.863 Y177.906 E8.1843
G1 X120.266 Y176.756 E8.2146
G1 X120.406 Y176.465 E8.2227
G1 X121.054 Y175.433 E8.2530
G1 X121.256 Y175.181 E8.2610
G1 X121.793 Y174.644 E8.2799
G1 X121.256 Y174.106 E8.2988
G1 X121.054 Y173.854 E8.3069
G1 X120.406 Y172.822 E8.3372
G1 X120.266 Y172.531 E8.3452
G1 X119.863 Y171.381 E8.3756
G1 X119.791 Y171.066 E8.3836
G1 X119.664 Y169.935 E8.4119
G1 X119.655 Y169.774 E8.4159
G1 X119.655 Y154.813 E8.7882
G1 X119.664 Y154.652 E8.7922
G1 X119.791 Y153.521 E8.8205
G1 X119.863 Y153.206 E8.8286
G1 X120.266 Y152.056 E8.8589
G1 X120.406 Y151.765 E8.8669
G1 X121.054 Y150.733 E8.8972
G1 X121.256 Y150.481 E8.9053
G1 X122.117 Y149.619 E8.9356
G1 X122.212 Y149.543 E8.9386
G1 X122.117 Y149.468 E8.9416
G1 X121.256 Y148.606 E8.9719
G1 X121.054 Y148.354 E8.9800
G1 X120.406 Y147.322 E9.0103
G1 X120.266 Y147.031 E9.0183
G1 X119.863 Y145.881 E9.0487
G1 X119.791 Y145.566 E9.0567
G1 X119.664 Y144.435 E9.0850
G1 X119.655 Y144.274 E9.0890
G1 X119.655 Y131.813 E9.3991
G1 X119.664 Y131.652 E9.4031
G1 X119.791 Y130.521 E9.4314
G1 X119.863 Y130.206 E9.4395
G1 X120.266 Y129.056 E9.4698
G1 X120.406 Y128.765 E9.4778
G1 X121.054 Y127.733 E9.5081
G1 X121.256 Y127.481 E9.5162
G1 X122.117 Y126.619 E9.5465
G1 X122.337 Y126.444 E9.5535
G1 X122.117 Y126.268 E9.5605
G1 X121.256 Y125.406 E9.5908
G1 X121.054 Y125.154 E9.5989
G1 X120.406 Y124.122 E9.6292
G1 X120.266 Y123.831 E9.6372
G1 X119.863 Y122.681 E9.6676
G1 X119.791 Y122.366 E9.6756
G1 X119.664 Y121.235 E9.7039
G1 X119.655 Y121.074 E9.7079
G1 X119.655 Y105.063 E10.1063
G1 X119.664 Y104.902 E10.1103
G1 X119.791 Y103.771 E10.1386
G1 X119.863 Y103.456 E10.1467
G1 X120.266 Y102.306 E10.1770
G1 X120.406 Y102.015 E10.1850
G1 X121.054 Y100.983 E10.2154
G1 X121.256 Y100.731 E10.2234
G1 X122.093 Y99.894 E10.2529
G1 X121.256 Y99.056 E10.2823
G1 X121.054 Y98.804 E10.2904
G1 X120.406 Y97.772 E10.3207
G1 X120.266 Y97.481 E10.3287
G1 X119.863 Y96.331 E10.3590
G1 X119.791 Y96.016 E10.3671
G1 X119.664 Y94.885 E10.3954
G1 X119.655 Y94.724 E10.3994
G1 X119.655 Y74.263 E10.9085
G1 X119.664 Y74.102 E10.9125
G1 X119.791 Y72.971 E10.9409
G1 X119.863 Y72.656 E10.9489
G1 X120.266 Y71.506 E10.9792
G1 X120.406 Y71.215 E10.9873
G1 X121.054 Y70.183 E11.0176
G1 X121.256 Y69.931 E11.0256
G1 X122.093 Y69.094 E11.0551
G1 X121.256 Y68.256 E11.0845
G1 X121.054 Y68.004 E11.0926
G1 X120.406 Y66.972 E11.1229
G1 X120.266 Y66.681 E11.1309
G1 X119.863 Y65.531 E11.1613
G1 X119.791 Y65.216 E11.1693
G1 X119.664 Y64.085 E11.1976
G1 X119.655 Y63.924 E11.2016
G1 X119.655 Y49.291 E11.5657
G1 X120.792 Y47.763 E11.6131
G1 X183.087 Y29.075 E13.2314
G1 X185.405 Y30.799 E13.3033
G92 E0.0000
G1 E-4.0000 F3000
G1 Z0.480 F1002
G1 X122.573 Y149.383 F6000
G1 Z0.180 F1002
G1 E0.0000 F3000
G92 E0.0000
G1 X122.351 Y149.207 E0.0071 F900
G1 X121.517 Y148.373 E0.0364
G1 X121.340 Y148.151 E0.0435
G1 X120.713 Y147.152 E0.0728
G1 X120.590 Y146.897 E0.0799
G1 X120.200 Y145.784 E0.1092
G1 X120.137 Y145.507 E0.1163
G1 X120.013 Y144.406 E0.1438
G1 X120.005 Y144.264 E0.1474
G1 X120.005 Y131.823 E0.4569
G1 X120.013 Y131.681 E0.4605
G1 X120.137 Y130.580 E0.4881
G1 X120.200 Y130.303 E0.4951
G1 X120.590 Y129.190 E0.5245
G1 X120.713 Y128.935 E0.5315
G1 X121.340 Y127.936 E0.5609
G1 X121.517 Y127.714 E0.5679
G1 X122.351 Y126.880 E0.5973
G1 X122.573 Y126.704 E0.6043
G1 X122.987 Y126.444 E0.6165
G1 X122.573 Y126.183 E0.6286
G1 X122.351 Y126.007 E0.6357
G1 X121.517 Y125.173 E0.6650
G1 X121.340 Y124.951 E0.6721
G1 X120.713 Y123.952 E0.7014
G1 X120.590 Y123.697 E0.7085
G1 X120.200 Y122.584 E0.7379
G1 X120.137 Y122.307 E0.7449
G1 X120.013 Y121.206 E0.7725
G1 X120.005 Y121.064 E0.7760
G1 X120.005 Y105.073 E1.1739
G1 X120.013 Y104.931 E1.1775
G1 X120.137 Y103.830 E1.2050
G1 X120.200 Y103.553 E1.2121
G1 X120.590 Y102.440 E1.2414
G1 X120.713 Y102.185 E1.2485
G1 X121.340 Y101.186 E1.2778
G1 X121.517 Y100.964 E1.2849
G1 X122.351 Y100.130 E1.3142
G1 X122.573 Y99.954 E1.3213
G1 X122.668 Y99.894 E1.3241
G1 X122.573 Y99.833 E1.3269
G1 X122.351 Y99.657 E1.3340
G1 X121.517 Y98.823 E1.3633
G1 X121.340 Y98.601 E1.3704
G1 X120.713 Y97.602 E1.3997
G1 X120.590 Y97.347 E1.4068
G1 X120.200 Y96.234 E1.4361
G1 X120.137 Y95.957 E1.4432
G1 X120.013 Y94.856 E1.4708
G1 X120.005 Y94.714 E1.4743
G1 X120.005 Y74.273 E1.9829
G1 X120.013 Y74.131 E1.9865
G1 X120.137 Y73.030 E2.0140
G1 X120.200 Y72.753 E2.0211
G1 X120.590 Y71.640 E2.0504
G1 X120.713 Y71.385 E2.0575
