; G-Code generated by Simplify3D(R) Version 4.1.2
; Apr 4, 2020 at 11:44:16 PM
; Settings Summary
;   processName,Process1
;   applyToModels,Support_Couteaux_2e_part2
;   profileName,A03-04-15 Tevo Tornado (experimental)
;   profileVersion,2020-04-01 17:30:42
;   baseProfile,Creality CR-10(2)
;   printMaterial,PLA
;   printQuality,Medium
;   printExtruders,
;   extruderName,Primary Extruder
;   extruderToolheadNumber,0
;   extruderDiameter,0.4
;   extruderAutoWidth,0
;   extruderWidth,0.35
;   extrusionMultiplier,0.95
;   extruderUseRetract,1
;   extruderRetractionDistance,4
;   extruderExtraRestartDistance,0
;   extruderRetractionZLift,0.3
;   extruderRetractionSpeed,3000
;   extruderUseCoasting,0
;   extruderCoastingDistance,0.2
;   extruderUseWipe,0
;   extruderWipeDistance,4
;   primaryExtruder,0
;   layerHeight,0.15
;   topSolidLayers,4
;   bottomSolidLayers,3
;   perimeterOutlines,3
;   printPerimetersInsideOut,0
;   startPointOption,1
;   startPointOriginX,0
;   startPointOriginY,300
;   sequentialIslands,0
;   spiralVaseMode,0
;   firstLayerHeightPercentage,120
;   firstLayerWidthPercentage,100
;   firstLayerUnderspeed,0.5
;   useRaft,0
;   raftExtruder,0
;   raftTopLayers,3
;   raftBaseLayers,2
;   raftOffset,3
;   raftSeparationDistance,0.14
;   raftTopInfill,100
;   aboveRaftSpeedMultiplier,0.3
;   useSkirt,1
;   skirtExtruder,0
;   skirtLayers,1
;   skirtOutlines,3
;   skirtOffset,2
;   usePrimePillar,0
;   primePillarExtruder,999
;   primePillarWidth,12
;   primePillarLocation,7
;   primePillarSpeedMultiplier,1
;   useOozeShield,0
;   oozeShieldExtruder,999
;   oozeShieldOffset,2
;   oozeShieldOutlines,1
;   oozeShieldSidewallShape,1
;   oozeShieldSidewallAngle,30
;   oozeShieldSpeedMultiplier,1
;   infillExtruder,0
;   internalInfillPattern,Rectilinear
;   externalInfillPattern,Rectilinear
;   infillPercentage,15
;   outlineOverlapPercentage,15
;   infillExtrusionWidthPercentage,100
;   minInfillLength,5
;   infillLayerInterval,1
;   internalInfillAngles,45,-45
;   overlapInternalInfillAngles,0
;   externalInfillAngles,45,-45
;   generateSupport,0
;   supportExtruder,0
;   supportInfillPercentage,30
;   supportExtraInflation,0
;   supportBaseLayers,0
;   denseSupportExtruder,0
;   denseSupportLayers,0
;   denseSupportInfillPercentage,70
;   supportLayerInterval,1
;   supportHorizontalPartOffset,0.4
;   supportUpperSeparationLayers,1
;   supportLowerSeparationLayers,1
;   supportType,0
;   supportGridSpacing,4.5
;   maxOverhangAngle,45
;   supportAngles,0
;   temperatureName,Primary Extruder,Heated Bed
;   temperatureNumber,0,0
;   temperatureSetpointCount,1,1
;   temperatureSetpointLayers,1,1
;   temperatureSetpointTemperatures,215,55
;   temperatureStabilizeAtStartup,1,1
;   temperatureHeatedBed,0,1
;   fanLayers,1,2
;   fanSpeeds,0,100
;   blipFanToFullPower,0
;   adjustSpeedForCooling,1
;   minSpeedLayerTime,15
;   minCoolingSpeedSlowdown,50
;   increaseFanForCooling,1
;   minFanLayerTime,25
;   maxCoolingFanSpeed,100
;   increaseFanForBridging,1
;   bridgingFanSpeed,100
;   use5D,1
;   relativeEdistances,0
;   allowEaxisZeroing,1
;   independentExtruderAxes,0
;   includeM10123,0
;   stickySupport,1
;   applyToolheadOffsets,0
;   gcodeXoffset,0
;   gcodeYoffset,0
;   gcodeZoffset,0
;   overrideMachineDefinition,1
;   machineTypeOverride,0
;   strokeXoverride,300
;   strokeYoverride,300
;   strokeZoverride,400
;   originOffsetXoverride,0
;   originOffsetYoverride,0
;   originOffsetZoverride,0
;   homeXdirOverride,-1
;   homeYdirOverride,-1
;   homeZdirOverride,-1
;   flipXoverride,1
;   flipYoverride,-1
;   flipZoverride,1
;   toolheadOffsets,0,0|0,0|0,0|0,0|0,0|0,0
;   overrideFirmwareConfiguration,1
;   firmwareTypeOverride,RepRap (Marlin/Repetier/Sprinter)
;   GPXconfigOverride,r2
;   baudRateOverride,250000
;   overridePrinterModels,1
;   printerModelsOverride
;   startingGcode,;,; -]H.P.B[- MarshMalloW  ,; $VER: StartScript 1.02 (26.12.2019) MarshMalloW,;,; Begin Startcode,;,M117 *Preheat*     	; Preheat,;extruder0_temperature,M104 S[extruder0_temperature]  ,M109 S[extruder0_temperature] ,M109 R[extruder0_temperature] ,;,M117 *Auto-leveling*     	; Auto-leveling,M107                   	; Turn layer fan off,G21                    	; Set to metric [change to G20 if you want Imperial],G90                    	; Force coordinates to be absolute relative to the origin,G28                    	; Home X/Y/Z axis,G29                    	; Auto-leveling (BL-Touch),;,M117 *Start Clean*     	; Indicate nozzle clean in progress on LCD,G92 E0                 	; Set Extruder to 0 ,G1 X0 Y0 F2000         	; Move X and Y to 0 with speed 2000 (mm/min),G1 Z0.1 F1000          	; Move Z to   0.1 with speed 1000 (mm/min),G1 X8.0 F2000          	; Move X to   8.0 with speed 2000 (mm/min),G1 Y60.0 E4.0 F1000.0  	; Move Y to  60 and Extruder with 4.0 with speed 1000 (mm/min),G1 Y100.0 E8.5 F1000.0 	; Move Y to 100 and Extruder with 8.5 with speed 1000 (mm/min),G92 E0                 	; Set extruder to 0,G1 X16.0 F3000         	; Move X to 16.0 with speed 3000 (mm/min),G1 Y60.0 F3000         	; Move Y to 60.0 with speed 3000 (mm/min),M117 *End Clean*       	; Indicate nozzle clean in progress on LCD,G1 Z5 F3000            	; Move Z to  5.0 with speed 3000 (mm/min),G1 X20.0 F3000         	; Move X to 20.0 with speed 3000 (mm/min),G1 Y20.0 F3000         	; Move Y to 20.0 with speed 3000 (mm/min),; ,M117 *Printing...*     	; Start printing msg on LCD,;,; End Startcode,;,; Begin printing with sliced GCode after here,;
;   layerChangeGcode,
;   retractionGcode,
;   toolChangeGcode,
;   endingGcode,;,; init 181010,;,;M107 			; Fan off,;G1 E-1 F300 			; Retract the filament a bit before lifting the nozzle,;M104 S0 			; Turn off extruder,;M140 S0 			; Turn off bed,;G91			; Relative positioning,;G28 X0 Y0 			; Move X/Y to min endstops so the head is out of teh way,;M84 			; Disable motors,;G90 			; Absolute positioning,;M117 Print ready...,,;,; // From Cura 181010,; // End_gcode,G92 E0			; Zero the extruded length,;G1 E-30 F300		; Retract E -30,M106 S0			; Turn off cooling fan,M104 S0			; Turn off temperature,M140 S0		     	; Turn off bed,G91			; Relative positioning,G1 E-1 F300			; Retract the filament a bit before lifting the nozzle to release some of the pressure,G1 Z+20 E-5 X-20 Y-20 F7200	; Move Z up a bit and retract filament even more,G1 X0 Y150 F10000		; Move right min,M107			; Turn off layer fan,M84			; Disable motors,G90			; Absolute positioning,M117 *The-End* 		; End msg,;,
;   exportFileFormat,gcode
;   celebration,0
;   celebrationSong,Star Wars
;   postProcessing,
;   defaultSpeed,1800
;   outlineUnderspeed,0.5
;   solidInfillUnderspeed,0.8
;   supportUnderspeed,0.8
;   rapidXYspeed,6000
;   rapidZspeed,1002
;   minBridgingArea,50
;   bridgingExtraInflation,0.2
;   bridgingExtrusionMultiplier,1
;   bridgingSpeedMultiplier,0.6
;   useFixedBridgingAngle,0
;   fixedBridgingAngle,0
;   applyBridgingToPerimeters,0
;   filamentDiameters,1.75|1.75|1.75|1.75|1.75|1.75
;   filamentPricesPerKg,30|46|46|46|46|46
;   filamentDensities,1.25|1.25|1.25|1.25|1.25|1.25
;   useMinPrintHeight,0
;   minPrintHeight,0
;   useMaxPrintHeight,0
;   maxPrintHeight,9
;   useDiaphragm,0
;   diaphragmLayerInterval,20
;   robustSlicing,1
;   mergeAllIntoSolid,0
;   onlyRetractWhenCrossingOutline,1
;   retractBetweenLayers,1
;   useRetractionMinTravel,0
;   retractionMinTravel,3
;   retractWhileWiping,0
;   onlyWipeOutlines,1
;   avoidCrossingOutline,0
;   maxMovementDetourFactor,3
;   toolChangeRetractionDistance,12
;   toolChangeExtraRestartDistance,-0.5
;   toolChangeRetractionSpeed,600
;   externalThinWallType,1
;   internalThinWallType,1
;   thinWallAllowedOverlapPercentage,10
;   singleExtrusionMinLength,1
;   singleExtrusionMinPrintingWidthPercentage,50
;   singleExtrusionMaxPrintingWidthPercentage,200
;   singleExtrusionEndpointExtension,0.2
;   horizontalSizeCompensation,0
G90
M82
M106 S0
M140 S55
M190 S55
;
; -]H.P.B[- MarshMalloW  
; $VER: StartScript 1.02 (26.12.2019) MarshMalloW
;
; Begin Startcode
;
M117 *Preheat*     	; Preheat
;extruder0_temperature
M104 S215  
M109 S215 
M109 R215 
;
M117 *Auto-leveling*     	; Auto-leveling
M107                   	; Turn layer fan off
G21                    	; Set to metric [change to G20 if you want Imperial]
G90                    	; Force coordinates to be absolute relative to the origin
G28                    	; Home X/Y/Z axis
G29                    	; Auto-leveling (BL-Touch)
;
M117 *Start Clean*     	; Indicate nozzle clean in progress on LCD
G92 E0                 	; Set Extruder to 0 
G1 X0 Y0 F2000         	; Move X and Y to 0 with speed 2000 (mm/min)
G1 Z0.1 F1000          	; Move Z to   0.1 with speed 1000 (mm/min)
G1 X8.0 F2000          	; Move X to   8.0 with speed 2000 (mm/min)
G1 Y60.0 E4.0 F1000.0  	; Move Y to  60 and Extruder with 4.0 with speed 1000 (mm/min)
G1 Y100.0 E8.5 F1000.0 	; Move Y to 100 and Extruder with 8.5 with speed 1000 (mm/min)
G92 E0                 	; Set extruder to 0
G1 X16.0 F3000         	; Move X to 16.0 with speed 3000 (mm/min)
G1 Y60.0 F3000         	; Move Y to 60.0 with speed 3000 (mm/min)
M117 *End Clean*       	; Indicate nozzle clean in progress on LCD
G1 Z5 F3000            	; Move Z to  5.0 with speed 3000 (mm/min)
G1 X20.0 F3000         	; Move X to 20.0 with speed 3000 (mm/min)
G1 Y20.0 F3000         	; Move Y to 20.0 with speed 3000 (mm/min)
; 
M117 *Printing...*     	; Start printing msg on LCD
;
; End Startcode
;
; Begin printing with sliced GCode after here
;
; process Process1
; layer 1, Z = 0.180
T0
G92 E0.0000
G1 E-4.0000 F3000
; feature skirt
; tool H0.180 W0.350
G1 Z0.300 F1002
G1 X232.167 Y52.053 F6000
G1 Z0.180 F1002
G1 E0.0000 F3000
G92 E0.0000
G1 X235.045 Y52.238 E0.0718 F900
G1 X235.227 Y52.261 E0.0763
G1 X238.104 Y52.821 E0.1493
G1 X238.282 Y52.868 E0.1538
G1 X241.063 Y53.790 E0.2268
G1 X241.234 Y53.859 E0.2313
G1 X243.874 Y55.130 E0.3042
G1 X244.035 Y55.220 E0.3088
G1 X246.491 Y56.818 E0.3817
G1 X246.639 Y56.928 E0.3863
G1 X248.871 Y58.826 E0.4592
G1 X249.003 Y58.954 E0.4638
G1 X250.975 Y61.122 E0.5367
G1 X251.089 Y61.266 E0.5413
G1 X252.768 Y63.668 E0.6142
G1 X252.863 Y63.826 E0.6188
G1 X254.221 Y66.422 E0.6917
G1 X254.295 Y66.591 E0.6963
G1 X255.310 Y69.340 E0.7692
G1 X255.362 Y69.516 E0.7738
G1 X256.007 Y72.327 E0.8456
G1 X256.024 Y72.418 E0.8479
G1 X263.080 Y115.775 E1.9409
G1 X261.357 Y117.800 E2.0070
G1 X251.198 Y117.800 E2.2598
G1 X251.037 Y117.791 E2.2638
G1 X249.906 Y117.664 E2.2922
G1 X249.591 Y117.592 E2.3002
G1 X248.441 Y117.189 E2.3305
G1 X248.150 Y117.049 E2.3386
G1 X247.118 Y116.401 E2.3689
G1 X246.866 Y116.199 E2.3769
G1 X246.004 Y115.338 E2.4072
G1 X245.928 Y115.243 E2.4103
G1 X245.853 Y115.338 E2.4133
G1 X244.991 Y116.199 E2.4436
G1 X244.739 Y116.401 E2.4516
G1 X243.707 Y117.049 E2.4819
G1 X243.416 Y117.189 E2.4900
G1 X242.266 Y117.592 E2.5203
G1 X241.951 Y117.664 E2.5283
G1 X240.820 Y117.791 E2.5567
G1 X240.659 Y117.800 E2.5607
G1 X226.998 Y117.800 E2.9006
G1 X226.837 Y117.791 E2.9046
G1 X225.706 Y117.664 E2.9329
G1 X225.391 Y117.592 E2.9410
G1 X224.241 Y117.189 E2.9713
G1 X223.950 Y117.049 E2.9793
G1 X222.918 Y116.401 E3.0096
G1 X222.666 Y116.199 E3.0177
G1 X221.828 Y115.362 E3.0471
G1 X220.991 Y116.199 E3.0766
G1 X220.739 Y116.401 E3.0846
G1 X219.707 Y117.049 E3.1150
G1 X219.416 Y117.189 E3.1230
G1 X218.266 Y117.592 E3.1533
G1 X217.951 Y117.664 E3.1614
G1 X216.820 Y117.791 E3.1897
G1 X216.659 Y117.800 E3.1937
G1 X199.298 Y117.800 E3.6257
G1 X199.137 Y117.791 E3.6297
G1 X198.006 Y117.664 E3.6580
G1 X197.691 Y117.592 E3.6660
G1 X196.541 Y117.189 E3.6964
G1 X196.250 Y117.049 E3.7044
G1 X195.218 Y116.401 E3.7347
G1 X194.966 Y116.199 E3.7428
G1 X194.428 Y115.662 E3.7617
G1 X193.891 Y116.199 E3.7806
G1 X193.639 Y116.401 E3.7886
G1 X192.607 Y117.049 E3.8189
G1 X192.316 Y117.189 E3.8270
G1 X191.166 Y117.592 E3.8573
G1 X190.851 Y117.664 E3.8653
G1 X189.720 Y117.791 E3.8936
G1 X189.559 Y117.800 E3.8976
G1 X174.598 Y117.800 E4.2699
G1 X174.437 Y117.791 E4.2739
G1 X173.306 Y117.664 E4.3023
G1 X172.991 Y117.592 E4.3103
G1 X171.841 Y117.189 E4.3406
G1 X171.550 Y117.049 E4.3486
G1 X170.518 Y116.401 E4.3790
G1 X170.266 Y116.199 E4.3870
G1 X169.404 Y115.338 E4.4173
G1 X169.328 Y115.243 E4.4203
G1 X169.253 Y115.338 E4.4234
G1 X168.391 Y116.199 E4.4537
G1 X168.139 Y116.401 E4.4617
G1 X167.107 Y117.049 E4.4920
G1 X166.816 Y117.189 E4.5001
G1 X165.666 Y117.592 E4.5304
G1 X165.351 Y117.664 E4.5384
G1 X164.220 Y117.791 E4.5667
G1 X164.059 Y117.800 E4.5708
G1 X151.598 Y117.800 E4.8808
G1 X151.437 Y117.791 E4.8848
G1 X150.306 Y117.664 E4.9132
G1 X149.991 Y117.592 E4.9212
G1 X148.841 Y117.189 E4.9515
G1 X148.550 Y117.049 E4.9595
G1 X147.518 Y116.401 E4.9899
G1 X147.266 Y116.199 E4.9979
G1 X146.404 Y115.338 E5.0282
G1 X146.228 Y115.118 E5.0352
G1 X146.053 Y115.338 E5.0422
G1 X145.191 Y116.199 E5.0726
G1 X144.939 Y116.401 E5.0806
G1 X143.907 Y117.049 E5.1109
G1 X143.616 Y117.189 E5.1190
G1 X142.466 Y117.592 E5.1493
G1 X142.151 Y117.664 E5.1573
G1 X141.020 Y117.791 E5.1856
G1 X140.859 Y117.800 E5.1896
G1 X124.848 Y117.800 E5.5880
G1 X124.687 Y117.791 E5.5921
G1 X123.556 Y117.664 E5.6204
G1 X123.241 Y117.592 E5.6284
G1 X122.091 Y117.189 E5.6587
G1 X121.800 Y117.049 E5.6668
G1 X120.768 Y116.401 E5.6971
G1 X120.516 Y116.199 E5.7051
G1 X119.678 Y115.362 E5.7346
G1 X118.841 Y116.199 E5.7641
G1 X118.589 Y116.401 E5.7721
G1 X117.557 Y117.049 E5.8024
G1 X117.266 Y117.189 E5.8104
G1 X116.116 Y117.592 E5.8408
G1 X115.801 Y117.664 E5.8488
G1 X114.670 Y117.791 E5.8771
G1 X114.509 Y117.800 E5.8811
G1 X94.048 Y117.800 E6.3903
G1 X93.887 Y117.791 E6.3943
G1 X92.756 Y117.664 E6.4226
G1 X92.441 Y117.592 E6.4306
G1 X91.291 Y117.189 E6.4609
G1 X91.000 Y117.049 E6.4690
G1 X89.968 Y116.401 E6.4993
G1 X89.716 Y116.199 E6.5073
G1 X88.878 Y115.362 E6.5368
G1 X88.041 Y116.199 E6.5663
G1 X87.789 Y116.401 E6.5743
G1 X86.757 Y117.049 E6.6046
G1 X86.466 Y117.189 E6.6127
G1 X85.316 Y117.592 E6.6430
G1 X85.001 Y117.664 E6.6510
G1 X83.870 Y117.791 E6.6793
G1 X83.709 Y117.800 E6.6833
G1 X69.076 Y117.800 E7.0475
G1 X67.548 Y116.663 E7.0948
G1 X48.860 Y54.368 E8.7132
G1 X50.584 Y52.050 E8.7851
G1 X232.074 Y52.050 E13.3010
G1 X232.167 Y52.053 E13.3033
G92 E0.0000
G1 E-4.0000 F3000
G1 Z0.480 F1002
G1 X168.158 Y115.938 F6000
G1 Z0.180 F1002
G1 E0.0000 F3000
G92 E0.0000
G1 X167.936 Y116.115 E0.0071 F900
G1 X166.937 Y116.742 E0.0364
G1 X166.682 Y116.865 E0.0435
G1 X165.569 Y117.255 E0.0728
G1 X165.292 Y117.318 E0.0799
G1 X164.191 Y117.442 E0.1074
G1 X164.049 Y117.450 E0.1110
G1 X151.608 Y117.450 E0.4205
G1 X151.466 Y117.442 E0.4241
G1 X150.365 Y117.318 E0.4517
G1 X150.088 Y117.255 E0.4587
G1 X148.975 Y116.865 E0.4881
G1 X148.720 Y116.742 E0.4951
G1 X147.721 Y116.115 E0.5245
G1 X147.499 Y115.938 E0.5315
G1 X146.665 Y115.104 E0.5609
G1 X146.489 Y114.882 E0.5679
G1 X146.228 Y114.468 E0.5801
G1 X145.968 Y114.882 E0.5922
G1 X145.791 Y115.104 E0.5993
G1 X144.958 Y115.938 E0.6286
G1 X144.736 Y116.115 E0.6357
G1 X143.737 Y116.742 E0.6650
G1 X143.482 Y116.865 E0.6721
G1 X142.369 Y117.255 E0.7015
G1 X142.092 Y117.318 E0.7085
G1 X140.991 Y117.442 E0.7361
G1 X140.849 Y117.450 E0.7396
G1 X124.858 Y117.450 E1.1375
G1 X124.716 Y117.442 E1.1411
G1 X123.615 Y117.318 E1.1686
G1 X123.338 Y117.255 E1.1757
G1 X122.225 Y116.865 E1.2050
G1 X121.970 Y116.742 E1.2121
G1 X120.971 Y116.115 E1.2414
G1 X120.749 Y115.938 E1.2485
G1 X119.915 Y115.104 E1.2778
G1 X119.739 Y114.882 E1.2849
G1 X119.678 Y114.787 E1.2877
G1 X119.618 Y114.882 E1.2905
G1 X119.441 Y115.104 E1.2976
G1 X118.608 Y115.938 E1.3269
G1 X118.386 Y116.115 E1.3340
G1 X117.387 Y116.742 E1.3633
G1 X117.132 Y116.865 E1.3704
G1 X116.019 Y117.255 E1.3997
G1 X115.742 Y117.318 E1.4068
G1 X114.641 Y117.442 E1.4344
G1 X114.499 Y117.450 E1.4379
G1 X94.058 Y117.450 E1.9465
G1 X93.916 Y117.442 E1.9501
G1 X92.815 Y117.318 E1.9776
G1 X92.538 Y117.255 E1.9847
G1 X91.425 Y116.865 E2.0140
G1 X91.170 Y116.742 E2.0211
G1 X90.171 Y116.115 E2.0504
G1 X89.949 Y115.938 E2.0575
G1 X89.115 Y115.104 E2.0868
G1 X88.939 Y114.882 E2.0939
