; G-Code generated by Simplify3D(R) Version 4.1.2
; Mar 30, 2020 at 4:29:38 PM
; Settings Summary
;   processName,Process1
;   applyToModels,Support_Couteaux_2
;   profileName,A03-04-15 Tevo Tornado (experimental)
;   profileVersion,2020-02-20 19:28:40
;   baseProfile,Creality CR-10(2)
;   printMaterial,PLA
;   printQuality,Medium
;   printExtruders,
;   extruderName,Primary Extruder
;   extruderToolheadNumber,0
;   extruderDiameter,0.4
;   extruderAutoWidth,0
;   extruderWidth,0.35
;   extrusionMultiplier,0.95
;   extruderUseRetract,1
;   extruderRetractionDistance,4
;   extruderExtraRestartDistance,0
;   extruderRetractionZLift,0.3
;   extruderRetractionSpeed,3000
;   extruderUseCoasting,0
;   extruderCoastingDistance,0.2
;   extruderUseWipe,0
;   extruderWipeDistance,4
;   primaryExtruder,0
;   layerHeight,0.15
;   topSolidLayers,4
;   bottomSolidLayers,3
;   perimeterOutlines,3
;   printPerimetersInsideOut,0
;   startPointOption,1
;   startPointOriginX,0
;   startPointOriginY,300
;   sequentialIslands,0
;   spiralVaseMode,0
;   firstLayerHeightPercentage,120
;   firstLayerWidthPercentage,100
;   firstLayerUnderspeed,0.5
;   useRaft,0
;   raftExtruder,0
;   raftTopLayers,3
;   raftBaseLayers,2
;   raftOffset,3
;   raftSeparationDistance,0.14
;   raftTopInfill,100
;   aboveRaftSpeedMultiplier,0.3
;   useSkirt,1
;   skirtExtruder,0
;   skirtLayers,1
;   skirtOutlines,3
;   skirtOffset,2
;   usePrimePillar,0
;   primePillarExtruder,999
;   primePillarWidth,12
;   primePillarLocation,7
;   primePillarSpeedMultiplier,1
;   useOozeShield,0
;   oozeShieldExtruder,999
;   oozeShieldOffset,2
;   oozeShieldOutlines,1
;   oozeShieldSidewallShape,1
;   oozeShieldSidewallAngle,30
;   oozeShieldSpeedMultiplier,1
;   infillExtruder,0
;   internalInfillPattern,Rectilinear
;   externalInfillPattern,Rectilinear
;   infillPercentage,15
;   outlineOverlapPercentage,15
;   infillExtrusionWidthPercentage,100
;   minInfillLength,5
;   infillLayerInterval,1
;   internalInfillAngles,45,-45
;   overlapInternalInfillAngles,0
;   externalInfillAngles,45,-45
;   generateSupport,0
;   supportExtruder,0
;   supportInfillPercentage,30
;   supportExtraInflation,0
;   supportBaseLayers,0
;   denseSupportExtruder,0
;   denseSupportLayers,0
;   denseSupportInfillPercentage,70
;   supportLayerInterval,1
;   supportHorizontalPartOffset,0.4
;   supportUpperSeparationLayers,1
;   supportLowerSeparationLayers,1
;   supportType,0
;   supportGridSpacing,4.5
;   maxOverhangAngle,45
;   supportAngles,0
;   temperatureName,Primary Extruder,Heated Bed
;   temperatureNumber,0,0
;   temperatureSetpointCount,1,1
;   temperatureSetpointLayers,1,1
;   temperatureSetpointTemperatures,215,55
;   temperatureStabilizeAtStartup,1,1
;   temperatureHeatedBed,0,1
;   fanLayers,1,2
;   fanSpeeds,0,100
;   blipFanToFullPower,0
;   adjustSpeedForCooling,1
;   minSpeedLayerTime,15
;   minCoolingSpeedSlowdown,50
;   increaseFanForCooling,1
;   minFanLayerTime,25
;   maxCoolingFanSpeed,100
;   increaseFanForBridging,1
;   bridgingFanSpeed,100
;   use5D,1
;   relativeEdistances,0
;   allowEaxisZeroing,1
;   independentExtruderAxes,0
;   includeM10123,0
;   stickySupport,1
;   applyToolheadOffsets,0
;   gcodeXoffset,0
;   gcodeYoffset,0
;   gcodeZoffset,0
;   overrideMachineDefinition,1
;   machineTypeOverride,0
;   strokeXoverride,300
;   strokeYoverride,300
;   strokeZoverride,400
;   originOffsetXoverride,0
;   originOffsetYoverride,0
;   originOffsetZoverride,0
;   homeXdirOverride,-1
;   homeYdirOverride,-1
;   homeZdirOverride,-1
;   flipXoverride,1
;   flipYoverride,-1
;   flipZoverride,1
;   toolheadOffsets,0,0|0,0|0,0|0,0|0,0|0,0
;   overrideFirmwareConfiguration,1
;   firmwareTypeOverride,RepRap (Marlin/Repetier/Sprinter)
;   GPXconfigOverride,r2
;   baudRateOverride,250000
;   overridePrinterModels,1
;   printerModelsOverride
;   startingGcode,;,; -]H.P.B[- MarshMalloW  ,; $VER: StartScript 1.02 (26.12.2019) MarshMalloW,;,; Begin Startcode,;,M117 *Preheat*     	; Preheat,;extruder0_temperature,M104 S[extruder0_temperature]  ,M109 S[extruder0_temperature] ,M109 R[extruder0_temperature] ,;,M117 *Auto-leveling*     	; Auto-leveling,M107                   	; Turn layer fan off,G21                    	; Set to metric [change to G20 if you want Imperial],G90                    	; Force coordinates to be absolute relative to the origin,G28                    	; Home X/Y/Z axis,G29                    	; Auto-leveling (BL-Touch),;,M117 *Start Clean*     	; Indicate nozzle clean in progress on LCD,G92 E0                 	; Set Extruder to 0 ,G1 X0 Y0 F2000         	; Move X and Y to 0 with speed 2000 (mm/min),G1 Z0.1 F1000          	; Move Z to   0.1 with speed 1000 (mm/min),G1 X8.0 F2000          	; Move X to   8.0 with speed 2000 (mm/min),G1 Y60.0 E4.0 F1000.0  	; Move Y to  60 and Extruder with 4.0 with speed 1000 (mm/min),G1 Y100.0 E8.5 F1000.0 	; Move Y to 100 and Extruder with 8.5 with speed 1000 (mm/min),G92 E0                 	; Set extruder to 0,G1 X16.0 F3000         	; Move X to 16.0 with speed 3000 (mm/min),G1 Y60.0 F3000         	; Move Y to 60.0 with speed 3000 (mm/min),M117 *End Clean*       	; Indicate nozzle clean in progress on LCD,G1 Z5 F3000            	; Move Z to  5.0 with speed 3000 (mm/min),G1 X20.0 F3000         	; Move X to 20.0 with speed 3000 (mm/min),; ,M117 *Printing...*     	; Start printing msg on LCD,;,; End Startcode,;,; Begin printing with sliced GCode after here,;
;   layerChangeGcode,
;   retractionGcode,
;   toolChangeGcode,
;   endingGcode,;,; init 181010,;,;M107 			; Fan off,;G1 E-1 F300 			; Retract the filament a bit before lifting the nozzle,;M104 S0 			; Turn off extruder,;M140 S0 			; Turn off bed,;G91			; Relative positioning,;G28 X0 Y0 			; Move X/Y to min endstops so the head is out of teh way,;M84 			; Disable motors,;G90 			; Absolute positioning,;M117 Print ready...,,;,; // From Cura 181010,; // End_gcode,G92 E0			; Zero the extruded length,;G1 E-30 F300		; Retract E -30,M106 S0			; Turn off cooling fan,M104 S0			; Turn off temperature,M140 S0		     	; Turn off bed,G91			; Relative positioning,G1 E-1 F300			; Retract the filament a bit before lifting the nozzle to release some of the pressure,G1 Z+20 E-5 X-20 Y-20 F7200	; Move Z up a bit and retract filament even more,G1 X0 Y150 F10000		; Move right min,M107			; Turn off layer fan,M84			; Disable motors,G90			; Absolute positioning,M117 *The-End* 		; End msg,;,
;   exportFileFormat,gcode
;   celebration,0
;   celebrationSong,Star Wars
;   postProcessing,
;   defaultSpeed,1800
;   outlineUnderspeed,0.5
;   solidInfillUnderspeed,0.8
;   supportUnderspeed,0.8
;   rapidXYspeed,6000
;   rapidZspeed,1002
;   minBridgingArea,50
;   bridgingExtraInflation,0.2
;   bridgingExtrusionMultiplier,1
;   bridgingSpeedMultiplier,0.6
;   useFixedBridgingAngle,0
;   fixedBridgingAngle,0
;   applyBridgingToPerimeters,0
;   filamentDiameters,1.75|1.75|1.75|1.75|1.75|1.75
;   filamentPricesPerKg,30|46|46|46|46|46
;   filamentDensities,1.25|1.25|1.25|1.25|1.25|1.25
;   useMinPrintHeight,0
;   minPrintHeight,0
;   useMaxPrintHeight,0
;   maxPrintHeight,9
;   useDiaphragm,0
;   diaphragmLayerInterval,20
;   robustSlicing,1
;   mergeAllIntoSolid,0
;   onlyRetractWhenCrossingOutline,1
;   retractBetweenLayers,1
;   useRetractionMinTravel,0
;   retractionMinTravel,3
;   retractWhileWiping,0
;   onlyWipeOutlines,1
;   avoidCrossingOutline,0
;   maxMovementDetourFactor,3
;   toolChangeRetractionDistance,12
;   toolChangeExtraRestartDistance,-0.5
;   toolChangeRetractionSpeed,600
;   externalThinWallType,1
;   internalThinWallType,1
;   thinWallAllowedOverlapPercentage,10
;   singleExtrusionMinLength,1
;   singleExtrusionMinPrintingWidthPercentage,50
;   singleExtrusionMaxPrintingWidthPercentage,200
;   singleExtrusionEndpointExtension,0.2
;   horizontalSizeCompensation,0
G90
M82
M106 S0
M140 S55
M190 S55
;
; -]H.P.B[- MarshMalloW  
; $VER: StartScript 1.02 (26.12.2019) MarshMalloW
;
; Begin Startcode
;
M117 *Preheat*     	; Preheat
;extruder0_temperature
M104 S215  
M109 S215 
M109 R215 
;
M117 *Auto-leveling*     	; Auto-leveling
M107                   	; Turn layer fan off
G21                    	; Set to metric [change to G20 if you want Imperial]
G90                    	; Force coordinates to be absolute relative to the origin
G28                    	; Home X/Y/Z axis
G29                    	; Auto-leveling (BL-Touch)
;
M117 *Start Clean*     	; Indicate nozzle clean in progress on LCD
G92 E0                 	; Set Extruder to 0 
G1 X0 Y0 F2000         	; Move X and Y to 0 with speed 2000 (mm/min)
G1 Z0.1 F1000          	; Move Z to   0.1 with speed 1000 (mm/min)
G1 X8.0 F2000          	; Move X to   8.0 with speed 2000 (mm/min)
G1 Y60.0 E4.0 F1000.0  	; Move Y to  60 and Extruder with 4.0 with speed 1000 (mm/min)
G1 Y100.0 E8.5 F1000.0 	; Move Y to 100 and Extruder with 8.5 with speed 1000 (mm/min)
G92 E0                 	; Set extruder to 0
G1 X16.0 F3000         	; Move X to 16.0 with speed 3000 (mm/min)
G1 Y60.0 F3000         	; Move Y to 60.0 with speed 3000 (mm/min)
M117 *End Clean*       	; Indicate nozzle clean in progress on LCD
G1 Z5 F3000            	; Move Z to  5.0 with speed 3000 (mm/min)
G1 X20.0 F3000         	; Move X to 20.0 with speed 3000 (mm/min)
; 
M117 *Printing...*     	; Start printing msg on LCD
;
; End Startcode
;
; Begin printing with sliced GCode after here
;
; process Process1
; layer 1, Z = 0.180
T0
G92 E0.0000
G1 E-4.0000 F3000
; feature skirt
; tool H0.180 W0.350
G1 Z0.300 F1002
G1 X227.638 Y117.128 F6000
G1 Z0.180 F1002
G1 E0.0000 F3000
G92 E0.0000
G1 X230.820 Y117.332 E0.0793 F900
G1 X231.003 Y117.356 E0.0839
G1 X234.178 Y117.974 E0.1644
G1 X234.356 Y118.021 E0.1690
G1 X237.426 Y119.039 E0.2495
G1 X237.597 Y119.108 E0.2541
G1 X240.512 Y120.511 E0.3346
G1 X240.673 Y120.602 E0.3392
G1 X243.384 Y122.366 E0.4196
G1 X243.532 Y122.476 E0.4242
G1 X245.995 Y124.572 E0.5047
G1 X246.128 Y124.700 E0.5093
G1 X248.303 Y127.094 E0.5898
G1 X248.418 Y127.238 E0.5944
G1 X250.270 Y129.890 E0.6749
G1 X250.366 Y130.048 E0.6794
G1 X251.863 Y132.915 E0.7599
G1 X251.938 Y133.083 E0.7645
G1 X253.057 Y136.119 E0.8450
G1 X253.109 Y136.295 E0.8496
G1 X253.821 Y139.404 E0.9289
G1 X253.838 Y139.494 E0.9312
G1 X260.551 Y180.851 E1.9738
G1 X258.829 Y182.875 E2.0399
G1 X219.103 Y182.875 E3.0284
G1 X218.942 Y182.866 E3.0324
G1 X218.034 Y182.764 E3.0551
G1 X217.719 Y182.692 E3.0632
G1 X216.780 Y182.363 E3.0879
G1 X216.489 Y182.223 E3.0960
G1 X215.647 Y181.694 E3.1207
G1 X215.395 Y181.493 E3.1287
G1 X214.691 Y180.789 E3.1535
G1 X214.490 Y180.537 E3.1615
G1 X213.961 Y179.695 E3.1863
G1 X213.821 Y179.404 E3.1943
G1 X213.492 Y178.465 E3.2191
G1 X213.420 Y178.150 E3.2271
G1 X213.318 Y177.242 E3.2498
G1 X213.309 Y177.081 E3.2539
G1 X213.309 Y155.774 E3.7840
G1 X213.268 Y155.415 E3.7930
G1 X213.203 Y155.227 E3.7980
G1 X213.097 Y155.058 E3.8029
G1 X212.956 Y154.918 E3.8079
G1 X212.788 Y154.812 E3.8128
G1 X212.600 Y154.746 E3.8178
G1 X212.240 Y154.706 E3.8268
G1 X205.235 Y154.706 E4.0011
G1 X204.876 Y154.746 E4.0101
G1 X204.688 Y154.812 E4.0150
G1 X204.519 Y154.918 E4.0200
G1 X204.379 Y155.058 E4.0249
G1 X204.273 Y155.227 E4.0299
G1 X204.207 Y155.415 E4.0348
G1 X204.167 Y155.774 E4.0438
G1 X204.167 Y177.081 E4.5740
G1 X204.158 Y177.242 E4.5780
G1 X204.055 Y178.150 E4.6008
G1 X203.983 Y178.465 E4.6088
G1 X203.655 Y179.404 E4.6336
G1 X203.515 Y179.695 E4.6416
G1 X202.986 Y180.537 E4.6663
G1 X202.784 Y180.789 E4.6744
G1 X202.081 Y181.493 E4.6991
G1 X201.828 Y181.694 E4.7072
G1 X200.986 Y182.223 E4.7319
G1 X200.695 Y182.363 E4.7399
G1 X199.756 Y182.692 E4.7647
G1 X199.442 Y182.764 E4.7727
G1 X198.533 Y182.866 E4.7955
G1 X198.372 Y182.875 E4.7995
G1 X196.711 Y182.875 E4.8408
G1 X196.550 Y182.866 E4.8448
G1 X195.642 Y182.764 E4.8676
G1 X195.327 Y182.692 E4.8756
G1 X194.388 Y182.363 E4.9004
G1 X194.097 Y182.223 E4.9084
G1 X193.255 Y181.694 E4.9331
G1 X193.002 Y181.493 E4.9412
G1 X192.299 Y180.789 E4.9659
G1 X192.098 Y180.537 E4.9740
G1 X191.568 Y179.695 E4.9987
G1 X191.428 Y179.404 E5.0068
G1 X191.100 Y178.465 E5.0315
G1 X191.028 Y178.150 E5.0395
G1 X190.926 Y177.242 E5.0623
G1 X190.917 Y177.081 E5.0663
G1 X190.917 Y157.327 E5.5578
G1 X187.375 Y157.327 E5.6459
G1 X187.375 Y177.081 E6.1375
G1 X187.366 Y177.242 E6.1415
G1 X187.264 Y178.150 E6.1642
G1 X187.192 Y178.465 E6.1722
G1 X186.863 Y179.404 E6.1970
G1 X186.723 Y179.695 E6.2050
G1 X186.194 Y180.537 E6.2298
G1 X185.993 Y180.789 E6.2378
G1 X185.289 Y181.493 E6.2626
G1 X185.037 Y181.694 E6.2706
G1 X184.195 Y182.223 E6.2953
G1 X183.904 Y182.363 E6.3034
G1 X182.965 Y182.692 E6.3281
G1 X182.650 Y182.764 E6.3362
G1 X181.742 Y182.866 E6.3589
G1 X181.581 Y182.875 E6.3629
G1 X179.919 Y182.875 E6.4043
G1 X179.758 Y182.866 E6.4083
G1 X178.850 Y182.764 E6.4310
G1 X178.535 Y182.692 E6.4391
G1 X177.596 Y182.363 E6.4638
G1 X177.305 Y182.223 E6.4718
G1 X176.463 Y181.694 E6.4966
G1 X176.211 Y181.493 E6.5046
G1 X175.507 Y180.789 E6.5294
G1 X175.306 Y180.537 E6.5374
G1 X174.777 Y179.695 E6.5622
G1 X174.637 Y179.404 E6.5702
G1 X174.308 Y178.465 E6.5949
G1 X174.236 Y178.150 E6.6030
G1 X174.134 Y177.242 E6.6257
G1 X174.125 Y177.081 E6.6297
G1 X174.125 Y162.121 E7.0020
G1 X174.005 Y161.055 E7.0287
G1 X173.704 Y160.195 E7.0513
G1 X173.220 Y159.424 E7.0740
G1 X172.576 Y158.780 E7.0967
G1 X171.805 Y158.296 E7.1193
G1 X170.945 Y157.995 E7.1420
G1 X169.879 Y157.875 E7.1687
G1 X166.721 Y157.875 E7.2472
G1 X165.655 Y157.995 E7.2739
G1 X164.795 Y158.296 E7.2966
G1 X164.024 Y158.780 E7.3192
G1 X163.380 Y159.424 E7.3419
G1 X162.896 Y160.195 E7.3646
G1 X162.595 Y161.055 E7.3872
G1 X162.475 Y162.121 E7.4139
G1 X162.475 Y177.081 E7.7862
G1 X162.466 Y177.242 E7.7902
G1 X162.364 Y178.150 E7.8129
G1 X162.292 Y178.465 E7.8210
G1 X161.963 Y179.404 E7.8457
G1 X161.823 Y179.695 E7.8537
G1 X161.294 Y180.537 E7.8785
G1 X161.093 Y180.789 E7.8865
G1 X160.389 Y181.493 E7.9113
G1 X160.137 Y181.694 E7.9193
G1 X159.295 Y182.223 E7.9441
G1 X159.004 Y182.363 E7.9521
G1 X158.065 Y182.692 E7.9768
G1 X157.750 Y182.764 E7.9849
G1 X156.842 Y182.866 E8.0076
G1 X156.681 Y182.875 E8.0116
G1 X155.019 Y182.875 E8.0530
G1 X154.858 Y182.866 E8.0570
G1 X153.950 Y182.764 E8.0797
G1 X153.635 Y182.692 E8.0878
G1 X152.696 Y182.363 E8.1125
G1 X152.405 Y182.223 E8.1206
G1 X151.563 Y181.694 E8.1453
G1 X151.311 Y181.493 E8.1533
G1 X150.607 Y180.789 E8.1781
G1 X150.406 Y180.537 E8.1861
G1 X149.877 Y179.695 E8.2109
G1 X149.737 Y179.404 E8.2189
G1 X149.408 Y178.465 E8.2437
G1 X149.336 Y178.150 E8.2517
G1 X149.234 Y177.242 E8.2744
G1 X149.225 Y177.081 E8.2784
G1 X149.225 Y164.109 E8.6012
G1 X149.119 Y163.167 E8.6248
G1 X148.860 Y162.426 E8.6443
G1 X148.442 Y161.761 E8.6639
G1 X147.886 Y161.206 E8.6834
G1 X147.222 Y160.788 E8.7030
G1 X146.480 Y160.529 E8.7225
G1 X145.539 Y160.423 E8.7461
G1 X142.661 Y160.423 E8.8177
G1 X141.720 Y160.529 E8.8413
G1 X140.978 Y160.788 E8.8608
G1 X140.314 Y161.206 E8.8803
G1 X139.758 Y161.761 E8.8999
G1 X139.340 Y162.426 E8.9194
G1 X139.081 Y163.167 E8.9390
G1 X138.975 Y164.109 E8.9625
G1 X138.975 Y177.081 E9.2853
G1 X138.966 Y177.242 E9.2893
G1 X138.864 Y178.150 E9.3121
G1 X138.792 Y178.465 E9.3201
G1 X138.463 Y179.404 E9.3449
G1 X138.323 Y179.695 E9.3529
G1 X137.794 Y180.537 E9.3776
G1 X137.593 Y180.789 E9.3857
G1 X136.889 Y181.493 E9.4104
G1 X136.637 Y181.694 E9.4185
G1 X135.795 Y182.223 E9.4432
G1 X135.504 Y182.363 E9.4512
G1 X134.565 Y182.692 E9.4760
G1 X134.250 Y182.764 E9.4840
G1 X133.342 Y182.866 E9.5068
G1 X133.181 Y182.875 E9.5108
G1 X131.519 Y182.875 E9.5521
G1 X131.358 Y182.866 E9.5561
G1 X130.450 Y182.764 E9.5789
G1 X130.135 Y182.692 E9.5869
G1 X129.196 Y182.363 E9.6117
G1 X128.905 Y182.223 E9.6197
G1 X128.063 Y181.694 E9.6445
G1 X127.811 Y181.493 E9.6525
G1 X127.107 Y180.789 E9.6772
G1 X126.906 Y180.537 E9.6853
G1 X126.377 Y179.695 E9.7100
G1 X126.237 Y179.404 E9.7181
G1 X125.908 Y178.465 E9.7428
G1 X125.836 Y178.150 E9.7508
G1 X125.734 Y177.242 E9.7736
G1 X125.725 Y177.081 E9.7776
G1 X125.725 Y159.561 E10.2135
G1 X125.580 Y158.087 E10.2504
G1 X125.191 Y156.806 E10.2837
