; G-Code generated by Simplify3D(R) Version 4.1.2
; Nov 15, 2019 at 8:22:37 PM
; Settings Summary
;   processName,Process1
;   applyToModels,TFT35_Cover4-3
;   profileName,401_35p Tevo Tornado (experimental)
;   profileVersion,2019-11-15 20:21:15
;   baseProfile,Creality CR-10(2)
;   printMaterial,PLA
;   printQuality,Medium
;   printExtruders,
;   extruderName,Primary Extruder
;   extruderToolheadNumber,0
;   extruderDiameter,0.4
;   extruderAutoWidth,0
;   extruderWidth,0.35
;   extrusionMultiplier,0.95
;   extruderUseRetract,1
;   extruderRetractionDistance,3.8
;   extruderExtraRestartDistance,0
;   extruderRetractionZLift,0.3
;   extruderRetractionSpeed,3000
;   extruderUseCoasting,0
;   extruderCoastingDistance,0.2
;   extruderUseWipe,0
;   extruderWipeDistance,4
;   primaryExtruder,0
;   layerHeight,0.15
;   topSolidLayers,4
;   bottomSolidLayers,3
;   perimeterOutlines,3
;   printPerimetersInsideOut,0
;   startPointOption,1
;   startPointOriginX,0
;   startPointOriginY,300
;   sequentialIslands,0
;   spiralVaseMode,0
;   firstLayerHeightPercentage,120
;   firstLayerWidthPercentage,100
;   firstLayerUnderspeed,0.5
;   useRaft,0
;   raftExtruder,0
;   raftTopLayers,3
;   raftBaseLayers,2
;   raftOffset,3
;   raftSeparationDistance,0.14
;   raftTopInfill,100
;   aboveRaftSpeedMultiplier,0.3
;   useSkirt,1
;   skirtExtruder,0
;   skirtLayers,1
;   skirtOutlines,3
;   skirtOffset,2
;   usePrimePillar,0
;   primePillarExtruder,999
;   primePillarWidth,12
;   primePillarLocation,7
;   primePillarSpeedMultiplier,1
;   useOozeShield,0
;   oozeShieldExtruder,999
;   oozeShieldOffset,2
;   oozeShieldOutlines,1
;   oozeShieldSidewallShape,1
;   oozeShieldSidewallAngle,30
;   oozeShieldSpeedMultiplier,1
;   infillExtruder,0
;   internalInfillPattern,Grid
;   externalInfillPattern,Concentric
;   infillPercentage,35
;   outlineOverlapPercentage,15
;   infillExtrusionWidthPercentage,100
;   minInfillLength,5
;   infillLayerInterval,1
;   internalInfillAngles,45,-45
;   overlapInternalInfillAngles,1
;   externalInfillAngles,45,-45
;   generateSupport,0
;   supportExtruder,0
;   supportInfillPercentage,30
;   supportExtraInflation,0
;   supportBaseLayers,0
;   denseSupportExtruder,0
;   denseSupportLayers,0
;   denseSupportInfillPercentage,70
;   supportLayerInterval,1
;   supportHorizontalPartOffset,0.4
;   supportUpperSeparationLayers,1
;   supportLowerSeparationLayers,1
;   supportType,0
;   supportGridSpacing,4.5
;   maxOverhangAngle,45
;   supportAngles,0
;   temperatureName,Primary Extruder,Heated Bed
;   temperatureNumber,0,0
;   temperatureSetpointCount,2,1
;   temperatureSetpointLayers,1,2,1
;   temperatureSetpointTemperatures,215,210,60
;   temperatureStabilizeAtStartup,1,1
;   temperatureHeatedBed,0,1
;   fanLayers,1,2
;   fanSpeeds,0,100
;   blipFanToFullPower,0
;   adjustSpeedForCooling,1
;   minSpeedLayerTime,15
;   minCoolingSpeedSlowdown,50
;   increaseFanForCooling,1
;   minFanLayerTime,25
;   maxCoolingFanSpeed,100
;   increaseFanForBridging,1
;   bridgingFanSpeed,100
;   use5D,1
;   relativeEdistances,0
;   allowEaxisZeroing,1
;   independentExtruderAxes,0
;   includeM10123,0
;   stickySupport,1
;   applyToolheadOffsets,0
;   gcodeXoffset,0
;   gcodeYoffset,0
;   gcodeZoffset,0
;   overrideMachineDefinition,1
;   machineTypeOverride,0
;   strokeXoverride,300
;   strokeYoverride,300
;   strokeZoverride,400
;   originOffsetXoverride,0
;   originOffsetYoverride,0
;   originOffsetZoverride,0
;   homeXdirOverride,-1
;   homeYdirOverride,-1
;   homeZdirOverride,-1
;   flipXoverride,1
;   flipYoverride,-1
;   flipZoverride,1
;   toolheadOffsets,0,0|0,0|0,0|0,0|0,0|0,0
;   overrideFirmwareConfiguration,1
;   firmwareTypeOverride,RepRap (Marlin/Repetier/Sprinter)
;   GPXconfigOverride,r2
;   baudRateOverride,250000
;   overridePrinterModels,1
;   printerModelsOverride
;   startingGcode,;,; -]H.P.B[- MarshMalloW  ,; $VER: StartScript 1.01 (13.11.2019) MarshMalloW,;,; Begin Startcode,;,M117 *Start Clean*     	; Indicate nozzle clean in progress on LCD,;,;extruder0_temperature,M104 S[extruder0_temperature]  ,M109 S[extruder0_temperature] ,M109 R[extruder0_temperature] ,;,M107                   	; Turn layer fan off,G21                    	; Set to metric [change to G20 if you want Imperial],G90                    	; Force coordinates to be absolute relative to the origin,G28                    	; Home X/Y/Z axis,G29                    	; Auto-leveling (BL-Touch),;,G92 E0                 	; Set Extruder to 0 ,G1 X0 Y0 F2000         	; Move X and Y to 0 with speed 2000 (mm/min),G1 Z0.1 F1000          	; Move Z to   0.1 with speed 1000 (mm/min),G1 X8.0 F2000          	; Move X to   8.0 with speed 2000 (mm/min),G1 Y60.0 E4.0 F1000.0  	; Move Y to  60 and Extruder with 4.0 with speed 1000 (mm/min),G1 Y100.0 E8.5 F1000.0 	; Move Y to 100 and Extruder with 8.5 with speed 1000 (mm/min),G92 E0                 	; Set extruder to 0,G1 X16.0 F3000         	; Move X to 16.0 with speed 3000 (mm/min),G1 Y60.0 F3000         	; Move Y to 60.0 with speed 3000 (mm/min),M117 *End Clean*       	; Indicate nozzle clean in progress on LCD,G1 Z5 F3000            	; Move Z to  5.0 with speed 3000 (mm/min),G1 X20.0 F3000         	; Move X to 20.0 with speed 3000 (mm/min),; ,M117 *Printing...*     	; Start printing msg on LCD,;,; End Startcode,;,; Begin printing with sliced GCode after here,;
;   layerChangeGcode,
;   retractionGcode,
;   toolChangeGcode,
;   endingGcode,;,; init 181010,;,;M107 			; Fan off,;G1 E-1 F300 			; Retract the filament a bit before lifting the nozzle,;M104 S0 			; Turn off extruder,;M140 S0 			; Turn off bed,;G91			; Relative positioning,;G28 X0 Y0 			; Move X/Y to min endstops so the head is out of teh way,;M84 			; Disable motors,;G90 			; Absolute positioning,;M117 Print ready...,,;,; // From Cura 181010,; // End_gcode,G92 E0			; Zero the extruded length,;G1 E-30 F300		; Retract E -30,M106 S0			; Turn off cooling fan,M104 S0			; Turn off temperature,M140 S0		     	; Turn off bed,G91			; Relative positioning,G1 E-1 F300			; Retract the filament a bit before lifting the nozzle to release some of the pressure,G1 Z+20 E-5 X-20 Y-20 F7200	; Move Z up a bit and retract filament even more,G1 X0 Y150 F10000		; Move right min,M107			; Turn off layer fan,M84			; Disable motors,G90			; Absolute positioning,M117 *The-End* 		; End msg,;,
;   exportFileFormat,gcode
;   celebration,0
;   celebrationSong,Star Wars
;   postProcessing,
;   defaultSpeed,1800
;   outlineUnderspeed,0.5
;   solidInfillUnderspeed,0.8
;   supportUnderspeed,0.8
;   rapidXYspeed,6000
;   rapidZspeed,1002
;   minBridgingArea,50
;   bridgingExtraInflation,0.2
;   bridgingExtrusionMultiplier,1
;   bridgingSpeedMultiplier,0.6
;   useFixedBridgingAngle,0
;   fixedBridgingAngle,0
;   applyBridgingToPerimeters,0
;   filamentDiameters,1.75|1.75|1.75|1.75|1.75|1.75
;   filamentPricesPerKg,30|46|46|46|46|46
;   filamentDensities,1.25|1.25|1.25|1.25|1.25|1.25
;   useMinPrintHeight,0
;   minPrintHeight,0
;   useMaxPrintHeight,0
;   maxPrintHeight,9
;   useDiaphragm,0
;   diaphragmLayerInterval,20
;   robustSlicing,1
;   mergeAllIntoSolid,0
;   onlyRetractWhenCrossingOutline,1
;   retractBetweenLayers,1
;   useRetractionMinTravel,1
;   retractionMinTravel,3
;   retractWhileWiping,1
;   onlyWipeOutlines,1
;   avoidCrossingOutline,1
;   maxMovementDetourFactor,3
;   toolChangeRetractionDistance,12
;   toolChangeExtraRestartDistance,-0.5
;   toolChangeRetractionSpeed,600
;   externalThinWallType,1
;   internalThinWallType,1
;   thinWallAllowedOverlapPercentage,15
;   singleExtrusionMinLength,1
;   singleExtrusionMinPrintingWidthPercentage,50
;   singleExtrusionMaxPrintingWidthPercentage,200
;   singleExtrusionEndpointExtension,0.2
;   horizontalSizeCompensation,0
G90
M82
M106 S0
M140 S60
M190 S60
;
; -]H.P.B[- MarshMalloW  
; $VER: StartScript 1.01 (13.11.2019) MarshMalloW
;
; Begin Startcode
;
M117 *Start Clean*     	; Indicate nozzle clean in progress on LCD
;
;extruder0_temperature
M104 S215  
M109 S215 
M109 R215 
;
M107                   	; Turn layer fan off
G21                    	; Set to metric [change to G20 if you want Imperial]
G90                    	; Force coordinates to be absolute relative to the origin
G28                    	; Home X/Y/Z axis
G29                    	; Auto-leveling (BL-Touch)
;
G92 E0                 	; Set Extruder to 0 
G1 X0 Y0 F2000         	; Move X and Y to 0 with speed 2000 (mm/min)
G1 Z0.1 F1000          	; Move Z to   0.1 with speed 1000 (mm/min)
G1 X8.0 F2000          	; Move X to   8.0 with speed 2000 (mm/min)
G1 Y60.0 E4.0 F1000.0  	; Move Y to  60 and Extruder with 4.0 with speed 1000 (mm/min)
G1 Y100.0 E8.5 F1000.0 	; Move Y to 100 and Extruder with 8.5 with speed 1000 (mm/min)
G92 E0                 	; Set extruder to 0
G1 X16.0 F3000         	; Move X to 16.0 with speed 3000 (mm/min)
G1 Y60.0 F3000         	; Move Y to 60.0 with speed 3000 (mm/min)
M117 *End Clean*       	; Indicate nozzle clean in progress on LCD
G1 Z5 F3000            	; Move Z to  5.0 with speed 3000 (mm/min)
G1 X20.0 F3000         	; Move X to 20.0 with speed 3000 (mm/min)
; 
M117 *Printing...*     	; Start printing msg on LCD
;
; End Startcode
;
; Begin printing with sliced GCode after here
;
; process Process1
; layer 1, Z = 0.180
T0
G92 E0.0000
G1 E-3.8000 F3000
; feature skirt
; tool H0.180 W0.350
G1 Z0.300 F1002
G1 X202.242 Y112.853 F6000
G1 Z0.180 F1002
G1 E0.0000 F3000
G92 E0.0000
G1 X203.546 Y113.000 E0.0327 F900
G1 X203.861 Y113.072 E0.0407
G1 X205.177 Y113.532 E0.0754
G1 X205.467 Y113.672 E0.0834
G1 X206.647 Y114.413 E0.1181
G1 X206.900 Y114.615 E0.1261
G1 X207.885 Y115.600 E0.1608
G1 X208.087 Y115.853 E0.1688
G1 X208.828 Y117.033 E0.2035
G1 X208.968 Y117.323 E0.2115
G1 X209.428 Y118.639 E0.2462
G1 X209.500 Y118.954 E0.2543
G1 X209.647 Y120.258 E0.2869
G1 X209.656 Y120.419 E0.2909
G1 X209.656 Y179.581 E1.7630
G1 X209.647 Y179.742 E1.7670
G1 X209.500 Y181.046 E1.7997
G1 X209.428 Y181.361 E1.8078
G1 X208.968 Y182.677 E1.8424
G1 X208.828 Y182.967 E1.8505
G1 X208.087 Y184.147 E1.8851
G1 X207.885 Y184.400 E1.8932
G1 X206.900 Y185.385 E1.9279
G1 X206.647 Y185.587 E1.9359
G1 X205.467 Y186.328 E1.9706
G1 X205.177 Y186.468 E1.9786
G1 X203.861 Y186.928 E2.0133
G1 X203.546 Y187.000 E2.0213
G1 X202.242 Y187.147 E2.0540
G1 X202.081 Y187.156 E2.0580
G1 X97.919 Y187.156 E4.6498
G1 X97.758 Y187.147 E4.6538
G1 X96.454 Y187.000 E4.6865
G1 X96.139 Y186.928 E4.6945
G1 X94.823 Y186.468 E4.7292
G1 X94.533 Y186.328 E4.7372
G1 X93.353 Y185.587 E4.7719
G1 X93.100 Y185.385 E4.7799
G1 X92.115 Y184.400 E4.8146
G1 X91.913 Y184.147 E4.8227
G1 X91.172 Y182.967 E4.8573
G1 X91.032 Y182.677 E4.8654
G1 X90.572 Y181.361 E4.9000
G1 X90.500 Y181.046 E4.9081
G1 X90.353 Y179.742 E4.9407
G1 X90.344 Y179.581 E4.9448
G1 X90.344 Y120.419 E6.4169
G1 X90.353 Y120.258 E6.4209
G1 X90.500 Y118.954 E6.4535
G1 X90.572 Y118.639 E6.4616
G1 X91.032 Y117.323 E6.4963
G1 X91.172 Y117.033 E6.5043
G1 X91.913 Y115.853 E6.5390
G1 X92.115 Y115.600 E6.5470
G1 X93.100 Y114.615 E6.5817
G1 X93.353 Y114.413 E6.5897
G1 X94.533 Y113.672 E6.6244
G1 X94.823 Y113.532 E6.6324
G1 X96.139 Y113.072 E6.6671
G1 X96.454 Y113.000 E6.6751
G1 X97.758 Y112.853 E6.7078
G1 X97.919 Y112.844 E6.7118
G1 X202.081 Y112.844 E9.3036
G1 X202.242 Y112.853 E9.3076
G92 E0.0000
G1 E-3.8000 F3000
G1 Z0.480 F1002
G1 X201.990 Y115.894 F6000
G1 X197.772 Y115.894
G1 X189.496 Y121.525
G1 X106.825 Y121.525
G1 X106.825 Y177.773
G1 X97.587 Y184.059
G1 X96.975 Y183.990
G1 X96.002 Y183.649
G1 X94.702 Y186.021
G1 Z0.180 F1002
G1 E0.0000 F3000
G92 E0.0000
G1 X93.555 Y185.301 E0.0337 F900
G1 X93.334 Y185.124 E0.0408
G1 X92.376 Y184.166 E0.0745
G1 X92.199 Y183.945 E0.0815
G1 X91.479 Y182.798 E0.1152
G1 X91.356 Y182.542 E0.1223
G1 X90.908 Y181.264 E0.1560
G1 X90.845 Y180.988 E0.1630
G1 X90.702 Y179.712 E0.1950
G1 X90.694 Y179.571 E0.1985
G1 X90.694 Y120.429 E1.6701
G1 X90.702 Y120.288 E1.6736
G1 X90.845 Y119.012 E1.7055
G1 X90.908 Y118.736 E1.7126
G1 X91.356 Y117.458 E1.7463
G1 X91.479 Y117.202 E1.7534
G1 X92.199 Y116.055 E1.7871
G1 X92.376 Y115.834 E1.7941
G1 X93.334 Y114.876 E1.8278
G1 X93.555 Y114.699 E1.8349
G1 X94.702 Y113.979 E1.8686
G1 X94.958 Y113.856 E1.8756
G1 X96.236 Y113.408 E1.9093
G1 X96.512 Y113.345 E1.9164
G1 X97.788 Y113.202 E1.9483
G1 X97.929 Y113.194 E1.9518
G1 X202.071 Y113.194 E4.5432
G1 X202.212 Y113.202 E4.5467
G1 X203.488 Y113.345 E4.5786
G1 X203.764 Y113.408 E4.5857
G1 X205.042 Y113.856 E4.6194
G1 X205.298 Y113.979 E4.6264
G1 X206.445 Y114.699 E4.6601
G1 X206.666 Y114.876 E4.6672
G1 X207.624 Y115.834 E4.7009
G1 X207.801 Y116.055 E4.7079
G1 X208.521 Y117.202 E4.7416
G1 X208.644 Y117.458 E4.7487
G1 X209.092 Y118.736 E4.7824
G1 X209.155 Y119.012 E4.7895
G1 X209.298 Y120.288 E4.8214
G1 X209.306 Y120.429 E4.8249
G1 X209.306 Y179.571 E6.2965
G1 X209.298 Y179.712 E6.3000
G1 X209.155 Y180.988 E6.3320
G1 X209.092 Y181.264 E6.3390
G1 X208.644 Y182.542 E6.3727
G1 X208.521 Y182.798 E6.3798
G1 X207.801 Y183.945 E6.4135
G1 X207.624 Y184.166 E6.4205
G1 X206.666 Y185.124 E6.4542
G1 X206.445 Y185.301 E6.4613
G1 X205.298 Y186.021 E6.4950
G1 X205.042 Y186.144 E6.5021
G1 X203.764 Y186.592 E6.5358
G1 X203.488 Y186.655 E6.5428
G1 X202.212 Y186.798 E6.5747
G1 X202.071 Y186.806 E6.5783
G1 X97.929 Y186.806 E9.1696
G1 X97.788 Y186.798 E9.1731
G1 X96.512 Y186.655 E9.2051
G1 X96.236 Y186.592 E9.2121
G1 X94.958 Y186.144 E9.2458
G1 X94.702 Y186.021 E9.2529
G92 E0.0000
G1 E-3.8000 F3000
G1 Z0.480 F1002
G1 X96.002 Y183.649 F6000
G1 X96.975 Y183.990
G1 X97.973 Y184.102
G1 X107.564 Y178.475
G1 X193.175 Y178.475
G1 X193.175 Y128.244
G1 X206.591 Y120.373
G1 X206.490 Y119.475
G1 X208.809 Y119.071
G1 Z0.180 F1002
G1 E0.0000 F3000
G92 E0.0000
G1 X208.950 Y120.317 E0.0312 F900
G1 X208.956 Y120.439 E0.0342
G1 X208.956 Y179.561 E1.5054
G1 X208.950 Y179.683 E1.5084
G1 X208.809 Y180.929 E1.5396
G1 X208.755 Y181.167 E1.5457
G1 X208.320 Y182.408 E1.5784
G1 X208.214 Y182.628 E1.5845
G1 X207.515 Y183.742 E1.6172
G1 X207.363 Y183.933 E1.6233
G1 X206.433 Y184.863 E1.6560
G1 X206.242 Y185.015 E1.6621
G1 X205.128 Y185.714 E1.6948
G1 X204.908 Y185.820 E1.7009
G1 X203.667 Y186.255 E1.7336
G1 X203.429 Y186.309 E1.7397
G1 X202.183 Y186.450 E1.7709
G1 X202.061 Y186.456 E1.7739
G1 X97.939 Y186.456 E4.3647
G1 X97.817 Y186.450 E4.3678
G1 X96.571 Y186.309 E4.3990
G1 X96.333 Y186.255 E4.4051
G1 X95.092 Y185.820 E4.4378
G1 X94.872 Y185.714 E4.4439
G1 X93.758 Y185.015 E4.4766
G1 X93.567 Y184.863 E4.4827
G1 X92.637 Y183.933 E4.5154
G1 X92.485 Y183.742 E4.5215
G1 X91.786 Y182.628 E4.5542
G1 X91.680 Y182.408 E4.5603
G1 X91.245 Y181.167 E4.5930
G1 X91.191 Y180.929 E4.5991
G1 X91.050 Y179.683 E4.6303
G1 X91.044 Y179.561 E4.6333
G1 X91.044 Y120.439 E6.1044
G1 X91.050 Y120.317 E6.1074
G1 X91.191 Y119.071 E6.1386
G1 X91.245 Y118.833 E6.1447
G1 X91.680 Y117.592 E6.1774
G1 X91.786 Y117.372 E6.1835
G1 X92.485 Y116.258 E6.2162
G1 X92.637 Y116.067 E6.2223
G1 X93.567 Y115.137 E6.2550
G1 X93.758 Y114.985 E6.2611
G1 X94.872 Y114.286 E6.2938
G1 X95.092 Y114.180 E6.2999
G1 X96.333 Y113.745 E6.3326
G1 X96.571 Y113.691 E6.3387
G1 X97.817 Y113.550 E6.3699
G1 X97.939 Y113.544 E6.3730
G1 X202.061 Y113.544 E8.9638
G1 X202.183 Y113.550 E8.9668
G1 X203.429 Y113.691 E8.9980
G1 X203.667 Y113.745 E9.0041
G1 X204.908 Y114.180 E9.0368
G1 X205.128 Y114.286 E9.0429
G1 X206.242 Y114.985 E9.0756
G1 X206.433 Y115.137 E9.0817
G1 X207.363 Y116.067 E9.1144
G1 X207.515 Y116.258 E9.1205
G1 X208.214 Y117.372 E9.1532
G1 X208.320 Y117.592 E9.1593
G1 X208.755 Y118.833 E9.1920
G1 X208.809 Y119.071 E9.1981
G92 E0.0000
G1 E-3.8000 F3000
; feature outer perimeter
G1 Z0.480 F1002
G1 X206.490 Y119.475 F6000
G1 X206.344 Y119.059
G1 X93.851 Y118.502
G1 Z0.180 F1002
G1 E0.0000 F3000
G92 E0.0000
G1 X94.399 Y117.629 E0.0257 F450
G1 X95.129 Y116.899 E0.0513
G1 X96.002 Y116.351 E0.0770
G1 X96.975 Y116.010 E0.1026
G1 X98.010 Y115.894 E0.1285
G1 X201.990 Y115.894 E2.7159
G1 X203.025 Y116.010 E2.7418
G1 X203.998 Y116.351 E2.7674
G1 X204.871 Y116.899 E2.7931
G1 X205.601 Y117.629 E2.8188
G1 X205.770 Y117.898 E2.8267
