; G-Code generated by Simplify3D(R) Version 4.1.2
; Oct 20, 2019 at 3:27:16 PM
; Settings Summary
;   processName,Process1
;   applyToModels,TFT35_Front
;   profileName,301 Tevo Tornado (experimental)
;   profileVersion,2019-10-20 15:23:19
;   baseProfile,Creality CR-10(2)
;   printMaterial,PLA
;   printQuality,Medium
;   printExtruders,
;   extruderName,Primary Extruder
;   extruderToolheadNumber,0
;   extruderDiameter,0.4
;   extruderAutoWidth,0
;   extruderWidth,0.35
;   extrusionMultiplier,0.95
;   extruderUseRetract,1
;   extruderRetractionDistance,3.8
;   extruderExtraRestartDistance,0
;   extruderRetractionZLift,0.3
;   extruderRetractionSpeed,3000
;   extruderUseCoasting,0
;   extruderCoastingDistance,0.2
;   extruderUseWipe,0
;   extruderWipeDistance,4
;   primaryExtruder,0
;   layerHeight,0.15
;   topSolidLayers,4
;   bottomSolidLayers,3
;   perimeterOutlines,3
;   printPerimetersInsideOut,0
;   startPointOption,3
;   startPointOriginX,0
;   startPointOriginY,300
;   sequentialIslands,0
;   spiralVaseMode,0
;   firstLayerHeightPercentage,120
;   firstLayerWidthPercentage,100
;   firstLayerUnderspeed,0.5
;   useRaft,0
;   raftExtruder,0
;   raftTopLayers,3
;   raftBaseLayers,2
;   raftOffset,3
;   raftSeparationDistance,0.14
;   raftTopInfill,100
;   aboveRaftSpeedMultiplier,0.3
;   useSkirt,1
;   skirtExtruder,0
;   skirtLayers,1
;   skirtOutlines,3
;   skirtOffset,2
;   usePrimePillar,0
;   primePillarExtruder,999
;   primePillarWidth,12
;   primePillarLocation,7
;   primePillarSpeedMultiplier,1
;   useOozeShield,0
;   oozeShieldExtruder,999
;   oozeShieldOffset,2
;   oozeShieldOutlines,1
;   oozeShieldSidewallShape,1
;   oozeShieldSidewallAngle,30
;   oozeShieldSpeedMultiplier,1
;   infillExtruder,0
;   internalInfillPattern,Rectilinear
;   externalInfillPattern,Rectilinear
;   infillPercentage,25
;   outlineOverlapPercentage,15
;   infillExtrusionWidthPercentage,100
;   minInfillLength,5
;   infillLayerInterval,1
;   internalInfillAngles,45,-45
;   overlapInternalInfillAngles,0
;   externalInfillAngles,45,-45
;   generateSupport,0
;   supportExtruder,0
;   supportInfillPercentage,30
;   supportExtraInflation,0
;   supportBaseLayers,0
;   denseSupportExtruder,0
;   denseSupportLayers,0
;   denseSupportInfillPercentage,70
;   supportLayerInterval,1
;   supportHorizontalPartOffset,0.4
;   supportUpperSeparationLayers,1
;   supportLowerSeparationLayers,1
;   supportType,0
;   supportGridSpacing,4.5
;   maxOverhangAngle,45
;   supportAngles,0
;   temperatureName,Primary Extruder,Heated Bed
;   temperatureNumber,0,0
;   temperatureSetpointCount,2,1
;   temperatureSetpointLayers,1,2,1
;   temperatureSetpointTemperatures,215,210,50
;   temperatureStabilizeAtStartup,1,1
;   temperatureHeatedBed,0,1
;   fanLayers,1,2
;   fanSpeeds,0,100
;   blipFanToFullPower,0
;   adjustSpeedForCooling,1
;   minSpeedLayerTime,15
;   minCoolingSpeedSlowdown,50
;   increaseFanForCooling,1
;   minFanLayerTime,25
;   maxCoolingFanSpeed,100
;   increaseFanForBridging,1
;   bridgingFanSpeed,100
;   use5D,1
;   relativeEdistances,0
;   allowEaxisZeroing,1
;   independentExtruderAxes,0
;   includeM10123,0
;   stickySupport,1
;   applyToolheadOffsets,0
;   gcodeXoffset,0
;   gcodeYoffset,0
;   gcodeZoffset,0
;   overrideMachineDefinition,1
;   machineTypeOverride,0
;   strokeXoverride,300
;   strokeYoverride,300
;   strokeZoverride,400
;   originOffsetXoverride,0
;   originOffsetYoverride,0
;   originOffsetZoverride,0
;   homeXdirOverride,-1
;   homeYdirOverride,-1
;   homeZdirOverride,-1
;   flipXoverride,1
;   flipYoverride,-1
;   flipZoverride,1
;   toolheadOffsets,0,0|0,0|0,0|0,0|0,0|0,0
;   overrideFirmwareConfiguration,1
;   firmwareTypeOverride,RepRap (Marlin/Repetier/Sprinter)
;   GPXconfigOverride,r2
;   baudRateOverride,250000
;   overridePrinterModels,1
;   printerModelsOverride
;   startingGcode,;Init 181010,;G28 			; Home all axes,;G1 Z5 F3000 		; Lift,;G92 E0			; Reset extrusion distance,,; // From Cura 181010,; // Update 190823 (GueroLoco),; // Update 191005 Autoleveling,; // Start_gcode,M117 *Start Clean*		; Indicate nozzle clean in progress on LCD,;,M104 S[extruder0_temperature] ,M109 S[extruder0_temperature] ,M109 R[extruder0_temperature] ,;,M107			; Turn layer fan off,G21			; Set to metric [change to G20 if you want Imperial],G90			; Force coordinates to be absolute relative to the origin,G28			; Home X/Y/Z axis,G29			; Auto-leveling,;,;G1 X3 Y1 Z15 F9000		; Move safe Z height to shear strings,;G0 X1 Y1 Z0.2 F9000		; Move in 1mm from edge and up [z] 0.2mm,;G92 E0			; Set extruder to [0] zero,;G1 X100 E12 F500		; Extrude 30mm filiment along X axis 100mm long to prime and clean the nozzle,;G92 E0			; Reset extruder to [0] zero end of cleaning run,;G1 E-1 F500			; Retract filiment by 1 mm to reduce string effect,;G1 X180 F4000		; Quick wipe away from the filament line / purge,;,G92 E0			; Set Extruder to 0 ,G1 X0 Y0 F2000		; Move X and Y to 0 with speed 2000 (mm/min),G1 Z0.1 F1000		; Move Z to 0.1,G1 X8.0 F2000		; Move X to 8.0,G1 Y60.0 E4.0 F1000.0		; Prime - Move Y to 60 and Extruder with 4.0,G1 Y100.0 E8.5 F1000.0		; Prime - Move Y to 100 and Extruder with 8.5,G92 E0			; Set extruder to 0,M117 *End Clean*		; Indicate nozzle clean in progress on LCD,G1 Z5 F3000			; Lift - Move Z to 5,; ,M117 *Printing...*		; start msg,; // Begin printing with sliced GCode after here,;
;   layerChangeGcode,
;   retractionGcode,
;   toolChangeGcode,
;   endingGcode,;,; init 181010,;,;M107 			; Fan off,;G1 E-1 F300 			; Retract the filament a bit before lifting the nozzle,;M104 S0 			; Turn off extruder,;M140 S0 			; Turn off bed,;G91			; Relative positioning,;G28 X0 Y0 			; Move X/Y to min endstops so the head is out of teh way,;M84 			; Disable motors,;G90 			; Absolute positioning,;M117 Print ready...,,;,; // From Cura 181010,; // End_gcode,G92 E0			; Zero the extruded length,;G1 E-30 F300		; Retract E -30,M106 S0			; Turn off cooling fan,M104 S0			; Turn off temperature,M140 S0		     	; Turn off bed,G91			; Relative positioning,G1 E-1 F300			; Retract the filament a bit before lifting the nozzle to release some of the pressure,G1 Z+20 E-5 X-20 Y-20 F7200	; Move Z up a bit and retract filament even more,G1 X0 Y150 F10000		; Move right min,M107			; Turn off layer fan,M84			; Disable motors,G90			; Absolute positioning,M117 *The-End* 		; End msg,;,
;   exportFileFormat,gcode
;   celebration,0
;   celebrationSong,Star Wars
;   postProcessing,
;   defaultSpeed,1800
;   outlineUnderspeed,0.5
;   solidInfillUnderspeed,0.8
;   supportUnderspeed,0.8
;   rapidXYspeed,6000
;   rapidZspeed,1002
;   minBridgingArea,50
;   bridgingExtraInflation,0.2
;   bridgingExtrusionMultiplier,1
;   bridgingSpeedMultiplier,0.6
;   useFixedBridgingAngle,0
;   fixedBridgingAngle,0
;   applyBridgingToPerimeters,0
;   filamentDiameters,1.75|1.75|1.75|1.75|1.75|1.75
;   filamentPricesPerKg,30|46|46|46|46|46
;   filamentDensities,1.25|1.25|1.25|1.25|1.25|1.25
;   useMinPrintHeight,0
;   minPrintHeight,0
;   useMaxPrintHeight,0
;   maxPrintHeight,9
;   useDiaphragm,0
;   diaphragmLayerInterval,20
;   robustSlicing,1
;   mergeAllIntoSolid,0
;   onlyRetractWhenCrossingOutline,1
;   retractBetweenLayers,1
;   useRetractionMinTravel,0
;   retractionMinTravel,3
;   retractWhileWiping,0
;   onlyWipeOutlines,1
;   avoidCrossingOutline,0
;   maxMovementDetourFactor,3
;   toolChangeRetractionDistance,12
;   toolChangeExtraRestartDistance,-0.5
;   toolChangeRetractionSpeed,600
;   externalThinWallType,1
;   internalThinWallType,1
;   thinWallAllowedOverlapPercentage,15
;   singleExtrusionMinLength,1
;   singleExtrusionMinPrintingWidthPercentage,50
;   singleExtrusionMaxPrintingWidthPercentage,200
;   singleExtrusionEndpointExtension,0.2
;   horizontalSizeCompensation,0
G90
M82
M106 S0
M140 S50
M190 S50
;Init 181010
;G28 			; Home all axes
;G1 Z5 F3000 		; Lift
;G92 E0			; Reset extrusion distance
; // From Cura 181010
; // Update 190823 (GueroLoco)
; // Update 191005 Autoleveling
; // Start_gcode
M117 *Start Clean*		; Indicate nozzle clean in progress on LCD
;
M104 S215 
M109 S215 
M109 R215 
;
M107			; Turn layer fan off
G21			; Set to metric [change to G20 if you want Imperial]
G90			; Force coordinates to be absolute relative to the origin
G28			; Home X/Y/Z axis
G29			; Auto-leveling
;
;G1 X3 Y1 Z15 F9000		; Move safe Z height to shear strings
;G0 X1 Y1 Z0.2 F9000		; Move in 1mm from edge and up [z] 0.2mm
;G92 E0			; Set extruder to [0] zero
;G1 X100 E12 F500		; Extrude 30mm filiment along X axis 100mm long to prime and clean the nozzle
;G92 E0			; Reset extruder to [0] zero end of cleaning run
;G1 E-1 F500			; Retract filiment by 1 mm to reduce string effect
;G1 X180 F4000		; Quick wipe away from the filament line / purge
;
G92 E0			; Set Extruder to 0 
G1 X0 Y0 F2000		; Move X and Y to 0 with speed 2000 (mm/min)
G1 Z0.1 F1000		; Move Z to 0.1
G1 X8.0 F2000		; Move X to 8.0
G1 Y60.0 E4.0 F1000.0		; Prime - Move Y to 60 and Extruder with 4.0
G1 Y100.0 E8.5 F1000.0		; Prime - Move Y to 100 and Extruder with 8.5
G92 E0			; Set extruder to 0
M117 *End Clean*		; Indicate nozzle clean in progress on LCD
G1 Z5 F3000			; Lift - Move Z to 5
; 
M117 *Printing...*		; start msg
; // Begin printing with sliced GCode after here
;
; process Process1
; layer 1, Z = 0.180
T0
G92 E0.0000
G1 E-3.8000 F3000
; feature skirt
; tool H0.180 W0.350
G1 Z0.300 F1002
G1 X91.809 Y197.949 F6000
G1 Z0.180 F1002
G1 E0.0000 F3000
G92 E0.0000
G1 X90.125 Y196.264 E0.0593 F900
G1 X90.125 Y124.883 E1.8354
G1 X91.809 Y123.199 E1.8947
G1 X208.191 Y123.199 E4.7906
G1 X209.875 Y124.883 E4.8499
G1 X209.875 Y196.264 E6.6260
G1 X208.191 Y197.949 E6.6853
G1 X91.809 Y197.949 E9.5812
G92 E0.0000
G1 E-3.8000 F3000
G1 Z0.480 F1002
G1 X91.954 Y197.599 F6000
G1 Z0.180 F1002
G1 E0.0000 F3000
G92 E0.0000
G1 X90.475 Y196.119 E0.0520 F900
G1 X90.475 Y125.028 E1.8210
G1 X91.954 Y123.549 E1.8731
G1 X208.046 Y123.549 E4.7617
G1 X209.525 Y125.028 E4.8138
G1 X209.525 Y196.119 E6.5827
G1 X208.046 Y197.599 E6.6348
G1 X91.954 Y197.599 E9.5235
G92 E0.0000
G1 E-3.8000 F3000
G1 Z0.480 F1002
G1 X92.099 Y197.249 F6000
G1 Z0.180 F1002
G1 E0.0000 F3000
G92 E0.0000
G1 X90.825 Y195.974 E0.0448 F900
G1 X90.825 Y125.173 E1.8066
G1 X92.099 Y123.899 E1.8514
G1 X207.901 Y123.899 E4.7329
G1 X209.175 Y125.173 E4.7777
G1 X209.175 Y195.974 E6.5395
G1 X207.901 Y197.249 E6.5843
G1 X92.099 Y197.249 E9.4658
G92 E0.0000
G1 E-3.8000 F3000
; feature outer perimeter
G1 Z0.480 F1002
G1 X93.175 Y194.899 F6000
G1 Z0.180 F1002
G1 E0.0000 F3000
G92 E0.0000
G1 X93.175 Y126.249 E1.7082 F450
G1 X206.825 Y126.249 E4.5361
G1 X206.825 Y194.899 E6.2443
G1 X93.175 Y194.899 E9.0722
; feature inner perimeter
G1 X93.525 Y194.549 F6000
G92 E0.0000
G1 X93.525 Y126.599 E1.6908 F675
G1 X206.475 Y126.599 E4.5013
G1 X206.475 Y194.549 E6.1921
G1 X93.525 Y194.549 E9.0026
G1 X93.875 Y194.199 F6000
G92 E0.0000
G1 X93.875 Y126.949 E1.6734 F675
G1 X206.125 Y126.949 E4.4665
G1 X206.125 Y194.199 E6.1398
G1 X93.875 Y194.199 E8.9329
; feature outer perimeter
G1 X104.665 Y191.359 F6000
G92 E0.0000
G1 X195.335 Y191.359 E2.2561 F450
G1 X195.335 Y129.689 E3.7906
G1 X104.665 Y129.689 E6.0468
G1 X104.665 Y191.359 E7.5813
; feature inner perimeter
G1 X104.315 Y191.709 F6000
G92 E0.0000
G1 X195.685 Y191.709 E2.2735 F675
G1 X195.685 Y129.339 E3.8255
G1 X104.315 Y129.339 E6.0990
G1 X104.315 Y191.709 E7.6509
G1 X103.965 Y192.059 F6000
G92 E0.0000
G1 X196.035 Y192.059 E2.2910 F675
G1 X196.035 Y128.989 E3.8603
G1 X103.965 Y128.989 E6.1513
G1 X103.965 Y192.059 E7.7206
; feature solid layer
G1 X104.071 Y192.356 F6000
G92 E0.0000
G1 X105.616 Y193.901 E0.0544 F720
G1 X106.111 Y193.901 E0.0667
G1 X104.566 Y192.356 E0.1211
G1 X105.061 Y192.356 E0.1334
G1 X106.606 Y193.901 E0.1877
G1 X107.101 Y193.901 E0.2001
G1 X105.556 Y192.356 E0.2544
G1 X106.051 Y192.356 E0.2667
G1 X107.596 Y193.901 E0.3211
G1 X108.091 Y193.901 E0.3334
G1 X106.546 Y192.356 E0.3878
G1 X107.041 Y192.356 E0.4001
G1 X108.586 Y193.901 E0.4545
G1 X109.081 Y193.901 E0.4668
G1 X107.536 Y192.356 E0.5212
G1 X108.031 Y192.356 E0.5335
G1 X109.576 Y193.901 E0.5878
G1 X110.071 Y193.901 E0.6002
G1 X108.526 Y192.356 E0.6545
G1 X109.021 Y192.356 E0.6668
G1 X110.566 Y193.901 E0.7212
G1 X111.061 Y193.901 E0.7335
G1 X109.516 Y192.356 E0.7879
G1 X110.011 Y192.356 E0.8002
G1 X111.556 Y193.901 E0.8546
G1 X112.051 Y193.901 E0.8669
G1 X110.506 Y192.356 E0.9213
G1 X111.001 Y192.356 E0.9336
G1 X112.546 Y193.901 E0.9879
G1 X113.041 Y193.901 E1.0003
G1 X111.496 Y192.356 E1.0546
G1 X111.991 Y192.356 E1.0669
G1 X113.536 Y193.901 E1.1213
G1 X114.031 Y193.901 E1.1336
G1 X112.486 Y192.356 E1.1880
G1 X112.981 Y192.356 E1.2003
G1 X114.526 Y193.901 E1.2547
G1 X115.021 Y193.901 E1.2670
G1 X113.476 Y192.356 E1.3214
G1 X113.971 Y192.356 E1.3337
G1 X115.516 Y193.901 E1.3880
G1 X116.011 Y193.901 E1.4004
G1 X114.466 Y192.356 E1.4547
G1 X114.961 Y192.356 E1.4670
G1 X116.506 Y193.901 E1.5214
G1 X117.001 Y193.901 E1.5337
G1 X115.456 Y192.356 E1.5881
G1 X115.951 Y192.356 E1.6004
G1 X117.496 Y193.901 E1.6548
G1 X117.991 Y193.901 E1.6671
G1 X116.446 Y192.356 E1.7215
G1 X116.941 Y192.356 E1.7338
G1 X118.486 Y193.901 E1.7881
G1 X118.981 Y193.901 E1.8005
G1 X117.436 Y192.356 E1.8548
G1 X117.931 Y192.356 E1.8671
G1 X119.476 Y193.901 E1.9215
G1 X119.971 Y193.901 E1.9338
G1 X118.426 Y192.356 E1.9882
G1 X118.921 Y192.356 E2.0005
G1 X120.466 Y193.901 E2.0549
G1 X120.961 Y193.901 E2.0672
G1 X119.416 Y192.356 E2.1216
G1 X119.911 Y192.356 E2.1339
G1 X121.456 Y193.901 E2.1882
G1 X121.951 Y193.901 E2.2006
G1 X120.406 Y192.356 E2.2549
G1 X120.901 Y192.356 E2.2672
G1 X122.446 Y193.901 E2.3216
G1 X122.941 Y193.901 E2.3339
G1 X121.396 Y192.356 E2.3883
G1 X121.891 Y192.356 E2.4006
G1 X123.436 Y193.901 E2.4550
G1 X123.931 Y193.901 E2.4673
G1 X122.386 Y192.356 E2.5217
G1 X122.881 Y192.356 E2.5340
G1 X124.426 Y193.901 E2.5883
G1 X124.920 Y193.901 E2.6007
G1 X123.375 Y192.356 E2.6550
G1 X123.870 Y192.356 E2.6673
G1 X125.415 Y193.901 E2.7217
G1 X125.910 Y193.901 E2.7340
G1 X124.365 Y192.356 E2.7884
G1 X124.860 Y192.356 E2.8007
G1 X126.405 Y193.901 E2.8551
G1 X126.900 Y193.901 E2.8674
G1 X125.355 Y192.356 E2.9218
G1 X125.850 Y192.356 E2.9341
G1 X127.395 Y193.901 E2.9885
G1 X127.890 Y193.901 E3.0008
G1 X126.345 Y192.356 E3.0551
G1 X126.840 Y192.356 E3.0675
G1 X128.385 Y193.901 E3.1218
G1 X128.880 Y193.901 E3.1341
G1 X127.335 Y192.356 E3.1885
G1 X127.830 Y192.356 E3.2008
G1 X129.375 Y193.901 E3.2552
G1 X129.870 Y193.901 E3.2675
G1 X128.325 Y192.356 E3.3219
G1 X128.820 Y192.356 E3.3342
G1 X130.365 Y193.901 E3.3886
G1 X130.860 Y193.901 E3.4009
G1 X129.315 Y192.356 E3.4552
G1 X129.810 Y192.356 E3.4676
G1 X131.355 Y193.901 E3.5219
G1 X131.850 Y193.901 E3.5342
G1 X130.305 Y192.356 E3.5886
G1 X130.800 Y192.356 E3.6009
G1 X132.345 Y193.901 E3.6553
G1 X132.840 Y193.901 E3.6676
G1 X131.295 Y192.356 E3.7220
G1 X131.790 Y192.356 E3.7343
G1 X133.335 Y193.901 E3.7887
G1 X133.830 Y193.901 E3.8010
G1 X132.285 Y192.356 E3.8553
G1 X132.780 Y192.356 E3.8677
G1 X134.325 Y193.901 E3.9220
G1 X134.820 Y193.901 E3.9343
G1 X133.275 Y192.356 E3.9887
G1 X133.770 Y192.356 E4.0010
G1 X135.315 Y193.901 E4.0554
G1 X135.810 Y193.901 E4.0677
G1 X134.265 Y192.356 E4.1221
G1 X134.760 Y192.356 E4.1344
G1 X136.305 Y193.901 E4.1888
G1 X136.800 Y193.901 E4.2011
G1 X135.255 Y192.356 E4.2554
G1 X135.750 Y192.356 E4.2678
G1 X137.295 Y193.901 E4.3221
G1 X137.790 Y193.901 E4.3344
G1 X136.245 Y192.356 E4.3888
G1 X136.740 Y192.356 E4.4011
G1 X138.285 Y193.901 E4.4555
G1 X138.780 Y193.901 E4.4678
G1 X137.235 Y192.356 E4.5222
G1 X137.730 Y192.356 E4.5345
G1 X139.275 Y193.901 E4.5889
G1 X139.770 Y193.901 E4.6012
G1 X138.225 Y192.356 E4.6555
G1 X138.720 Y192.356 E4.6679
G1 X140.265 Y193.901 E4.7222
G1 X140.760 Y193.901 E4.7345
G1 X139.215 Y192.356 E4.7889
G1 X139.710 Y192.356 E4.8012
G1 X141.255 Y193.901 E4.8556
G1 X141.750 Y193.901 E4.8679
G1 X140.205 Y192.356 E4.9223
G1 X140.700 Y192.356 E4.9346
G1 X142.245 Y193.901 E4.9890
G1 X142.740 Y193.901 E5.0013
G1 X141.195 Y192.356 E5.0556
G1 X141.690 Y192.356 E5.0680
