; G-Code generated by Simplify3D(R) Version 4.1.2
; Oct 22, 2019 at 11:09:11 PM
; Settings Summary
;   processName,Process1
;   applyToModels,TFT35_Cover
;   profileName,301 Tevo Tornado (experimental)
;   profileVersion,2019-10-20 15:24:49
;   baseProfile,Creality CR-10(2)
;   printMaterial,PLA
;   printQuality,Medium
;   printExtruders,
;   extruderName,Primary Extruder
;   extruderToolheadNumber,0
;   extruderDiameter,0.4
;   extruderAutoWidth,0
;   extruderWidth,0.35
;   extrusionMultiplier,0.95
;   extruderUseRetract,1
;   extruderRetractionDistance,3.8
;   extruderExtraRestartDistance,0
;   extruderRetractionZLift,0.3
;   extruderRetractionSpeed,3000
;   extruderUseCoasting,0
;   extruderCoastingDistance,0.2
;   extruderUseWipe,0
;   extruderWipeDistance,4
;   primaryExtruder,0
;   layerHeight,0.15
;   topSolidLayers,4
;   bottomSolidLayers,3
;   perimeterOutlines,3
;   printPerimetersInsideOut,0
;   startPointOption,3
;   startPointOriginX,0
;   startPointOriginY,300
;   sequentialIslands,0
;   spiralVaseMode,0
;   firstLayerHeightPercentage,120
;   firstLayerWidthPercentage,100
;   firstLayerUnderspeed,0.5
;   useRaft,0
;   raftExtruder,0
;   raftTopLayers,3
;   raftBaseLayers,2
;   raftOffset,3
;   raftSeparationDistance,0.14
;   raftTopInfill,100
;   aboveRaftSpeedMultiplier,0.3
;   useSkirt,1
;   skirtExtruder,0
;   skirtLayers,1
;   skirtOutlines,3
;   skirtOffset,2
;   usePrimePillar,0
;   primePillarExtruder,999
;   primePillarWidth,12
;   primePillarLocation,7
;   primePillarSpeedMultiplier,1
;   useOozeShield,0
;   oozeShieldExtruder,999
;   oozeShieldOffset,2
;   oozeShieldOutlines,1
;   oozeShieldSidewallShape,1
;   oozeShieldSidewallAngle,30
;   oozeShieldSpeedMultiplier,1
;   infillExtruder,0
;   internalInfillPattern,Rectilinear
;   externalInfillPattern,Rectilinear
;   infillPercentage,25
;   outlineOverlapPercentage,15
;   infillExtrusionWidthPercentage,100
;   minInfillLength,5
;   infillLayerInterval,1
;   internalInfillAngles,45,-45
;   overlapInternalInfillAngles,0
;   externalInfillAngles,45,-45
;   generateSupport,0
;   supportExtruder,0
;   supportInfillPercentage,30
;   supportExtraInflation,0
;   supportBaseLayers,0
;   denseSupportExtruder,0
;   denseSupportLayers,0
;   denseSupportInfillPercentage,70
;   supportLayerInterval,1
;   supportHorizontalPartOffset,0.4
;   supportUpperSeparationLayers,1
;   supportLowerSeparationLayers,1
;   supportType,0
;   supportGridSpacing,4.5
;   maxOverhangAngle,45
;   supportAngles,0
;   temperatureName,Primary Extruder,Heated Bed
;   temperatureNumber,0,0
;   temperatureSetpointCount,2,1
;   temperatureSetpointLayers,1,2,1
;   temperatureSetpointTemperatures,215,210,50
;   temperatureStabilizeAtStartup,1,1
;   temperatureHeatedBed,0,1
;   fanLayers,1,2
;   fanSpeeds,0,100
;   blipFanToFullPower,0
;   adjustSpeedForCooling,1
;   minSpeedLayerTime,15
;   minCoolingSpeedSlowdown,50
;   increaseFanForCooling,1
;   minFanLayerTime,25
;   maxCoolingFanSpeed,100
;   increaseFanForBridging,1
;   bridgingFanSpeed,100
;   use5D,1
;   relativeEdistances,0
;   allowEaxisZeroing,1
;   independentExtruderAxes,0
;   includeM10123,0
;   stickySupport,1
;   applyToolheadOffsets,0
;   gcodeXoffset,0
;   gcodeYoffset,0
;   gcodeZoffset,0
;   overrideMachineDefinition,1
;   machineTypeOverride,0
;   strokeXoverride,300
;   strokeYoverride,300
;   strokeZoverride,400
;   originOffsetXoverride,0
;   originOffsetYoverride,0
;   originOffsetZoverride,0
;   homeXdirOverride,-1
;   homeYdirOverride,-1
;   homeZdirOverride,-1
;   flipXoverride,1
;   flipYoverride,-1
;   flipZoverride,1
;   toolheadOffsets,0,0|0,0|0,0|0,0|0,0|0,0
;   overrideFirmwareConfiguration,1
;   firmwareTypeOverride,RepRap (Marlin/Repetier/Sprinter)
;   GPXconfigOverride,r2
;   baudRateOverride,250000
;   overridePrinterModels,1
;   printerModelsOverride
;   startingGcode,;Init 181010,;G28 			; Home all axes,;G1 Z5 F3000 		; Lift,;G92 E0			; Reset extrusion distance,,; // From Cura 181010,; // Update 190823 (GueroLoco),; // Update 191005 Autoleveling,; // Start_gcode,M117 *Start Clean*		; Indicate nozzle clean in progress on LCD,;,M104 S[extruder0_temperature] ,M109 S[extruder0_temperature] ,M109 R[extruder0_temperature] ,;,M107			; Turn layer fan off,G21			; Set to metric [change to G20 if you want Imperial],G90			; Force coordinates to be absolute relative to the origin,G28			; Home X/Y/Z axis,G29			; Auto-leveling,;,;G1 X3 Y1 Z15 F9000		; Move safe Z height to shear strings,;G0 X1 Y1 Z0.2 F9000		; Move in 1mm from edge and up [z] 0.2mm,;G92 E0			; Set extruder to [0] zero,;G1 X100 E12 F500		; Extrude 30mm filiment along X axis 100mm long to prime and clean the nozzle,;G92 E0			; Reset extruder to [0] zero end of cleaning run,;G1 E-1 F500			; Retract filiment by 1 mm to reduce string effect,;G1 X180 F4000		; Quick wipe away from the filament line / purge,;,G92 E0			; Set Extruder to 0 ,G1 X0 Y0 F2000		; Move X and Y to 0 with speed 2000 (mm/min),G1 Z0.1 F1000		; Move Z to 0.1,G1 X8.0 F2000		; Move X to 8.0,G1 Y60.0 E4.0 F1000.0		; Prime - Move Y to 60 and Extruder with 4.0,G1 Y100.0 E8.5 F1000.0		; Prime - Move Y to 100 and Extruder with 8.5,G92 E0			; Set extruder to 0,M117 *End Clean*		; Indicate nozzle clean in progress on LCD,G1 Z5 F3000			; Lift - Move Z to 5,; ,M117 *Printing...*		; start msg,; // Begin printing with sliced GCode after here,;
;   layerChangeGcode,
;   retractionGcode,
;   toolChangeGcode,
;   endingGcode,;,; init 181010,;,;M107 			; Fan off,;G1 E-1 F300 			; Retract the filament a bit before lifting the nozzle,;M104 S0 			; Turn off extruder,;M140 S0 			; Turn off bed,;G91			; Relative positioning,;G28 X0 Y0 			; Move X/Y to min endstops so the head is out of teh way,;M84 			; Disable motors,;G90 			; Absolute positioning,;M117 Print ready...,,;,; // From Cura 181010,; // End_gcode,G92 E0			; Zero the extruded length,;G1 E-30 F300		; Retract E -30,M106 S0			; Turn off cooling fan,M104 S0			; Turn off temperature,M140 S0		     	; Turn off bed,G91			; Relative positioning,G1 E-1 F300			; Retract the filament a bit before lifting the nozzle to release some of the pressure,G1 Z+20 E-5 X-20 Y-20 F7200	; Move Z up a bit and retract filament even more,G1 X0 Y150 F10000		; Move right min,M107			; Turn off layer fan,M84			; Disable motors,G90			; Absolute positioning,M117 *The-End* 		; End msg,;,
;   exportFileFormat,gcode
;   celebration,0
;   celebrationSong,Star Wars
;   postProcessing,
;   defaultSpeed,1800
;   outlineUnderspeed,0.5
;   solidInfillUnderspeed,0.8
;   supportUnderspeed,0.8
;   rapidXYspeed,6000
;   rapidZspeed,1002
;   minBridgingArea,50
;   bridgingExtraInflation,0.2
;   bridgingExtrusionMultiplier,1
;   bridgingSpeedMultiplier,0.6
;   useFixedBridgingAngle,0
;   fixedBridgingAngle,0
;   applyBridgingToPerimeters,0
;   filamentDiameters,1.75|1.75|1.75|1.75|1.75|1.75
;   filamentPricesPerKg,30|46|46|46|46|46
;   filamentDensities,1.25|1.25|1.25|1.25|1.25|1.25
;   useMinPrintHeight,0
;   minPrintHeight,0
;   useMaxPrintHeight,0
;   maxPrintHeight,9
;   useDiaphragm,0
;   diaphragmLayerInterval,20
;   robustSlicing,1
;   mergeAllIntoSolid,0
;   onlyRetractWhenCrossingOutline,1
;   retractBetweenLayers,1
;   useRetractionMinTravel,0
;   retractionMinTravel,3
;   retractWhileWiping,0
;   onlyWipeOutlines,1
;   avoidCrossingOutline,0
;   maxMovementDetourFactor,3
;   toolChangeRetractionDistance,12
;   toolChangeExtraRestartDistance,-0.5
;   toolChangeRetractionSpeed,600
;   externalThinWallType,1
;   internalThinWallType,1
;   thinWallAllowedOverlapPercentage,15
;   singleExtrusionMinLength,1
;   singleExtrusionMinPrintingWidthPercentage,50
;   singleExtrusionMaxPrintingWidthPercentage,200
;   singleExtrusionEndpointExtension,0.2
;   horizontalSizeCompensation,0
G90
M82
M106 S0
M140 S50
M190 S50
;Init 181010
;G28 			; Home all axes
;G1 Z5 F3000 		; Lift
;G92 E0			; Reset extrusion distance
; // From Cura 181010
; // Update 190823 (GueroLoco)
; // Update 191005 Autoleveling
; // Start_gcode
M117 *Start Clean*		; Indicate nozzle clean in progress on LCD
;
M104 S215 
M109 S215 
M109 R215 
;
M107			; Turn layer fan off
G21			; Set to metric [change to G20 if you want Imperial]
G90			; Force coordinates to be absolute relative to the origin
G28			; Home X/Y/Z axis
G29			; Auto-leveling
;
;G1 X3 Y1 Z15 F9000		; Move safe Z height to shear strings
;G0 X1 Y1 Z0.2 F9000		; Move in 1mm from edge and up [z] 0.2mm
;G92 E0			; Set extruder to [0] zero
;G1 X100 E12 F500		; Extrude 30mm filiment along X axis 100mm long to prime and clean the nozzle
;G92 E0			; Reset extruder to [0] zero end of cleaning run
;G1 E-1 F500			; Retract filiment by 1 mm to reduce string effect
;G1 X180 F4000		; Quick wipe away from the filament line / purge
;
G92 E0			; Set Extruder to 0 
G1 X0 Y0 F2000		; Move X and Y to 0 with speed 2000 (mm/min)
G1 Z0.1 F1000		; Move Z to 0.1
G1 X8.0 F2000		; Move X to 8.0
G1 Y60.0 E4.0 F1000.0		; Prime - Move Y to 60 and Extruder with 4.0
G1 Y100.0 E8.5 F1000.0		; Prime - Move Y to 100 and Extruder with 8.5
G92 E0			; Set extruder to 0
M117 *End Clean*		; Indicate nozzle clean in progress on LCD
G1 Z5 F3000			; Lift - Move Z to 5
; 
M117 *Printing...*		; start msg
; // Begin printing with sliced GCode after here
;
; process Process1
; layer 1, Z = 0.180
T0
G92 E0.0000
G1 E-3.8000 F3000
; feature skirt
; tool H0.180 W0.350
G1 Z0.300 F1002
G1 X93.100 Y185.385 F6000
G1 Z0.180 F1002
G1 E0.0000 F3000
G92 E0.0000
G1 X92.115 Y184.400 E0.0347 F900
G1 X91.913 Y184.147 E0.0427
G1 X91.172 Y182.967 E0.0774
G1 X91.032 Y182.677 E0.0854
G1 X90.572 Y181.361 E0.1201
G1 X90.500 Y181.046 E0.1281
G1 X90.353 Y179.742 E0.1608
G1 X90.344 Y179.581 E0.1648
G1 X90.344 Y120.419 E1.6369
G1 X90.353 Y120.258 E1.6409
G1 X90.500 Y118.954 E1.6736
G1 X90.572 Y118.639 E1.6816
G1 X91.032 Y117.323 E1.7163
G1 X91.172 Y117.033 E1.7243
G1 X91.913 Y115.853 E1.7590
G1 X92.115 Y115.600 E1.7671
G1 X93.100 Y114.615 E1.8017
G1 X93.353 Y114.413 E1.8098
G1 X94.533 Y113.672 E1.8444
G1 X94.823 Y113.532 E1.8525
G1 X96.139 Y113.072 E1.8871
G1 X96.454 Y113.000 E1.8952
G1 X97.758 Y112.853 E1.9279
G1 X97.919 Y112.844 E1.9319
G1 X202.081 Y112.844 E4.5237
G1 X202.242 Y112.853 E4.5277
G1 X203.546 Y113.000 E4.5604
G1 X203.861 Y113.072 E4.5684
G1 X205.177 Y113.532 E4.6031
G1 X205.467 Y113.672 E4.6111
G1 X206.647 Y114.413 E4.6458
G1 X206.900 Y114.615 E4.6538
G1 X207.885 Y115.600 E4.6885
G1 X208.087 Y115.853 E4.6965
G1 X208.828 Y117.033 E4.7312
G1 X208.968 Y117.323 E4.7392
G1 X209.428 Y118.639 E4.7739
G1 X209.500 Y118.954 E4.7820
G1 X209.647 Y120.258 E4.8146
G1 X209.656 Y120.419 E4.8186
G1 X209.656 Y179.581 E6.2907
G1 X209.647 Y179.742 E6.2947
G1 X209.500 Y181.046 E6.3274
G1 X209.428 Y181.361 E6.3355
G1 X208.968 Y182.677 E6.3701
G1 X208.828 Y182.967 E6.3782
G1 X208.087 Y184.147 E6.4128
G1 X207.885 Y184.400 E6.4209
G1 X206.900 Y185.385 E6.4556
G1 X206.647 Y185.587 E6.4636
G1 X205.467 Y186.328 E6.4983
G1 X205.177 Y186.468 E6.5063
G1 X203.861 Y186.928 E6.5410
G1 X203.546 Y187.000 E6.5490
G1 X202.242 Y187.147 E6.5817
G1 X202.081 Y187.156 E6.5857
G1 X97.919 Y187.156 E9.1775
G1 X97.758 Y187.147 E9.1815
G1 X96.454 Y187.000 E9.2142
G1 X96.139 Y186.928 E9.2222
G1 X94.823 Y186.468 E9.2569
G1 X94.533 Y186.328 E9.2649
G1 X93.353 Y185.587 E9.2996
G1 X93.100 Y185.385 E9.3076
G92 E0.0000
G1 E-3.8000 F3000
G1 Z0.480 F1002
G1 X93.334 Y185.124 F6000
G1 Z0.180 F1002
G1 E0.0000 F3000
G92 E0.0000
G1 X92.376 Y184.166 E0.0337 F900
G1 X92.199 Y183.945 E0.0408
G1 X91.479 Y182.798 E0.0745
G1 X91.356 Y182.542 E0.0815
G1 X90.908 Y181.264 E0.1152
G1 X90.845 Y180.988 E0.1223
G1 X90.702 Y179.712 E0.1542
G1 X90.694 Y179.571 E0.1577
G1 X90.694 Y120.429 E1.6293
G1 X90.702 Y120.288 E1.6329
G1 X90.845 Y119.012 E1.6648
G1 X90.908 Y118.736 E1.6718
G1 X91.356 Y117.458 E1.7055
G1 X91.479 Y117.202 E1.7126
G1 X92.199 Y116.055 E1.7463
G1 X92.376 Y115.834 E1.7534
G1 X93.334 Y114.876 E1.7871
G1 X93.555 Y114.699 E1.7941
G1 X94.702 Y113.979 E1.8278
G1 X94.958 Y113.856 E1.8349
G1 X96.236 Y113.408 E1.8686
G1 X96.512 Y113.345 E1.8756
G1 X97.788 Y113.202 E1.9076
G1 X97.929 Y113.194 E1.9111
G1 X202.071 Y113.194 E4.5024
G1 X202.212 Y113.202 E4.5059
G1 X203.488 Y113.345 E4.5379
G1 X203.764 Y113.408 E4.5449
G1 X205.042 Y113.856 E4.5786
G1 X205.298 Y113.979 E4.5857
G1 X206.445 Y114.699 E4.6194
G1 X206.666 Y114.876 E4.6264
G1 X207.624 Y115.834 E4.6601
G1 X207.801 Y116.055 E4.6672
G1 X208.521 Y117.202 E4.7009
G1 X208.644 Y117.458 E4.7079
G1 X209.092 Y118.736 E4.7416
G1 X209.155 Y119.012 E4.7487
G1 X209.298 Y120.288 E4.7806
G1 X209.306 Y120.429 E4.7842
G1 X209.306 Y179.571 E6.2558
G1 X209.298 Y179.712 E6.2593
G1 X209.155 Y180.988 E6.2912
G1 X209.092 Y181.264 E6.2983
G1 X208.644 Y182.542 E6.3320
G1 X208.521 Y182.798 E6.3390
G1 X207.801 Y183.945 E6.3727
G1 X207.624 Y184.166 E6.3798
G1 X206.666 Y185.124 E6.4135
G1 X206.445 Y185.301 E6.4206
G1 X205.298 Y186.021 E6.4542
G1 X205.042 Y186.144 E6.4613
G1 X203.764 Y186.592 E6.4950
G1 X203.488 Y186.655 E6.5021
G1 X202.212 Y186.798 E6.5340
G1 X202.071 Y186.806 E6.5375
G1 X97.929 Y186.806 E9.1288
G1 X97.788 Y186.798 E9.1324
G1 X96.512 Y186.655 E9.1643
G1 X96.236 Y186.592 E9.1714
G1 X94.958 Y186.144 E9.2051
G1 X94.702 Y186.021 E9.2121
G1 X93.555 Y185.301 E9.2458
G1 X93.334 Y185.124 E9.2529
G92 E0.0000
G1 E-3.8000 F3000
G1 Z0.480 F1002
G1 X93.567 Y184.863 F6000
G1 Z0.180 F1002
G1 E0.0000 F3000
G92 E0.0000
G1 X92.637 Y183.933 E0.0327 F900
G1 X92.485 Y183.742 E0.0388
G1 X91.786 Y182.628 E0.0715
G1 X91.680 Y182.408 E0.0776
G1 X91.245 Y181.167 E0.1103
G1 X91.191 Y180.929 E0.1164
G1 X91.050 Y179.683 E0.1476
G1 X91.044 Y179.561 E0.1506
G1 X91.044 Y120.439 E1.6218
G1 X91.050 Y120.317 E1.6248
G1 X91.191 Y119.071 E1.6560
G1 X91.245 Y118.833 E1.6621
G1 X91.680 Y117.592 E1.6948
G1 X91.786 Y117.372 E1.7009
G1 X92.485 Y116.258 E1.7336
G1 X92.637 Y116.067 E1.7397
G1 X93.567 Y115.137 E1.7724
G1 X93.758 Y114.985 E1.7785
G1 X94.872 Y114.286 E1.8112
G1 X95.092 Y114.180 E1.8173
G1 X96.333 Y113.745 E1.8500
G1 X96.571 Y113.691 E1.8561
G1 X97.817 Y113.550 E1.8873
G1 X97.939 Y113.544 E1.8903
G1 X202.061 Y113.544 E4.4811
G1 X202.183 Y113.550 E4.4842
G1 X203.429 Y113.691 E4.5154
G1 X203.667 Y113.745 E4.5215
G1 X204.908 Y114.180 E4.5542
G1 X205.128 Y114.286 E4.5603
G1 X206.242 Y114.985 E4.5930
G1 X206.433 Y115.137 E4.5991
G1 X207.363 Y116.067 E4.6318
G1 X207.515 Y116.258 E4.6379
G1 X208.214 Y117.372 E4.6706
G1 X208.320 Y117.592 E4.6766
G1 X208.755 Y118.833 E4.7094
G1 X208.809 Y119.071 E4.7154
G1 X208.950 Y120.317 E4.7466
G1 X208.956 Y120.439 E4.7497
G1 X208.956 Y179.561 E6.2208
G1 X208.950 Y179.683 E6.2238
G1 X208.809 Y180.929 E6.2550
G1 X208.755 Y181.167 E6.2611
G1 X208.320 Y182.408 E6.2938
G1 X208.214 Y182.628 E6.2999
G1 X207.515 Y183.742 E6.3326
G1 X207.363 Y183.933 E6.3387
G1 X206.433 Y184.863 E6.3714
G1 X206.242 Y185.015 E6.3775
G1 X205.128 Y185.714 E6.4102
G1 X204.908 Y185.820 E6.4163
G1 X203.667 Y186.255 E6.4490
G1 X203.429 Y186.309 E6.4551
G1 X202.183 Y186.450 E6.4863
G1 X202.061 Y186.456 E6.4893
G1 X97.939 Y186.456 E9.0802
G1 X97.817 Y186.450 E9.0832
G1 X96.571 Y186.309 E9.1144
G1 X96.333 Y186.255 E9.1205
G1 X95.092 Y185.820 E9.1532
G1 X94.872 Y185.714 E9.1593
G1 X93.758 Y185.015 E9.1920
G1 X93.567 Y184.863 E9.1981
G92 E0.0000
G1 E-3.8000 F3000
; feature outer perimeter
G1 Z0.480 F1002
G1 X95.129 Y183.101 F6000
G1 Z0.180 F1002
G1 E0.0000 F3000
G92 E0.0000
G1 X94.399 Y182.371 E0.0257 F450
G1 X94.230 Y182.101 E0.0336
G1 X93.851 Y181.498 E0.0513
G1 X93.510 Y180.525 E0.0770
G1 X93.394 Y179.490 E0.1029
G1 X93.394 Y120.510 E1.5705
G1 X93.510 Y119.475 E1.5964
G1 X93.851 Y118.502 E1.6220
G1 X94.399 Y117.629 E1.6477
G1 X95.129 Y116.899 E1.6734
G1 X96.002 Y116.351 E1.6990
G1 X96.975 Y116.010 E1.7247
G1 X98.010 Y115.894 E1.7506
G1 X201.990 Y115.894 E4.3379
G1 X203.025 Y116.010 E4.3638
G1 X203.998 Y116.351 E4.3895
G1 X204.871 Y116.899 E4.4151
G1 X205.601 Y117.629 E4.4408
G1 X205.770 Y117.898 E4.4487
G1 X206.149 Y118.502 E4.4665
G1 X206.490 Y119.475 E4.4921
G1 X206.606 Y120.510 E4.5180
G1 X206.606 Y179.490 E5.9856
G1 X206.490 Y180.525 E6.0115
