; G-Code generated by Simplify3D(R) Version 4.1.2
; Nov 20, 2019 at 7:02:03 AM
; Settings Summary
;   processName,Process1
;   applyToModels,Giunto-2020-dado
;   profileName,401_35p Tevo Tornado (experimental)
;   profileVersion,2019-11-15 20:21:15
;   baseProfile,Creality CR-10(2)
;   printMaterial,PLA
;   printQuality,Medium
;   printExtruders,
;   extruderName,Primary Extruder
;   extruderToolheadNumber,0
;   extruderDiameter,0.4
;   extruderAutoWidth,0
;   extruderWidth,0.35
;   extrusionMultiplier,0.95
;   extruderUseRetract,1
;   extruderRetractionDistance,3.8
;   extruderExtraRestartDistance,0
;   extruderRetractionZLift,0.3
;   extruderRetractionSpeed,3000
;   extruderUseCoasting,0
;   extruderCoastingDistance,0.2
;   extruderUseWipe,0
;   extruderWipeDistance,4
;   primaryExtruder,0
;   layerHeight,0.15
;   topSolidLayers,4
;   bottomSolidLayers,3
;   perimeterOutlines,3
;   printPerimetersInsideOut,0
;   startPointOption,1
;   startPointOriginX,0
;   startPointOriginY,300
;   sequentialIslands,0
;   spiralVaseMode,0
;   firstLayerHeightPercentage,120
;   firstLayerWidthPercentage,100
;   firstLayerUnderspeed,0.5
;   useRaft,0
;   raftExtruder,0
;   raftTopLayers,3
;   raftBaseLayers,2
;   raftOffset,3
;   raftSeparationDistance,0.14
;   raftTopInfill,100
;   aboveRaftSpeedMultiplier,0.3
;   useSkirt,1
;   skirtExtruder,0
;   skirtLayers,1
;   skirtOutlines,3
;   skirtOffset,2
;   usePrimePillar,0
;   primePillarExtruder,999
;   primePillarWidth,12
;   primePillarLocation,7
;   primePillarSpeedMultiplier,1
;   useOozeShield,0
;   oozeShieldExtruder,999
;   oozeShieldOffset,2
;   oozeShieldOutlines,1
;   oozeShieldSidewallShape,1
;   oozeShieldSidewallAngle,30
;   oozeShieldSpeedMultiplier,1
;   infillExtruder,0
;   internalInfillPattern,Grid
;   externalInfillPattern,Concentric
;   infillPercentage,35
;   outlineOverlapPercentage,15
;   infillExtrusionWidthPercentage,100
;   minInfillLength,5
;   infillLayerInterval,1
;   internalInfillAngles,45,-45
;   overlapInternalInfillAngles,1
;   externalInfillAngles,45,-45
;   generateSupport,0
;   supportExtruder,0
;   supportInfillPercentage,30
;   supportExtraInflation,0
;   supportBaseLayers,0
;   denseSupportExtruder,0
;   denseSupportLayers,0
;   denseSupportInfillPercentage,70
;   supportLayerInterval,1
;   supportHorizontalPartOffset,0.4
;   supportUpperSeparationLayers,1
;   supportLowerSeparationLayers,1
;   supportType,0
;   supportGridSpacing,4.5
;   maxOverhangAngle,45
;   supportAngles,0
;   temperatureName,Primary Extruder,Heated Bed
;   temperatureNumber,0,0
;   temperatureSetpointCount,2,1
;   temperatureSetpointLayers,1,2,1
;   temperatureSetpointTemperatures,215,210,60
;   temperatureStabilizeAtStartup,1,1
;   temperatureHeatedBed,0,1
;   fanLayers,1,2
;   fanSpeeds,0,100
;   blipFanToFullPower,0
;   adjustSpeedForCooling,1
;   minSpeedLayerTime,15
;   minCoolingSpeedSlowdown,50
;   increaseFanForCooling,1
;   minFanLayerTime,25
;   maxCoolingFanSpeed,100
;   increaseFanForBridging,1
;   bridgingFanSpeed,100
;   use5D,1
;   relativeEdistances,0
;   allowEaxisZeroing,1
;   independentExtruderAxes,0
;   includeM10123,0
;   stickySupport,1
;   applyToolheadOffsets,0
;   gcodeXoffset,0
;   gcodeYoffset,0
;   gcodeZoffset,0
;   overrideMachineDefinition,1
;   machineTypeOverride,0
;   strokeXoverride,300
;   strokeYoverride,300
;   strokeZoverride,400
;   originOffsetXoverride,0
;   originOffsetYoverride,0
;   originOffsetZoverride,0
;   homeXdirOverride,-1
;   homeYdirOverride,-1
;   homeZdirOverride,-1
;   flipXoverride,1
;   flipYoverride,-1
;   flipZoverride,1
;   toolheadOffsets,0,0|0,0|0,0|0,0|0,0|0,0
;   overrideFirmwareConfiguration,1
;   firmwareTypeOverride,RepRap (Marlin/Repetier/Sprinter)
;   GPXconfigOverride,r2
;   baudRateOverride,250000
;   overridePrinterModels,1
;   printerModelsOverride
;   startingGcode,;,; -]H.P.B[- MarshMalloW  ,; $VER: StartScript 1.01 (13.11.2019) MarshMalloW,;,; Begin Startcode,;,M117 *Start Clean*     	; Indicate nozzle clean in progress on LCD,;,;extruder0_temperature,M104 S[extruder0_temperature]  ,M109 S[extruder0_temperature] ,M109 R[extruder0_temperature] ,;,M107                   	; Turn layer fan off,G21                    	; Set to metric [change to G20 if you want Imperial],G90                    	; Force coordinates to be absolute relative to the origin,G28                    	; Home X/Y/Z axis,G29                    	; Auto-leveling (BL-Touch),;,G92 E0                 	; Set Extruder to 0 ,G1 X0 Y0 F2000         	; Move X and Y to 0 with speed 2000 (mm/min),G1 Z0.1 F1000          	; Move Z to   0.1 with speed 1000 (mm/min),G1 X8.0 F2000          	; Move X to   8.0 with speed 2000 (mm/min),G1 Y60.0 E4.0 F1000.0  	; Move Y to  60 and Extruder with 4.0 with speed 1000 (mm/min),G1 Y100.0 E8.5 F1000.0 	; Move Y to 100 and Extruder with 8.5 with speed 1000 (mm/min),G92 E0                 	; Set extruder to 0,G1 X16.0 F3000         	; Move X to 16.0 with speed 3000 (mm/min),G1 Y60.0 F3000         	; Move Y to 60.0 with speed 3000 (mm/min),M117 *End Clean*       	; Indicate nozzle clean in progress on LCD,G1 Z5 F3000            	; Move Z to  5.0 with speed 3000 (mm/min),G1 X20.0 F3000         	; Move X to 20.0 with speed 3000 (mm/min),; ,M117 *Printing...*     	; Start printing msg on LCD,;,; End Startcode,;,; Begin printing with sliced GCode after here,;
;   layerChangeGcode,
;   retractionGcode,
;   toolChangeGcode,
;   endingGcode,;,; init 181010,;,;M107 			; Fan off,;G1 E-1 F300 			; Retract the filament a bit before lifting the nozzle,;M104 S0 			; Turn off extruder,;M140 S0 			; Turn off bed,;G91			; Relative positioning,;G28 X0 Y0 			; Move X/Y to min endstops so the head is out of teh way,;M84 			; Disable motors,;G90 			; Absolute positioning,;M117 Print ready...,,;,; // From Cura 181010,; // End_gcode,G92 E0			; Zero the extruded length,;G1 E-30 F300		; Retract E -30,M106 S0			; Turn off cooling fan,M104 S0			; Turn off temperature,M140 S0		     	; Turn off bed,G91			; Relative positioning,G1 E-1 F300			; Retract the filament a bit before lifting the nozzle to release some of the pressure,G1 Z+20 E-5 X-20 Y-20 F7200	; Move Z up a bit and retract filament even more,G1 X0 Y150 F10000		; Move right min,M107			; Turn off layer fan,M84			; Disable motors,G90			; Absolute positioning,M117 *The-End* 		; End msg,;,
;   exportFileFormat,gcode
;   celebration,0
;   celebrationSong,Star Wars
;   postProcessing,
;   defaultSpeed,1800
;   outlineUnderspeed,0.5
;   solidInfillUnderspeed,0.8
;   supportUnderspeed,0.8
;   rapidXYspeed,6000
;   rapidZspeed,1002
;   minBridgingArea,50
;   bridgingExtraInflation,0.2
;   bridgingExtrusionMultiplier,1
;   bridgingSpeedMultiplier,0.6
;   useFixedBridgingAngle,0
;   fixedBridgingAngle,0
;   applyBridgingToPerimeters,0
;   filamentDiameters,1.75|1.75|1.75|1.75|1.75|1.75
;   filamentPricesPerKg,30|46|46|46|46|46
;   filamentDensities,1.25|1.25|1.25|1.25|1.25|1.25
;   useMinPrintHeight,0
;   minPrintHeight,0
;   useMaxPrintHeight,0
;   maxPrintHeight,9
;   useDiaphragm,0
;   diaphragmLayerInterval,20
;   robustSlicing,1
;   mergeAllIntoSolid,0
;   onlyRetractWhenCrossingOutline,1
;   retractBetweenLayers,1
;   useRetractionMinTravel,1
;   retractionMinTravel,3
;   retractWhileWiping,1
;   onlyWipeOutlines,1
;   avoidCrossingOutline,1
;   maxMovementDetourFactor,3
;   toolChangeRetractionDistance,12
;   toolChangeExtraRestartDistance,-0.5
;   toolChangeRetractionSpeed,600
;   externalThinWallType,1
;   internalThinWallType,1
;   thinWallAllowedOverlapPercentage,15
;   singleExtrusionMinLength,1
;   singleExtrusionMinPrintingWidthPercentage,50
;   singleExtrusionMaxPrintingWidthPercentage,200
;   singleExtrusionEndpointExtension,0.2
;   horizontalSizeCompensation,0
G90
M82
M106 S0
M140 S60
M190 S60
;
; -]H.P.B[- MarshMalloW  
; $VER: StartScript 1.01 (13.11.2019) MarshMalloW
;
; Begin Startcode
;
M117 *Start Clean*     	; Indicate nozzle clean in progress on LCD
;
;extruder0_temperature
M104 S215  
M109 S215 
M109 R215 
;
M107                   	; Turn layer fan off
G21                    	; Set to metric [change to G20 if you want Imperial]
G90                    	; Force coordinates to be absolute relative to the origin
G28                    	; Home X/Y/Z axis
G29                    	; Auto-leveling (BL-Touch)
;
G92 E0                 	; Set Extruder to 0 
G1 X0 Y0 F2000         	; Move X and Y to 0 with speed 2000 (mm/min)
G1 Z0.1 F1000          	; Move Z to   0.1 with speed 1000 (mm/min)
G1 X8.0 F2000          	; Move X to   8.0 with speed 2000 (mm/min)
G1 Y60.0 E4.0 F1000.0  	; Move Y to  60 and Extruder with 4.0 with speed 1000 (mm/min)
G1 Y100.0 E8.5 F1000.0 	; Move Y to 100 and Extruder with 8.5 with speed 1000 (mm/min)
G92 E0                 	; Set extruder to 0
G1 X16.0 F3000         	; Move X to 16.0 with speed 3000 (mm/min)
G1 Y60.0 F3000         	; Move Y to 60.0 with speed 3000 (mm/min)
M117 *End Clean*       	; Indicate nozzle clean in progress on LCD
G1 Z5 F3000            	; Move Z to  5.0 with speed 3000 (mm/min)
G1 X20.0 F3000         	; Move X to 20.0 with speed 3000 (mm/min)
; 
M117 *Printing...*     	; Start printing msg on LCD
;
; End Startcode
;
; Begin printing with sliced GCode after here
;
; process Process1
; layer 1, Z = 0.180
T0
G92 E0.0000
G1 E-3.8000 F3000
; feature skirt
; tool H0.180 W0.350
G1 Z0.300 F1002
G1 X169.896 Y127.134 F6000
G1 Z0.180 F1002
G1 E0.0000 F3000
G92 E0.0000
G1 X170.141 Y127.155 E0.0061 F900
G1 X171.189 Y127.336 E0.0326
G1 X171.426 Y127.398 E0.0387
G1 X172.149 Y127.655 E0.0578
G1 X172.329 Y127.733 E0.0626
G1 X172.988 Y128.075 E0.0811
G1 X173.156 Y128.177 E0.0860
G1 X173.783 Y128.619 E0.1051
G1 X173.970 Y128.777 E0.1112
G1 X174.723 Y129.530 E0.1377
G1 X174.881 Y129.717 E0.1438
G1 X175.323 Y130.344 E0.1629
G1 X175.425 Y130.512 E0.1678
G1 X175.767 Y131.171 E0.1862
G1 X175.845 Y131.351 E0.1911
G1 X176.094 Y132.051 E0.2096
G1 X176.147 Y132.240 E0.2145
G1 X176.298 Y132.967 E0.2329
G1 X176.324 Y133.161 E0.2378
G1 X176.372 Y133.853 E0.2551
G1 X176.375 Y133.951 E0.2575
G1 X176.375 Y146.049 E0.5586
G1 X176.372 Y146.147 E0.5610
G1 X176.324 Y146.839 E0.5783
G1 X176.298 Y147.033 E0.5831
G1 X176.147 Y147.760 E0.6016
G1 X176.094 Y147.949 E0.6065
G1 X175.845 Y148.649 E0.6250
G1 X175.767 Y148.829 E0.6299
G1 X175.425 Y149.488 E0.6483
G1 X175.323 Y149.656 E0.6532
G1 X174.881 Y150.283 E0.6723
G1 X174.723 Y150.470 E0.6784
G1 X173.970 Y151.223 E0.7049
G1 X173.783 Y151.381 E0.7110
G1 X173.156 Y151.823 E0.7301
G1 X172.988 Y151.925 E0.7350
G1 X172.329 Y152.267 E0.7534
G1 X172.149 Y152.345 E0.7583
G1 X171.449 Y152.594 E0.7768
G1 X171.260 Y152.647 E0.7817
G1 X170.533 Y152.798 E0.8002
G1 X170.339 Y152.824 E0.8050
G1 X169.647 Y152.872 E0.8223
G1 X169.549 Y152.875 E0.8247
G1 X130.128 Y152.866 E1.8056
G1 X129.933 Y152.852 E1.8105
G1 X129.197 Y152.751 E1.8290
G1 X129.005 Y152.711 E1.8339
G1 X128.290 Y152.511 E1.8523
G1 X128.105 Y152.445 E1.8572
G1 X127.402 Y152.140 E1.8763
G1 X127.186 Y152.023 E1.8824
G1 X126.276 Y151.426 E1.9095
G1 X126.047 Y151.240 E1.9168
G1 X125.277 Y150.470 E1.9439
G1 X125.119 Y150.283 E1.9500
G1 X124.677 Y149.656 E1.9691
G1 X124.575 Y149.488 E1.9740
G1 X124.222 Y148.807 E1.9931
G1 X124.128 Y148.580 E1.9992
G1 X123.799 Y147.544 E2.0263
G1 X123.739 Y147.256 E2.0336
G1 X123.633 Y146.230 E2.0592
G1 X123.625 Y146.082 E2.0629
G1 X123.625 Y133.951 E2.3648
G1 X123.628 Y133.853 E2.3672
G1 X123.677 Y133.137 E2.3851
G1 X123.715 Y132.894 E2.3912
G1 X123.967 Y131.860 E2.4177
G1 X124.045 Y131.628 E2.4238
G1 X124.351 Y130.924 E2.4429
G1 X124.441 Y130.750 E2.4477
G1 X124.827 Y130.116 E2.4662
G1 X124.940 Y129.955 E2.4711
G1 X125.409 Y129.379 E2.4896
G1 X125.543 Y129.236 E2.4945
G1 X126.085 Y128.729 E2.5129
G1 X126.237 Y128.605 E2.5178
G1 X126.844 Y128.177 E2.5363
G1 X127.012 Y128.075 E2.5412
G1 X127.671 Y127.733 E2.5597
G1 X127.851 Y127.655 E2.5645
G1 X128.551 Y127.406 E2.5830
G1 X128.740 Y127.353 E2.5879
G1 X129.467 Y127.202 E2.6064
G1 X129.661 Y127.176 E2.6113
G1 X130.353 Y127.128 E2.6285
G1 X130.451 Y127.125 E2.6310
G1 X169.896 Y127.134 E3.6125
G92 E0.0000
G1 E-3.8000 F3000
G1 Z0.480 F1002
G1 X169.761 Y130.184 F6000
G1 X164.844 Y130.183
G1 X132.309 Y149.816
G1 X130.239 Y149.816
G1 X129.719 Y149.744
G1 X129.468 Y149.683
G1 X129.222 Y149.605
G1 X128.396 Y152.177
G1 Z0.180 F1002
G1 E0.0000 F3000
G92 E0.0000
G1 X128.234 Y152.119 E0.0043 F900
G1 X127.555 Y151.825 E0.0227
G1 X127.365 Y151.722 E0.0281
G1 X126.483 Y151.143 E0.0543
G1 X126.282 Y150.980 E0.0608
G1 X125.535 Y150.234 E0.0870
G1 X125.396 Y150.069 E0.0924
G1 X124.970 Y149.464 E0.1108
G1 X124.880 Y149.317 E0.1151
G1 X124.540 Y148.660 E0.1335
G1 X124.457 Y148.460 E0.1389
G1 X124.138 Y147.455 E0.1651
G1 X124.085 Y147.202 E0.1716
G1 X123.982 Y146.203 E0.1965
G1 X123.975 Y146.073 E0.1998
G1 X123.975 Y133.957 E0.5013
G1 X123.978 Y133.871 E0.5034
G1 X124.025 Y133.175 E0.5208
G1 X124.058 Y132.962 E0.5261
G1 X124.303 Y131.958 E0.5519
G1 X124.372 Y131.753 E0.5572
G1 X124.667 Y131.075 E0.5756
G1 X124.746 Y130.922 E0.5799
G1 X125.120 Y130.308 E0.5978
G1 X125.219 Y130.167 E0.6021
G1 X125.672 Y129.609 E0.6200
G1 X125.790 Y129.483 E0.6243
G1 X126.315 Y128.993 E0.6421
G1 X126.449 Y128.884 E0.6464
G1 X127.036 Y128.470 E0.6643
G1 X127.183 Y128.380 E0.6686
G1 X127.821 Y128.050 E0.6865
G1 X127.980 Y127.981 E0.6908
G1 X128.657 Y127.740 E0.7087
G1 X128.823 Y127.694 E0.7129
G1 X129.526 Y127.548 E0.7308
G1 X129.697 Y127.524 E0.7351
G1 X130.371 Y127.478 E0.7519
G1 X130.457 Y127.475 E0.7541
G1 X169.881 Y127.484 E1.7351
G1 X170.096 Y127.503 E1.7404
G1 X171.114 Y127.678 E1.7661
G1 X171.323 Y127.733 E1.7715
G1 X172.020 Y127.981 E1.7899
G1 X172.179 Y128.050 E1.7942
G1 X172.817 Y128.380 E1.8121
G1 X172.964 Y128.470 E1.8164
G1 X173.569 Y128.896 E1.8348
G1 X173.734 Y129.035 E1.8402
G1 X174.465 Y129.766 E1.8659
G1 X174.604 Y129.931 E1.8712
G1 X175.030 Y130.536 E1.8897
G1 X175.120 Y130.683 E1.8940
G1 X175.450 Y131.321 E1.9118
G1 X175.519 Y131.480 E1.9161
G1 X175.760 Y132.157 E1.9340
G1 X175.806 Y132.323 E1.9383
G1 X175.952 Y133.026 E1.9562
G1 X175.976 Y133.197 E1.9605
G1 X176.022 Y133.871 E1.9773
G1 X176.025 Y133.957 E1.9794
G1 X176.025 Y146.043 E2.2802
G1 X176.022 Y146.129 E2.2823
G1 X175.976 Y146.803 E2.2991
G1 X175.952 Y146.974 E2.3034
G1 X175.806 Y147.677 E2.3213
G1 X175.760 Y147.843 E2.3256
G1 X175.519 Y148.520 E2.3434
G1 X175.450 Y148.679 E2.3477
G1 X175.120 Y149.317 E2.3656
G1 X175.030 Y149.464 E2.3699
G1 X174.603 Y150.069 E2.3883
G1 X174.465 Y150.234 E2.3937
G1 X173.734 Y150.965 E2.4194
G1 X173.569 Y151.103 E2.4248
G1 X172.964 Y151.530 E2.4432
G1 X172.817 Y151.620 E2.4475
G1 X172.179 Y151.950 E2.4654
G1 X172.020 Y152.019 E2.4696
G1 X171.344 Y152.260 E2.4875
G1 X171.177 Y152.306 E2.4918
G1 X170.474 Y152.452 E2.5097
G1 X170.303 Y152.476 E2.5140
G1 X169.629 Y152.522 E2.5308
G1 X169.543 Y152.525 E2.5329
G1 X130.140 Y152.516 E3.5134
G1 X129.968 Y152.504 E3.5177
G1 X129.257 Y152.406 E3.5355
G1 X129.088 Y152.371 E3.5398
G1 X128.396 Y152.177 E3.5577
G92 E0.0000
G1 E-3.8000 F3000
G1 Z0.480 F1002
G1 X129.222 Y149.605 F6000
G1 X129.468 Y149.683
G1 X129.719 Y149.744
G1 X130.239 Y149.816
G1 X134.016 Y149.817
G1 X173.259 Y133.333
G1 X173.183 Y132.968
G1 X175.466 Y132.406
G1 Z0.180 F1002
G1 E0.0000 F3000
G92 E0.0000
G1 X175.607 Y133.086 E0.0173 F900
G1 X175.628 Y133.233 E0.0210
G1 X175.672 Y133.889 E0.0373
G1 X175.675 Y133.963 E0.0392
G1 X175.675 Y146.037 E0.3396
G1 X175.672 Y146.111 E0.3415
G1 X175.628 Y146.767 E0.3578
G1 X175.607 Y146.914 E0.3615
G1 X175.466 Y147.594 E0.3788
G1 X175.426 Y147.738 E0.3825
G1 X175.193 Y148.392 E0.3998
G1 X175.134 Y148.528 E0.4035
G1 X174.815 Y149.145 E0.4208
G1 X174.737 Y149.272 E0.4245
G1 X174.326 Y149.855 E0.4422
G1 X174.206 Y149.997 E0.4468
G1 X173.497 Y150.706 E0.4718
G1 X173.355 Y150.826 E0.4764
G1 X172.772 Y151.237 E0.4942
G1 X172.645 Y151.315 E0.4979
G1 X172.028 Y151.634 E0.5152
G1 X171.892 Y151.693 E0.5189
G1 X171.238 Y151.926 E0.5361
G1 X171.094 Y151.966 E0.5398
G1 X170.414 Y152.107 E0.5571
G1 X170.267 Y152.128 E0.5608
G1 X169.611 Y152.172 E0.5772
