; G-Code generated by Simplify3D(R) Version 4.1.2
; Nov 19, 2019 at 9:53:33 PM
; Settings Summary
;   processName,Process1
;   applyToModels,Giunto-2020-30mm-dado
;   profileName,401_35p Tevo Tornado (experimental)
;   profileVersion,2019-11-15 20:21:15
;   baseProfile,Creality CR-10(2)
;   printMaterial,PLA
;   printQuality,Medium
;   printExtruders,
;   extruderName,Primary Extruder
;   extruderToolheadNumber,0
;   extruderDiameter,0.4
;   extruderAutoWidth,0
;   extruderWidth,0.35
;   extrusionMultiplier,0.95
;   extruderUseRetract,1
;   extruderRetractionDistance,3.8
;   extruderExtraRestartDistance,0
;   extruderRetractionZLift,0.3
;   extruderRetractionSpeed,3000
;   extruderUseCoasting,0
;   extruderCoastingDistance,0.2
;   extruderUseWipe,0
;   extruderWipeDistance,4
;   primaryExtruder,0
;   layerHeight,0.15
;   topSolidLayers,4
;   bottomSolidLayers,3
;   perimeterOutlines,3
;   printPerimetersInsideOut,0
;   startPointOption,1
;   startPointOriginX,0
;   startPointOriginY,300
;   sequentialIslands,0
;   spiralVaseMode,0
;   firstLayerHeightPercentage,120
;   firstLayerWidthPercentage,100
;   firstLayerUnderspeed,0.5
;   useRaft,0
;   raftExtruder,0
;   raftTopLayers,3
;   raftBaseLayers,2
;   raftOffset,3
;   raftSeparationDistance,0.14
;   raftTopInfill,100
;   aboveRaftSpeedMultiplier,0.3
;   useSkirt,1
;   skirtExtruder,0
;   skirtLayers,1
;   skirtOutlines,3
;   skirtOffset,2
;   usePrimePillar,0
;   primePillarExtruder,999
;   primePillarWidth,12
;   primePillarLocation,7
;   primePillarSpeedMultiplier,1
;   useOozeShield,0
;   oozeShieldExtruder,999
;   oozeShieldOffset,2
;   oozeShieldOutlines,1
;   oozeShieldSidewallShape,1
;   oozeShieldSidewallAngle,30
;   oozeShieldSpeedMultiplier,1
;   infillExtruder,0
;   internalInfillPattern,Grid
;   externalInfillPattern,Concentric
;   infillPercentage,35
;   outlineOverlapPercentage,15
;   infillExtrusionWidthPercentage,100
;   minInfillLength,5
;   infillLayerInterval,1
;   internalInfillAngles,45,-45
;   overlapInternalInfillAngles,1
;   externalInfillAngles,45,-45
;   generateSupport,0
;   supportExtruder,0
;   supportInfillPercentage,30
;   supportExtraInflation,0
;   supportBaseLayers,0
;   denseSupportExtruder,0
;   denseSupportLayers,0
;   denseSupportInfillPercentage,70
;   supportLayerInterval,1
;   supportHorizontalPartOffset,0.4
;   supportUpperSeparationLayers,1
;   supportLowerSeparationLayers,1
;   supportType,0
;   supportGridSpacing,4.5
;   maxOverhangAngle,45
;   supportAngles,0
;   temperatureName,Primary Extruder,Heated Bed
;   temperatureNumber,0,0
;   temperatureSetpointCount,2,1
;   temperatureSetpointLayers,1,2,1
;   temperatureSetpointTemperatures,215,210,60
;   temperatureStabilizeAtStartup,1,1
;   temperatureHeatedBed,0,1
;   fanLayers,1,2
;   fanSpeeds,0,100
;   blipFanToFullPower,0
;   adjustSpeedForCooling,1
;   minSpeedLayerTime,15
;   minCoolingSpeedSlowdown,50
;   increaseFanForCooling,1
;   minFanLayerTime,25
;   maxCoolingFanSpeed,100
;   increaseFanForBridging,1
;   bridgingFanSpeed,100
;   use5D,1
;   relativeEdistances,0
;   allowEaxisZeroing,1
;   independentExtruderAxes,0
;   includeM10123,0
;   stickySupport,1
;   applyToolheadOffsets,0
;   gcodeXoffset,0
;   gcodeYoffset,0
;   gcodeZoffset,0
;   overrideMachineDefinition,1
;   machineTypeOverride,0
;   strokeXoverride,300
;   strokeYoverride,300
;   strokeZoverride,400
;   originOffsetXoverride,0
;   originOffsetYoverride,0
;   originOffsetZoverride,0
;   homeXdirOverride,-1
;   homeYdirOverride,-1
;   homeZdirOverride,-1
;   flipXoverride,1
;   flipYoverride,-1
;   flipZoverride,1
;   toolheadOffsets,0,0|0,0|0,0|0,0|0,0|0,0
;   overrideFirmwareConfiguration,1
;   firmwareTypeOverride,RepRap (Marlin/Repetier/Sprinter)
;   GPXconfigOverride,r2
;   baudRateOverride,250000
;   overridePrinterModels,1
;   printerModelsOverride
;   startingGcode,;,; -]H.P.B[- MarshMalloW  ,; $VER: StartScript 1.01 (13.11.2019) MarshMalloW,;,; Begin Startcode,;,M117 *Start Clean*     	; Indicate nozzle clean in progress on LCD,;,;extruder0_temperature,M104 S[extruder0_temperature]  ,M109 S[extruder0_temperature] ,M109 R[extruder0_temperature] ,;,M107                   	; Turn layer fan off,G21                    	; Set to metric [change to G20 if you want Imperial],G90                    	; Force coordinates to be absolute relative to the origin,G28                    	; Home X/Y/Z axis,G29                    	; Auto-leveling (BL-Touch),;,G92 E0                 	; Set Extruder to 0 ,G1 X0 Y0 F2000         	; Move X and Y to 0 with speed 2000 (mm/min),G1 Z0.1 F1000          	; Move Z to   0.1 with speed 1000 (mm/min),G1 X8.0 F2000          	; Move X to   8.0 with speed 2000 (mm/min),G1 Y60.0 E4.0 F1000.0  	; Move Y to  60 and Extruder with 4.0 with speed 1000 (mm/min),G1 Y100.0 E8.5 F1000.0 	; Move Y to 100 and Extruder with 8.5 with speed 1000 (mm/min),G92 E0                 	; Set extruder to 0,G1 X16.0 F3000         	; Move X to 16.0 with speed 3000 (mm/min),G1 Y60.0 F3000         	; Move Y to 60.0 with speed 3000 (mm/min),M117 *End Clean*       	; Indicate nozzle clean in progress on LCD,G1 Z5 F3000            	; Move Z to  5.0 with speed 3000 (mm/min),G1 X20.0 F3000         	; Move X to 20.0 with speed 3000 (mm/min),; ,M117 *Printing...*     	; Start printing msg on LCD,;,; End Startcode,;,; Begin printing with sliced GCode after here,;
;   layerChangeGcode,
;   retractionGcode,
;   toolChangeGcode,
;   endingGcode,;,; init 181010,;,;M107 			; Fan off,;G1 E-1 F300 			; Retract the filament a bit before lifting the nozzle,;M104 S0 			; Turn off extruder,;M140 S0 			; Turn off bed,;G91			; Relative positioning,;G28 X0 Y0 			; Move X/Y to min endstops so the head is out of teh way,;M84 			; Disable motors,;G90 			; Absolute positioning,;M117 Print ready...,,;,; // From Cura 181010,; // End_gcode,G92 E0			; Zero the extruded length,;G1 E-30 F300		; Retract E -30,M106 S0			; Turn off cooling fan,M104 S0			; Turn off temperature,M140 S0		     	; Turn off bed,G91			; Relative positioning,G1 E-1 F300			; Retract the filament a bit before lifting the nozzle to release some of the pressure,G1 Z+20 E-5 X-20 Y-20 F7200	; Move Z up a bit and retract filament even more,G1 X0 Y150 F10000		; Move right min,M107			; Turn off layer fan,M84			; Disable motors,G90			; Absolute positioning,M117 *The-End* 		; End msg,;,
;   exportFileFormat,gcode
;   celebration,0
;   celebrationSong,Star Wars
;   postProcessing,
;   defaultSpeed,1800
;   outlineUnderspeed,0.5
;   solidInfillUnderspeed,0.8
;   supportUnderspeed,0.8
;   rapidXYspeed,6000
;   rapidZspeed,1002
;   minBridgingArea,50
;   bridgingExtraInflation,0.2
;   bridgingExtrusionMultiplier,1
;   bridgingSpeedMultiplier,0.6
;   useFixedBridgingAngle,0
;   fixedBridgingAngle,0
;   applyBridgingToPerimeters,0
;   filamentDiameters,1.75|1.75|1.75|1.75|1.75|1.75
;   filamentPricesPerKg,30|46|46|46|46|46
;   filamentDensities,1.25|1.25|1.25|1.25|1.25|1.25
;   useMinPrintHeight,0
;   minPrintHeight,0
;   useMaxPrintHeight,0
;   maxPrintHeight,9
;   useDiaphragm,0
;   diaphragmLayerInterval,20
;   robustSlicing,1
;   mergeAllIntoSolid,0
;   onlyRetractWhenCrossingOutline,1
;   retractBetweenLayers,1
;   useRetractionMinTravel,1
;   retractionMinTravel,3
;   retractWhileWiping,1
;   onlyWipeOutlines,1
;   avoidCrossingOutline,1
;   maxMovementDetourFactor,3
;   toolChangeRetractionDistance,12
;   toolChangeExtraRestartDistance,-0.5
;   toolChangeRetractionSpeed,600
;   externalThinWallType,1
;   internalThinWallType,1
;   thinWallAllowedOverlapPercentage,15
;   singleExtrusionMinLength,1
;   singleExtrusionMinPrintingWidthPercentage,50
;   singleExtrusionMaxPrintingWidthPercentage,200
;   singleExtrusionEndpointExtension,0.2
;   horizontalSizeCompensation,0
G90
M82
M106 S0
M140 S60
M190 S60
;
; -]H.P.B[- MarshMalloW  
; $VER: StartScript 1.01 (13.11.2019) MarshMalloW
;
; Begin Startcode
;
M117 *Start Clean*     	; Indicate nozzle clean in progress on LCD
;
;extruder0_temperature
M104 S215  
M109 S215 
M109 R215 
;
M107                   	; Turn layer fan off
G21                    	; Set to metric [change to G20 if you want Imperial]
G90                    	; Force coordinates to be absolute relative to the origin
G28                    	; Home X/Y/Z axis
G29                    	; Auto-leveling (BL-Touch)
;
G92 E0                 	; Set Extruder to 0 
G1 X0 Y0 F2000         	; Move X and Y to 0 with speed 2000 (mm/min)
G1 Z0.1 F1000          	; Move Z to   0.1 with speed 1000 (mm/min)
G1 X8.0 F2000          	; Move X to   8.0 with speed 2000 (mm/min)
G1 Y60.0 E4.0 F1000.0  	; Move Y to  60 and Extruder with 4.0 with speed 1000 (mm/min)
G1 Y100.0 E8.5 F1000.0 	; Move Y to 100 and Extruder with 8.5 with speed 1000 (mm/min)
G92 E0                 	; Set extruder to 0
G1 X16.0 F3000         	; Move X to 16.0 with speed 3000 (mm/min)
G1 Y60.0 F3000         	; Move Y to 60.0 with speed 3000 (mm/min)
M117 *End Clean*       	; Indicate nozzle clean in progress on LCD
G1 Z5 F3000            	; Move Z to  5.0 with speed 3000 (mm/min)
G1 X20.0 F3000         	; Move X to 20.0 with speed 3000 (mm/min)
; 
M117 *Printing...*     	; Start printing msg on LCD
;
; End Startcode
;
; Begin printing with sliced GCode after here
;
; process Process1
; layer 1, Z = 0.180
T0
G92 E0.0000
G1 E-3.8000 F3000
; feature skirt
; tool H0.180 W0.350
G1 Z0.300 F1002
G1 X156.407 Y107.136 F6000
G1 Z0.180 F1002
G1 E0.0000 F3000
G92 E0.0000
G1 X156.602 Y107.149 E0.0049 F900
G1 X157.404 Y107.259 E0.0250
G1 X157.597 Y107.299 E0.0299
G1 X158.353 Y107.511 E0.0495
G1 X158.493 Y107.558 E0.0531
G1 X158.916 Y107.725 E0.0644
G1 X159.050 Y107.786 E0.0681
G1 X159.726 Y108.136 E0.0870
G1 X159.853 Y108.211 E0.0907
G1 X160.233 Y108.460 E0.1020
G1 X160.352 Y108.547 E0.1057
G1 X160.962 Y109.043 E0.1252
G1 X161.106 Y109.177 E0.1301
G1 X161.659 Y109.769 E0.1503
G1 X161.783 Y109.922 E0.1552
G1 X162.236 Y110.564 E0.1748
G1 X162.315 Y110.689 E0.1784
G1 X162.538 Y111.085 E0.1897
G1 X162.603 Y111.217 E0.1934
G1 X162.916 Y111.938 E0.2130
G1 X162.982 Y112.123 E0.2178
G1 X163.194 Y112.880 E0.2374
G1 X163.227 Y113.023 E0.2411
G1 X163.304 Y113.471 E0.2524
G1 X163.321 Y113.618 E0.2560
G1 X163.372 Y114.353 E0.2744
G1 X163.375 Y114.451 E0.2768
G1 X163.375 Y145.549 E1.0506
G1 X163.372 Y145.647 E1.0531
G1 X163.320 Y146.407 E1.0720
G1 X163.293 Y146.602 E1.0769
G1 X163.128 Y147.395 E1.0971
G1 X163.075 Y147.584 E1.1020
G1 X162.804 Y148.348 E1.1221
G1 X162.725 Y148.528 E1.1270
G1 X162.352 Y149.248 E1.1472
G1 X162.250 Y149.416 E1.1521
G1 X161.783 Y150.078 E1.1722
G1 X161.659 Y150.230 E1.1771
G1 X161.106 Y150.823 E1.1973
G1 X160.962 Y150.957 E1.2022
G1 X160.333 Y151.468 E1.2224
G1 X160.173 Y151.582 E1.2273
G1 X159.480 Y152.003 E1.2474
G1 X159.306 Y152.093 E1.2523
G1 X158.562 Y152.416 E1.2725
G1 X158.377 Y152.482 E1.2774
G1 X157.620 Y152.694 E1.2969
G1 X157.477 Y152.727 E1.3006
G1 X157.029 Y152.804 E1.3119
G1 X156.882 Y152.821 E1.3156
G1 X156.147 Y152.872 E1.3339
G1 X156.049 Y152.875 E1.3363
G1 X143.951 Y152.875 E1.6374
G1 X143.853 Y152.872 E1.6398
G1 X143.118 Y152.821 E1.6582
G1 X142.971 Y152.804 E1.6618
G1 X142.523 Y152.727 E1.6731
G1 X142.380 Y152.694 E1.6768
G1 X141.646 Y152.489 E1.6958
G1 X141.507 Y152.442 E1.6994
G1 X141.084 Y152.275 E1.7107
G1 X140.950 Y152.214 E1.7144
G1 X140.252 Y151.852 E1.7340
G1 X140.084 Y151.750 E1.7388
G1 X139.442 Y151.297 E1.7584
G1 X139.326 Y151.206 E1.7621
G1 X138.984 Y150.907 E1.7734
G1 X138.878 Y150.805 E1.7770
G1 X138.358 Y150.248 E1.7960
G1 X138.263 Y150.136 E1.7997
G1 X138.003 Y149.793 E1.8104
G1 X137.947 Y149.713 E1.8128
G1 X137.711 Y149.353 E1.8235
G1 X137.636 Y149.226 E1.8272
G1 X137.275 Y148.528 E1.8467
G1 X137.196 Y148.348 E1.8516
G1 X136.933 Y147.607 E1.8712
G1 X136.891 Y147.466 E1.8748
G1 X136.783 Y147.025 E1.8861
G1 X136.756 Y146.880 E1.8898
G1 X136.652 Y146.126 E1.9088
G1 X136.640 Y145.979 E1.9124
G1 X136.626 Y145.574 E1.9225
G1 X136.625 Y145.524 E1.9237
G1 X136.625 Y114.451 E2.6969
G1 X136.628 Y114.353 E2.6994
G1 X136.679 Y113.618 E2.7177
G1 X136.696 Y113.471 E2.7214
G1 X136.773 Y113.023 E2.7327
G1 X136.806 Y112.880 E2.7363
G1 X137.018 Y112.123 E2.7559
G1 X137.084 Y111.938 E2.7608
G1 X137.397 Y111.217 E2.7804
G1 X137.462 Y111.085 E2.7840
G1 X137.685 Y110.689 E2.7953
G1 X137.764 Y110.564 E2.7990
G1 X138.217 Y109.922 E2.8186
G1 X138.341 Y109.770 E2.8234
G1 X138.894 Y109.177 E2.8436
G1 X139.038 Y109.043 E2.8485
G1 X139.648 Y108.547 E2.8681
G1 X139.766 Y108.460 E2.8717
G1 X140.126 Y108.224 E2.8824
G1 X140.210 Y108.173 E2.8849
G1 X140.585 Y107.962 E2.8956
G1 X140.717 Y107.897 E2.8992
G1 X141.438 Y107.584 E2.9188
G1 X141.623 Y107.518 E2.9237
G1 X142.380 Y107.306 E2.9432
G1 X142.523 Y107.273 E2.9469
G1 X142.971 Y107.196 E2.9582
G1 X143.118 Y107.179 E2.9619
G1 X143.853 Y107.128 E2.9802
G1 X143.953 Y107.125 E2.9827
G1 X156.407 Y107.136 E3.2926
G92 E0.0000
G1 E-3.8000 F3000
G1 Z0.480 F1002
G1 X156.298 Y110.185 F6000
G1 X155.297 Y110.185
G1 X154.327 Y112.851
G1 X154.741 Y112.955
G1 X155.021 Y113.079
G1 X155.279 Y113.240
G1 X155.511 Y113.435
G1 X155.714 Y113.661
G1 X155.884 Y113.912
G1 X156.018 Y114.188
G1 X156.143 Y114.622
G1 X156.175 Y115.076
G1 X156.112 Y115.523
G1 X156.016 Y115.818
G1 X155.804 Y116.217
G1 X155.512 Y116.565
G1 X155.153 Y116.845
G1 X154.747 Y117.043
G1 X154.449 Y117.129
G1 X154.009 Y117.175
G1 X152.753 Y117.175
G1 X141.235 Y148.824
G1 X141.271 Y148.855
G1 X141.506 Y149.033
G1 X141.753 Y149.195
G1 X140.276 Y151.457
G1 Z0.180 F1002
G1 E0.0000 F3000
G92 E0.0000
G1 X139.651 Y151.016 E0.0190 F900
G1 X139.549 Y150.936 E0.0223
G1 X139.220 Y150.649 E0.0331
G1 X139.127 Y150.559 E0.0363
G1 X138.620 Y150.016 E0.0548
G1 X138.536 Y149.917 E0.0581
G1 X138.286 Y149.586 E0.0684
G1 X138.236 Y149.516 E0.0705
G1 X138.008 Y149.169 E0.0809
G1 X137.943 Y149.057 E0.0841
G1 X137.591 Y148.378 E0.1031
G1 X137.522 Y148.220 E0.1074
G1 X137.266 Y147.499 E0.1264
G1 X137.229 Y147.375 E0.1297
G1 X137.126 Y146.951 E0.1405
G1 X137.101 Y146.823 E0.1438
G1 X137.000 Y146.087 E0.1623
G1 X136.989 Y145.958 E0.1655
G1 X136.976 Y145.565 E0.1753
G1 X136.975 Y145.522 E0.1763
G1 X136.975 Y114.457 E0.9493
G1 X136.978 Y114.371 E0.9515
G1 X137.027 Y113.650 E0.9694
G1 X137.043 Y113.522 E0.9726
G1 X137.117 Y113.092 E0.9835
G1 X137.145 Y112.966 E0.9867
G1 X137.352 Y112.229 E1.0058
G1 X137.409 Y112.066 E1.0101
G1 X137.714 Y111.364 E1.0291
G1 X137.772 Y111.249 E1.0323
G1 X137.986 Y110.868 E1.0432
G1 X138.055 Y110.759 E1.0464
G1 X138.496 Y110.133 E1.0654
G1 X138.605 Y110.000 E1.0697
G1 X139.142 Y109.425 E1.0893
G1 X139.268 Y109.307 E1.0936
G1 X139.862 Y108.824 E1.1126
G1 X139.966 Y108.748 E1.1158
G1 X140.313 Y108.520 E1.1262
G1 X140.387 Y108.475 E1.1283
G1 X140.749 Y108.272 E1.1387
G1 X140.864 Y108.214 E1.1419
G1 X141.566 Y107.909 E1.1609
G1 X141.729 Y107.852 E1.1652
G1 X142.465 Y107.645 E1.1842
G1 X142.592 Y107.617 E1.1875
G1 X143.022 Y107.543 E1.1983
G1 X143.150 Y107.527 E1.2015
G1 X143.871 Y107.478 E1.2195
G1 X143.959 Y107.475 E1.2217
G1 X156.395 Y107.486 E1.5311
G1 X156.566 Y107.497 E1.5354
G1 X157.345 Y107.604 E1.5550
G1 X157.514 Y107.639 E1.5593
G1 X158.250 Y107.846 E1.5783
G1 X158.373 Y107.887 E1.5815
G1 X158.779 Y108.047 E1.5924
G1 X158.897 Y108.101 E1.5956
G1 X159.557 Y108.443 E1.6141
G1 X159.669 Y108.508 E1.6173
G1 X160.034 Y108.748 E1.6282
G1 X160.138 Y108.824 E1.6314
G1 X160.732 Y109.307 E1.6504
G1 X160.858 Y109.425 E1.6547
G1 X161.395 Y110.000 E1.6743
G1 X161.504 Y110.133 E1.6786
G1 X161.945 Y110.759 E1.6976
G1 X162.014 Y110.868 E1.7009
G1 X162.228 Y111.249 E1.7117
G1 X162.286 Y111.364 E1.7149
G1 X162.590 Y112.066 E1.7340
G1 X162.648 Y112.229 E1.7383
G1 X162.855 Y112.965 E1.7573
G1 X162.883 Y113.092 E1.7605
G1 X162.957 Y113.522 E1.7714
G1 X162.973 Y113.650 E1.7746
G1 X163.022 Y114.371 E1.7926
G1 X163.025 Y114.457 E1.7947
G1 X163.025 Y145.543 E2.5682
G1 X163.022 Y145.629 E2.5704
G1 X162.971 Y146.371 E2.5889
G1 X162.948 Y146.542 E2.5932
G1 X162.788 Y147.312 E2.6128
G1 X162.741 Y147.478 E2.6171
G1 X162.478 Y148.220 E2.6366
G1 X162.409 Y148.378 E2.6409
G1 X162.047 Y149.076 E2.6605
