; G-Code generated by Simplify3D(R) Version 4.1.2
; Oct 26, 2019 at 9:55:37 PM
; Settings Summary
;   processName,Process1
;   applyToModels,TFT35_Cover
;   profileName,301.30p Tevo Tornado (experimental)
;   profileVersion,2019-10-20 15:24:49
;   baseProfile,Creality CR-10(2)
;   printMaterial,PLA
;   printQuality,Medium
;   printExtruders,
;   extruderName,Primary Extruder
;   extruderToolheadNumber,0
;   extruderDiameter,0.4
;   extruderAutoWidth,0
;   extruderWidth,0.35
;   extrusionMultiplier,0.95
;   extruderUseRetract,1
;   extruderRetractionDistance,3.8
;   extruderExtraRestartDistance,0
;   extruderRetractionZLift,0.3
;   extruderRetractionSpeed,3000
;   extruderUseCoasting,0
;   extruderCoastingDistance,0.2
;   extruderUseWipe,0
;   extruderWipeDistance,4
;   primaryExtruder,0
;   layerHeight,0.15
;   topSolidLayers,4
;   bottomSolidLayers,3
;   perimeterOutlines,3
;   printPerimetersInsideOut,0
;   startPointOption,3
;   startPointOriginX,0
;   startPointOriginY,300
;   sequentialIslands,0
;   spiralVaseMode,0
;   firstLayerHeightPercentage,120
;   firstLayerWidthPercentage,100
;   firstLayerUnderspeed,0.5
;   useRaft,0
;   raftExtruder,0
;   raftTopLayers,3
;   raftBaseLayers,2
;   raftOffset,3
;   raftSeparationDistance,0.14
;   raftTopInfill,100
;   aboveRaftSpeedMultiplier,0.3
;   useSkirt,1
;   skirtExtruder,0
;   skirtLayers,1
;   skirtOutlines,3
;   skirtOffset,2
;   usePrimePillar,0
;   primePillarExtruder,999
;   primePillarWidth,12
;   primePillarLocation,7
;   primePillarSpeedMultiplier,1
;   useOozeShield,0
;   oozeShieldExtruder,999
;   oozeShieldOffset,2
;   oozeShieldOutlines,1
;   oozeShieldSidewallShape,1
;   oozeShieldSidewallAngle,30
;   oozeShieldSpeedMultiplier,1
;   infillExtruder,0
;   internalInfillPattern,Rectilinear
;   externalInfillPattern,Rectilinear
;   infillPercentage,30
;   outlineOverlapPercentage,15
;   infillExtrusionWidthPercentage,100
;   minInfillLength,5
;   infillLayerInterval,1
;   internalInfillAngles,45,-45
;   overlapInternalInfillAngles,0
;   externalInfillAngles,45,-45
;   generateSupport,0
;   supportExtruder,0
;   supportInfillPercentage,30
;   supportExtraInflation,0
;   supportBaseLayers,0
;   denseSupportExtruder,0
;   denseSupportLayers,0
;   denseSupportInfillPercentage,70
;   supportLayerInterval,1
;   supportHorizontalPartOffset,0.4
;   supportUpperSeparationLayers,1
;   supportLowerSeparationLayers,1
;   supportType,0
;   supportGridSpacing,4.5
;   maxOverhangAngle,45
;   supportAngles,0
;   temperatureName,Primary Extruder,Heated Bed
;   temperatureNumber,0,0
;   temperatureSetpointCount,2,1
;   temperatureSetpointLayers,1,2,1
;   temperatureSetpointTemperatures,215,210,50
;   temperatureStabilizeAtStartup,1,1
;   temperatureHeatedBed,0,1
;   fanLayers,1,2
;   fanSpeeds,0,100
;   blipFanToFullPower,0
;   adjustSpeedForCooling,1
;   minSpeedLayerTime,15
;   minCoolingSpeedSlowdown,50
;   increaseFanForCooling,1
;   minFanLayerTime,25
;   maxCoolingFanSpeed,100
;   increaseFanForBridging,1
;   bridgingFanSpeed,100
;   use5D,1
;   relativeEdistances,0
;   allowEaxisZeroing,1
;   independentExtruderAxes,0
;   includeM10123,0
;   stickySupport,1
;   applyToolheadOffsets,0
;   gcodeXoffset,0
;   gcodeYoffset,0
;   gcodeZoffset,0
;   overrideMachineDefinition,1
;   machineTypeOverride,0
;   strokeXoverride,300
;   strokeYoverride,300
;   strokeZoverride,400
;   originOffsetXoverride,0
;   originOffsetYoverride,0
;   originOffsetZoverride,0
;   homeXdirOverride,-1
;   homeYdirOverride,-1
;   homeZdirOverride,-1
;   flipXoverride,1
;   flipYoverride,-1
;   flipZoverride,1
;   toolheadOffsets,0,0|0,0|0,0|0,0|0,0|0,0
;   overrideFirmwareConfiguration,1
;   firmwareTypeOverride,RepRap (Marlin/Repetier/Sprinter)
;   GPXconfigOverride,r2
;   baudRateOverride,250000
;   overridePrinterModels,1
;   printerModelsOverride
;   startingGcode,;Init 181010,;G28 			; Home all axes,;G1 Z5 F3000 		; Lift,;G92 E0			; Reset extrusion distance,,; // From Cura 181010,; // Update 190823 (GueroLoco),; // Update 191005 Autoleveling,; // Start_gcode,M117 *Start Clean*		; Indicate nozzle clean in progress on LCD,;,M104 S[extruder0_temperature] ,M109 S[extruder0_temperature] ,M109 R[extruder0_temperature] ,;,M107			; Turn layer fan off,G21			; Set to metric [change to G20 if you want Imperial],G90			; Force coordinates to be absolute relative to the origin,G28			; Home X/Y/Z axis,G29			; Auto-leveling,;,;G1 X3 Y1 Z15 F9000		; Move safe Z height to shear strings,;G0 X1 Y1 Z0.2 F9000		; Move in 1mm from edge and up [z] 0.2mm,;G92 E0			; Set extruder to [0] zero,;G1 X100 E12 F500		; Extrude 30mm filiment along X axis 100mm long to prime and clean the nozzle,;G92 E0			; Reset extruder to [0] zero end of cleaning run,;G1 E-1 F500			; Retract filiment by 1 mm to reduce string effect,;G1 X180 F4000		; Quick wipe away from the filament line / purge,;,G92 E0			; Set Extruder to 0 ,G1 X0 Y0 F2000		; Move X and Y to 0 with speed 2000 (mm/min),G1 Z0.1 F1000		; Move Z to 0.1,G1 X8.0 F2000		; Move X to 8.0,G1 Y60.0 E4.0 F1000.0		; Prime - Move Y to 60 and Extruder with 4.0,G1 Y100.0 E8.5 F1000.0		; Prime - Move Y to 100 and Extruder with 8.5,G92 E0			; Set extruder to 0,M117 *End Clean*		; Indicate nozzle clean in progress on LCD,G1 Z5 F3000			; Lift - Move Z to 5,; ,M117 *Printing...*		; start msg,; // Begin printing with sliced GCode after here,;
;   layerChangeGcode,
;   retractionGcode,
;   toolChangeGcode,
;   endingGcode,;,; init 181010,;,;M107 			; Fan off,;G1 E-1 F300 			; Retract the filament a bit before lifting the nozzle,;M104 S0 			; Turn off extruder,;M140 S0 			; Turn off bed,;G91			; Relative positioning,;G28 X0 Y0 			; Move X/Y to min endstops so the head is out of teh way,;M84 			; Disable motors,;G90 			; Absolute positioning,;M117 Print ready...,,;,; // From Cura 181010,; // End_gcode,G92 E0			; Zero the extruded length,;G1 E-30 F300		; Retract E -30,M106 S0			; Turn off cooling fan,M104 S0			; Turn off temperature,M140 S0		     	; Turn off bed,G91			; Relative positioning,G1 E-1 F300			; Retract the filament a bit before lifting the nozzle to release some of the pressure,G1 Z+20 E-5 X-20 Y-20 F7200	; Move Z up a bit and retract filament even more,G1 X0 Y150 F10000		; Move right min,M107			; Turn off layer fan,M84			; Disable motors,G90			; Absolute positioning,M117 *The-End* 		; End msg,;,
;   exportFileFormat,gcode
;   celebration,0
;   celebrationSong,Star Wars
;   postProcessing,
;   defaultSpeed,1800
;   outlineUnderspeed,0.5
;   solidInfillUnderspeed,0.8
;   supportUnderspeed,0.8
;   rapidXYspeed,6000
;   rapidZspeed,1002
;   minBridgingArea,50
;   bridgingExtraInflation,0.2
;   bridgingExtrusionMultiplier,1
;   bridgingSpeedMultiplier,0.6
;   useFixedBridgingAngle,0
;   fixedBridgingAngle,0
;   applyBridgingToPerimeters,0
;   filamentDiameters,1.75|1.75|1.75|1.75|1.75|1.75
;   filamentPricesPerKg,30|46|46|46|46|46
;   filamentDensities,1.25|1.25|1.25|1.25|1.25|1.25
;   useMinPrintHeight,0
;   minPrintHeight,0
;   useMaxPrintHeight,0
;   maxPrintHeight,9
;   useDiaphragm,0
;   diaphragmLayerInterval,20
;   robustSlicing,1
;   mergeAllIntoSolid,0
;   onlyRetractWhenCrossingOutline,1
;   retractBetweenLayers,1
;   useRetractionMinTravel,0
;   retractionMinTravel,3
;   retractWhileWiping,0
;   onlyWipeOutlines,1
;   avoidCrossingOutline,0
;   maxMovementDetourFactor,3
;   toolChangeRetractionDistance,12
;   toolChangeExtraRestartDistance,-0.5
;   toolChangeRetractionSpeed,600
;   externalThinWallType,1
;   internalThinWallType,1
;   thinWallAllowedOverlapPercentage,15
;   singleExtrusionMinLength,1
;   singleExtrusionMinPrintingWidthPercentage,50
;   singleExtrusionMaxPrintingWidthPercentage,200
;   singleExtrusionEndpointExtension,0.2
;   horizontalSizeCompensation,0
G90
M82
M106 S0
M140 S50
M190 S50
;Init 181010
;G28 			; Home all axes
;G1 Z5 F3000 		; Lift
;G92 E0			; Reset extrusion distance
; // From Cura 181010
; // Update 190823 (GueroLoco)
; // Update 191005 Autoleveling
; // Start_gcode
M117 *Start Clean*		; Indicate nozzle clean in progress on LCD
;
M104 S215 
M109 S215 
M109 R215 
;
M107			; Turn layer fan off
G21			; Set to metric [change to G20 if you want Imperial]
G90			; Force coordinates to be absolute relative to the origin
G28			; Home X/Y/Z axis
G29			; Auto-leveling
;
;G1 X3 Y1 Z15 F9000		; Move safe Z height to shear strings
;G0 X1 Y1 Z0.2 F9000		; Move in 1mm from edge and up [z] 0.2mm
;G92 E0			; Set extruder to [0] zero
;G1 X100 E12 F500		; Extrude 30mm filiment along X axis 100mm long to prime and clean the nozzle
;G92 E0			; Reset extruder to [0] zero end of cleaning run
;G1 E-1 F500			; Retract filiment by 1 mm to reduce string effect
;G1 X180 F4000		; Quick wipe away from the filament line / purge
;
G92 E0			; Set Extruder to 0 
G1 X0 Y0 F2000		; Move X and Y to 0 with speed 2000 (mm/min)
G1 Z0.1 F1000		; Move Z to 0.1
G1 X8.0 F2000		; Move X to 8.0
G1 Y60.0 E4.0 F1000.0		; Prime - Move Y to 60 and Extruder with 4.0
G1 Y100.0 E8.5 F1000.0		; Prime - Move Y to 100 and Extruder with 8.5
G92 E0			; Set extruder to 0
M117 *End Clean*		; Indicate nozzle clean in progress on LCD
G1 Z5 F3000			; Lift - Move Z to 5
; 
M117 *Printing...*		; start msg
; // Begin printing with sliced GCode after here
;
; process Process1
; layer 1, Z = 0.180
T0
G92 E0.0000
G1 E-3.8000 F3000
; feature skirt
; tool H0.180 W0.350
G1 Z0.300 F1002
G1 X105.160 Y110.220 F6000
G1 Z0.180 F1002
G1 E0.0000 F3000
G92 E0.0000
G1 X103.980 Y109.478 E0.0347 F900
G1 X103.727 Y109.277 E0.0427
G1 X102.742 Y108.291 E0.0774
G1 X102.540 Y108.039 E0.0854
G1 X101.799 Y106.859 E0.1201
G1 X101.659 Y106.568 E0.1281
G1 X101.198 Y105.253 E0.1628
G1 X101.127 Y104.938 E0.1708
G1 X100.980 Y103.633 E0.2035
G1 X100.971 Y103.472 E0.2075
G1 X100.971 Y44.311 E1.6796
G1 X100.980 Y44.150 E1.6836
G1 X101.127 Y42.845 E1.7163
G1 X101.198 Y42.530 E1.7243
G1 X101.659 Y41.215 E1.7590
G1 X101.799 Y40.924 E1.7671
G1 X102.540 Y39.744 E1.8017
G1 X102.742 Y39.492 E1.8098
G1 X103.727 Y38.506 E1.8444
G1 X103.980 Y38.305 E1.8525
G1 X105.160 Y37.563 E1.8871
G1 X105.450 Y37.423 E1.8952
G1 X106.766 Y36.963 E1.9299
G1 X107.081 Y36.891 E1.9379
G1 X108.385 Y36.744 E1.9706
G1 X108.546 Y36.735 E1.9746
G1 X212.708 Y36.735 E4.5664
G1 X212.869 Y36.744 E4.5704
G1 X214.173 Y36.891 E4.6031
G1 X214.488 Y36.963 E4.6111
G1 X215.803 Y37.423 E4.6458
G1 X216.094 Y37.563 E4.6538
G1 X217.274 Y38.305 E4.6885
G1 X217.527 Y38.506 E4.6965
G1 X218.512 Y39.492 E4.7312
G1 X218.714 Y39.744 E4.7392
G1 X219.455 Y40.924 E4.7739
G1 X219.595 Y41.215 E4.7820
G1 X220.055 Y42.530 E4.8166
G1 X220.127 Y42.845 E4.8247
G1 X220.274 Y44.150 E4.8573
G1 X220.283 Y44.311 E4.8614
G1 X220.283 Y103.472 E6.3334
G1 X220.274 Y103.633 E6.3375
G1 X220.127 Y104.938 E6.3701
G1 X220.055 Y105.253 E6.3782
G1 X219.595 Y106.568 E6.4128
G1 X219.455 Y106.859 E6.4209
G1 X218.714 Y108.039 E6.4556
G1 X218.512 Y108.291 E6.4636
G1 X217.527 Y109.277 E6.4983
G1 X217.274 Y109.478 E6.5063
G1 X216.094 Y110.220 E6.5410
G1 X215.803 Y110.360 E6.5490
G1 X214.488 Y110.820 E6.5837
G1 X214.173 Y110.892 E6.5917
G1 X212.869 Y111.039 E6.6244
G1 X212.708 Y111.048 E6.6284
G1 X108.546 Y111.048 E9.2202
G1 X108.385 Y111.039 E9.2242
G1 X107.081 Y110.892 E9.2569
G1 X106.766 Y110.820 E9.2649
G1 X105.450 Y110.360 E9.2996
G1 X105.160 Y110.220 E9.3076
G92 E0.0000
G1 E-3.8000 F3000
G1 Z0.480 F1002
G1 X105.329 Y109.913 F6000
G1 Z0.180 F1002
G1 E0.0000 F3000
G92 E0.0000
G1 X104.182 Y109.192 E0.0337 F900
G1 X103.961 Y109.015 E0.0408
G1 X103.003 Y108.058 E0.0745
G1 X102.826 Y107.836 E0.0815
G1 X102.106 Y106.689 E0.1152
G1 X101.983 Y106.434 E0.1223
G1 X101.535 Y105.155 E0.1560
G1 X101.472 Y104.879 E0.1630
G1 X101.329 Y103.604 E0.1950
G1 X101.321 Y103.462 E0.1985
G1 X101.321 Y44.321 E1.6701
G1 X101.329 Y44.179 E1.6736
G1 X101.472 Y42.904 E1.7055
G1 X101.535 Y42.627 E1.7126
G1 X101.983 Y41.349 E1.7463
G1 X102.106 Y41.094 E1.7534
G1 X102.826 Y39.947 E1.7871
G1 X103.003 Y39.725 E1.7941
G1 X103.961 Y38.767 E1.8278
G1 X104.182 Y38.591 E1.8349
G1 X105.329 Y37.870 E1.8686
G1 X105.585 Y37.747 E1.8756
G1 X106.863 Y37.300 E1.9093
G1 X107.139 Y37.237 E1.9164
G1 X108.415 Y37.093 E1.9483
G1 X108.556 Y37.085 E1.9518
G1 X212.698 Y37.085 E4.5432
G1 X212.839 Y37.093 E4.5467
G1 X214.115 Y37.237 E4.5786
G1 X214.391 Y37.300 E4.5857
G1 X215.669 Y37.747 E4.6194
G1 X215.925 Y37.870 E4.6264
G1 X217.072 Y38.591 E4.6601
G1 X217.293 Y38.767 E4.6672
G1 X218.251 Y39.725 E4.7009
G1 X218.428 Y39.947 E4.7079
G1 X219.148 Y41.094 E4.7416
G1 X219.271 Y41.349 E4.7487
G1 X219.719 Y42.627 E4.7824
G1 X219.782 Y42.904 E4.7895
G1 X219.925 Y44.179 E4.8214
G1 X219.933 Y44.321 E4.8249
G1 X219.933 Y103.462 E6.2965
G1 X219.925 Y103.604 E6.3000
G1 X219.782 Y104.879 E6.3320
G1 X219.719 Y105.155 E6.3390
G1 X219.271 Y106.434 E6.3727
G1 X219.148 Y106.689 E6.3798
G1 X218.428 Y107.836 E6.4135
G1 X218.251 Y108.058 E6.4206
G1 X217.293 Y109.015 E6.4542
G1 X217.072 Y109.192 E6.4613
G1 X215.925 Y109.913 E6.4950
G1 X215.669 Y110.036 E6.5021
G1 X214.391 Y110.483 E6.5358
G1 X214.115 Y110.546 E6.5428
G1 X212.839 Y110.690 E6.5747
G1 X212.698 Y110.698 E6.5783
G1 X108.556 Y110.698 E9.1696
G1 X108.415 Y110.690 E9.1731
G1 X107.139 Y110.546 E9.2051
G1 X106.863 Y110.483 E9.2121
G1 X105.585 Y110.036 E9.2458
G1 X105.329 Y109.913 E9.2529
G92 E0.0000
G1 E-3.8000 F3000
G1 Z0.480 F1002
G1 X105.499 Y109.606 F6000
G1 Z0.180 F1002
G1 E0.0000 F3000
G92 E0.0000
G1 X104.385 Y108.906 E0.0327 F900
G1 X104.194 Y108.754 E0.0388
G1 X103.264 Y107.824 E0.0715
G1 X103.112 Y107.633 E0.0776
G1 X102.412 Y106.520 E0.1103
G1 X102.306 Y106.300 E0.1164
G1 X101.872 Y105.058 E0.1491
G1 X101.818 Y104.820 E0.1552
G1 X101.677 Y103.574 E0.1864
G1 X101.671 Y103.452 E0.1894
G1 X101.671 Y44.330 E1.6606
G1 X101.677 Y44.209 E1.6636
G1 X101.818 Y42.963 E1.6948
G1 X101.872 Y42.724 E1.7009
G1 X102.306 Y41.483 E1.7336
G1 X102.412 Y41.263 E1.7397
G1 X103.112 Y40.150 E1.7724
G1 X103.264 Y39.959 E1.7785
G1 X104.194 Y39.029 E1.8112
G1 X104.385 Y38.877 E1.8173
G1 X105.499 Y38.177 E1.8500
G1 X105.719 Y38.071 E1.8561
G1 X106.960 Y37.637 E1.8888
G1 X107.198 Y37.582 E1.8949
G1 X108.444 Y37.442 E1.9261
G1 X108.566 Y37.435 E1.9291
G1 X212.688 Y37.435 E4.5199
G1 X212.810 Y37.442 E4.5230
G1 X214.056 Y37.582 E4.5542
G1 X214.294 Y37.637 E4.5603
G1 X215.535 Y38.071 E4.5930
G1 X215.755 Y38.177 E4.5991
G1 X216.869 Y38.877 E4.6318
G1 X217.060 Y39.029 E4.6379
G1 X217.990 Y39.959 E4.6706
G1 X218.142 Y40.150 E4.6767
G1 X218.841 Y41.263 E4.7094
G1 X218.947 Y41.483 E4.7154
G1 X219.382 Y42.724 E4.7482
G1 X219.436 Y42.963 E4.7542
G1 X219.576 Y44.209 E4.7854
G1 X219.583 Y44.330 E4.7885
G1 X219.583 Y103.452 E6.2596
G1 X219.576 Y103.574 E6.2626
G1 X219.436 Y104.820 E6.2938
G1 X219.382 Y105.058 E6.2999
G1 X218.947 Y106.300 E6.3326
G1 X218.841 Y106.520 E6.3387
G1 X218.142 Y107.633 E6.3714
G1 X217.990 Y107.824 E6.3775
G1 X217.060 Y108.754 E6.4102
G1 X216.869 Y108.906 E6.4163
G1 X215.755 Y109.606 E6.4490
G1 X215.535 Y109.712 E6.4551
G1 X214.294 Y110.146 E6.4878
G1 X214.056 Y110.201 E6.4939
G1 X212.810 Y110.341 E6.5251
G1 X212.688 Y110.348 E6.5281
G1 X108.566 Y110.348 E9.1190
G1 X108.444 Y110.341 E9.1220
G1 X107.198 Y110.201 E9.1532
G1 X106.960 Y110.146 E9.1593
G1 X105.719 Y109.712 E9.1920
G1 X105.499 Y109.606 E9.1981
G92 E0.0000
G1 E-3.8000 F3000
; feature outer perimeter
G1 Z0.480 F1002
G1 X106.629 Y107.541 F6000
G1 Z0.180 F1002
G1 E0.0000 F3000
G92 E0.0000
G1 X105.756 Y106.992 E0.0257 F450
G1 X105.026 Y106.263 E0.0513
G1 X104.857 Y105.993 E0.0593
G1 X104.478 Y105.390 E0.0770
G1 X104.137 Y104.416 E0.1026
G1 X104.021 Y103.382 E0.1285
G1 X104.021 Y44.401 E1.5961
G1 X104.137 Y43.367 E1.6220
G1 X104.478 Y42.393 E1.6477
G1 X105.026 Y41.520 E1.6734
G1 X105.756 Y40.791 E1.6990
G1 X106.629 Y40.242 E1.7247
G1 X107.602 Y39.902 E1.7503
G1 X108.637 Y39.785 E1.7763
G1 X212.617 Y39.785 E4.3636
G1 X213.652 Y39.902 E4.3895
G1 X214.625 Y40.242 E4.4151
G1 X215.498 Y40.791 E4.4408
G1 X216.227 Y41.520 E4.4665
G1 X216.397 Y41.790 E4.4744
G1 X216.776 Y42.393 E4.4921
G1 X217.117 Y43.367 E4.5178
G1 X217.233 Y44.401 E4.5437
G1 X217.233 Y103.382 E6.0113
