; G-Code generated by Simplify3D(R) Version 4.1.2
; Apr 10, 2020 at 4:59:48 PM
; Settings Summary
;   processName,Process1
;   applyToModels,bAd_SpiralStaircase_Top,bAd_SpiralStaircase_Bottom,bAd_SpiralStaircase_Steps,bAd_SpiralStaircase_Steps(2),bAd_SpiralStaircase_Steps(3),bAd_SpiralStaircase_Steps(4)
;   profileName,A03-04-15s Tevo Tornado
;   profileVersion,2020-04-01 17:30:42
;   baseProfile,Creality CR-10(2)
;   printMaterial,PLA
;   printQuality,Medium
;   printExtruders,
;   extruderName,Primary Extruder
;   extruderToolheadNumber,0
;   extruderDiameter,0.4
;   extruderAutoWidth,0
;   extruderWidth,0.35
;   extrusionMultiplier,0.95
;   extruderUseRetract,1
;   extruderRetractionDistance,4
;   extruderExtraRestartDistance,0
;   extruderRetractionZLift,0.3
;   extruderRetractionSpeed,3000
;   extruderUseCoasting,0
;   extruderCoastingDistance,0.2
;   extruderUseWipe,0
;   extruderWipeDistance,4
;   primaryExtruder,0
;   layerHeight,0.15
;   topSolidLayers,4
;   bottomSolidLayers,3
;   perimeterOutlines,3
;   printPerimetersInsideOut,0
;   startPointOption,1
;   startPointOriginX,0
;   startPointOriginY,300
;   sequentialIslands,0
;   spiralVaseMode,0
;   firstLayerHeightPercentage,120
;   firstLayerWidthPercentage,100
;   firstLayerUnderspeed,0.5
;   useRaft,0
;   raftExtruder,0
;   raftTopLayers,3
;   raftBaseLayers,2
;   raftOffset,3
;   raftSeparationDistance,0.14
;   raftTopInfill,100
;   aboveRaftSpeedMultiplier,0.3
;   useSkirt,1
;   skirtExtruder,0
;   skirtLayers,1
;   skirtOutlines,3
;   skirtOffset,2
;   usePrimePillar,0
;   primePillarExtruder,999
;   primePillarWidth,12
;   primePillarLocation,7
;   primePillarSpeedMultiplier,1
;   useOozeShield,0
;   oozeShieldExtruder,999
;   oozeShieldOffset,2
;   oozeShieldOutlines,1
;   oozeShieldSidewallShape,1
;   oozeShieldSidewallAngle,30
;   oozeShieldSpeedMultiplier,1
;   infillExtruder,0
;   internalInfillPattern,Rectilinear
;   externalInfillPattern,Rectilinear
;   infillPercentage,15
;   outlineOverlapPercentage,15
;   infillExtrusionWidthPercentage,100
;   minInfillLength,5
;   infillLayerInterval,1
;   internalInfillAngles,45,-45
;   overlapInternalInfillAngles,0
;   externalInfillAngles,45,-45
;   generateSupport,1
;   supportExtruder,0
;   supportInfillPercentage,30
;   supportExtraInflation,0
;   supportBaseLayers,0
;   denseSupportExtruder,0
;   denseSupportLayers,0
;   denseSupportInfillPercentage,70
;   supportLayerInterval,1
;   supportHorizontalPartOffset,0.4
;   supportUpperSeparationLayers,1
;   supportLowerSeparationLayers,1
;   supportType,0
;   supportGridSpacing,4.5
;   maxOverhangAngle,45
;   supportAngles,0
;   temperatureName,Primary Extruder,Heated Bed
;   temperatureNumber,0,0
;   temperatureSetpointCount,1,1
;   temperatureSetpointLayers,1,1
;   temperatureSetpointTemperatures,215,55
;   temperatureStabilizeAtStartup,1,1
;   temperatureHeatedBed,0,1
;   fanLayers,1,2
;   fanSpeeds,0,100
;   blipFanToFullPower,0
;   adjustSpeedForCooling,1
;   minSpeedLayerTime,15
;   minCoolingSpeedSlowdown,50
;   increaseFanForCooling,1
;   minFanLayerTime,25
;   maxCoolingFanSpeed,100
;   increaseFanForBridging,1
;   bridgingFanSpeed,100
;   use5D,1
;   relativeEdistances,0
;   allowEaxisZeroing,1
;   independentExtruderAxes,0
;   includeM10123,0
;   stickySupport,1
;   applyToolheadOffsets,0
;   gcodeXoffset,0
;   gcodeYoffset,0
;   gcodeZoffset,0
;   overrideMachineDefinition,1
;   machineTypeOverride,0
;   strokeXoverride,300
;   strokeYoverride,300
;   strokeZoverride,400
;   originOffsetXoverride,0
;   originOffsetYoverride,0
;   originOffsetZoverride,0
;   homeXdirOverride,-1
;   homeYdirOverride,-1
;   homeZdirOverride,-1
;   flipXoverride,1
;   flipYoverride,-1
;   flipZoverride,1
;   toolheadOffsets,0,0|0,0|0,0|0,0|0,0|0,0
;   overrideFirmwareConfiguration,1
;   firmwareTypeOverride,RepRap (Marlin/Repetier/Sprinter)
;   GPXconfigOverride,r2
;   baudRateOverride,250000
;   overridePrinterModels,1
;   printerModelsOverride
;   startingGcode,;,; -]H.P.B[- MarshMalloW  ,; $VER: StartScript 1.02 (26.12.2019) MarshMalloW,;,; Begin Startcode,;,M117 *Preheat*     	; Preheat,;extruder0_temperature,M104 S[extruder0_temperature]  ,M109 S[extruder0_temperature] ,M109 R[extruder0_temperature] ,;,M117 *Auto-leveling*     	; Auto-leveling,M107                   	; Turn layer fan off,G21                    	; Set to metric [change to G20 if you want Imperial],G90                    	; Force coordinates to be absolute relative to the origin,G28                    	; Home X/Y/Z axis,G29                    	; Auto-leveling (BL-Touch),;,M117 *Start Clean*     	; Indicate nozzle clean in progress on LCD,G92 E0                 	; Set Extruder to 0 ,G1 X0 Y0 F2000         	; Move X and Y to 0 with speed 2000 (mm/min),G1 Z0.1 F1000          	; Move Z to   0.1 with speed 1000 (mm/min),G1 X8.0 F2000          	; Move X to   8.0 with speed 2000 (mm/min),G1 Y60.0 E4.0 F1000.0  	; Move Y to  60 and Extruder with 4.0 with speed 1000 (mm/min),G1 Y100.0 E8.5 F1000.0 	; Move Y to 100 and Extruder with 8.5 with speed 1000 (mm/min),G92 E0                 	; Set extruder to 0,G1 X16.0 F3000         	; Move X to 16.0 with speed 3000 (mm/min),G1 Y60.0 F3000         	; Move Y to 60.0 with speed 3000 (mm/min),M117 *End Clean*       	; Indicate nozzle clean in progress on LCD,G1 Z5 F3000            	; Move Z to  5.0 with speed 3000 (mm/min),G1 X20.0 F3000         	; Move X to 20.0 with speed 3000 (mm/min),G1 Y20.0 F3000         	; Move Y to 20.0 with speed 3000 (mm/min),; ,M117 *Printing...*     	; Start printing msg on LCD,;,; End Startcode,;,; Begin printing with sliced GCode after here,;
;   layerChangeGcode,
;   retractionGcode,
;   toolChangeGcode,
;   endingGcode,;,; init 181010,;,;M107 			; Fan off,;G1 E-1 F300 			; Retract the filament a bit before lifting the nozzle,;M104 S0 			; Turn off extruder,;M140 S0 			; Turn off bed,;G91			; Relative positioning,;G28 X0 Y0 			; Move X/Y to min endstops so the head is out of teh way,;M84 			; Disable motors,;G90 			; Absolute positioning,;M117 Print ready...,,;,; // From Cura 181010,; // End_gcode,G92 E0			; Zero the extruded length,;G1 E-30 F300		; Retract E -30,M106 S0			; Turn off cooling fan,M104 S0			; Turn off temperature,M140 S0		     	; Turn off bed,G91			; Relative positioning,G1 E-1 F300			; Retract the filament a bit before lifting the nozzle to release some of the pressure,G1 Z+20 E-5 X-20 Y-20 F7200	; Move Z up a bit and retract filament even more,G1 X0 Y150 F10000		; Move right min,M107			; Turn off layer fan,M84			; Disable motors,G90			; Absolute positioning,M117 *The-End* 		; End msg,;,
;   exportFileFormat,gcode
;   celebration,0
;   celebrationSong,Star Wars
;   postProcessing,
;   defaultSpeed,1800
;   outlineUnderspeed,0.5
;   solidInfillUnderspeed,0.8
;   supportUnderspeed,0.8
;   rapidXYspeed,6000
;   rapidZspeed,1002
;   minBridgingArea,50
;   bridgingExtraInflation,0.2
;   bridgingExtrusionMultiplier,1
;   bridgingSpeedMultiplier,0.6
;   useFixedBridgingAngle,0
;   fixedBridgingAngle,0
;   applyBridgingToPerimeters,0
;   filamentDiameters,1.75|1.75|1.75|1.75|1.75|1.75
;   filamentPricesPerKg,30|46|46|46|46|46
;   filamentDensities,1.25|1.25|1.25|1.25|1.25|1.25
;   useMinPrintHeight,0
;   minPrintHeight,0
;   useMaxPrintHeight,0
;   maxPrintHeight,9
;   useDiaphragm,0
;   diaphragmLayerInterval,20
;   robustSlicing,1
;   mergeAllIntoSolid,0
;   onlyRetractWhenCrossingOutline,1
;   retractBetweenLayers,1
;   useRetractionMinTravel,0
;   retractionMinTravel,3
;   retractWhileWiping,0
;   onlyWipeOutlines,1
;   avoidCrossingOutline,0
;   maxMovementDetourFactor,3
;   toolChangeRetractionDistance,12
;   toolChangeExtraRestartDistance,-0.5
;   toolChangeRetractionSpeed,600
;   externalThinWallType,1
;   internalThinWallType,1
;   thinWallAllowedOverlapPercentage,10
;   singleExtrusionMinLength,1
;   singleExtrusionMinPrintingWidthPercentage,50
;   singleExtrusionMaxPrintingWidthPercentage,200
;   singleExtrusionEndpointExtension,0.2
;   horizontalSizeCompensation,0
G90
M82
M106 S0
M140 S55
M190 S55
;
; -]H.P.B[- MarshMalloW  
; $VER: StartScript 1.02 (26.12.2019) MarshMalloW
;
; Begin Startcode
;
M117 *Preheat*     	; Preheat
;extruder0_temperature
M104 S215  
M109 S215 
M109 R215 
;
M117 *Auto-leveling*     	; Auto-leveling
M107                   	; Turn layer fan off
G21                    	; Set to metric [change to G20 if you want Imperial]
G90                    	; Force coordinates to be absolute relative to the origin
G28                    	; Home X/Y/Z axis
G29                    	; Auto-leveling (BL-Touch)
;
M117 *Start Clean*     	; Indicate nozzle clean in progress on LCD
G92 E0                 	; Set Extruder to 0 
G1 X0 Y0 F2000         	; Move X and Y to 0 with speed 2000 (mm/min)
G1 Z0.1 F1000          	; Move Z to   0.1 with speed 1000 (mm/min)
G1 X8.0 F2000          	; Move X to   8.0 with speed 2000 (mm/min)
G1 Y60.0 E4.0 F1000.0  	; Move Y to  60 and Extruder with 4.0 with speed 1000 (mm/min)
G1 Y100.0 E8.5 F1000.0 	; Move Y to 100 and Extruder with 8.5 with speed 1000 (mm/min)
G92 E0                 	; Set extruder to 0
G1 X16.0 F3000         	; Move X to 16.0 with speed 3000 (mm/min)
G1 Y60.0 F3000         	; Move Y to 60.0 with speed 3000 (mm/min)
M117 *End Clean*       	; Indicate nozzle clean in progress on LCD
G1 Z5 F3000            	; Move Z to  5.0 with speed 3000 (mm/min)
G1 X20.0 F3000         	; Move X to 20.0 with speed 3000 (mm/min)
G1 Y20.0 F3000         	; Move Y to 20.0 with speed 3000 (mm/min)
; 
M117 *Printing...*     	; Start printing msg on LCD
;
; End Startcode
;
; Begin printing with sliced GCode after here
;
; process Process1
; layer 1, Z = 0.180
T0
G92 E0.0000
G1 E-4.0000 F3000
; feature skirt
; tool H0.180 W0.350
G1 Z0.300 F1002
G1 X106.580 Y68.711 F6000
G1 Z0.180 F1002
G1 E0.0000 F3000
G92 E0.0000
G1 X106.580 Y75.771 E0.1757 F900
G1 X124.210 Y75.771 E0.6144
G1 X125.545 Y76.541 E0.6527
G1 X137.271 Y96.851 E1.2363
G1 X137.271 Y98.392 E1.2746
G1 X125.545 Y118.702 E1.8581
G1 X124.210 Y119.472 E1.8965
G1 X100.759 Y119.472 E2.4800
G1 X99.424 Y118.702 E2.5184
G1 X87.698 Y98.392 E3.1019
G1 X87.698 Y96.851 E3.1402
G1 X96.670 Y81.313 E3.5867
G1 X95.890 Y80.533 E3.6142
G1 X95.890 Y68.711 E3.9083
G1 X97.574 Y67.027 E3.9676
G1 X104.895 Y67.027 E4.1498
G1 X106.580 Y68.711 E4.2090
G92 E0.0000
G1 E-4.0000 F3000
G1 Z0.480 F1002
G1 X99.681 Y118.446 F6000
G1 Z0.180 F1002
G1 E0.0000 F3000
G92 E0.0000
G1 X88.048 Y98.298 E0.5789 F900
G1 X88.048 Y96.945 E0.6125
G1 X97.107 Y81.255 E1.0634
G1 X96.240 Y80.388 E1.0939
G1 X96.240 Y68.856 E1.3808
G1 X97.719 Y67.377 E1.4329
G1 X104.750 Y67.377 E1.6078
G1 X106.230 Y68.856 E1.6599
G1 X106.230 Y76.121 E1.8407
G1 X124.117 Y76.121 E2.2858
G1 X125.288 Y76.798 E2.3194
G1 X136.921 Y96.945 E2.8983
G1 X136.921 Y98.298 E2.9320
G1 X125.288 Y118.446 E3.5109
G1 X124.117 Y119.122 E3.5445
G1 X100.852 Y119.122 E4.1234
G1 X99.681 Y118.446 E4.1571
G92 E0.0000
G1 E-4.0000 F3000
G1 Z0.480 F1002
G1 X125.032 Y77.054 F6000
G1 Z0.180 F1002
G1 E0.0000 F3000
G92 E0.0000
G1 X136.571 Y97.039 E0.5742 F900
G1 X136.571 Y98.205 E0.6032
G1 X125.032 Y118.190 E1.1774
G1 X124.023 Y118.772 E1.2064
G1 X100.946 Y118.772 E1.7806
G1 X99.937 Y118.190 E1.8096
G1 X88.398 Y98.205 E2.3839
G1 X88.398 Y97.039 E2.4129
G1 X97.544 Y81.198 E2.8680
G1 X96.590 Y80.243 E2.9016
G1 X96.590 Y69.001 E3.1813
G1 X97.864 Y67.727 E3.2262
G1 X104.605 Y67.727 E3.3939
G1 X105.880 Y69.001 E3.4388
G1 X105.880 Y76.471 E3.6246
G1 X124.023 Y76.471 E4.0761
G1 X125.032 Y77.054 E4.1051
G92 E0.0000
G1 E-4.0000 F3000
G1 Z0.480 F1002
G1 X137.886 Y73.946 F6000
G1 Z0.180 F1002
G1 E0.0000 F3000
G92 E0.0000
G1 X138.733 Y72.659 E0.0383 F900
G1 X139.794 Y72.126 E0.0679
G1 X140.448 Y71.971 E0.0846
G1 X146.865 Y71.971 E0.2443
G1 X146.865 Y68.970 E0.3190
G1 X148.550 Y67.286 E0.3782
G1 X155.871 Y67.286 E0.5604
G1 X156.710 Y68.125 E0.5899
G1 X157.550 Y67.286 E0.6195
G1 X164.871 Y67.286 E0.8017
G1 X166.555 Y68.970 E0.8609
G1 X166.555 Y71.971 E0.9356
G1 X172.889 Y71.971 E1.0932
G1 X173.384 Y72.059 E1.1057
G1 X174.155 Y72.339 E1.1261
G1 X174.931 Y72.991 E1.1513
G1 X175.469 Y73.922 E1.1781
G1 X175.645 Y74.921 E1.2033
G1 X175.503 Y75.728 E1.2237
G1 X175.331 Y76.200 E1.2362
G1 X164.115 Y95.654 E1.7950
G1 X164.088 Y95.698 E1.7963
G1 X163.565 Y96.535 E1.8208
G1 X163.526 Y96.594 E1.8226
G1 X162.957 Y97.413 E1.8474
G1 X162.914 Y97.471 E1.8492
G1 X162.290 Y98.279 E1.8746
G1 X162.245 Y98.334 E1.8764
G1 X162.032 Y98.583 E1.8845
G1 X164.785 Y103.351 E2.0215
G1 X164.785 Y104.892 E2.0599
G1 X161.415 Y110.730 E2.2276
G1 X160.081 Y111.500 E2.2659
G1 X153.340 Y111.500 E2.4336
G1 X152.006 Y110.730 E2.4720
G1 X148.635 Y104.892 E2.6397
G1 X148.635 Y103.351 E2.6780
G1 X151.201 Y98.908 E2.8057
G1 X138.005 Y76.054 E3.4624
G1 X137.811 Y75.234 E3.4833
G1 X137.886 Y73.946 E3.5154
G92 E0.0000
G1 E-4.0000 F3000
G1 Z0.480 F1002
G1 X164.435 Y104.798 F6000
G1 Z0.180 F1002
G1 E0.0000 F3000
G92 E0.0000
G1 X161.159 Y110.473 E0.1631 F900
G1 X159.987 Y111.150 E0.1967
G1 X153.434 Y111.150 E0.3598
G1 X152.262 Y110.473 E0.3935
G1 X148.985 Y104.798 E0.5565
G1 X148.985 Y103.445 E0.5902
G1 X151.605 Y98.908 E0.7205
G1 X138.334 Y75.923 E1.3810
G1 X138.164 Y75.203 E1.3994
G1 X138.230 Y74.060 E1.4279
G1 X138.974 Y72.930 E1.4615
G1 X139.914 Y72.457 E1.4877
G1 X140.489 Y72.321 E1.5024
G1 X147.215 Y72.321 E1.6698
G1 X147.215 Y69.115 E1.7496
G1 X148.695 Y67.636 E1.8016
G1 X155.726 Y67.636 E1.9766
G1 X156.710 Y68.620 E2.0112
G1 X157.695 Y67.636 E2.0458
G1 X164.726 Y67.636 E2.2208
G1 X166.205 Y69.115 E2.2729
G1 X166.205 Y72.321 E2.3526
G1 X172.858 Y72.321 E2.5182
G1 X173.293 Y72.398 E2.5292
G1 X173.977 Y72.647 E2.5473
G1 X174.659 Y73.219 E2.5694
G1 X175.135 Y74.044 E2.5931
G1 X175.290 Y74.921 E2.6153
G1 X175.163 Y75.637 E2.6334
G1 X175.013 Y76.051 E2.6444
G1 X163.813 Y95.477 E3.2023
G1 X163.790 Y95.515 E3.2034
G1 X163.271 Y96.346 E3.2278
G1 X163.237 Y96.398 E3.2293
G1 X162.672 Y97.210 E3.2539
G1 X162.634 Y97.261 E3.2555
G1 X162.015 Y98.062 E3.2807
G1 X161.976 Y98.110 E3.2822
G1 X161.606 Y98.544 E3.2964
G1 X164.435 Y103.445 E3.4373
G1 X164.435 Y104.798 E3.4709
G92 E0.0000
G1 E-4.0000 F3000
G1 Z0.480 F1002
G1 X161.741 Y97.845 F6000
G1 Z0.180 F1002
G1 E0.0000 F3000
G92 E0.0000
G1 X161.707 Y97.886 E0.0013 F900
G1 X161.179 Y98.505 E0.0216
G1 X164.085 Y103.539 E0.1662
G1 X164.085 Y104.705 E0.1952
G1 X160.903 Y110.217 E0.3536
G1 X159.893 Y110.800 E0.3826
G1 X153.528 Y110.800 E0.5410
G1 X152.518 Y110.217 E0.5700
G1 X149.335 Y104.705 E0.7284
G1 X149.335 Y103.539 E0.7574
G1 X152.009 Y98.908 E0.8904
G1 X138.663 Y75.793 E1.5546
G1 X138.516 Y75.173 E1.5705
G1 X138.574 Y74.174 E1.5954
G1 X139.215 Y73.200 E1.6244
G1 X140.035 Y72.788 E1.6472
G1 X140.530 Y72.671 E1.6598
G1 X147.565 Y72.671 E1.8349
G1 X147.565 Y69.260 E1.9198
G1 X148.840 Y67.986 E1.9646
G1 X155.581 Y67.986 E2.1324
G1 X156.710 Y69.115 E2.1721
G1 X157.840 Y67.986 E2.2119
G1 X164.581 Y67.986 E2.3796
G1 X165.855 Y69.260 E2.4244
G1 X165.855 Y72.671 E2.5093
G1 X172.827 Y72.671 E2.6828
G1 X173.202 Y72.737 E2.6923
G1 X173.799 Y72.955 E2.7081
G1 X174.387 Y73.448 E2.7272
G1 X174.801 Y74.165 E2.7478
G1 X174.934 Y74.921 E2.7669
G1 X174.824 Y75.546 E2.7827
G1 X174.694 Y75.903 E2.7921
G1 X163.511 Y95.299 E3.3492
G1 X163.491 Y95.332 E3.3502
G1 X162.976 Y96.157 E3.3744
G1 X162.947 Y96.202 E3.3757
G1 X162.387 Y97.006 E3.4001
G1 X162.355 Y97.050 E3.4015
G1 X161.741 Y97.845 E3.4264
G92 E0.0000
G1 E-4.0000 F3000
G1 Z0.480 F1002
G1 X203.205 Y142.263 F6000
G1 Z0.180 F1002
G1 E0.0000 F3000
G92 E0.0000
G1 X201.520 Y143.947 E0.0593 F900
G1 X185.895 Y143.947 E0.4481
G1 X183.439 Y148.201 E0.5703
G1 X182.105 Y148.971 E0.6086
G1 X175.364 Y148.971 E0.7764
G1 X174.030 Y148.201 E0.8147
G1 X170.660 Y142.363 E0.9824
G1 X170.660 Y140.823 E1.0208
G1 X172.815 Y137.090 E1.1280
G1 X164.690 Y123.017 E1.5323
G1 X166.350 Y120.142 E1.6149
G1 X188.705 Y120.142 E2.1712
G1 X189.373 Y119.757 E2.1904
G1 X192.520 Y119.757 E2.2687
G1 X194.205 Y121.441 E2.3280
G1 X194.205 Y128.757 E2.5100
G1 X197.020 Y128.757 E2.5801
G1 X198.705 Y130.441 E2.6393
