; G-Code generated by Simplify3D(R) Version 4.0.1
; Sep 5, 2019 at 4:17:57 PM
; Settings Summary
;   processName,Process1
;   applyToModels,Knob-bolt-m4
;   profileName,101.01 40% Tevo Tornado (experimental)
;   profileVersion,2019-09-05 16:11:13
;   baseProfile,Creality CR-10(2)
;   printMaterial,PLA
;   printQuality,Medium
;   printExtruders,
;   extruderName,Primary Extruder
;   extruderToolheadNumber,0
;   extruderDiameter,0.4
;   extruderAutoWidth,0
;   extruderWidth,0.35
;   extrusionMultiplier,0.95
;   extruderUseRetract,1
;   extruderRetractionDistance,6
;   extruderExtraRestartDistance,0
;   extruderRetractionZLift,0.3
;   extruderRetractionSpeed,3000
;   extruderUseCoasting,0
;   extruderCoastingDistance,0.2
;   extruderUseWipe,0
;   extruderWipeDistance,4
;   primaryExtruder,0
;   layerHeight,0.15
;   topSolidLayers,4
;   bottomSolidLayers,3
;   perimeterOutlines,3
;   printPerimetersInsideOut,0
;   startPointOption,3
;   startPointOriginX,0
;   startPointOriginY,300
;   sequentialIslands,0
;   spiralVaseMode,0
;   firstLayerHeightPercentage,120
;   firstLayerWidthPercentage,100
;   firstLayerUnderspeed,0.5
;   useRaft,0
;   raftExtruder,0
;   raftTopLayers,3
;   raftBaseLayers,2
;   raftOffset,3
;   raftSeparationDistance,0.14
;   raftTopInfill,100
;   aboveRaftSpeedMultiplier,0.3
;   useSkirt,1
;   skirtExtruder,0
;   skirtLayers,1
;   skirtOutlines,3
;   skirtOffset,2
;   usePrimePillar,0
;   primePillarExtruder,999
;   primePillarWidth,12
;   primePillarLocation,7
;   primePillarSpeedMultiplier,1
;   useOozeShield,0
;   oozeShieldExtruder,999
;   oozeShieldOffset,2
;   oozeShieldOutlines,1
;   oozeShieldSidewallShape,1
;   oozeShieldSidewallAngle,30
;   oozeShieldSpeedMultiplier,1
;   infillExtruder,0
;   internalInfillPattern,Rectilinear
;   externalInfillPattern,Rectilinear
;   infillPercentage,40
;   outlineOverlapPercentage,15
;   infillExtrusionWidthPercentage,100
;   minInfillLength,5
;   infillLayerInterval,1
;   internalInfillAngles,45,-45
;   overlapInternalInfillAngles,0
;   externalInfillAngles,45,-45
;   generateSupport,0
;   supportExtruder,0
;   supportInfillPercentage,30
;   supportExtraInflation,0
;   supportBaseLayers,0
;   denseSupportExtruder,0
;   denseSupportLayers,0
;   denseSupportInfillPercentage,70
;   supportLayerInterval,1
;   supportHorizontalPartOffset,0.4
;   supportUpperSeparationLayers,1
;   supportLowerSeparationLayers,1
;   supportType,0
;   supportGridSpacing,4.5
;   maxOverhangAngle,45
;   supportAngles,0
;   temperatureName,Primary Extruder,Heated Bed
;   temperatureNumber,0,0
;   temperatureSetpointCount,2,1
;   temperatureSetpointLayers,1,2,1
;   temperatureSetpointTemperatures,210,205,50
;   temperatureStabilizeAtStartup,1,1
;   temperatureHeatedBed,0,1
;   temperatureRelayBetweenLayers,0,0
;   temperatureRelayBetweenLoops,0,0
;   fanLayers,1,2
;   fanSpeeds,0,100
;   blipFanToFullPower,0
;   adjustSpeedForCooling,1
;   minSpeedLayerTime,15
;   minCoolingSpeedSlowdown,50
;   increaseFanForCooling,1
;   minFanLayerTime,25
;   maxCoolingFanSpeed,100
;   increaseFanForBridging,1
;   bridgingFanSpeed,100
;   use5D,1
;   relativeEdistances,0
;   allowEaxisZeroing,1
;   independentExtruderAxes,0
;   includeM10123,0
;   stickySupport,1
;   applyToolheadOffsets,0
;   gcodeXoffset,0
;   gcodeYoffset,0
;   gcodeZoffset,0
;   overrideMachineDefinition,1
;   machineTypeOverride,0
;   strokeXoverride,300
;   strokeYoverride,300
;   strokeZoverride,400
;   originOffsetXoverride,0
;   originOffsetYoverride,0
;   originOffsetZoverride,0
;   homeXdirOverride,-1
;   homeYdirOverride,-1
;   homeZdirOverride,-1
;   flipXoverride,1
;   flipYoverride,-1
;   flipZoverride,1
;   toolheadOffsets,0,0|0,0|0,0|0,0|0,0|0,0
;   overrideFirmwareConfiguration,1
;   firmwareTypeOverride,RepRap (Marlin/Repetier/Sprinter)
;   GPXconfigOverride,r2
;   baudRateOverride,250000
;   overridePrinterModels,1
;   printerModelsOverride
;   startingGcode,;Init 181010,;G28 			; Home all axes,;G1 Z5 F3000 ; lift,;G92 E0			; Reset extrusion distance,,; // From Cura 181010,; // Update 190823 (GueroLoco),; // Start_gcode,M117 *Start Clean*		; Indicate nozzle clean in progress on LCD,;,M104 S[extruder0_temperature] ,M109 S[extruder0_temperature] ,M109 R[extruder0_temperature] ,;,M107			; Turn layer fan off,G21			; Set to metric [change to G20 if you want Imperial],G90			; Force coordinates to be absolute relative to the origin,G28			; Home X/Y/Z axis,;,;G1 X3 Y1 Z15 F9000		; Move safe Z height to shear strings,;G0 X1 Y1 Z0.2 F9000		; Move in 1mm from edge and up [z] 0.2mm,;G92 E0			; Set extruder to [0] zero,;G1 X100 E12 F500		; Extrude 30mm filiment along X axis 100mm long to prime and clean the nozzle,;G92 E0			; Reset extruder to [0] zero end of cleaning run,;G1 E-1 F500			; Retract filiment by 1 mm to reduce string effect,;G1 X180 F4000		; Quick wipe away from the filament line / purge,;,G92 E0			; Set Extruder to 0 ,G1 X0 Y0 F2000		; Move X and Y to 0 with speed 2000 (mm/min),G1 Z0.1 F1000		; Move Z to 0.1,G1 X8.0 F2000		; Move X to 8.0,G1 Y60.0 E4.0 F1000.0		; Prime - Move Y to 60 and Extruder with 4.0,G1 Y100.0 E8.5 F1000.0		; Prime - Move Y to 100 and Extruder with 8.5,G92 E0			; Set extruder to 0,M117 *End Clean*		; Indicate nozzle clean in progress on LCD,G1 Z5 F3000			; Lift - Move Z to 5,; ,M117 *Printing...*		; start msg,; // Begin printing with sliced GCode after here,;
;   layerChangeGcode,
;   retractionGcode,
;   toolChangeGcode,
;   endingGcode,;,; init 181010,;,;M107 			; Fan off,;G1 E-1 F300 			; Retract the filament a bit before lifting the nozzle,;M104 S0 			; Turn off extruder,;M140 S0 			; Turn off bed,;G91			; Relative positioning,;G28 X0 Y0 			; Move X/Y to min endstops so the head is out of teh way,;M84 			; Disable motors,;G90 			; Absolute positioning,;M117 Print ready...,,;,; // From Cura 181010,; // End_gcode,G92 E0			; Zero the extruded length,G1 E-30 F300			; Retract E -30,M106 S0			; Turn off cooling fan,M104 S0			; Turn off temperature,M140 S0		     	; Turn off bed,G91			; Relative positioning,G1 E-1 F300			; Retract the filament a bit before lifting the nozzle to release some of the pressure,G1 Z+20 E-5 X-20 Y-20 F7200	; Move Z up a bit and retract filament even more,G1 X320 Y150 F10000		; Move right mid,M107			; Turn off layer fan,M84			; Disable motors,G90			; Absolute positioning,M117 *The-End* 		; End msg,;,
;   exportFileFormat,gcode
;   celebration,0
;   celebrationSong,Star Wars
;   postProcessing,
;   defaultSpeed,1800
;   outlineUnderspeed,0.5
;   solidInfillUnderspeed,0.8
;   supportUnderspeed,0.8
;   rapidXYspeed,6000
;   rapidZspeed,1002
;   minBridgingArea,50
;   bridgingExtraInflation,0.2
;   bridgingExtrusionMultiplier,1
;   bridgingSpeedMultiplier,0.6
;   useFixedBridgingAngle,0
;   fixedBridgingAngle,0
;   applyBridgingToPerimeters,0
;   filamentDiameters,1.75|1.75|1.75|1.75|1.75|1.75
;   filamentPricesPerKg,30|46|46|46|46|46
;   filamentDensities,1.25|1.25|1.25|1.25|1.25|1.25
;   useMinPrintHeight,0
;   minPrintHeight,0
;   useMaxPrintHeight,0
;   maxPrintHeight,9
;   useDiaphragm,0
;   diaphragmLayerInterval,20
;   robustSlicing,1
;   mergeAllIntoSolid,0
;   onlyRetractWhenCrossingOutline,1
;   retractBetweenLayers,1
;   useRetractionMinTravel,0
;   retractionMinTravel,3
;   retractWhileWiping,0
;   onlyWipeOutlines,1
;   avoidCrossingOutline,0
;   maxMovementDetourFactor,3
;   toolChangeRetractionDistance,12
;   toolChangeExtraRestartDistance,-0.5
;   toolChangeRetractionSpeed,600
;   externalThinWallType,1
;   internalThinWallType,1
;   thinWallAllowedOverlapPercentage,15
;   singleExtrusionMinLength,1
;   singleExtrusionMinPrintingWidthPercentage,50
;   singleExtrusionMaxPrintingWidthPercentage,200
;   singleExtrusionEndpointExtension,0.2
;   horizontalSizeCompensation,0
G90
M82
M106 S0
M140 S50
M190 S50
;Init 181010
;G28 			; Home all axes
;G1 Z5 F3000 ; lift
;G92 E0			; Reset extrusion distance
; // From Cura 181010
; // Update 190823 (GueroLoco)
; // Start_gcode
M117 *Start Clean*		; Indicate nozzle clean in progress on LCD
;
M104 S210 
M109 S210 
M109 R210 
;
M107			; Turn layer fan off
G21			; Set to metric [change to G20 if you want Imperial]
G90			; Force coordinates to be absolute relative to the origin
G28			; Home X/Y/Z axis
;
;G1 X3 Y1 Z15 F9000		; Move safe Z height to shear strings
;G0 X1 Y1 Z0.2 F9000		; Move in 1mm from edge and up [z] 0.2mm
;G92 E0			; Set extruder to [0] zero
;G1 X100 E12 F500		; Extrude 30mm filiment along X axis 100mm long to prime and clean the nozzle
;G92 E0			; Reset extruder to [0] zero end of cleaning run
;G1 E-1 F500			; Retract filiment by 1 mm to reduce string effect
;G1 X180 F4000		; Quick wipe away from the filament line / purge
;
G92 E0			; Set Extruder to 0 
G1 X0 Y0 F2000		; Move X and Y to 0 with speed 2000 (mm/min)
G1 Z0.1 F1000		; Move Z to 0.1
G1 X8.0 F2000		; Move X to 8.0
G1 Y60.0 E4.0 F1000.0		; Prime - Move Y to 60 and Extruder with 4.0
G1 Y100.0 E8.5 F1000.0		; Prime - Move Y to 100 and Extruder with 8.5
G92 E0			; Set extruder to 0
M117 *End Clean*		; Indicate nozzle clean in progress on LCD
G1 Z5 F3000			; Lift - Move Z to 5
; 
M117 *Printing...*		; start msg
; // Begin printing with sliced GCode after here
;
G92 E0
G1 E-6.0000 F3000
G1 Z0.480 F1002
; process Process1
; layer 1, Z = 0.180
T0
; tool H0.180 W0.350
; skirt
G1 X142.439 Y151.058 F6000
G1 Z0.180 F1002
G1 E0.0000 F900
G92 E0
G1 X143.015 Y150.548 E0.0191 F900
G1 X143.031 Y150.534 E0.0197
G1 X143.125 Y150.459 E0.0227
G1 X143.142 Y150.446 E0.0232
G1 X144.005 Y149.821 E0.0497
G1 X144.021 Y149.810 E0.0502
G1 X144.115 Y149.748 E0.0530
G1 X144.132 Y149.738 E0.0535
G1 X144.727 Y149.386 E0.0707
G1 X144.746 Y149.375 E0.0712
G1 X144.852 Y149.319 E0.0742
G1 X144.871 Y149.310 E0.0747
G1 X145.860 Y148.849 E0.1019
G1 X145.879 Y148.840 E0.1024
G1 X145.984 Y148.797 E0.1052
G1 X146.003 Y148.790 E0.1057
G1 X146.647 Y148.560 E0.1228
G1 X146.667 Y148.553 E0.1233
G1 X146.778 Y148.520 E0.1262
G1 X146.798 Y148.514 E0.1267
G1 X147.832 Y148.252 E0.1532
G1 X147.853 Y148.248 E0.1538
G1 X147.972 Y148.224 E0.1568
G1 X147.993 Y148.220 E0.1573
G1 X148.755 Y148.106 E0.1765
G1 X148.776 Y148.104 E0.1770
G1 X148.893 Y148.092 E0.1799
G1 X148.915 Y148.090 E0.1805
G1 X149.962 Y148.037 E0.2066
G1 X149.982 Y148.036 E0.2071
G1 X150.093 Y148.036 E0.2098
G1 X150.113 Y148.036 E0.2103
G1 X150.782 Y148.063 E0.2270
G1 X150.799 Y148.064 E0.2274
G1 X150.893 Y148.071 E0.2297
G1 X150.909 Y148.073 E0.2302
G1 X151.653 Y148.160 E0.2488
G1 X151.673 Y148.163 E0.2493
G1 X151.787 Y148.182 E0.2522
G1 X151.808 Y148.186 E0.2527
G1 X152.817 Y148.403 E0.2784
G1 X152.841 Y148.409 E0.2790
G1 X152.976 Y148.446 E0.2825
G1 X153.000 Y148.454 E0.2831
G1 X154.017 Y148.798 E0.3098
G1 X154.038 Y148.806 E0.3104
G1 X154.150 Y148.850 E0.3134
G1 X154.170 Y148.859 E0.3139
G1 X154.858 Y149.171 E0.3327
G1 X154.872 Y149.178 E0.3331
G1 X154.953 Y149.218 E0.3354
G1 X154.967 Y149.225 E0.3358
G1 X155.566 Y149.552 E0.3527
G1 X155.584 Y149.563 E0.3532
G1 X155.683 Y149.623 E0.3561
G1 X155.700 Y149.634 E0.3567
G1 X156.578 Y150.229 E0.3830
G1 X156.596 Y150.241 E0.3836
G1 X156.693 Y150.314 E0.3866
G1 X156.710 Y150.328 E0.3871
G1 X157.301 Y150.820 E0.4063
G1 X157.316 Y150.833 E0.4068
G1 X157.400 Y150.910 E0.4096
G1 X157.414 Y150.924 E0.4101
G1 X158.128 Y151.640 E0.4353
G1 X158.145 Y151.658 E0.4359
G1 X158.237 Y151.762 E0.4393
G1 X158.253 Y151.781 E0.4399
G1 X158.915 Y152.617 E0.4665
G1 X158.928 Y152.634 E0.4670
G1 X158.998 Y152.732 E0.4700
G1 X159.010 Y152.750 E0.4705
G1 X159.417 Y153.385 E0.4893
G1 X159.426 Y153.399 E0.4897
G1 X159.472 Y153.477 E0.4920
G1 X159.480 Y153.491 E0.4924
G1 X159.807 Y154.095 E0.5095
G1 X159.817 Y154.114 E0.5100
G1 X159.867 Y154.218 E0.5129
G1 X159.875 Y154.237 E0.5134
G1 X160.292 Y155.219 E0.5399
G1 X160.301 Y155.243 E0.5406
G1 X160.349 Y155.377 E0.5441
G1 X160.357 Y155.402 E0.5448
G1 X160.662 Y156.444 E0.5718
G1 X160.667 Y156.465 E0.5723
G1 X160.695 Y156.581 E0.5753
G1 X160.699 Y156.602 E0.5758
G1 X160.837 Y157.333 E0.5943
G1 X160.840 Y157.353 E0.5949
G1 X160.856 Y157.465 E0.5977
G1 X160.858 Y157.485 E0.5982
G1 X160.952 Y158.488 E0.6232
G1 X160.954 Y158.510 E0.6238
G1 X160.959 Y158.629 E0.6267
G1 X160.960 Y158.651 E0.6273
G1 X160.956 Y159.421 E0.6464
G1 X160.955 Y159.437 E0.6468
G1 X160.952 Y159.527 E0.6491
G1 X160.951 Y159.543 E0.6495
G1 X160.897 Y160.218 E0.6663
G1 X160.895 Y160.239 E0.6668
G1 X160.881 Y160.353 E0.6697
G1 X160.878 Y160.373 E0.6702
G1 X160.695 Y161.416 E0.6966
G1 X160.690 Y161.441 E0.6972
G1 X160.658 Y161.579 E0.7007
G1 X160.651 Y161.604 E0.7014
G1 X160.341 Y162.644 E0.7284
G1 X160.334 Y162.664 E0.7289
G1 X160.294 Y162.778 E0.7319
G1 X160.286 Y162.798 E0.7324
G1 X160.001 Y163.494 E0.7512
G1 X159.993 Y163.512 E0.7517
G1 X159.946 Y163.614 E0.7545
G1 X159.937 Y163.633 E0.7550
G1 X159.469 Y164.529 E0.7801
G1 X159.457 Y164.551 E0.7807
G1 X159.385 Y164.671 E0.7842
G1 X159.371 Y164.692 E0.7849
G1 X158.756 Y165.600 E0.8121
G1 X158.741 Y165.620 E0.8128
G1 X158.656 Y165.731 E0.8163
G1 X158.640 Y165.751 E0.8169
G1 X157.960 Y166.540 E0.8428
G1 X157.945 Y166.556 E0.8433
G1 X157.863 Y166.643 E0.8463
G1 X157.848 Y166.658 E0.8468
G1 X157.294 Y167.187 E0.8659
G1 X157.278 Y167.201 E0.8664
G1 X157.192 Y167.276 E0.8693
G1 X157.176 Y167.289 E0.8698
G1 X156.379 Y167.917 E0.8950
G1 X156.362 Y167.930 E0.8956
G1 X156.266 Y167.999 E0.8985
G1 X156.249 Y168.010 E0.8990
G1 X155.608 Y168.422 E0.9180
G1 X155.590 Y168.433 E0.9185
G1 X155.488 Y168.492 E0.9214
G1 X155.470 Y168.502 E0.9220
G1 X154.537 Y168.982 E0.9481
G1 X154.514 Y168.992 E0.9487
G1 X154.389 Y169.048 E0.9521
G1 X154.366 Y169.058 E0.9527
G1 X153.406 Y169.422 E0.9782
G1 X153.387 Y169.428 E0.9788
G1 X153.277 Y169.464 E0.9816
G1 X153.257 Y169.470 E0.9821
G1 X152.550 Y169.664 E1.0004
G1 X152.533 Y169.669 E1.0008
G1 X152.437 Y169.691 E1.0033
G1 X152.420 Y169.694 E1.0037
G1 X151.672 Y169.836 E1.0227
G1 X151.652 Y169.840 E1.0232
G1 X151.538 Y169.856 E1.0260
G1 X151.518 Y169.858 E1.0265
G1 X150.502 Y169.953 E1.0519
G1 X150.478 Y169.955 E1.0525
G1 X150.340 Y169.960 E1.0560
G1 X150.315 Y169.960 E1.0566
G1 X149.264 Y169.939 E1.0827
G1 X149.243 Y169.939 E1.0833
G1 X149.124 Y169.930 E1.0862
G1 X149.103 Y169.928 E1.0867
G1 X148.347 Y169.840 E1.1057
G1 X148.327 Y169.837 E1.1062
G1 X148.212 Y169.818 E1.1091
G1 X148.192 Y169.814 E1.1096
G1 X147.183 Y169.597 E1.1353
G1 X147.159 Y169.591 E1.1359
G1 X147.024 Y169.554 E1.1394
G1 X147.000 Y169.546 E1.1400
G1 X145.983 Y169.202 E1.1667
G1 X145.962 Y169.194 E1.1673
G1 X145.850 Y169.150 E1.1703
G1 X145.830 Y169.141 E1.1708
G1 X145.142 Y168.829 E1.1896
G1 X145.128 Y168.822 E1.1900
G1 X145.047 Y168.782 E1.1922
G1 X145.033 Y168.775 E1.1926
G1 X144.434 Y168.448 E1.2096
G1 X144.416 Y168.437 E1.2101
G1 X144.317 Y168.377 E1.2130
G1 X144.300 Y168.366 E1.2135
G1 X143.422 Y167.771 E1.2399
G1 X143.404 Y167.759 E1.2405
G1 X143.308 Y167.686 E1.2435
G1 X143.291 Y167.673 E1.2440
G1 X142.702 Y167.183 E1.2630
G1 X142.687 Y167.170 E1.2636
G1 X142.603 Y167.093 E1.2664
G1 X142.588 Y167.079 E1.2669
G1 X141.872 Y166.360 E1.2921
G1 X141.855 Y166.342 E1.2928
G1 X141.763 Y166.238 E1.2962
G1 X141.747 Y166.219 E1.2968
G1 X141.085 Y165.383 E1.3234
G1 X141.072 Y165.366 E1.3239
G1 X141.003 Y165.268 E1.3269
G1 X140.990 Y165.250 E1.3274
G1 X140.583 Y164.615 E1.3462
G1 X140.574 Y164.601 E1.3466
G1 X140.528 Y164.523 E1.3489
G1 X140.520 Y164.509 E1.3493
G1 X140.193 Y163.905 E1.3664
G1 X140.183 Y163.886 E1.3669
G1 X140.133 Y163.782 E1.3698
G1 X140.125 Y163.763 E1.3703
G1 X139.708 Y162.781 E1.3968
G1 X139.699 Y162.757 E1.3975
G1 X139.651 Y162.623 E1.4010
G1 X139.643 Y162.598 E1.4017
G1 X139.338 Y161.556 E1.4287
G1 X139.333 Y161.535 E1.4292
G1 X139.305 Y161.419 E1.4322
G1 X139.301 Y161.398 E1.4327
G1 X139.163 Y160.667 E1.4512
G1 X139.160 Y160.647 E1.4517
G1 X139.144 Y160.535 E1.4545
G1 X139.142 Y160.515 E1.4550
G1 X139.048 Y159.512 E1.4801
G1 X139.046 Y159.490 E1.4807
G1 X139.041 Y159.371 E1.4836
G1 X139.040 Y159.349 E1.4842
G1 X139.044 Y158.579 E1.5033
G1 X139.045 Y158.563 E1.5037
G1 X139.048 Y158.473 E1.5060
