; G-Code generated by Simplify3D(R) Version 4.1.2
; Jun 24, 2022 at 9:09:01 PM
; Settings Summary
;   processName,Process1
;   applyToModels,BackPhoto
;   profileName,A11-04-10 Tevo Tornado
;   profileVersion,2022-06-10 08:12:42
;   baseProfile,Creality CR-10(2)
;   printMaterial,PLA
;   printQuality,Medium
;   printExtruders,
;   extruderName,Primary Extruder
;   extruderToolheadNumber,0
;   extruderDiameter,0.4
;   extruderAutoWidth,0
;   extruderWidth,0.35
;   extrusionMultiplier,0.95
;   extruderUseRetract,1
;   extruderRetractionDistance,4
;   extruderExtraRestartDistance,0
;   extruderRetractionZLift,0.1
;   extruderRetractionSpeed,6000
;   extruderUseCoasting,1
;   extruderCoastingDistance,0.6
;   extruderUseWipe,1
;   extruderWipeDistance,5
;   primaryExtruder,0
;   layerHeight,0.15
;   topSolidLayers,5
;   bottomSolidLayers,4
;   perimeterOutlines,3
;   printPerimetersInsideOut,0
;   startPointOption,1
;   startPointOriginX,0
;   startPointOriginY,300
;   sequentialIslands,0
;   spiralVaseMode,0
;   firstLayerHeightPercentage,120
;   firstLayerWidthPercentage,100
;   firstLayerUnderspeed,0.4
;   useRaft,0
;   raftExtruder,0
;   raftTopLayers,3
;   raftBaseLayers,2
;   raftOffset,3
;   raftSeparationDistance,0.14
;   raftTopInfill,100
;   aboveRaftSpeedMultiplier,0.3
;   useSkirt,1
;   skirtExtruder,0
;   skirtLayers,1
;   skirtOutlines,2
;   skirtOffset,3
;   usePrimePillar,0
;   primePillarExtruder,999
;   primePillarWidth,12
;   primePillarLocation,7
;   primePillarSpeedMultiplier,1
;   useOozeShield,0
;   oozeShieldExtruder,999
;   oozeShieldOffset,2
;   oozeShieldOutlines,1
;   oozeShieldSidewallShape,1
;   oozeShieldSidewallAngle,30
;   oozeShieldSpeedMultiplier,1
;   infillExtruder,0
;   internalInfillPattern,Rectilinear
;   externalInfillPattern,Rectilinear
;   infillPercentage,10
;   outlineOverlapPercentage,15
;   infillExtrusionWidthPercentage,100
;   minInfillLength,5
;   infillLayerInterval,1
;   internalInfillAngles,45,-45
;   overlapInternalInfillAngles,0
;   externalInfillAngles,45,-45
;   generateSupport,0
;   supportExtruder,0
;   supportInfillPercentage,30
;   supportExtraInflation,0
;   supportBaseLayers,0
;   denseSupportExtruder,0
;   denseSupportLayers,0
;   denseSupportInfillPercentage,70
;   supportLayerInterval,1
;   supportHorizontalPartOffset,0.4
;   supportUpperSeparationLayers,1
;   supportLowerSeparationLayers,1
;   supportType,0
;   supportGridSpacing,4.5
;   maxOverhangAngle,45
;   supportAngles,0
;   temperatureName,Primary Extruder,Heated Bed
;   temperatureNumber,0,0
;   temperatureSetpointCount,2,2
;   temperatureSetpointLayers,1,2,1,2
;   temperatureSetpointTemperatures,215,210,55,50
;   temperatureStabilizeAtStartup,1,1
;   temperatureHeatedBed,0,1
;   fanLayers,1,2
;   fanSpeeds,0,100
;   blipFanToFullPower,0
;   adjustSpeedForCooling,1
;   minSpeedLayerTime,15
;   minCoolingSpeedSlowdown,20
;   increaseFanForCooling,1
;   minFanLayerTime,25
;   maxCoolingFanSpeed,100
;   increaseFanForBridging,1
;   bridgingFanSpeed,100
;   use5D,1
;   relativeEdistances,0
;   allowEaxisZeroing,1
;   independentExtruderAxes,0
;   includeM10123,0
;   stickySupport,1
;   applyToolheadOffsets,0
;   gcodeXoffset,0
;   gcodeYoffset,0
;   gcodeZoffset,0
;   overrideMachineDefinition,1
;   machineTypeOverride,0
;   strokeXoverride,300
;   strokeYoverride,300
;   strokeZoverride,400
;   originOffsetXoverride,0
;   originOffsetYoverride,0
;   originOffsetZoverride,0
;   homeXdirOverride,-1
;   homeYdirOverride,-1
;   homeZdirOverride,-1
;   flipXoverride,1
;   flipYoverride,-1
;   flipZoverride,1
;   toolheadOffsets,0,0|0,0|0,0|0,0|0,0|0,0
;   overrideFirmwareConfiguration,1
;   firmwareTypeOverride,RepRap (Marlin/Repetier/Sprinter)
;   GPXconfigOverride,r2
;   baudRateOverride,250000
;   overridePrinterModels,1
;   printerModelsOverride
;   startingGcode,;,; -]H.P.B[- MarshMalloW  ,; $VER: StartScript 1.02 (26.12.2019) MarshMalloW,;,; Begin Startcode,;,M117 *Preheat*     	; Preheat,;extruder0_temperature,M104 S[extruder0_temperature]  ,M109 S[extruder0_temperature] ,M109 R[extruder0_temperature] ,;,M117 *Auto-leveling*     	; Auto-leveling,M107                   	; Turn layer fan off,G21                    	; Set to metric [change to G20 if you want Imperial],G90                    	; Force coordinates to be absolute relative to the origin,G28                    	; Home X/Y/Z axis,G29                    	; Auto-leveling (BL-Touch),;,M117 *Start Clean*     	; Indicate nozzle clean in progress on LCD,G92 E0                 	; Set Extruder to 0 ,G1 X0 Y0 F2000         	; Move X and Y to 0 with speed 2000 (mm/min),G1 Z0.1 F1000          	; Move Z to   0.1 with speed 1000 (mm/min),G1 X8.0 F2000          	; Move X to   8.0 with speed 2000 (mm/min),G1 Y60.0 E4.0 F1000.0  	; Move Y to  60 and Extruder with 4.0 with speed 1000 (mm/min),G1 Y100.0 E8.5 F1000.0 	; Move Y to 100 and Extruder with 8.5 with speed 1000 (mm/min),G92 E0                 	; Set extruder to 0,G1 X16.0 F3000         	; Move X to 16.0 with speed 3000 (mm/min),G1 Y60.0 F3000         	; Move Y to 60.0 with speed 3000 (mm/min),M117 *End Clean*       	; Indicate nozzle clean in progress on LCD,G1 Z5 F3000            	; Move Z to  5.0 with speed 3000 (mm/min),G1 X20.0 F3000         	; Move X to 20.0 with speed 3000 (mm/min),G1 Y20.0 F3000         	; Move Y to 20.0 with speed 3000 (mm/min),; ,M117 *Printing...*     	; Start printing msg on LCD,;,; End Startcode,;,; Begin printing with sliced GCode after here,;
;   layerChangeGcode,
;   retractionGcode,
;   toolChangeGcode,
;   endingGcode,;,; init 181010,;,;M107 			; Fan off,;G1 E-1 F300 			; Retract the filament a bit before lifting the nozzle,;M104 S0 			; Turn off extruder,;M140 S0 			; Turn off bed,;G91			; Relative positioning,;G28 X0 Y0 			; Move X/Y to min endstops so the head is out of teh way,;M84 			; Disable motors,;G90 			; Absolute positioning,;M117 Print ready...,,;,; // From Cura 181010,; // End_gcode,G92 E0			; Zero the extruded length,;G1 E-30 F300		; Retract E -30,M106 S0			; Turn off cooling fan,M104 S0			; Turn off temperature,M140 S0		     	; Turn off bed,G91			; Relative positioning,G1 E-1 F300			; Retract the filament a bit before lifting the nozzle to release some of the pressure,G1 Z+20 E-5 X-20 Y-20 F7200	; Move Z up a bit and retract filament even more,G1 X0 Y150 F10000		; Move right min,M107			; Turn off layer fan,M84			; Disable motors,G90			; Absolute positioning,M117 *The-End* 		; End msg,;,
;   exportFileFormat,gcode
;   celebration,0
;   celebrationSong,Star Wars
;   postProcessing,|{REPLACE "; layer " "M117 INDICATOR-Layer"}|{REPLACE ", Z = " "\n; Z="}
;   defaultSpeed,2400
;   outlineUnderspeed,0.6
;   solidInfillUnderspeed,0.8
;   supportUnderspeed,0.8
;   rapidXYspeed,3600
;   rapidZspeed,900
;   minBridgingArea,50
;   bridgingExtraInflation,0.2
;   bridgingExtrusionMultiplier,1
;   bridgingSpeedMultiplier,0.6
;   useFixedBridgingAngle,0
;   fixedBridgingAngle,0
;   applyBridgingToPerimeters,0
;   filamentDiameters,1.75|1.75|1.75|1.75|1.75|1.75
;   filamentPricesPerKg,30|46|46|46|46|46
;   filamentDensities,1.25|1.25|1.25|1.25|1.25|1.25
;   useMinPrintHeight,0
;   minPrintHeight,0
;   useMaxPrintHeight,0
;   maxPrintHeight,50
;   useDiaphragm,0
;   diaphragmLayerInterval,20
;   robustSlicing,1
;   mergeAllIntoSolid,0
;   onlyRetractWhenCrossingOutline,1
;   retractBetweenLayers,1
;   useRetractionMinTravel,0
;   retractionMinTravel,3
;   retractWhileWiping,1
;   onlyWipeOutlines,1
;   avoidCrossingOutline,1
;   maxMovementDetourFactor,3
;   toolChangeRetractionDistance,12
;   toolChangeExtraRestartDistance,-0.5
;   toolChangeRetractionSpeed,600
;   externalThinWallType,1
;   internalThinWallType,1
;   thinWallAllowedOverlapPercentage,20
;   singleExtrusionMinLength,1
;   singleExtrusionMinPrintingWidthPercentage,50
;   singleExtrusionMaxPrintingWidthPercentage,200
;   singleExtrusionEndpointExtension,0.2
;   horizontalSizeCompensation,0
G90
M82
M106 S0
M140 S55
M190 S55
;
; -]H.P.B[- MarshMalloW  
; $VER: StartScript 1.02 (26.12.2019) MarshMalloW
;
; Begin Startcode
;
M117 *Preheat*     	; Preheat
;extruder0_temperature
M104 S215  
M109 S215 
M109 R215 
;
M117 *Auto-leveling*     	; Auto-leveling
M107                   	; Turn layer fan off
G21                    	; Set to metric [change to G20 if you want Imperial]
G90                    	; Force coordinates to be absolute relative to the origin
G28                    	; Home X/Y/Z axis
G29                    	; Auto-leveling (BL-Touch)
;
M117 *Start Clean*     	; Indicate nozzle clean in progress on LCD
G92 E0                 	; Set Extruder to 0 
G1 X0 Y0 F2000         	; Move X and Y to 0 with speed 2000 (mm/min)
G1 Z0.1 F1000          	; Move Z to   0.1 with speed 1000 (mm/min)
G1 X8.0 F2000          	; Move X to   8.0 with speed 2000 (mm/min)
G1 Y60.0 E4.0 F1000.0  	; Move Y to  60 and Extruder with 4.0 with speed 1000 (mm/min)
G1 Y100.0 E8.5 F1000.0 	; Move Y to 100 and Extruder with 8.5 with speed 1000 (mm/min)
G92 E0                 	; Set extruder to 0
G1 X16.0 F3000         	; Move X to 16.0 with speed 3000 (mm/min)
G1 Y60.0 F3000         	; Move Y to 60.0 with speed 3000 (mm/min)
M117 *End Clean*       	; Indicate nozzle clean in progress on LCD
G1 Z5 F3000            	; Move Z to  5.0 with speed 3000 (mm/min)
G1 X20.0 F3000         	; Move X to 20.0 with speed 3000 (mm/min)
G1 Y20.0 F3000         	; Move Y to 20.0 with speed 3000 (mm/min)
; 
M117 *Printing...*     	; Start printing msg on LCD
;
; End Startcode
;
; Begin printing with sliced GCode after here
;
; process Process1
M117 INDICATOR-Layer1
; Z=0.180
T0
G92 E0.0000
G1 E-4.0000 F6000
; feature skirt
; tool H0.180 W0.350
G1 Z0.180 F900
G1 X150.890 Y116.073 F3600
G1 E0.0000 F6000
G92 E0.0000
G1 X152.492 Y116.153 E0.0399 F960
G1 X152.580 Y116.159 E0.0421
G1 X154.176 Y116.319 E0.0820
G1 X154.264 Y116.330 E0.0842
G1 X155.850 Y116.569 E0.1241
G1 X155.937 Y116.584 E0.1263
G1 X157.509 Y116.902 E0.1662
G1 X157.595 Y116.922 E0.1684
G1 X159.150 Y117.318 E0.2084
G1 X159.234 Y117.341 E0.2105
G1 X160.767 Y117.814 E0.2505
G1 X160.851 Y117.842 E0.2526
G1 X162.358 Y118.391 E0.2926
G1 X162.440 Y118.423 E0.2948
G1 X163.919 Y119.046 E0.3347
G1 X163.999 Y119.082 E0.3369
G1 X165.444 Y119.779 E0.3768
G1 X165.522 Y119.819 E0.3790
G1 X166.931 Y120.586 E0.4189
G1 X167.008 Y120.630 E0.4211
G1 X168.377 Y121.467 E0.4610
G1 X168.450 Y121.514 E0.4632
G1 X169.776 Y122.418 E0.5031
G1 X169.847 Y122.469 E0.5053
G1 X171.126 Y123.438 E0.5452
G1 X171.195 Y123.493 E0.5474
G1 X172.424 Y124.524 E0.5873
G1 X172.490 Y124.582 E0.5895
G1 X173.666 Y125.674 E0.6294
G1 X173.729 Y125.735 E0.6316
G1 X174.849 Y126.883 E0.6715
G1 X174.909 Y126.948 E0.6737
G1 X175.971 Y128.151 E0.7137
G1 X176.027 Y128.218 E0.7158
G1 X177.027 Y129.472 E0.7558
G1 X177.080 Y129.543 E0.7580
G1 X178.017 Y130.845 E0.7979
G1 X178.066 Y130.918 E0.8001
G1 X178.937 Y132.266 E0.8400
G1 X178.983 Y132.341 E0.8422
G1 X179.785 Y133.730 E0.8821
G1 X179.827 Y133.807 E0.8843
G1 X180.559 Y135.235 E0.9242
G1 X180.597 Y135.314 E0.9264
G1 X181.257 Y136.776 E0.9663
G1 X181.291 Y136.857 E0.9685
G1 X181.877 Y138.351 E1.0084
G1 X181.907 Y138.434 E1.0106
G1 X182.418 Y139.954 E1.0505
G1 X182.444 Y140.038 E1.0527
G1 X182.879 Y141.583 E1.0926
G1 X182.900 Y141.668 E1.0948
G1 X183.257 Y143.232 E1.1347
G1 X183.275 Y143.318 E1.1369
G1 X183.553 Y144.898 E1.1768
G1 X183.566 Y144.985 E1.1790
G1 X183.766 Y146.577 E1.2190
G1 X183.775 Y146.664 E1.2211
G1 X183.895 Y148.264 E1.2611
G1 X183.899 Y148.352 E1.2633
G1 X183.939 Y149.956 E1.3032
G1 X183.939 Y150.044 E1.3054
G1 X183.899 Y151.648 E1.3453
G1 X183.895 Y151.736 E1.3475
G1 X183.775 Y153.335 E1.3874
G1 X183.766 Y153.423 E1.3896
G1 X183.566 Y155.015 E1.4295
G1 X183.553 Y155.102 E1.4317
G1 X183.275 Y156.682 E1.4716
G1 X183.257 Y156.768 E1.4738
G1 X182.900 Y158.332 E1.5137
G1 X182.879 Y158.417 E1.5159
G1 X182.444 Y159.962 E1.5558
G1 X182.418 Y160.046 E1.5580
G1 X181.907 Y161.567 E1.5979
G1 X181.877 Y161.649 E1.6001
G1 X181.291 Y163.143 E1.6400
G1 X181.257 Y163.224 E1.6422
G1 X180.597 Y164.686 E1.6821
G1 X180.559 Y164.765 E1.6843
G1 X179.827 Y166.193 E1.7243
G1 X179.785 Y166.270 E1.7264
G1 X178.983 Y167.659 E1.7664
G1 X178.937 Y167.734 E1.7686
G1 X178.066 Y169.082 E1.8085
G1 X178.017 Y169.155 E1.8107
G1 X177.080 Y170.457 E1.8506
G1 X177.027 Y170.528 E1.8528
G1 X176.027 Y171.782 E1.8927
G1 X175.971 Y171.849 E1.8949
G1 X174.909 Y173.052 E1.9348
G1 X174.849 Y173.117 E1.9370
G1 X173.729 Y174.265 E1.9769
G1 X173.666 Y174.326 E1.9791
G1 X172.490 Y175.418 E2.0190
G1 X172.424 Y175.476 E2.0212
G1 X171.195 Y176.507 E2.0611
G1 X171.126 Y176.562 E2.0633
G1 X169.847 Y177.531 E2.1032
G1 X169.776 Y177.582 E2.1054
G1 X168.450 Y178.486 E2.1453
G1 X168.377 Y178.533 E2.1475
G1 X167.007 Y179.370 E2.1875
G1 X166.931 Y179.414 E2.1896
G1 X165.522 Y180.181 E2.2296
G1 X165.444 Y180.221 E2.2317
G1 X163.999 Y180.917 E2.2717
G1 X163.919 Y180.954 E2.2739
G1 X162.440 Y181.577 E2.3138
G1 X162.358 Y181.609 E2.3160
G1 X160.851 Y182.158 E2.3559
G1 X160.767 Y182.186 E2.3581
G1 X159.234 Y182.659 E2.3980
G1 X159.150 Y182.682 E2.4002
G1 X157.595 Y183.078 E2.4401
G1 X157.509 Y183.098 E2.4423
G1 X155.937 Y183.416 E2.4822
G1 X155.850 Y183.431 E2.4844
G1 X154.264 Y183.670 E2.5243
G1 X154.176 Y183.681 E2.5265
G1 X152.580 Y183.841 E2.5664
G1 X152.492 Y183.847 E2.5686
G1 X150.890 Y183.927 E2.6085
G1 X150.802 Y183.930 E2.6107
G1 X149.198 Y183.930 E2.6506
G1 X149.110 Y183.927 E2.6528
G1 X147.508 Y183.847 E2.6927
G1 X147.420 Y183.841 E2.6949
G1 X145.823 Y183.681 E2.7349
G1 X145.736 Y183.670 E2.7370
G1 X144.150 Y183.431 E2.7770
G1 X144.063 Y183.416 E2.7792
G1 X142.491 Y183.098 E2.8191
G1 X142.405 Y183.078 E2.8213
G1 X140.850 Y182.682 E2.8612
G1 X140.766 Y182.659 E2.8634
G1 X139.233 Y182.186 E2.9033
G1 X139.149 Y182.158 E2.9055
G1 X137.642 Y181.609 E2.9454
G1 X137.560 Y181.577 E2.9476
G1 X136.081 Y180.954 E2.9875
G1 X136.001 Y180.918 E2.9897
G1 X134.556 Y180.221 E3.0296
G1 X134.478 Y180.181 E3.0318
G1 X133.069 Y179.414 E3.0717
G1 X132.992 Y179.370 E3.0739
G1 X131.623 Y178.533 E3.1138
G1 X131.550 Y178.486 E3.1160
G1 X130.224 Y177.582 E3.1559
G1 X130.153 Y177.531 E3.1581
G1 X128.874 Y176.562 E3.1980
G1 X128.805 Y176.507 E3.2002
G1 X127.576 Y175.476 E3.2402
G1 X127.510 Y175.418 E3.2423
G1 X126.334 Y174.326 E3.2823
G1 X126.271 Y174.265 E3.2845
G1 X125.151 Y173.117 E3.3244
G1 X125.091 Y173.052 E3.3266
G1 X124.029 Y171.849 E3.3665
G1 X123.973 Y171.782 E3.3687
G1 X122.973 Y170.528 E3.4086
G1 X122.920 Y170.457 E3.4108
G1 X121.983 Y169.155 E3.4507
G1 X121.934 Y169.082 E3.4529
G1 X121.063 Y167.734 E3.4928
G1 X121.017 Y167.659 E3.4950
G1 X120.215 Y166.270 E3.5349
G1 X120.173 Y166.193 E3.5371
G1 X119.441 Y164.765 E3.5770
G1 X119.403 Y164.686 E3.5792
G1 X118.743 Y163.224 E3.6191
G1 X118.709 Y163.143 E3.6213
G1 X118.123 Y161.649 E3.6612
G1 X118.093 Y161.567 E3.6634
G1 X117.582 Y160.046 E3.7034
G1 X117.556 Y159.962 E3.7055
G1 X117.121 Y158.417 E3.7455
G1 X117.100 Y158.332 E3.7476
G1 X116.743 Y156.768 E3.7876
G1 X116.725 Y156.682 E3.7898
G1 X116.447 Y155.102 E3.8297
G1 X116.434 Y155.015 E3.8319
G1 X116.234 Y153.423 E3.8718
G1 X116.225 Y153.335 E3.8740
G1 X116.105 Y151.736 E3.9139
G1 X116.101 Y151.648 E3.9161
G1 X116.061 Y150.044 E3.9560
G1 X116.061 Y149.956 E3.9582
G1 X116.101 Y148.352 E3.9981
G1 X116.105 Y148.264 E4.0003
G1 X116.225 Y146.665 E4.0402
G1 X116.234 Y146.577 E4.0424
G1 X116.434 Y144.985 E4.0823
G1 X116.447 Y144.898 E4.0845
G1 X116.725 Y143.318 E4.1244
G1 X116.743 Y143.232 E4.1266
G1 X117.100 Y141.668 E4.1665
G1 X117.121 Y141.583 E4.1687
G1 X117.556 Y140.038 E4.2087
G1 X117.582 Y139.954 E4.2108
G1 X118.093 Y138.433 E4.2508
G1 X118.123 Y138.351 E4.2529
G1 X118.709 Y136.857 E4.2929
G1 X118.743 Y136.776 E4.2951
G1 X119.403 Y135.314 E4.3350
G1 X119.441 Y135.235 E4.3372
G1 X120.173 Y133.807 E4.3771
G1 X120.215 Y133.730 E4.3793
G1 X121.017 Y132.341 E4.4192
G1 X121.063 Y132.266 E4.4214
G1 X121.934 Y130.918 E4.4613
G1 X121.983 Y130.845 E4.4635
G1 X122.920 Y129.543 E4.5034
G1 X122.973 Y129.472 E4.5056
