; G-Code generated by Simplify3D(R) Version 4.1.2
; Dec 22, 2021 at 7:46:24 PM
; Settings Summary
;   processName,Process1
;   applyToModels,On_Air_Wallmount
;   profileName,A10-04-25 Tevo Tornado
;   profileVersion,2020-12-21 16:13:06
;   baseProfile,Creality CR-10(2)
;   printMaterial,PLA
;   printQuality,Medium
;   printExtruders,
;   extruderName,Primary Extruder
;   extruderToolheadNumber,0
;   extruderDiameter,0.4
;   extruderAutoWidth,0
;   extruderWidth,0.35
;   extrusionMultiplier,0.95
;   extruderUseRetract,1
;   extruderRetractionDistance,4
;   extruderExtraRestartDistance,0
;   extruderRetractionZLift,0.1
;   extruderRetractionSpeed,6000
;   extruderUseCoasting,1
;   extruderCoastingDistance,0.4
;   extruderUseWipe,1
;   extruderWipeDistance,5
;   primaryExtruder,0
;   layerHeight,0.15
;   topSolidLayers,5
;   bottomSolidLayers,4
;   perimeterOutlines,3
;   printPerimetersInsideOut,0
;   startPointOption,1
;   startPointOriginX,0
;   startPointOriginY,300
;   sequentialIslands,0
;   spiralVaseMode,0
;   firstLayerHeightPercentage,120
;   firstLayerWidthPercentage,100
;   firstLayerUnderspeed,0.4
;   useRaft,0
;   raftExtruder,0
;   raftTopLayers,3
;   raftBaseLayers,2
;   raftOffset,3
;   raftSeparationDistance,0.14
;   raftTopInfill,100
;   aboveRaftSpeedMultiplier,0.3
;   useSkirt,1
;   skirtExtruder,0
;   skirtLayers,1
;   skirtOutlines,2
;   skirtOffset,3
;   usePrimePillar,0
;   primePillarExtruder,999
;   primePillarWidth,12
;   primePillarLocation,7
;   primePillarSpeedMultiplier,1
;   useOozeShield,0
;   oozeShieldExtruder,999
;   oozeShieldOffset,2
;   oozeShieldOutlines,1
;   oozeShieldSidewallShape,1
;   oozeShieldSidewallAngle,30
;   oozeShieldSpeedMultiplier,1
;   infillExtruder,0
;   internalInfillPattern,Rectilinear
;   externalInfillPattern,Rectilinear
;   infillPercentage,25
;   outlineOverlapPercentage,15
;   infillExtrusionWidthPercentage,100
;   minInfillLength,5
;   infillLayerInterval,1
;   internalInfillAngles,45,-45
;   overlapInternalInfillAngles,0
;   externalInfillAngles,45,-45
;   generateSupport,0
;   supportExtruder,0
;   supportInfillPercentage,30
;   supportExtraInflation,0
;   supportBaseLayers,0
;   denseSupportExtruder,0
;   denseSupportLayers,0
;   denseSupportInfillPercentage,70
;   supportLayerInterval,1
;   supportHorizontalPartOffset,0.4
;   supportUpperSeparationLayers,1
;   supportLowerSeparationLayers,1
;   supportType,0
;   supportGridSpacing,4.5
;   maxOverhangAngle,45
;   supportAngles,0
;   temperatureName,Primary Extruder,Heated Bed
;   temperatureNumber,0,0
;   temperatureSetpointCount,2,2
;   temperatureSetpointLayers,1,2,1,2
;   temperatureSetpointTemperatures,215,210,55,50
;   temperatureStabilizeAtStartup,1,1
;   temperatureHeatedBed,0,1
;   fanLayers,1,2
;   fanSpeeds,0,100
;   blipFanToFullPower,0
;   adjustSpeedForCooling,1
;   minSpeedLayerTime,15
;   minCoolingSpeedSlowdown,20
;   increaseFanForCooling,1
;   minFanLayerTime,25
;   maxCoolingFanSpeed,100
;   increaseFanForBridging,1
;   bridgingFanSpeed,100
;   use5D,1
;   relativeEdistances,0
;   allowEaxisZeroing,1
;   independentExtruderAxes,0
;   includeM10123,0
;   stickySupport,1
;   applyToolheadOffsets,0
;   gcodeXoffset,0
;   gcodeYoffset,0
;   gcodeZoffset,0
;   overrideMachineDefinition,1
;   machineTypeOverride,0
;   strokeXoverride,300
;   strokeYoverride,300
;   strokeZoverride,400
;   originOffsetXoverride,0
;   originOffsetYoverride,0
;   originOffsetZoverride,0
;   homeXdirOverride,-1
;   homeYdirOverride,-1
;   homeZdirOverride,-1
;   flipXoverride,1
;   flipYoverride,-1
;   flipZoverride,1
;   toolheadOffsets,0,0|0,0|0,0|0,0|0,0|0,0
;   overrideFirmwareConfiguration,1
;   firmwareTypeOverride,RepRap (Marlin/Repetier/Sprinter)
;   GPXconfigOverride,r2
;   baudRateOverride,250000
;   overridePrinterModels,1
;   printerModelsOverride
;   startingGcode,;,; -]H.P.B[- MarshMalloW  ,; $VER: StartScript 1.02 (26.12.2019) MarshMalloW,;,; Begin Startcode,;,M117 *Preheat*     	; Preheat,;extruder0_temperature,M104 S[extruder0_temperature]  ,M109 S[extruder0_temperature] ,M109 R[extruder0_temperature] ,;,M117 *Auto-leveling*     	; Auto-leveling,M107                   	; Turn layer fan off,G21                    	; Set to metric [change to G20 if you want Imperial],G90                    	; Force coordinates to be absolute relative to the origin,G28                    	; Home X/Y/Z axis,G29                    	; Auto-leveling (BL-Touch),;,M117 *Start Clean*     	; Indicate nozzle clean in progress on LCD,G92 E0                 	; Set Extruder to 0 ,G1 X0 Y0 F2000         	; Move X and Y to 0 with speed 2000 (mm/min),G1 Z0.1 F1000          	; Move Z to   0.1 with speed 1000 (mm/min),G1 X8.0 F2000          	; Move X to   8.0 with speed 2000 (mm/min),G1 Y60.0 E4.0 F1000.0  	; Move Y to  60 and Extruder with 4.0 with speed 1000 (mm/min),G1 Y100.0 E8.5 F1000.0 	; Move Y to 100 and Extruder with 8.5 with speed 1000 (mm/min),G92 E0                 	; Set extruder to 0,G1 X16.0 F3000         	; Move X to 16.0 with speed 3000 (mm/min),G1 Y60.0 F3000         	; Move Y to 60.0 with speed 3000 (mm/min),M117 *End Clean*       	; Indicate nozzle clean in progress on LCD,G1 Z5 F3000            	; Move Z to  5.0 with speed 3000 (mm/min),G1 X20.0 F3000         	; Move X to 20.0 with speed 3000 (mm/min),G1 Y20.0 F3000         	; Move Y to 20.0 with speed 3000 (mm/min),; ,M117 *Printing...*     	; Start printing msg on LCD,;,; End Startcode,;,; Begin printing with sliced GCode after here,;
;   layerChangeGcode,
;   retractionGcode,
;   toolChangeGcode,
;   endingGcode,;,; init 181010,;,;M107 			; Fan off,;G1 E-1 F300 			; Retract the filament a bit before lifting the nozzle,;M104 S0 			; Turn off extruder,;M140 S0 			; Turn off bed,;G91			; Relative positioning,;G28 X0 Y0 			; Move X/Y to min endstops so the head is out of teh way,;M84 			; Disable motors,;G90 			; Absolute positioning,;M117 Print ready...,,;,; // From Cura 181010,; // End_gcode,G92 E0			; Zero the extruded length,;G1 E-30 F300		; Retract E -30,M106 S0			; Turn off cooling fan,M104 S0			; Turn off temperature,M140 S0		     	; Turn off bed,G91			; Relative positioning,G1 E-1 F300			; Retract the filament a bit before lifting the nozzle to release some of the pressure,G1 Z+20 E-5 X-20 Y-20 F7200	; Move Z up a bit and retract filament even more,G1 X0 Y150 F10000		; Move right min,M107			; Turn off layer fan,M84			; Disable motors,G90			; Absolute positioning,M117 *The-End* 		; End msg,;,
;   exportFileFormat,gcode
;   celebration,0
;   celebrationSong,Star Wars
;   postProcessing,|{REPLACE "; layer " "M117 INDICATOR-Layer"}|{REPLACE ", Z = " "\n; Z="}
;   defaultSpeed,2400
;   outlineUnderspeed,0.6
;   solidInfillUnderspeed,0.8
;   supportUnderspeed,0.8
;   rapidXYspeed,3600
;   rapidZspeed,900
;   minBridgingArea,50
;   bridgingExtraInflation,0.2
;   bridgingExtrusionMultiplier,1
;   bridgingSpeedMultiplier,0.6
;   useFixedBridgingAngle,0
;   fixedBridgingAngle,0
;   applyBridgingToPerimeters,0
;   filamentDiameters,1.75|1.75|1.75|1.75|1.75|1.75
;   filamentPricesPerKg,30|46|46|46|46|46
;   filamentDensities,1.25|1.25|1.25|1.25|1.25|1.25
;   useMinPrintHeight,0
;   minPrintHeight,0
;   useMaxPrintHeight,0
;   maxPrintHeight,50
;   useDiaphragm,0
;   diaphragmLayerInterval,20
;   robustSlicing,1
;   mergeAllIntoSolid,0
;   onlyRetractWhenCrossingOutline,1
;   retractBetweenLayers,1
;   useRetractionMinTravel,0
;   retractionMinTravel,3
;   retractWhileWiping,1
;   onlyWipeOutlines,1
;   avoidCrossingOutline,1
;   maxMovementDetourFactor,3
;   toolChangeRetractionDistance,12
;   toolChangeExtraRestartDistance,-0.5
;   toolChangeRetractionSpeed,600
;   externalThinWallType,1
;   internalThinWallType,1
;   thinWallAllowedOverlapPercentage,20
;   singleExtrusionMinLength,1
;   singleExtrusionMinPrintingWidthPercentage,50
;   singleExtrusionMaxPrintingWidthPercentage,200
;   singleExtrusionEndpointExtension,0.2
;   horizontalSizeCompensation,0
G90
M82
M106 S0
M140 S55
M190 S55
;
; -]H.P.B[- MarshMalloW  
; $VER: StartScript 1.02 (26.12.2019) MarshMalloW
;
; Begin Startcode
;
M117 *Preheat*     	; Preheat
;extruder0_temperature
M104 S215  
M109 S215 
M109 R215 
;
M117 *Auto-leveling*     	; Auto-leveling
M107                   	; Turn layer fan off
G21                    	; Set to metric [change to G20 if you want Imperial]
G90                    	; Force coordinates to be absolute relative to the origin
G28                    	; Home X/Y/Z axis
G29                    	; Auto-leveling (BL-Touch)
;
M117 *Start Clean*     	; Indicate nozzle clean in progress on LCD
G92 E0                 	; Set Extruder to 0 
G1 X0 Y0 F2000         	; Move X and Y to 0 with speed 2000 (mm/min)
G1 Z0.1 F1000          	; Move Z to   0.1 with speed 1000 (mm/min)
G1 X8.0 F2000          	; Move X to   8.0 with speed 2000 (mm/min)
G1 Y60.0 E4.0 F1000.0  	; Move Y to  60 and Extruder with 4.0 with speed 1000 (mm/min)
G1 Y100.0 E8.5 F1000.0 	; Move Y to 100 and Extruder with 8.5 with speed 1000 (mm/min)
G92 E0                 	; Set extruder to 0
G1 X16.0 F3000         	; Move X to 16.0 with speed 3000 (mm/min)
G1 Y60.0 F3000         	; Move Y to 60.0 with speed 3000 (mm/min)
M117 *End Clean*       	; Indicate nozzle clean in progress on LCD
G1 Z5 F3000            	; Move Z to  5.0 with speed 3000 (mm/min)
G1 X20.0 F3000         	; Move X to 20.0 with speed 3000 (mm/min)
G1 Y20.0 F3000         	; Move Y to 20.0 with speed 3000 (mm/min)
; 
M117 *Printing...*     	; Start printing msg on LCD
;
; End Startcode
;
; Begin printing with sliced GCode after here
;
; process Process1
M117 INDICATOR-Layer1
; Z=0.180
T0
G92 E0.0000
G1 E-4.0000 F6000
; feature skirt
; tool H0.180 W0.350
G1 Z0.180 F900
G1 X83.246 Y49.834 F3600
G1 E0.0000 F6000
G92 E0.0000
G1 X83.246 Y50.022 E0.0047 F960
G1 X122.197 Y49.994 E0.9739
G1 X122.197 Y49.869 E0.9770
G1 X124.411 Y47.780 E1.0527
G1 X126.312 Y47.892 E1.1001
G1 X126.624 Y47.939 E1.1080
G1 X127.367 Y48.119 E1.1270
G1 X127.663 Y48.219 E1.1348
G1 X128.154 Y48.436 E1.1481
G1 X128.424 Y48.584 E1.1558
G1 X129.097 Y49.034 E1.1759
G1 X129.402 Y49.292 E1.1859
G1 X129.985 Y49.912 E1.2071
G1 X130.219 Y50.223 E1.2167
G1 X130.631 Y50.918 E1.2368
G1 X130.758 Y51.178 E1.2440
G1 X130.949 Y51.671 E1.2572
G1 X131.029 Y51.939 E1.2642
G1 X131.187 Y52.673 E1.2828
G1 X131.224 Y52.950 E1.2898
G1 X131.246 Y53.374 E1.3003
G1 X131.249 Y53.466 E1.3026
G1 X131.270 Y83.486 E2.0496
G1 X131.261 Y83.672 E2.0542
G1 X131.181 Y84.425 E2.0731
G1 X131.103 Y84.792 E2.0824
G1 X130.837 Y85.601 E2.1036
G1 X130.680 Y85.947 E2.1131
G1 X130.274 Y86.635 E2.1329
G1 X130.107 Y86.872 E2.1402
G1 X129.765 Y87.280 E2.1534
G1 X129.555 Y87.492 E2.1608
G1 X128.979 Y87.981 E2.1796
G1 X128.734 Y88.156 E2.1871
G1 X128.274 Y88.427 E2.2004
G1 X127.995 Y88.560 E2.2081
G1 X127.231 Y88.846 E2.2284
G1 X126.823 Y88.945 E2.2388
G1 X124.596 Y89.214 E2.2947
G1 X122.223 Y87.112 E2.3736
G1 X122.223 Y86.924 E2.3782
G1 X83.273 Y86.952 E3.3474
G1 X83.273 Y87.140 E3.3521
G1 X80.903 Y89.245 E3.4310
G1 X78.675 Y88.979 E3.4868
G1 X78.268 Y88.881 E3.4973
G1 X77.455 Y88.578 E3.5188
G1 X77.088 Y88.391 E3.5291
G1 X76.372 Y87.911 E3.5505
G1 X76.067 Y87.653 E3.5605
G1 X75.484 Y87.033 E3.5816
G1 X75.251 Y86.723 E3.5913
G1 X74.839 Y86.029 E3.6114
G1 X74.713 Y85.771 E3.6185
G1 X74.541 Y85.329 E3.6303
G1 X74.482 Y85.151 E3.6350
G1 X74.358 Y84.695 E3.6468
G1 X74.306 Y84.419 E3.6537
G1 X74.230 Y83.712 E3.6714
G1 X74.220 Y83.526 E3.6761
G1 X74.199 Y53.460 E4.4242
G1 X74.209 Y53.274 E4.4288
G1 X74.288 Y52.521 E4.4477
G1 X74.367 Y52.154 E4.4570
G1 X74.633 Y51.344 E4.4782
G1 X74.790 Y50.997 E4.4877
G1 X75.225 Y50.261 E4.5090
G1 X75.458 Y49.951 E4.5186
G1 X76.007 Y49.366 E4.5386
G1 X76.230 Y49.165 E4.5461
G1 X76.659 Y48.841 E4.5594
G1 X76.917 Y48.679 E4.5670
G1 X77.591 Y48.334 E4.5859
G1 X77.881 Y48.216 E4.5936
G1 X78.400 Y48.057 E4.6072
G1 X78.706 Y47.992 E4.6149
G1 X80.875 Y47.732 E4.6693
G1 X83.246 Y49.834 E4.7481
G92 E0.0000
G1 E-4.0000 F6000
G1 Z0.280 F900
G1 X83.197 Y55.500 F3600
G1 X81.550 Y55.501
G1 X81.557 Y64.663
G1 X83.117 Y64.662
G1 X83.051 Y72.312
G1 X81.562 Y72.313
G1 X81.569 Y81.474
G1 X82.971 Y81.473
G1 X82.955 Y83.252
G1 X79.570 Y83.254
G1 X79.572 Y85.372
G1 X82.923 Y86.983
G1 Z0.180 F900
G1 E0.0000 F6000
G92 E0.0000
G1 X80.788 Y88.879 E0.0710 F960
G1 X78.737 Y88.634 E0.1224
G1 X78.370 Y88.546 E0.1318
G1 X77.596 Y88.257 E0.1524
G1 X77.266 Y88.088 E0.1616
G1 X76.583 Y87.631 E0.1821
G1 X76.309 Y87.399 E0.1910
G1 X75.752 Y86.808 E0.2112
G1 X75.542 Y86.528 E0.2199
G1 X75.147 Y85.863 E0.2392
G1 X75.034 Y85.631 E0.2456
G1 X74.870 Y85.211 E0.2568
G1 X74.817 Y85.050 E0.2610
G1 X74.699 Y84.616 E0.2722
G1 X74.652 Y84.368 E0.2785
G1 X74.579 Y83.684 E0.2956
G1 X74.570 Y83.517 E0.2998
G1 X74.549 Y53.469 E1.0475
G1 X74.558 Y53.302 E1.0516
G1 X74.634 Y52.576 E1.0698
G1 X74.705 Y52.245 E1.0782
G1 X74.959 Y51.471 E1.0985
G1 X75.101 Y51.158 E1.1070
G1 X75.516 Y50.456 E1.1273
G1 X75.726 Y50.176 E1.1360
G1 X76.252 Y49.616 E1.1551
G1 X76.453 Y49.435 E1.1619
G1 X76.858 Y49.130 E1.1745
G1 X77.090 Y48.984 E1.1813
G1 X77.737 Y48.652 E1.1994
G1 X77.998 Y48.546 E1.2064
G1 X78.488 Y48.396 E1.2192
G1 X78.763 Y48.338 E1.2262
G1 X80.761 Y48.098 E1.2762
G1 X82.896 Y49.992 E1.3472
G1 X82.897 Y50.372 E1.3567
G1 X122.547 Y50.344 E2.3433
G1 X122.547 Y50.019 E2.3514
G1 X124.541 Y48.138 E2.4196
G1 X126.276 Y48.240 E2.4628
G1 X126.557 Y48.282 E2.4699
G1 X127.269 Y48.455 E2.4882
G1 X127.536 Y48.545 E2.4952
G1 X127.999 Y48.750 E2.5078
G1 X128.242 Y48.883 E2.5147
G1 X128.886 Y49.314 E2.5339
G1 X129.160 Y49.546 E2.5429
G1 X129.717 Y50.138 E2.5631
G1 X129.928 Y50.418 E2.5718
G1 X130.322 Y51.084 E2.5911
G1 X130.437 Y51.319 E2.5976
G1 X130.618 Y51.784 E2.6100
G1 X130.690 Y52.027 E2.6163
G1 X130.842 Y52.733 E2.6343
G1 X130.875 Y52.982 E2.6405
G1 X130.897 Y53.388 E2.6506
G1 X130.899 Y53.471 E2.6527
G1 X130.920 Y83.477 E3.3993
G1 X130.911 Y83.644 E3.4035
G1 X130.835 Y84.370 E3.4217
G1 X130.764 Y84.700 E3.4301
G1 X130.510 Y85.474 E3.4503
G1 X130.369 Y85.785 E3.4588
G1 X129.980 Y86.445 E3.4779
G1 X129.829 Y86.658 E3.4844
G1 X129.506 Y87.044 E3.4969
G1 X129.317 Y87.235 E3.5036
G1 X128.764 Y87.704 E3.5216
G1 X128.543 Y87.862 E3.5284
G1 X128.109 Y88.118 E3.5409
G1 X127.858 Y88.238 E3.5479
G1 X127.128 Y88.511 E3.5673
G1 X126.761 Y88.600 E3.5767
G1 X124.710 Y88.848 E3.6281
G1 X122.573 Y86.955 E3.6991
G1 X122.572 Y86.574 E3.7086
G1 X82.922 Y86.602 E4.6952
G1 X82.923 Y86.983 E4.7047
G92 E0.0000
G1 E-4.0000 F6000
; feature outer perimeter
G1 Z0.280 F900
G1 X79.572 Y85.372 F3600
G1 X79.570 Y83.254
G1 X87.869 Y83.248
G1 X90.226 Y81.468
G1 X81.569 Y81.474
G1 X81.562 Y72.313
G1 X102.371 Y72.298
G1 X112.511 Y64.641
G1 X123.907 Y64.633
G1 X123.901 Y56.041
G1 X127.537 Y53.295
G1 Z0.180 F900
G1 E0.0000 F6000
G92 E0.0000
G1 X127.549 Y53.520 E0.0056 F576
G1 X127.570 Y83.390 E0.7489
G1 X127.558 Y83.615 E0.7545
G1 X127.524 Y83.833 E0.7599
G1 X127.468 Y84.039 E0.7653
G1 X127.387 Y84.248 E0.7708
G1 X127.288 Y84.440 E0.7762
G1 X127.171 Y84.615 E0.7814
G1 X127.031 Y84.782 E0.7869
G1 X126.881 Y84.924 E0.7920
G1 X126.714 Y85.051 E0.7972
G1 X126.535 Y85.157 E0.8024
G1 X126.347 Y85.240 E0.8075
G1 X126.151 Y85.301 E0.8126
G1 X125.922 Y85.342 E0.8184
G1 X125.920 Y83.221 E0.8712
G1 X79.570 Y83.254 E2.0245
G1 X79.572 Y85.375 E2.0773
G1 X79.342 Y85.334 E2.0831
G1 X79.151 Y85.275 E2.0881
G1 X78.957 Y85.190 E2.0933
G1 X78.778 Y85.085 E2.0985
G1 X78.611 Y84.959 E2.1037
G1 X78.458 Y84.813 E2.1090
G1 X78.324 Y84.654 E2.1142
G1 X78.204 Y84.475 E2.1195
G1 X78.104 Y84.283 E2.1249
G1 X78.025 Y84.080 E2.1303
G1 X77.967 Y83.868 E2.1358
G1 X77.932 Y83.650 E2.1413
G1 X77.920 Y83.426 E2.1469
G1 X77.899 Y53.555 E2.8901
G1 X77.911 Y53.330 E2.8957
G1 X77.945 Y53.113 E2.9012
G1 X78.001 Y52.906 E2.9065
G1 X78.082 Y52.698 E2.9121
G1 X78.182 Y52.506 E2.9175
G1 X78.301 Y52.327 E2.9228
G1 X78.438 Y52.163 E2.9281
G1 X78.588 Y52.021 E2.9333
G1 X78.759 Y51.892 E2.9386
G1 X78.934 Y51.789 E2.9437
G1 X79.122 Y51.705 E2.9488
G1 X79.323 Y51.644 E2.9540
G1 X79.548 Y51.603 E2.9597
G1 X79.549 Y53.724 E3.0125
