; G-Code generated by Simplify3D(R) Version 4.1.2
; Dec 22, 2021 at 7:37:13 PM
; Settings Summary
;   processName,Process1
;   applyToModels,On_Air_Sign
;   profileName,A10-04-25s Tevo Tornado
;   profileVersion,2020-12-21 17:11:18
;   baseProfile,Creality CR-10(2)
;   printMaterial,PLA
;   printQuality,Medium
;   printExtruders,
;   extruderName,Primary Extruder
;   extruderToolheadNumber,0
;   extruderDiameter,0.4
;   extruderAutoWidth,0
;   extruderWidth,0.35
;   extrusionMultiplier,0.95
;   extruderUseRetract,1
;   extruderRetractionDistance,4
;   extruderExtraRestartDistance,0
;   extruderRetractionZLift,0.1
;   extruderRetractionSpeed,6000
;   extruderUseCoasting,1
;   extruderCoastingDistance,0.4
;   extruderUseWipe,1
;   extruderWipeDistance,5
;   primaryExtruder,0
;   layerHeight,0.15
;   topSolidLayers,5
;   bottomSolidLayers,4
;   perimeterOutlines,3
;   printPerimetersInsideOut,0
;   startPointOption,1
;   startPointOriginX,0
;   startPointOriginY,300
;   sequentialIslands,0
;   spiralVaseMode,0
;   firstLayerHeightPercentage,120
;   firstLayerWidthPercentage,100
;   firstLayerUnderspeed,0.4
;   useRaft,0
;   raftExtruder,0
;   raftTopLayers,3
;   raftBaseLayers,2
;   raftOffset,3
;   raftSeparationDistance,0.14
;   raftTopInfill,100
;   aboveRaftSpeedMultiplier,0.3
;   useSkirt,1
;   skirtExtruder,0
;   skirtLayers,1
;   skirtOutlines,2
;   skirtOffset,3
;   usePrimePillar,0
;   primePillarExtruder,999
;   primePillarWidth,12
;   primePillarLocation,7
;   primePillarSpeedMultiplier,1
;   useOozeShield,0
;   oozeShieldExtruder,999
;   oozeShieldOffset,2
;   oozeShieldOutlines,1
;   oozeShieldSidewallShape,1
;   oozeShieldSidewallAngle,30
;   oozeShieldSpeedMultiplier,1
;   infillExtruder,0
;   internalInfillPattern,Rectilinear
;   externalInfillPattern,Rectilinear
;   infillPercentage,25
;   outlineOverlapPercentage,15
;   infillExtrusionWidthPercentage,100
;   minInfillLength,5
;   infillLayerInterval,1
;   internalInfillAngles,45,-45
;   overlapInternalInfillAngles,0
;   externalInfillAngles,45,-45
;   generateSupport,1
;   supportExtruder,0
;   supportInfillPercentage,30
;   supportExtraInflation,0
;   supportBaseLayers,0
;   denseSupportExtruder,0
;   denseSupportLayers,0
;   denseSupportInfillPercentage,70
;   supportLayerInterval,1
;   supportHorizontalPartOffset,0.4
;   supportUpperSeparationLayers,1
;   supportLowerSeparationLayers,1
;   supportType,0
;   supportGridSpacing,4.5
;   maxOverhangAngle,45
;   supportAngles,0
;   temperatureName,Primary Extruder,Heated Bed
;   temperatureNumber,0,0
;   temperatureSetpointCount,2,2
;   temperatureSetpointLayers,1,2,1,2
;   temperatureSetpointTemperatures,215,210,55,50
;   temperatureStabilizeAtStartup,1,1
;   temperatureHeatedBed,0,1
;   fanLayers,1,2
;   fanSpeeds,0,100
;   blipFanToFullPower,0
;   adjustSpeedForCooling,1
;   minSpeedLayerTime,15
;   minCoolingSpeedSlowdown,20
;   increaseFanForCooling,1
;   minFanLayerTime,25
;   maxCoolingFanSpeed,100
;   increaseFanForBridging,1
;   bridgingFanSpeed,100
;   use5D,1
;   relativeEdistances,0
;   allowEaxisZeroing,1
;   independentExtruderAxes,0
;   includeM10123,0
;   stickySupport,1
;   applyToolheadOffsets,0
;   gcodeXoffset,0
;   gcodeYoffset,0
;   gcodeZoffset,0
;   overrideMachineDefinition,1
;   machineTypeOverride,0
;   strokeXoverride,300
;   strokeYoverride,300
;   strokeZoverride,400
;   originOffsetXoverride,0
;   originOffsetYoverride,0
;   originOffsetZoverride,0
;   homeXdirOverride,-1
;   homeYdirOverride,-1
;   homeZdirOverride,-1
;   flipXoverride,1
;   flipYoverride,-1
;   flipZoverride,1
;   toolheadOffsets,0,0|0,0|0,0|0,0|0,0|0,0
;   overrideFirmwareConfiguration,1
;   firmwareTypeOverride,RepRap (Marlin/Repetier/Sprinter)
;   GPXconfigOverride,r2
;   baudRateOverride,250000
;   overridePrinterModels,1
;   printerModelsOverride
;   startingGcode,;,; -]H.P.B[- MarshMalloW  ,; $VER: StartScript 1.02 (26.12.2019) MarshMalloW,;,; Begin Startcode,;,M117 *Preheat*     	; Preheat,;extruder0_temperature,M104 S[extruder0_temperature]  ,M109 S[extruder0_temperature] ,M109 R[extruder0_temperature] ,;,M117 *Auto-leveling*     	; Auto-leveling,M107                   	; Turn layer fan off,G21                    	; Set to metric [change to G20 if you want Imperial],G90                    	; Force coordinates to be absolute relative to the origin,G28                    	; Home X/Y/Z axis,G29                    	; Auto-leveling (BL-Touch),;,M117 *Start Clean*     	; Indicate nozzle clean in progress on LCD,G92 E0                 	; Set Extruder to 0 ,G1 X0 Y0 F2000         	; Move X and Y to 0 with speed 2000 (mm/min),G1 Z0.1 F1000          	; Move Z to   0.1 with speed 1000 (mm/min),G1 X8.0 F2000          	; Move X to   8.0 with speed 2000 (mm/min),G1 Y60.0 E4.0 F1000.0  	; Move Y to  60 and Extruder with 4.0 with speed 1000 (mm/min),G1 Y100.0 E8.5 F1000.0 	; Move Y to 100 and Extruder with 8.5 with speed 1000 (mm/min),G92 E0                 	; Set extruder to 0,G1 X16.0 F3000         	; Move X to 16.0 with speed 3000 (mm/min),G1 Y60.0 F3000         	; Move Y to 60.0 with speed 3000 (mm/min),M117 *End Clean*       	; Indicate nozzle clean in progress on LCD,G1 Z5 F3000            	; Move Z to  5.0 with speed 3000 (mm/min),G1 X20.0 F3000         	; Move X to 20.0 with speed 3000 (mm/min),G1 Y20.0 F3000         	; Move Y to 20.0 with speed 3000 (mm/min),; ,M117 *Printing...*     	; Start printing msg on LCD,;,; End Startcode,;,; Begin printing with sliced GCode after here,;
;   layerChangeGcode,
;   retractionGcode,
;   toolChangeGcode,
;   endingGcode,;,; init 181010,;,;M107 			; Fan off,;G1 E-1 F300 			; Retract the filament a bit before lifting the nozzle,;M104 S0 			; Turn off extruder,;M140 S0 			; Turn off bed,;G91			; Relative positioning,;G28 X0 Y0 			; Move X/Y to min endstops so the head is out of teh way,;M84 			; Disable motors,;G90 			; Absolute positioning,;M117 Print ready...,,;,; // From Cura 181010,; // End_gcode,G92 E0			; Zero the extruded length,;G1 E-30 F300		; Retract E -30,M106 S0			; Turn off cooling fan,M104 S0			; Turn off temperature,M140 S0		     	; Turn off bed,G91			; Relative positioning,G1 E-1 F300			; Retract the filament a bit before lifting the nozzle to release some of the pressure,G1 Z+20 E-5 X-20 Y-20 F7200	; Move Z up a bit and retract filament even more,G1 X0 Y150 F10000		; Move right min,M107			; Turn off layer fan,M84			; Disable motors,G90			; Absolute positioning,M117 *The-End* 		; End msg,;,
;   exportFileFormat,gcode
;   celebration,0
;   celebrationSong,Star Wars
;   postProcessing,|{REPLACE "; layer " "M117 INDICATOR-Layer"}|{REPLACE ", Z = " "\n; Z="}
;   defaultSpeed,2400
;   outlineUnderspeed,0.6
;   solidInfillUnderspeed,0.8
;   supportUnderspeed,0.8
;   rapidXYspeed,3600
;   rapidZspeed,900
;   minBridgingArea,50
;   bridgingExtraInflation,0.2
;   bridgingExtrusionMultiplier,1
;   bridgingSpeedMultiplier,0.6
;   useFixedBridgingAngle,0
;   fixedBridgingAngle,0
;   applyBridgingToPerimeters,0
;   filamentDiameters,1.75|1.75|1.75|1.75|1.75|1.75
;   filamentPricesPerKg,30|46|46|46|46|46
;   filamentDensities,1.25|1.25|1.25|1.25|1.25|1.25
;   useMinPrintHeight,0
;   minPrintHeight,0
;   useMaxPrintHeight,0
;   maxPrintHeight,50
;   useDiaphragm,0
;   diaphragmLayerInterval,20
;   robustSlicing,1
;   mergeAllIntoSolid,0
;   onlyRetractWhenCrossingOutline,1
;   retractBetweenLayers,1
;   useRetractionMinTravel,0
;   retractionMinTravel,3
;   retractWhileWiping,1
;   onlyWipeOutlines,1
;   avoidCrossingOutline,1
;   maxMovementDetourFactor,3
;   toolChangeRetractionDistance,12
;   toolChangeExtraRestartDistance,-0.5
;   toolChangeRetractionSpeed,600
;   externalThinWallType,1
;   internalThinWallType,1
;   thinWallAllowedOverlapPercentage,20
;   singleExtrusionMinLength,1
;   singleExtrusionMinPrintingWidthPercentage,50
;   singleExtrusionMaxPrintingWidthPercentage,200
;   singleExtrusionEndpointExtension,0.2
;   horizontalSizeCompensation,0
G90
M82
M106 S0
M140 S55
M190 S55
;
; -]H.P.B[- MarshMalloW  
; $VER: StartScript 1.02 (26.12.2019) MarshMalloW
;
; Begin Startcode
;
M117 *Preheat*     	; Preheat
;extruder0_temperature
M104 S215  
M109 S215 
M109 R215 
;
M117 *Auto-leveling*     	; Auto-leveling
M107                   	; Turn layer fan off
G21                    	; Set to metric [change to G20 if you want Imperial]
G90                    	; Force coordinates to be absolute relative to the origin
G28                    	; Home X/Y/Z axis
G29                    	; Auto-leveling (BL-Touch)
;
M117 *Start Clean*     	; Indicate nozzle clean in progress on LCD
G92 E0                 	; Set Extruder to 0 
G1 X0 Y0 F2000         	; Move X and Y to 0 with speed 2000 (mm/min)
G1 Z0.1 F1000          	; Move Z to   0.1 with speed 1000 (mm/min)
G1 X8.0 F2000          	; Move X to   8.0 with speed 2000 (mm/min)
G1 Y60.0 E4.0 F1000.0  	; Move Y to  60 and Extruder with 4.0 with speed 1000 (mm/min)
G1 Y100.0 E8.5 F1000.0 	; Move Y to 100 and Extruder with 8.5 with speed 1000 (mm/min)
G92 E0                 	; Set extruder to 0
G1 X16.0 F3000         	; Move X to 16.0 with speed 3000 (mm/min)
G1 Y60.0 F3000         	; Move Y to 60.0 with speed 3000 (mm/min)
M117 *End Clean*       	; Indicate nozzle clean in progress on LCD
G1 Z5 F3000            	; Move Z to  5.0 with speed 3000 (mm/min)
G1 X20.0 F3000         	; Move X to 20.0 with speed 3000 (mm/min)
G1 Y20.0 F3000         	; Move Y to 20.0 with speed 3000 (mm/min)
; 
M117 *Printing...*     	; Start printing msg on LCD
;
; End Startcode
;
; Begin printing with sliced GCode after here
;
; process Process1
M117 INDICATOR-Layer1
; Z=0.180
T0
G92 E0.0000
G1 E-4.0000 F6000
; feature skirt
; tool H0.180 W0.350
G1 Z0.180 F900
G1 X118.091 Y62.168 F3600
G1 E0.0000 F6000
G92 E0.0000
G1 X118.361 Y62.451 E0.0097 F960
G1 X118.837 Y63.076 E0.0293
G1 X118.995 Y63.324 E0.0366
G1 X119.235 Y63.781 E0.0494
G1 X119.349 Y64.051 E0.0567
G1 X119.594 Y64.798 E0.0763
G1 X119.675 Y65.182 E0.0861
G1 X119.754 Y66.013 E0.1068
G1 X119.748 Y66.405 E0.1166
G1 X119.648 Y67.185 E0.1362
G1 X119.587 Y67.472 E0.1435
G1 X119.465 Y67.875 E0.1539
G1 X119.433 Y67.972 E0.1565
G1 X117.879 Y72.202 E0.2686
G1 X117.707 Y72.549 E0.2782
G1 X117.257 Y73.249 E0.2990
G1 X117.010 Y73.553 E0.3087
G1 X116.414 Y74.139 E0.3295
G1 X116.106 Y74.382 E0.3393
G1 X115.397 Y74.822 E0.3600
G1 X115.043 Y74.990 E0.3698
G1 X114.253 Y75.264 E0.3906
G1 X113.871 Y75.350 E0.4003
G1 X113.138 Y75.432 E0.4187
G1 X112.943 Y75.442 E0.4235
G1 X72.411 Y75.442 E1.4321
G1 X70.305 Y72.436 E1.5234
G1 X72.005 Y67.767 E1.6470
G1 X73.826 Y66.492 E1.7024
G1 X109.340 Y66.492 E2.5861
G1 X82.135 Y43.664 E3.4698
G1 X81.559 Y41.517 E3.5251
G1 X83.259 Y36.848 E3.6487
G1 X86.804 Y35.898 E3.7401
G1 X118.091 Y62.168 E4.7566
G92 E0.0000
G1 E-4.0000 F6000
G1 Z0.280 F900
G1 X115.905 Y74.094 F3600
G1 Z0.180 F900
G1 E0.0000 F6000
G92 E0.0000
G1 X115.229 Y74.514 E0.0198 F960
G1 X114.910 Y74.666 E0.0286
G1 X114.157 Y74.926 E0.0484
G1 X113.813 Y75.004 E0.0572
G1 X113.109 Y75.083 E0.0748
G1 X112.933 Y75.092 E0.0792
G1 X72.593 Y75.092 E1.0830
G1 X70.697 Y72.385 E1.1652
G1 X72.296 Y67.991 E1.2816
G1 X73.936 Y66.842 E1.3314
G1 X110.302 Y66.842 E2.2363
G1 X82.444 Y43.467 E3.1412
G1 X81.926 Y41.533 E3.1910
G1 X83.525 Y37.139 E3.3074
G1 X86.719 Y36.284 E3.3896
G1 X117.851 Y62.423 E4.4011
G1 X118.094 Y62.678 E4.4099
G1 X118.549 Y63.277 E4.4286
G1 X118.691 Y63.500 E4.4352
G1 X118.918 Y63.930 E4.4473
G1 X119.021 Y64.174 E4.4539
G1 X119.256 Y64.889 E4.4726
G1 X119.328 Y65.234 E4.4814
G1 X119.404 Y66.027 E4.5012
G1 X119.398 Y66.380 E4.5100
G1 X119.303 Y67.126 E4.5287
G1 X119.248 Y67.385 E4.5353
G1 X119.132 Y67.769 E4.5453
G1 X119.102 Y67.857 E4.5476
G1 X117.557 Y72.064 E4.6591
G1 X117.402 Y72.376 E4.6678
G1 X116.973 Y73.044 E4.6875
G1 X116.750 Y73.318 E4.6963
G1 X116.183 Y73.876 E4.7161
G1 X115.905 Y74.094 E4.7249
G92 E0.0000
G1 E-4.0000 F6000
; feature outer perimeter
G1 Z0.280 F900
G1 X113.973 Y71.352 F3600
G1 X114.125 Y71.218
G1 X114.261 Y71.068
G1 X114.380 Y70.904
G1 X114.480 Y70.728
G1 X114.562 Y70.537
G1 X115.940 Y66.750
G1 X115.953 Y66.708
G1 X115.960 Y65.552
G1 Z0.180 F900
G1 E0.0000 F6000
G92 E0.0000
G1 X116.013 Y65.748 E0.0050 F576
G1 X116.043 Y65.948 E0.0101
G1 X116.051 Y66.150 E0.0151
G1 X116.037 Y66.352 E0.0202
G1 X116.000 Y66.552 E0.0252
G1 X115.940 Y66.750 E0.0304
G1 X114.562 Y70.537 E0.1306
G1 X114.480 Y70.728 E0.1358
G1 X114.380 Y70.904 E0.1408
G1 X114.261 Y71.068 E0.1459
G1 X114.125 Y71.218 E0.1509
G1 X113.973 Y71.352 E0.1560
G1 X113.807 Y71.468 E0.1610
G1 X113.629 Y71.565 E0.1660
G1 X113.442 Y71.642 E0.1711
G1 X113.247 Y71.697 E0.1761
G1 X113.047 Y71.731 E0.1812
G1 X112.840 Y71.742 E0.1863
G1 X74.495 Y71.742 E1.1404
G1 X75.060 Y70.192 E1.1815
G1 X113.038 Y70.192 E2.1265
G1 X114.551 Y66.035 E2.2366
G1 X85.458 Y41.623 E3.1816
G1 X86.022 Y40.073 E3.2226
G1 X115.396 Y64.720 E4.1768
G1 X115.547 Y64.862 E4.1819
G1 X115.679 Y65.016 E4.1870
G1 X115.792 Y65.184 E4.1920
G1 X115.795 Y65.189 E4.1921
G1 X115.887 Y65.363 F576
G1 X115.960 Y65.552
G1 X116.013 Y65.748 F576
G1 X116.043 Y65.948
G1 X116.051 Y66.150
G1 X116.037 Y66.352
G1 X116.000 Y66.552
G1 X115.940 Y66.750
G1 X114.647 Y70.302
; feature inner perimeter
G1 X114.236 Y70.408 F3600
G92 E0.0000
G1 X114.166 Y70.572 E0.0044 F768
G1 X114.085 Y70.714 E0.0085
G1 X113.989 Y70.847 E0.0126
G1 X113.879 Y70.968 E0.0166
G1 X113.756 Y71.076 E0.0207
G1 X113.622 Y71.170 E0.0248
G1 X113.479 Y71.249 E0.0289
G1 X113.327 Y71.311 E0.0329
G1 X113.170 Y71.355 E0.0370
G1 X113.009 Y71.383 E0.0411
G1 X112.830 Y71.392 E0.0455
G1 X74.995 Y71.392 E0.9870
G1 X75.305 Y70.542 E1.0095
G1 X113.283 Y70.542 E1.9545
G1 X114.964 Y65.924 E2.0768
G1 X85.871 Y41.512 E3.0218
G1 X86.180 Y40.662 E3.0443
G1 X115.164 Y64.982 E3.9857
G1 X115.294 Y65.104 E3.9901
G1 X115.400 Y65.229 E3.9942
G1 X115.492 Y65.364 E3.9983
G1 X115.568 Y65.509 E4.0024
G1 X115.627 Y65.661 E4.0064
G1 X115.670 Y65.820 E4.0105
G1 X115.694 Y65.981 E4.0146
G1 X115.701 Y66.145 E4.0187
G1 X115.689 Y66.308 E4.0227
G1 X115.659 Y66.469 E4.0268
G1 X115.608 Y66.640 E4.0312
G1 X114.373 Y70.032 E4.1211
G1 X114.236 Y70.408 F768
; feature internal single extrusion
; tool H0.180 W0.175
G1 X75.312 Y71.171 F3600
G92 E0.0000
; tool H0.180 W0.495
G1 X75.385 Y71.119 E0.0032 F576
; tool H0.180 W0.500
G1 X75.455 Y71.070 E0.0062
; tool H0.180 W0.500
G1 X75.525 Y71.021 E0.0093
; tool H0.180 W0.499
G1 X75.595 Y70.972 E0.0123
; tool H0.180 W0.496
G1 X75.665 Y70.967 E0.0148
; tool H0.180 W0.493
G1 X112.756 Y70.967 E1.3198
; tool H0.180 W0.489
G1 X112.819 Y70.967 E1.3220
; tool H0.180 W0.482
G1 X112.866 Y70.966 E1.3237
; tool H0.180 W0.476
G1 X112.921 Y70.965 E1.3255
; tool H0.180 W0.468
G1 X112.962 Y70.964 E1.3269
; tool H0.180 W0.456
G1 X112.996 Y70.961 E1.3280
; tool H0.180 W0.444
G1 X113.044 Y70.957 E1.3295
; tool H0.180 W0.432
G1 X113.079 Y70.954 E1.3306
; tool H0.180 W0.416
G1 X113.114 Y70.949 E1.3317
; tool H0.180 W0.399
G1 X113.162 Y70.942 E1.3330
; tool H0.180 W0.382
G1 X113.198 Y70.937 E1.3340
; tool H0.180 W0.360
G1 X113.234 Y70.930 E1.3350
; tool H0.180 W0.340
G1 X113.282 Y70.921 E1.3362
; tool H0.180 W0.328
G1 X113.319 Y70.913 E1.3370
; tool H0.180 W0.322
G1 X113.356 Y70.904 E1.3379
; tool H0.180 W0.327
G1 X113.404 Y70.891 E1.3391
; tool H0.180 W0.340
G1 X113.442 Y70.880 E1.3400
; tool H0.180 W0.360
G1 X113.477 Y70.862 E1.3411
; tool H0.180 W0.382
G1 X113.516 Y70.834 E1.3424
; tool H0.180 W0.399
G1 X113.545 Y70.808 E1.3435
; tool H0.180 W0.416
G1 X113.569 Y70.776 E1.3447
; tool H0.180 W0.432
G1 X113.597 Y70.735 E1.3462
; tool H0.180 W0.444
G1 X113.619 Y70.703 E1.3474
; tool H0.180 W0.456
G1 X113.638 Y70.671 E1.3486
; tool H0.180 W0.468
G1 X113.664 Y70.629 E1.3503
; tool H0.180 W0.476
G1 X113.683 Y70.598 E1.3515
; tool H0.180 W0.482
G1 X113.699 Y70.566 E1.3527
; tool H0.180 W0.489
G1 X113.722 Y70.523 E1.3544
; tool H0.180 W0.493
G1 X113.739 Y70.492 E1.3557
; tool H0.180 W0.496
G1 X113.753 Y70.460 E1.3569
; tool H0.180 W0.499
G1 X113.774 Y70.416 E1.3586
; tool H0.180 W0.500
G1 X113.788 Y70.385 E1.3599
; tool H0.180 W0.500
