; G-Code generated by Simplify3D(R) Version 4.1.2
; Dec 5, 2020 at 8:33:55 PM
; Settings Summary
;   processName,Process1-1
;   applyToModels,Support Casque Audio D Bras(2)
;   profileName,A10-04-15s Tevo Tornado (modified)
;   profileVersion,2020-11-26 13:38:16
;   baseProfile,Creality CR-10(2)
;   printMaterial,PLA
;   printQuality,Medium
;   printExtruders,
;   extruderName,Primary Extruder
;   extruderToolheadNumber,0
;   extruderDiameter,0.4
;   extruderAutoWidth,0
;   extruderWidth,0.35
;   extrusionMultiplier,0.95
;   extruderUseRetract,1
;   extruderRetractionDistance,4
;   extruderExtraRestartDistance,0
;   extruderRetractionZLift,0.1
;   extruderRetractionSpeed,6000
;   extruderUseCoasting,1
;   extruderCoastingDistance,0.4
;   extruderUseWipe,1
;   extruderWipeDistance,5
;   primaryExtruder,0
;   layerHeight,0.15
;   topSolidLayers,5
;   bottomSolidLayers,4
;   perimeterOutlines,3
;   printPerimetersInsideOut,0
;   startPointOption,1
;   startPointOriginX,0
;   startPointOriginY,300
;   sequentialIslands,0
;   spiralVaseMode,0
;   firstLayerHeightPercentage,120
;   firstLayerWidthPercentage,100
;   firstLayerUnderspeed,0.4
;   useRaft,0
;   raftExtruder,0
;   raftTopLayers,3
;   raftBaseLayers,2
;   raftOffset,3
;   raftSeparationDistance,0.14
;   raftTopInfill,100
;   aboveRaftSpeedMultiplier,0.3
;   useSkirt,1
;   skirtExtruder,0
;   skirtLayers,1
;   skirtOutlines,2
;   skirtOffset,3
;   usePrimePillar,0
;   primePillarExtruder,999
;   primePillarWidth,12
;   primePillarLocation,7
;   primePillarSpeedMultiplier,1
;   useOozeShield,0
;   oozeShieldExtruder,999
;   oozeShieldOffset,2
;   oozeShieldOutlines,1
;   oozeShieldSidewallShape,1
;   oozeShieldSidewallAngle,30
;   oozeShieldSpeedMultiplier,1
;   infillExtruder,0
;   internalInfillPattern,Rectilinear
;   externalInfillPattern,Rectilinear
;   infillPercentage,15
;   outlineOverlapPercentage,15
;   infillExtrusionWidthPercentage,100
;   minInfillLength,5
;   infillLayerInterval,1
;   internalInfillAngles,45,-45
;   overlapInternalInfillAngles,0
;   externalInfillAngles,45,-45
;   generateSupport,1
;   supportExtruder,0
;   supportInfillPercentage,30
;   supportExtraInflation,0
;   supportBaseLayers,0
;   denseSupportExtruder,0
;   denseSupportLayers,0
;   denseSupportInfillPercentage,70
;   supportLayerInterval,1
;   supportHorizontalPartOffset,0.4
;   supportUpperSeparationLayers,1
;   supportLowerSeparationLayers,1
;   supportType,0
;   supportGridSpacing,4.5
;   maxOverhangAngle,45
;   supportAngles,0
;   temperatureName,Primary Extruder,Heated Bed
;   temperatureNumber,0,0
;   temperatureSetpointCount,2,2
;   temperatureSetpointLayers,1,2,1,2
;   temperatureSetpointTemperatures,210,205,55,50
;   temperatureStabilizeAtStartup,1,1
;   temperatureHeatedBed,0,1
;   fanLayers,1,2
;   fanSpeeds,0,100
;   blipFanToFullPower,0
;   adjustSpeedForCooling,1
;   minSpeedLayerTime,15
;   minCoolingSpeedSlowdown,20
;   increaseFanForCooling,1
;   minFanLayerTime,25
;   maxCoolingFanSpeed,100
;   increaseFanForBridging,1
;   bridgingFanSpeed,100
;   use5D,1
;   relativeEdistances,0
;   allowEaxisZeroing,1
;   independentExtruderAxes,0
;   includeM10123,0
;   stickySupport,1
;   applyToolheadOffsets,0
;   gcodeXoffset,0
;   gcodeYoffset,0
;   gcodeZoffset,0
;   overrideMachineDefinition,1
;   machineTypeOverride,0
;   strokeXoverride,300
;   strokeYoverride,300
;   strokeZoverride,400
;   originOffsetXoverride,0
;   originOffsetYoverride,0
;   originOffsetZoverride,0
;   homeXdirOverride,-1
;   homeYdirOverride,-1
;   homeZdirOverride,-1
;   flipXoverride,1
;   flipYoverride,-1
;   flipZoverride,1
;   toolheadOffsets,0,0|0,0|0,0|0,0|0,0|0,0
;   overrideFirmwareConfiguration,1
;   firmwareTypeOverride,RepRap (Marlin/Repetier/Sprinter)
;   GPXconfigOverride,r2
;   baudRateOverride,250000
;   overridePrinterModels,1
;   printerModelsOverride
;   startingGcode,;,; -]H.P.B[- MarshMalloW  ,; $VER: StartScript 1.02 (26.12.2019) MarshMalloW,;,; Begin Startcode,;,M117 *Preheat*     	; Preheat,;extruder0_temperature,M104 S[extruder0_temperature]  ,M109 S[extruder0_temperature] ,M109 R[extruder0_temperature] ,;,M117 *Auto-leveling*     	; Auto-leveling,M107                   	; Turn layer fan off,G21                    	; Set to metric [change to G20 if you want Imperial],G90                    	; Force coordinates to be absolute relative to the origin,G28                    	; Home X/Y/Z axis,G29                    	; Auto-leveling (BL-Touch),;,M117 *Start Clean*     	; Indicate nozzle clean in progress on LCD,G92 E0                 	; Set Extruder to 0 ,G1 X0 Y0 F2000         	; Move X and Y to 0 with speed 2000 (mm/min),G1 Z0.1 F1000          	; Move Z to   0.1 with speed 1000 (mm/min),G1 X8.0 F2000          	; Move X to   8.0 with speed 2000 (mm/min),G1 Y60.0 E4.0 F1000.0  	; Move Y to  60 and Extruder with 4.0 with speed 1000 (mm/min),G1 Y100.0 E8.5 F1000.0 	; Move Y to 100 and Extruder with 8.5 with speed 1000 (mm/min),G92 E0                 	; Set extruder to 0,G1 X16.0 F3000         	; Move X to 16.0 with speed 3000 (mm/min),G1 Y60.0 F3000         	; Move Y to 60.0 with speed 3000 (mm/min),M117 *End Clean*       	; Indicate nozzle clean in progress on LCD,G1 Z5 F3000            	; Move Z to  5.0 with speed 3000 (mm/min),G1 X20.0 F3000         	; Move X to 20.0 with speed 3000 (mm/min),G1 Y20.0 F3000         	; Move Y to 20.0 with speed 3000 (mm/min),; ,M117 *Printing...*     	; Start printing msg on LCD,;,; End Startcode,;,; Begin printing with sliced GCode after here,;
;   layerChangeGcode,
;   retractionGcode,
;   toolChangeGcode,
;   endingGcode,;,; init 181010,;,;M107 			; Fan off,;G1 E-1 F300 			; Retract the filament a bit before lifting the nozzle,;M104 S0 			; Turn off extruder,;M140 S0 			; Turn off bed,;G91			; Relative positioning,;G28 X0 Y0 			; Move X/Y to min endstops so the head is out of teh way,;M84 			; Disable motors,;G90 			; Absolute positioning,;M117 Print ready...,,;,; // From Cura 181010,; // End_gcode,G92 E0			; Zero the extruded length,;G1 E-30 F300		; Retract E -30,M106 S0			; Turn off cooling fan,M104 S0			; Turn off temperature,M140 S0		     	; Turn off bed,G91			; Relative positioning,G1 E-1 F300			; Retract the filament a bit before lifting the nozzle to release some of the pressure,G1 Z+20 E-5 X-20 Y-20 F7200	; Move Z up a bit and retract filament even more,G1 X0 Y150 F10000		; Move right min,M107			; Turn off layer fan,M84			; Disable motors,G90			; Absolute positioning,M117 *The-End* 		; End msg,;,
;   exportFileFormat,gcode
;   celebration,0
;   celebrationSong,Star Wars
;   postProcessing,|{REPLACE "; layer " "M117 INDICATOR-Layer"}|{REPLACE ", Z = " "\n; Z="}
;   defaultSpeed,2400
;   outlineUnderspeed,0.6
;   solidInfillUnderspeed,0.8
;   supportUnderspeed,0.8
;   rapidXYspeed,3600
;   rapidZspeed,900
;   minBridgingArea,50
;   bridgingExtraInflation,0.2
;   bridgingExtrusionMultiplier,1
;   bridgingSpeedMultiplier,0.6
;   useFixedBridgingAngle,0
;   fixedBridgingAngle,0
;   applyBridgingToPerimeters,0
;   filamentDiameters,1.75|1.75|1.75|1.75|1.75|1.75
;   filamentPricesPerKg,30|46|46|46|46|46
;   filamentDensities,1.25|1.25|1.25|1.25|1.25|1.25
;   useMinPrintHeight,0
;   minPrintHeight,0
;   useMaxPrintHeight,1
;   maxPrintHeight,3
;   useDiaphragm,0
;   diaphragmLayerInterval,20
;   robustSlicing,1
;   mergeAllIntoSolid,0
;   onlyRetractWhenCrossingOutline,1
;   retractBetweenLayers,1
;   useRetractionMinTravel,0
;   retractionMinTravel,3
;   retractWhileWiping,1
;   onlyWipeOutlines,1
;   avoidCrossingOutline,1
;   maxMovementDetourFactor,3
;   toolChangeRetractionDistance,12
;   toolChangeExtraRestartDistance,-0.5
;   toolChangeRetractionSpeed,600
;   externalThinWallType,1
;   internalThinWallType,1
;   thinWallAllowedOverlapPercentage,20
;   singleExtrusionMinLength,1
;   singleExtrusionMinPrintingWidthPercentage,50
;   singleExtrusionMaxPrintingWidthPercentage,200
;   singleExtrusionEndpointExtension,0.2
;   horizontalSizeCompensation,0
G90
M82
M106 S0
M140 S55
M190 S55
;
; -]H.P.B[- MarshMalloW  
; $VER: StartScript 1.02 (26.12.2019) MarshMalloW
;
; Begin Startcode
;
M117 *Preheat*     	; Preheat
;extruder0_temperature
M104 S210  
M109 S210 
M109 R210 
;
M117 *Auto-leveling*     	; Auto-leveling
M107                   	; Turn layer fan off
G21                    	; Set to metric [change to G20 if you want Imperial]
G90                    	; Force coordinates to be absolute relative to the origin
G28                    	; Home X/Y/Z axis
G29                    	; Auto-leveling (BL-Touch)
;
M117 *Start Clean*     	; Indicate nozzle clean in progress on LCD
G92 E0                 	; Set Extruder to 0 
G1 X0 Y0 F2000         	; Move X and Y to 0 with speed 2000 (mm/min)
G1 Z0.1 F1000          	; Move Z to   0.1 with speed 1000 (mm/min)
G1 X8.0 F2000          	; Move X to   8.0 with speed 2000 (mm/min)
G1 Y60.0 E4.0 F1000.0  	; Move Y to  60 and Extruder with 4.0 with speed 1000 (mm/min)
G1 Y100.0 E8.5 F1000.0 	; Move Y to 100 and Extruder with 8.5 with speed 1000 (mm/min)
G92 E0                 	; Set extruder to 0
G1 X16.0 F3000         	; Move X to 16.0 with speed 3000 (mm/min)
G1 Y60.0 F3000         	; Move Y to 60.0 with speed 3000 (mm/min)
M117 *End Clean*       	; Indicate nozzle clean in progress on LCD
G1 Z5 F3000            	; Move Z to  5.0 with speed 3000 (mm/min)
G1 X20.0 F3000         	; Move X to 20.0 with speed 3000 (mm/min)
G1 Y20.0 F3000         	; Move Y to 20.0 with speed 3000 (mm/min)
; 
M117 *Printing...*     	; Start printing msg on LCD
;
; End Startcode
;
; Begin printing with sliced GCode after here
;
; process Process1-1
M117 INDICATOR-Layer1
; Z=0.180
T0
G92 E0.0000
G1 E-4.0000 F6000
; feature skirt
; tool H0.180 W0.350
G1 Z0.180 F900
G1 X197.301 Y28.871 F3600
G1 E0.0000 F6000
G92 E0.0000
G1 X198.703 Y27.470 E0.0493 F960
G1 X211.063 Y27.470 E0.3569
G1 X213.128 Y29.534 E0.4295
G1 X213.128 Y31.970 E0.4901
G1 X220.063 Y31.970 E0.6627
G1 X222.128 Y34.034 E0.7354
G1 X222.128 Y36.470 E0.7960
G1 X229.063 Y36.470 E0.9685
G1 X231.128 Y38.534 E1.0412
G1 X231.128 Y40.970 E1.1018
G1 X233.563 Y40.970 E1.1624
G1 X235.628 Y43.034 E1.2350
G1 X235.628 Y45.470 E1.2956
G1 X238.063 Y45.470 E1.3562
G1 X240.128 Y47.534 E1.4289
G1 X240.128 Y51.353 E1.5239
G1 X252.416 Y57.804 E1.8692
G1 X253.427 Y59.416 E1.9166
G1 X253.712 Y68.073 E2.1321
G1 X253.713 Y68.160 E2.1343
G1 X253.586 Y75.914 E2.3272
G1 X253.583 Y76.001 E2.3294
G1 X253.073 Y83.739 E2.5224
G1 X253.065 Y83.825 E2.5245
G1 X252.174 Y91.529 E2.7175
G1 X252.162 Y91.615 E2.7196
G1 X250.893 Y99.265 E2.9126
G1 X250.876 Y99.350 E2.9148
G1 X249.230 Y106.928 E3.1077
G1 X249.210 Y107.013 E3.1099
G1 X247.192 Y114.500 E3.3028
G1 X247.167 Y114.584 E3.3050
G1 X244.782 Y121.962 E3.4980
G1 X244.754 Y122.045 E3.5001
G1 X242.007 Y129.297 E3.6931
G1 X241.975 Y129.377 E3.6952
G1 X238.874 Y136.485 E3.8882
G1 X238.837 Y136.564 E3.8904
G1 X235.390 Y143.510 E4.0833
G1 X235.349 Y143.587 E4.0855
G1 X231.563 Y150.354 E4.2784
G1 X231.518 Y150.429 E4.2806
G1 X227.403 Y157.001 E4.4736
G1 X227.355 Y157.074 E4.4757
G1 X222.920 Y163.435 E4.6687
G1 X222.868 Y163.505 E4.6708
G1 X218.125 Y169.640 E4.8638
G1 X218.070 Y169.707 E4.8660
G1 X213.029 Y175.600 E5.0589
G1 X212.971 Y175.665 E5.0611
G1 X207.646 Y181.302 E5.2540
G1 X207.585 Y181.364 E5.2562
G1 X201.988 Y186.731 E5.4492
G1 X201.924 Y186.790 E5.4513
G1 X196.069 Y191.875 E5.6443
G1 X196.002 Y191.930 E5.6465
G1 X189.903 Y196.720 E5.8394
G1 X189.833 Y196.772 E5.8416
G1 X183.505 Y201.254 E6.0345
G1 X183.433 Y201.303 E6.0367
G1 X176.892 Y205.468 E6.2297
G1 X176.817 Y205.513 E6.2318
G1 X170.079 Y209.350 E6.4248
G1 X170.002 Y209.391 E6.4269
G1 X163.082 Y212.891 E6.6199
G1 X163.003 Y212.928 E6.6221
G1 X155.919 Y216.082 E6.8150
G1 X155.839 Y216.115 E6.8172
G1 X148.608 Y218.916 E7.0101
G1 X148.526 Y218.945 E7.0123
G1 X141.165 Y221.386 E7.2053
G1 X141.082 Y221.411 E7.2074
G1 X133.610 Y223.485 E7.4004
G1 X133.525 Y223.506 E7.4025
G1 X125.960 Y225.209 E7.5955
G1 X125.875 Y225.226 E7.5977
G1 X118.234 Y226.553 E7.7906
G1 X118.148 Y226.566 E7.7928
G1 X110.452 Y227.514 E7.9857
G1 X110.365 Y227.523 E7.9879
G1 X102.632 Y228.091 E8.1809
G1 X102.545 Y228.095 E8.1830
G1 X94.792 Y228.280 E8.3760
G1 X94.705 Y228.280 E8.3781
G1 X86.953 Y228.082 E8.5711
G1 X86.866 Y228.078 E8.5733
G1 X79.154 Y227.500 E8.7657
G1 X78.997 Y227.503 E8.7696
G1 X78.929 Y227.515 E8.7713
G1 X78.864 Y227.537 E8.7730
G1 X78.802 Y227.568 E8.7748
G1 X78.746 Y227.608 E8.7765
G1 X78.696 Y227.656 E8.7782
G1 X78.668 Y227.692 E8.7793
G1 X77.193 Y230.423 E8.8566
G1 X73.775 Y230.983 E8.9428
G1 X70.953 Y228.348 E9.0388
G1 X70.042 Y230.090 E9.0877
G1 X67.254 Y230.962 E9.1604
G1 X46.950 Y220.329 E9.7307
G1 X46.078 Y217.543 E9.8034
G1 X46.991 Y215.797 E9.8524
G1 X41.200 Y214.542 E9.9998
G1 X39.723 Y211.368 E10.0869
G1 X41.436 Y208.126 E10.1782
G1 X41.544 Y207.947 E10.1834
G1 X41.993 Y207.297 E10.2031
G1 X42.125 Y207.129 E10.2084
G1 X42.522 Y206.680 E10.2233
G1 X42.673 Y206.529 E10.2286
G1 X43.283 Y205.990 E10.2488
G1 X43.486 Y205.834 E10.2552
G1 X44.185 Y205.377 E10.2760
G1 X44.409 Y205.252 E10.2824
G1 X45.167 Y204.901 E10.3032
G1 X45.406 Y204.810 E10.3095
G1 X46.207 Y204.571 E10.3303
G1 X46.456 Y204.516 E10.3367
G1 X47.304 Y204.393 E10.3580
G1 X47.602 Y204.375 E10.3654
G1 X48.630 Y204.401 E10.3910
G1 X48.841 Y204.419 E10.3963
G1 X55.340 Y205.368 E10.5597
G1 X61.492 Y205.956 E10.7135
G1 X67.667 Y206.238 E10.8673
G1 X73.847 Y206.212 E11.0211
G1 X80.019 Y205.879 E11.1749
G1 X86.167 Y205.240 E11.3287
G1 X92.275 Y204.296 E11.4825
G1 X98.329 Y203.050 E11.6363
G1 X104.313 Y201.504 E11.7901
G1 X110.213 Y199.663 E11.9438
G1 X116.015 Y197.531 E12.0976
G1 X121.703 Y195.113 E12.2514
G1 X127.264 Y192.416 E12.4052
G1 X132.685 Y189.445 E12.5590
G1 X137.950 Y186.209 E12.7128
G1 X143.049 Y182.715 E12.8666
G1 X147.967 Y178.973 E13.0204
G1 X152.694 Y174.990 E13.1742
G1 X157.216 Y170.777 E13.3280
G1 X161.524 Y166.345 E13.4818
G1 X165.606 Y161.703 E13.6356
G1 X169.452 Y156.866 E13.7894
G1 X173.054 Y151.842 E13.9432
G1 X176.401 Y146.646 E14.0970
G1 X179.486 Y141.290 E14.2508
G1 X182.300 Y135.788 E14.4046
G1 X184.838 Y130.152 E14.5584
G1 X187.092 Y124.397 E14.7121
G1 X189.058 Y118.537 E14.8659
G1 X190.730 Y112.587 E15.0197
G1 X192.105 Y106.561 E15.1735
G1 X193.178 Y100.474 E15.3273
G1 X193.947 Y94.341 E15.4811
G1 X194.411 Y88.178 E15.6349
G1 X194.567 Y81.999 E15.7887
G1 X194.417 Y75.820 E15.9425
G1 X193.959 Y69.656 E16.0963
G1 X193.196 Y63.523 E16.2501
G1 X192.129 Y57.435 E16.4039
G1 X190.760 Y51.408 E16.5577
G1 X189.094 Y45.456 E16.7115
G1 X187.134 Y39.594 E16.8653
G1 X184.885 Y33.837 E17.0191
G1 X181.288 Y25.827 E17.2375
G1 X184.947 Y22.386 E17.3625
G1 X197.301 Y28.871 E17.7097
G92 E0.0000
G1 E-4.0000 F6000
G1 Z0.280 F900
G1 X190.980 Y39.429 F3600
G1 X192.632 Y44.370
G1 X194.348 Y50.499
G1 X195.757 Y56.705
G1 X196.856 Y62.975
G1 X197.642 Y69.291
G1 X198.113 Y75.638
G1 X198.268 Y82.001
G1 X198.107 Y88.364
G1 X197.630 Y94.710
G1 X196.838 Y101.026
G1 X195.732 Y107.294
G1 X194.317 Y113.499
G1 X192.595 Y119.627
G1 X190.571 Y125.661
G1 X188.250 Y131.587
G1 X185.636 Y137.391
G1 X182.738 Y143.057
G1 X179.561 Y148.572
G1 X176.114 Y153.923
G1 X172.406 Y159.096
G1 X168.445 Y164.078
G1 X164.242 Y168.857
G1 X159.806 Y173.422
G1 X155.148 Y177.760
G1 X150.281 Y181.861
G1 X145.216 Y185.715
G1 X139.966 Y189.313
G1 X134.543 Y192.646
G1 X128.962 Y195.705
G1 X123.235 Y198.483
G1 X117.378 Y200.972
G1 X111.403 Y203.168
G1 X105.328 Y205.064
G1 X99.165 Y206.655
G1 X92.931 Y207.939
G1 X89.797 Y208.423
G1 X80.534 Y223.893
G1 X79.248 Y223.796
G1 X78.633 Y223.811
G1 X78.023 Y223.917
G1 X77.436 Y224.113
G1 X76.884 Y224.392
G1 X76.379 Y224.751
G1 X75.933 Y225.180
G1 X75.557 Y225.668
G1 X78.374 Y227.501
G1 Z0.180 F900
G1 E0.0000 F6000
G92 E0.0000
G1 X76.967 Y230.106 E0.0737 F960
G1 X73.888 Y230.609 E0.1513
G1 X70.856 Y227.778 E0.2545
G1 X69.799 Y229.799 E0.3113
G1 X67.288 Y230.585 E0.3767
G1 X47.240 Y220.086 E0.9398
G1 X46.455 Y217.577 E1.0053
G1 X47.514 Y215.553 E1.0621
G1 X41.444 Y214.236 E1.2166
G1 X40.113 Y211.378 E1.2951
