; G-Code generated by Simplify3D(R) Version 4.0.1
; Aug 29, 2019 at 9:12:03 AM
; Settings Summary
;   processName,Process1
;   applyToModels,ALL_BLT_X+48_Y-2_RIGHT_8.8..
;   profileName,101 Tevo Tornado (experimental)
;   profileVersion,2019-08-25 17:34:33
;   baseProfile,Creality CR-10(2)
;   printMaterial,PLA
;   printQuality,Medium
;   printExtruders,
;   extruderName,Primary Extruder
;   extruderToolheadNumber,0
;   extruderDiameter,0.4
;   extruderAutoWidth,0
;   extruderWidth,0.35
;   extrusionMultiplier,0.95
;   extruderUseRetract,1
;   extruderRetractionDistance,6
;   extruderExtraRestartDistance,0
;   extruderRetractionZLift,0.3
;   extruderRetractionSpeed,3000
;   extruderUseCoasting,0
;   extruderCoastingDistance,0.2
;   extruderUseWipe,0
;   extruderWipeDistance,4
;   primaryExtruder,0
;   layerHeight,0.15
;   topSolidLayers,4
;   bottomSolidLayers,3
;   perimeterOutlines,3
;   printPerimetersInsideOut,0
;   startPointOption,3
;   startPointOriginX,0
;   startPointOriginY,300
;   sequentialIslands,0
;   spiralVaseMode,0
;   firstLayerHeightPercentage,120
;   firstLayerWidthPercentage,100
;   firstLayerUnderspeed,0.5
;   useRaft,0
;   raftExtruder,0
;   raftTopLayers,3
;   raftBaseLayers,2
;   raftOffset,3
;   raftSeparationDistance,0.14
;   raftTopInfill,100
;   aboveRaftSpeedMultiplier,0.3
;   useSkirt,1
;   skirtExtruder,0
;   skirtLayers,1
;   skirtOutlines,3
;   skirtOffset,2
;   usePrimePillar,0
;   primePillarExtruder,999
;   primePillarWidth,12
;   primePillarLocation,7
;   primePillarSpeedMultiplier,1
;   useOozeShield,0
;   oozeShieldExtruder,999
;   oozeShieldOffset,2
;   oozeShieldOutlines,1
;   oozeShieldSidewallShape,1
;   oozeShieldSidewallAngle,30
;   oozeShieldSpeedMultiplier,1
;   infillExtruder,0
;   internalInfillPattern,Rectilinear
;   externalInfillPattern,Rectilinear
;   infillPercentage,15
;   outlineOverlapPercentage,15
;   infillExtrusionWidthPercentage,100
;   minInfillLength,5
;   infillLayerInterval,1
;   internalInfillAngles,45,-45
;   overlapInternalInfillAngles,0
;   externalInfillAngles,45,-45
;   generateSupport,0
;   supportExtruder,0
;   supportInfillPercentage,30
;   supportExtraInflation,0
;   supportBaseLayers,0
;   denseSupportExtruder,0
;   denseSupportLayers,0
;   denseSupportInfillPercentage,70
;   supportLayerInterval,1
;   supportHorizontalPartOffset,0.4
;   supportUpperSeparationLayers,1
;   supportLowerSeparationLayers,1
;   supportType,0
;   supportGridSpacing,4.5
;   maxOverhangAngle,45
;   supportAngles,0
;   temperatureName,Primary Extruder,Heated Bed
;   temperatureNumber,0,0
;   temperatureSetpointCount,2,1
;   temperatureSetpointLayers,1,2,1
;   temperatureSetpointTemperatures,210,205,50
;   temperatureStabilizeAtStartup,1,1
;   temperatureHeatedBed,0,1
;   temperatureRelayBetweenLayers,0,0
;   temperatureRelayBetweenLoops,0,0
;   fanLayers,1,2
;   fanSpeeds,0,100
;   blipFanToFullPower,0
;   adjustSpeedForCooling,1
;   minSpeedLayerTime,15
;   minCoolingSpeedSlowdown,50
;   increaseFanForCooling,1
;   minFanLayerTime,25
;   maxCoolingFanSpeed,100
;   increaseFanForBridging,1
;   bridgingFanSpeed,100
;   use5D,1
;   relativeEdistances,0
;   allowEaxisZeroing,1
;   independentExtruderAxes,0
;   includeM10123,0
;   stickySupport,1
;   applyToolheadOffsets,0
;   gcodeXoffset,0
;   gcodeYoffset,0
;   gcodeZoffset,0
;   overrideMachineDefinition,1
;   machineTypeOverride,0
;   strokeXoverride,300
;   strokeYoverride,300
;   strokeZoverride,400
;   originOffsetXoverride,0
;   originOffsetYoverride,0
;   originOffsetZoverride,0
;   homeXdirOverride,-1
;   homeYdirOverride,-1
;   homeZdirOverride,-1
;   flipXoverride,1
;   flipYoverride,-1
;   flipZoverride,1
;   toolheadOffsets,0,0|0,0|0,0|0,0|0,0|0,0
;   overrideFirmwareConfiguration,1
;   firmwareTypeOverride,RepRap (Marlin/Repetier/Sprinter)
;   GPXconfigOverride,r2
;   baudRateOverride,250000
;   overridePrinterModels,1
;   printerModelsOverride
;   startingGcode,;Init 181010,;G28 			; Home all axes,;G1 Z5 F3000 ; lift,;G92 E0			; Reset extrusion distance,,; // From Cura 181010,; // Update 190823 (GueroLoco),; // Start_gcode,M117 *Start Clean*		; Indicate nozzle clean in progress on LCD,;,M104 S[extruder0_temperature] ,M109 S[extruder0_temperature] ,M109 R[extruder0_temperature] ,;,M107			; Turn layer fan off,G21			; Set to metric [change to G20 if you want Imperial],G90			; Force coordinates to be absolute relative to the origin,G28			; Home X/Y/Z axis,;,;G1 X3 Y1 Z15 F9000		; Move safe Z height to shear strings,;G0 X1 Y1 Z0.2 F9000		; Move in 1mm from edge and up [z] 0.2mm,;G92 E0			; Set extruder to [0] zero,;G1 X100 E12 F500		; Extrude 30mm filiment along X axis 100mm long to prime and clean the nozzle,;G92 E0			; Reset extruder to [0] zero end of cleaning run,;G1 E-1 F500			; Retract filiment by 1 mm to reduce string effect,;G1 X180 F4000		; Quick wipe away from the filament line / purge,;,G92 E0			; Set Extruder to 0 ,G1 X0 Y0 F2000		; Move X and Y to 0 with speed 2000 (mm/min),G1 Z0.1 F1000		; Move Z to 0.1,G1 X8.0 F2000		; Move X to 8.0,G1 Y60.0 E4.0 F1000.0		; Prime - Move Y to 60 and Extruder with 4.0,G1 Y100.0 E8.5 F1000.0		; Prime - Move Y to 100 and Extruder with 8.5,G92 E0			; Set extruder to 0,M117 *End Clean*		; Indicate nozzle clean in progress on LCD,G1 Z5 F3000			; Lift - Move Z to 5,; ,M117 *Printing...*		; start msg,; // Begin printing with sliced GCode after here,;
;   layerChangeGcode,
;   retractionGcode,
;   toolChangeGcode,
;   endingGcode,;,; init 181010,;,;M107 			; Fan off,;G1 E-1 F300 			; Retract the filament a bit before lifting the nozzle,;M104 S0 			; Turn off extruder,;M140 S0 			; Turn off bed,;G91			; Relative positioning,;G28 X0 Y0 			; Move X/Y to min endstops so the head is out of teh way,;M84 			; Disable motors,;G90 			; Absolute positioning,;M117 Print ready...,,;,; // From Cura 181010,; // End_gcode,G92 E0			; Zero the extruded length,G1 E-30 F300			; Retract E -30,M106 S0			; Turn off cooling fan,M104 S0			; Turn off temperature,M140 S0		     	; Turn off bed,G91			; Relative positioning,G1 E-1 F300			; Retract the filament a bit before lifting the nozzle to release some of the pressure,G1 Z+20 E-5 X-20 Y-20 F7200	; Move Z up a bit and retract filament even more,G1 X0 Y150 F10000		; Move right min,M107			; Turn off layer fan,M84			; Disable motors,G90			; Absolute positioning,M117 *The-End* 		; End msg,;,
;   exportFileFormat,gcode
;   celebration,0
;   celebrationSong,Star Wars
;   postProcessing,
;   defaultSpeed,1800
;   outlineUnderspeed,0.5
;   solidInfillUnderspeed,0.8
;   supportUnderspeed,0.8
;   rapidXYspeed,6000
;   rapidZspeed,1002
;   minBridgingArea,50
;   bridgingExtraInflation,0.2
;   bridgingExtrusionMultiplier,1
;   bridgingSpeedMultiplier,0.6
;   useFixedBridgingAngle,0
;   fixedBridgingAngle,0
;   applyBridgingToPerimeters,0
;   filamentDiameters,1.75|1.75|1.75|1.75|1.75|1.75
;   filamentPricesPerKg,30|46|46|46|46|46
;   filamentDensities,1.25|1.25|1.25|1.25|1.25|1.25
;   useMinPrintHeight,0
;   minPrintHeight,0
;   useMaxPrintHeight,0
;   maxPrintHeight,9
;   useDiaphragm,0
;   diaphragmLayerInterval,20
;   robustSlicing,1
;   mergeAllIntoSolid,0
;   onlyRetractWhenCrossingOutline,1
;   retractBetweenLayers,1
;   useRetractionMinTravel,0
;   retractionMinTravel,3
;   retractWhileWiping,0
;   onlyWipeOutlines,1
;   avoidCrossingOutline,0
;   maxMovementDetourFactor,3
;   toolChangeRetractionDistance,12
;   toolChangeExtraRestartDistance,-0.5
;   toolChangeRetractionSpeed,600
;   externalThinWallType,1
;   internalThinWallType,1
;   thinWallAllowedOverlapPercentage,15
;   singleExtrusionMinLength,1
;   singleExtrusionMinPrintingWidthPercentage,50
;   singleExtrusionMaxPrintingWidthPercentage,200
;   singleExtrusionEndpointExtension,0.2
;   horizontalSizeCompensation,0
G90
M82
M106 S0
M140 S50
M190 S50
;Init 181010
;G28 			; Home all axes
;G1 Z5 F3000 ; lift
;G92 E0			; Reset extrusion distance
; // From Cura 181010
; // Update 190823 (GueroLoco)
; // Start_gcode
M117 *Start Clean*		; Indicate nozzle clean in progress on LCD
;
M104 S210 
M109 S210 
M109 R210 
;
M107			; Turn layer fan off
G21			; Set to metric [change to G20 if you want Imperial]
G90			; Force coordinates to be absolute relative to the origin
G28			; Home X/Y/Z axis
;
;G1 X3 Y1 Z15 F9000		; Move safe Z height to shear strings
;G0 X1 Y1 Z0.2 F9000		; Move in 1mm from edge and up [z] 0.2mm
;G92 E0			; Set extruder to [0] zero
;G1 X100 E12 F500		; Extrude 30mm filiment along X axis 100mm long to prime and clean the nozzle
;G92 E0			; Reset extruder to [0] zero end of cleaning run
;G1 E-1 F500			; Retract filiment by 1 mm to reduce string effect
;G1 X180 F4000		; Quick wipe away from the filament line / purge
;
G92 E0			; Set Extruder to 0 
G1 X0 Y0 F2000		; Move X and Y to 0 with speed 2000 (mm/min)
G1 Z0.1 F1000		; Move Z to 0.1
G1 X8.0 F2000		; Move X to 8.0
G1 Y60.0 E4.0 F1000.0		; Prime - Move Y to 60 and Extruder with 4.0
G1 Y100.0 E8.5 F1000.0		; Prime - Move Y to 100 and Extruder with 8.5
G92 E0			; Set extruder to 0
M117 *End Clean*		; Indicate nozzle clean in progress on LCD
G1 Z5 F3000			; Lift - Move Z to 5
; 
M117 *Printing...*		; start msg
; // Begin printing with sliced GCode after here
;
G92 E0
G1 E-6.0000 F3000
G1 Z0.480 F1002
; process Process1
; layer 1, Z = 0.180
T0
; tool H0.180 W0.350
; skirt
G1 X145.639 Y152.974 F6000
G1 Z0.180 F1002
G1 E0.0000 F900
G92 E0
G1 X146.027 Y152.765 E0.0110 F900
G1 X153.726 Y152.765 E0.2025
G1 X154.047 Y152.898 E0.2112
G1 X155.465 Y154.316 E0.2611
G1 X155.598 Y154.638 E0.2697
G1 X155.598 Y159.179 E0.3827
G1 X155.600 Y159.223 E0.3838
G1 X155.612 Y159.295 E0.3856
G1 X155.620 Y159.318 E0.3862
G1 X155.635 Y159.341 E0.3870
G1 X155.651 Y159.357 E0.3875
G1 X155.668 Y159.368 E0.3880
G1 X155.691 Y159.378 E0.3886
G1 X155.727 Y159.384 E0.3895
G1 X157.709 Y159.403 E0.4389
G1 X157.725 Y159.404 E0.4392
G1 X157.809 Y159.408 E0.4413
G1 X157.824 Y159.409 E0.4417
G1 X159.007 Y159.503 E0.4712
G1 X159.020 Y159.504 E0.4716
G1 X159.091 Y159.512 E0.4734
G1 X159.104 Y159.513 E0.4737
G1 X159.728 Y159.600 E0.4893
G1 X159.741 Y159.602 E0.4897
G1 X159.812 Y159.615 E0.4915
G1 X159.825 Y159.617 E0.4918
G1 X161.000 Y159.853 E0.5216
G1 X161.017 Y159.857 E0.5220
G1 X161.111 Y159.880 E0.5245
G1 X161.128 Y159.884 E0.5249
G1 X162.291 Y160.216 E0.5550
G1 X162.308 Y160.221 E0.5554
G1 X162.400 Y160.252 E0.5579
G1 X162.417 Y160.258 E0.5583
G1 X163.556 Y160.683 E0.5885
G1 X163.572 Y160.690 E0.5890
G1 X163.662 Y160.727 E0.5914
G1 X163.678 Y160.735 E0.5918
G1 X164.763 Y161.242 E0.6217
G1 X164.775 Y161.248 E0.6220
G1 X164.840 Y161.281 E0.6238
G1 X164.852 Y161.287 E0.6241
G1 X165.405 Y161.587 E0.6398
G1 X165.416 Y161.593 E0.6401
G1 X165.479 Y161.630 E0.6419
G1 X165.490 Y161.637 E0.6422
G1 X166.505 Y162.268 E0.6720
G1 X166.519 Y162.277 E0.6724
G1 X166.595 Y162.329 E0.6747
G1 X166.609 Y162.339 E0.6751
G1 X168.165 Y163.479 E0.7231
G1 X175.091 Y163.479 E0.8955
G1 X175.158 Y163.484 E0.8971
G1 X175.525 Y163.540 E0.9064
G1 X175.590 Y163.555 E0.9080
G1 X182.010 Y165.572 E1.0754
G1 X182.025 Y165.577 E1.0759
G1 X182.111 Y165.607 E1.0781
G1 X182.126 Y165.613 E1.0785
G1 X182.805 Y165.884 E1.0967
G1 X182.835 Y165.897 E1.0975
G1 X182.998 Y165.976 E1.1020
G1 X183.027 Y165.992 E1.1029
G1 X183.699 Y166.383 E1.1222
G1 X183.726 Y166.400 E1.1230
G1 X183.876 Y166.503 E1.1275
G1 X183.902 Y166.523 E1.1283
G1 X184.490 Y166.995 E1.1471
G1 X184.509 Y167.011 E1.1477
G1 X184.610 Y167.102 E1.1511
G1 X184.628 Y167.119 E1.1517
G1 X184.934 Y167.427 E1.1625
G1 X184.951 Y167.445 E1.1631
G1 X185.041 Y167.547 E1.1665
G1 X185.057 Y167.566 E1.1671
G1 X185.526 Y168.157 E1.1859
G1 X185.545 Y168.183 E1.1867
G1 X185.647 Y168.333 E1.1912
G1 X185.664 Y168.361 E1.1920
G1 X186.040 Y169.015 E1.2108
G1 X186.052 Y169.037 E1.2114
G1 X186.113 Y169.158 E1.2148
G1 X186.123 Y169.181 E1.2154
G1 X186.287 Y169.558 E1.2257
G1 X186.293 Y169.573 E1.2261
G1 X186.326 Y169.658 E1.2283
G1 X186.332 Y169.673 E1.2287
G1 X186.467 Y170.061 E1.2390
G1 X186.475 Y170.085 E1.2396
G1 X186.512 Y170.216 E1.2430
G1 X186.518 Y170.239 E1.2436
G1 X186.681 Y170.953 E1.2618
G1 X186.685 Y170.977 E1.2624
G1 X186.708 Y171.111 E1.2658
G1 X186.711 Y171.136 E1.2664
G1 X186.760 Y171.567 E1.2772
G1 X186.762 Y171.591 E1.2778
G1 X186.770 Y171.727 E1.2812
G1 X186.770 Y171.751 E1.2818
G1 X186.770 Y172.476 E1.2998
G1 X186.770 Y172.500 E1.3004
G1 X186.762 Y172.635 E1.3038
G1 X186.760 Y172.659 E1.3044
G1 X186.712 Y173.096 E1.3153
G1 X186.709 Y173.121 E1.3159
G1 X186.686 Y173.256 E1.3194
G1 X186.681 Y173.281 E1.3200
G1 X186.515 Y174.011 E1.3386
G1 X186.507 Y174.042 E1.3394
G1 X186.454 Y174.215 E1.3439
G1 X186.444 Y174.245 E1.3447
G1 X186.162 Y174.969 E1.3640
G1 X186.149 Y174.999 E1.3648
G1 X186.071 Y175.163 E1.3694
G1 X186.056 Y175.192 E1.3702
G1 X185.669 Y175.866 E1.3895
G1 X185.652 Y175.894 E1.3903
G1 X185.550 Y176.044 E1.3948
G1 X185.531 Y176.071 E1.3957
G1 X185.049 Y176.680 E1.4150
G1 X185.028 Y176.705 E1.4158
G1 X184.905 Y176.839 E1.4203
G1 X184.882 Y176.862 E1.4211
G1 X184.331 Y177.378 E1.4399
G1 X184.313 Y177.394 E1.4405
G1 X184.209 Y177.481 E1.4439
G1 X184.189 Y177.496 E1.4445
G1 X183.841 Y177.756 E1.4553
G1 X183.821 Y177.770 E1.4559
G1 X183.708 Y177.845 E1.4593
G1 X183.687 Y177.858 E1.4599
G1 X183.036 Y178.239 E1.4787
G1 X183.007 Y178.254 E1.4795
G1 X182.844 Y178.334 E1.4840
G1 X182.814 Y178.347 E1.4848
G1 X182.134 Y178.619 E1.5031
G1 X182.118 Y178.625 E1.5035
G1 X182.031 Y178.656 E1.5058
G1 X182.016 Y178.661 E1.5062
G1 X175.590 Y180.680 E1.6738
G1 X175.525 Y180.695 E1.6754
G1 X175.158 Y180.752 E1.6847
G1 X175.092 Y180.757 E1.6863
G1 X166.720 Y180.757 E1.8947
G1 X166.654 Y180.752 E1.8963
G1 X166.287 Y180.696 E1.9055
G1 X166.222 Y180.680 E1.9072
G1 X159.828 Y178.674 E2.0739
G1 X159.820 Y178.672 E2.0741
G1 X159.778 Y178.658 E2.0752
G1 X159.771 Y178.655 E2.0754
G1 X159.413 Y178.529 E2.0849
G1 X159.391 Y178.520 E2.0855
G1 X159.268 Y178.469 E2.0888
G1 X159.247 Y178.459 E2.0894
G1 X158.608 Y178.151 E2.1070
G1 X158.587 Y178.141 E2.1076
G1 X158.471 Y178.077 E2.1109
G1 X158.451 Y178.065 E2.1115
G1 X158.091 Y177.841 E2.1220
G1 X158.071 Y177.828 E2.1226
G1 X157.962 Y177.751 E2.1259
G1 X157.943 Y177.737 E2.1265
G1 X157.363 Y177.281 E2.1449
G1 X157.339 Y177.260 E2.1457
G1 X157.208 Y177.140 E2.1501
G1 X157.185 Y177.118 E2.1509
G1 X156.662 Y176.566 E2.1698
G1 X156.641 Y176.543 E2.1706
G1 X156.529 Y176.405 E2.1750
G1 X156.510 Y176.380 E2.1758
G1 X156.085 Y175.776 E2.1942
G1 X156.072 Y175.756 E2.1948
G1 X156.002 Y175.643 E2.1981
G1 X155.989 Y175.623 E2.1987
G1 X155.784 Y175.251 E2.2092
G1 X155.774 Y175.230 E2.2098
G1 X155.716 Y175.110 E2.2131
G1 X155.706 Y175.088 E2.2137
G1 X155.431 Y174.427 E2.2315
G1 X155.422 Y174.405 E2.2321
G1 X155.378 Y174.279 E2.2354
G1 X155.371 Y174.257 E2.2360
G1 X155.251 Y173.849 E2.2466
G1 X155.245 Y173.826 E2.2472
G1 X155.215 Y173.696 E2.2505
G1 X155.210 Y173.673 E2.2511
G1 X155.133 Y173.238 E2.2621
G1 X154.865 Y172.429 E2.2833
G1 X154.716 Y172.056 E2.2933
G1 X154.317 Y171.200 E2.3168
G1 X153.866 Y170.400 E2.3396
G1 X153.354 Y169.637 E2.3625
G1 X152.785 Y168.917 E2.3854
G1 X152.162 Y168.242 E2.4082
G1 X151.489 Y167.618 E2.4311
G1 X150.769 Y167.047 E2.4539
G1 X150.007 Y166.534 E2.4768
G1 X149.194 Y166.073 E2.5000
G1 X148.386 Y165.683 E2.5224
G1 X148.121 Y165.597 E2.5293
G1 X148.096 Y165.592 E2.5299
G1 X147.811 Y165.560 E2.5371
G1 X146.070 Y165.593 E2.5804
G1 X145.675 Y165.388 E2.5915
G1 X144.209 Y163.216 E2.6567
G1 X144.166 Y162.773 E2.6677
G1 X145.701 Y159.167 E2.7653
G1 X144.170 Y155.575 E2.8624
G1 X144.210 Y155.136 E2.8734
G1 X145.639 Y152.974 E2.9379
G1 X145.883 Y153.240 F6000
G92 E0
G1 X146.116 Y153.115 E0.0066 F900
G1 X153.656 Y153.115 E0.1942
G1 X153.849 Y153.195 E0.1994
G1 X155.168 Y154.514 E0.2458
G1 X155.248 Y154.707 E0.2510
G1 X155.248 Y159.185 E0.3624
G1 X155.251 Y159.258 E0.3643
G1 X155.271 Y159.380 E0.3674
G1 X155.303 Y159.472 E0.3698
G1 X155.366 Y159.569 E0.3726
G1 X155.435 Y159.633 E0.3750
G1 X155.501 Y159.676 E0.3770
G1 X155.590 Y159.715 E0.3794
G1 X155.696 Y159.733 E0.3820
G1 X157.703 Y159.753 E0.4320
