; G-Code generated by Simplify3D(R) Version 4.0.1
; Aug 25, 2019 at 5:46:02 PM
; Settings Summary
;   processName,Process1
;   applyToModels,ALL_BLT_LEFT_X-48_Y-10_3.29
;   profileName,101 Tevo Tornado (experimental)
;   profileVersion,2019-08-25 11:58:37
;   baseProfile,Creality CR-10(2)
;   printMaterial,PLA
;   printQuality,Medium
;   printExtruders,
;   extruderName,Primary Extruder
;   extruderToolheadNumber,0
;   extruderDiameter,0.4
;   extruderAutoWidth,0
;   extruderWidth,0.35
;   extrusionMultiplier,0.95
;   extruderUseRetract,1
;   extruderRetractionDistance,6
;   extruderExtraRestartDistance,0
;   extruderRetractionZLift,0.3
;   extruderRetractionSpeed,3000
;   extruderUseCoasting,0
;   extruderCoastingDistance,0.2
;   extruderUseWipe,0
;   extruderWipeDistance,4
;   primaryExtruder,0
;   layerHeight,0.15
;   topSolidLayers,4
;   bottomSolidLayers,3
;   perimeterOutlines,3
;   printPerimetersInsideOut,0
;   startPointOption,3
;   startPointOriginX,0
;   startPointOriginY,300
;   sequentialIslands,0
;   spiralVaseMode,0
;   firstLayerHeightPercentage,120
;   firstLayerWidthPercentage,100
;   firstLayerUnderspeed,0.5
;   useRaft,0
;   raftExtruder,0
;   raftTopLayers,3
;   raftBaseLayers,2
;   raftOffset,3
;   raftSeparationDistance,0.14
;   raftTopInfill,100
;   aboveRaftSpeedMultiplier,0.3
;   useSkirt,1
;   skirtExtruder,0
;   skirtLayers,1
;   skirtOutlines,3
;   skirtOffset,2
;   usePrimePillar,0
;   primePillarExtruder,999
;   primePillarWidth,12
;   primePillarLocation,7
;   primePillarSpeedMultiplier,1
;   useOozeShield,0
;   oozeShieldExtruder,999
;   oozeShieldOffset,2
;   oozeShieldOutlines,1
;   oozeShieldSidewallShape,1
;   oozeShieldSidewallAngle,30
;   oozeShieldSpeedMultiplier,1
;   infillExtruder,0
;   internalInfillPattern,Rectilinear
;   externalInfillPattern,Rectilinear
;   infillPercentage,15
;   outlineOverlapPercentage,15
;   infillExtrusionWidthPercentage,100
;   minInfillLength,5
;   infillLayerInterval,1
;   internalInfillAngles,45,-45
;   overlapInternalInfillAngles,0
;   externalInfillAngles,45,-45
;   generateSupport,0
;   supportExtruder,0
;   supportInfillPercentage,30
;   supportExtraInflation,0
;   supportBaseLayers,0
;   denseSupportExtruder,0
;   denseSupportLayers,0
;   denseSupportInfillPercentage,70
;   supportLayerInterval,1
;   supportHorizontalPartOffset,0.4
;   supportUpperSeparationLayers,1
;   supportLowerSeparationLayers,1
;   supportType,0
;   supportGridSpacing,4.5
;   maxOverhangAngle,45
;   supportAngles,0
;   temperatureName,Primary Extruder,Heated Bed
;   temperatureNumber,0,0
;   temperatureSetpointCount,2,1
;   temperatureSetpointLayers,1,2,1
;   temperatureSetpointTemperatures,210,205,50
;   temperatureStabilizeAtStartup,1,1
;   temperatureHeatedBed,0,1
;   temperatureRelayBetweenLayers,0,0
;   temperatureRelayBetweenLoops,0,0
;   fanLayers,1,2
;   fanSpeeds,0,100
;   blipFanToFullPower,0
;   adjustSpeedForCooling,1
;   minSpeedLayerTime,15
;   minCoolingSpeedSlowdown,50
;   increaseFanForCooling,1
;   minFanLayerTime,25
;   maxCoolingFanSpeed,100
;   increaseFanForBridging,1
;   bridgingFanSpeed,100
;   use5D,1
;   relativeEdistances,0
;   allowEaxisZeroing,1
;   independentExtruderAxes,0
;   includeM10123,0
;   stickySupport,1
;   applyToolheadOffsets,0
;   gcodeXoffset,0
;   gcodeYoffset,0
;   gcodeZoffset,0
;   overrideMachineDefinition,1
;   machineTypeOverride,0
;   strokeXoverride,300
;   strokeYoverride,300
;   strokeZoverride,400
;   originOffsetXoverride,0
;   originOffsetYoverride,0
;   originOffsetZoverride,0
;   homeXdirOverride,-1
;   homeYdirOverride,-1
;   homeZdirOverride,-1
;   flipXoverride,1
;   flipYoverride,-1
;   flipZoverride,1
;   toolheadOffsets,0,0|0,0|0,0|0,0|0,0|0,0
;   overrideFirmwareConfiguration,1
;   firmwareTypeOverride,RepRap (Marlin/Repetier/Sprinter)
;   GPXconfigOverride,r2
;   baudRateOverride,250000
;   overridePrinterModels,1
;   printerModelsOverride
;   startingGcode,;Init 181010,;G28 			; Home all axes,;G1 Z5 F3000 ; lift,;G92 E0			; Reset extrusion distance,,; // From Cura 181010,; // Update 190823 (GueroLoco),; // Start_gcode,M117 *Start Clean*		; Indicate nozzle clean in progress on LCD,;,M104 S[extruder0_temperature] ,M109 S[extruder0_temperature] ,M109 R[extruder0_temperature] ,;,M107			; Turn layer fan off,G21			; Set to metric [change to G20 if you want Imperial],G90			; Force coordinates to be absolute relative to the origin,G28			; Home X/Y/Z axis,;,;G1 X3 Y1 Z15 F9000		; Move safe Z height to shear strings,;G0 X1 Y1 Z0.2 F9000		; Move in 1mm from edge and up [z] 0.2mm,;G92 E0			; Set extruder to [0] zero,;G1 X100 E12 F500		; Extrude 30mm filiment along X axis 100mm long to prime and clean the nozzle,;G92 E0			; Reset extruder to [0] zero end of cleaning run,;G1 E-1 F500			; Retract filiment by 1 mm to reduce string effect,;G1 X180 F4000		; Quick wipe away from the filament line / purge,;,G92 E0			; Set Extruder to 0 ,G1 X0 Y0 F2000		; Move X and Y to 0 with speed 2000 (mm/min),G1 Z0.1 F1000		; Move Z to 0.1,G1 X8.0 F2000		; Move X to 8.0,G1 Y60.0 E4.0 F1000.0		; Prime - Move Y to 60 and Extruder with 4.0,G1 Y100.0 E8.5 F1000.0		; Prime - Move Y to 100 and Extruder with 8.5,G92 E0			; Set extruder to 0,M117 *End Clean*		; Indicate nozzle clean in progress on LCD,G1 Z5 F3000			; Lift - Move Z to 5,; ,M117 *Printing...*		; start msg,; // Begin printing with sliced GCode after here,;
;   layerChangeGcode,
;   retractionGcode,
;   toolChangeGcode,
;   endingGcode,;,; init 181010,;,;M107 			; Fan off,;G1 E-1 F300 			; Retract the filament a bit before lifting the nozzle,;M104 S0 			; Turn off extruder,;M140 S0 			; Turn off bed,;G91			; Relative positioning,;G28 X0 Y0 			; Move X/Y to min endstops so the head is out of teh way,;M84 			; Disable motors,;G90 			; Absolute positioning,;M117 Print ready...,,;,; // From Cura 181010,; // End_gcode,G92 E0			; Zero the extruded length,G1 E-30 F300			; Retract E -30,M106 S0			; Turn off cooling fan,M104 S0			; Turn off temperature,M140 S0		     	; Turn off bed,G91			; Relative positioning,G1 E-1 F300			; Retract the filament a bit before lifting the nozzle to release some of the pressure,G1 Z+20 E-5 X-20 Y-20 F7200	; Move Z up a bit and retract filament even more,G1 X0 Y150 F10000		; Move right min,M107			; Turn off layer fan,M84			; Disable motors,G90			; Absolute positioning,M117 *The-End* 		; End msg,;,
;   exportFileFormat,gcode
;   celebration,0
;   celebrationSong,Star Wars
;   postProcessing,
;   defaultSpeed,1800
;   outlineUnderspeed,0.5
;   solidInfillUnderspeed,0.8
;   supportUnderspeed,0.8
;   rapidXYspeed,6000
;   rapidZspeed,1002
;   minBridgingArea,50
;   bridgingExtraInflation,0.2
;   bridgingExtrusionMultiplier,1
;   bridgingSpeedMultiplier,0.6
;   useFixedBridgingAngle,0
;   fixedBridgingAngle,0
;   applyBridgingToPerimeters,0
;   filamentDiameters,1.75|1.75|1.75|1.75|1.75|1.75
;   filamentPricesPerKg,30|46|46|46|46|46
;   filamentDensities,1.25|1.25|1.25|1.25|1.25|1.25
;   useMinPrintHeight,0
;   minPrintHeight,0
;   useMaxPrintHeight,0
;   maxPrintHeight,9
;   useDiaphragm,0
;   diaphragmLayerInterval,20
;   robustSlicing,1
;   mergeAllIntoSolid,0
;   onlyRetractWhenCrossingOutline,1
;   retractBetweenLayers,1
;   useRetractionMinTravel,0
;   retractionMinTravel,3
;   retractWhileWiping,0
;   onlyWipeOutlines,1
;   avoidCrossingOutline,0
;   maxMovementDetourFactor,3
;   toolChangeRetractionDistance,12
;   toolChangeExtraRestartDistance,-0.5
;   toolChangeRetractionSpeed,600
;   externalThinWallType,1
;   internalThinWallType,1
;   thinWallAllowedOverlapPercentage,15
;   singleExtrusionMinLength,1
;   singleExtrusionMinPrintingWidthPercentage,50
;   singleExtrusionMaxPrintingWidthPercentage,200
;   singleExtrusionEndpointExtension,0.2
;   horizontalSizeCompensation,0
G90
M82
M106 S0
M140 S50
M190 S50
;Init 181010
;G28 			; Home all axes
;G1 Z5 F3000 ; lift
;G92 E0			; Reset extrusion distance
; // From Cura 181010
; // Update 190823 (GueroLoco)
; // Start_gcode
M117 *Start Clean*		; Indicate nozzle clean in progress on LCD
;
M104 S210 
M109 S210 
M109 R210 
;
M107			; Turn layer fan off
G21			; Set to metric [change to G20 if you want Imperial]
G90			; Force coordinates to be absolute relative to the origin
G28			; Home X/Y/Z axis
;
;G1 X3 Y1 Z15 F9000		; Move safe Z height to shear strings
;G0 X1 Y1 Z0.2 F9000		; Move in 1mm from edge and up [z] 0.2mm
;G92 E0			; Set extruder to [0] zero
;G1 X100 E12 F500		; Extrude 30mm filiment along X axis 100mm long to prime and clean the nozzle
;G92 E0			; Reset extruder to [0] zero end of cleaning run
;G1 E-1 F500			; Retract filiment by 1 mm to reduce string effect
;G1 X180 F4000		; Quick wipe away from the filament line / purge
;
G92 E0			; Set Extruder to 0 
G1 X0 Y0 F2000		; Move X and Y to 0 with speed 2000 (mm/min)
G1 Z0.1 F1000		; Move Z to 0.1
G1 X8.0 F2000		; Move X to 8.0
G1 Y60.0 E4.0 F1000.0		; Prime - Move Y to 60 and Extruder with 4.0
G1 Y100.0 E8.5 F1000.0		; Prime - Move Y to 100 and Extruder with 8.5
G92 E0			; Set extruder to 0
M117 *End Clean*		; Indicate nozzle clean in progress on LCD
G1 Z5 F3000			; Lift - Move Z to 5
; 
M117 *Printing...*		; start msg
; // Begin printing with sliced GCode after here
;
G92 E0
G1 E-6.0000 F3000
G1 Z0.480 F1002
; process Process1
; layer 1, Z = 0.180
T0
; tool H0.180 W0.350
; skirt
G1 X139.598 Y147.700 F6000
G1 Z0.180 F1002
G1 E0.0000 F900
G92 E0
G1 X139.651 Y147.659 E0.0017 F900
G1 X139.961 Y147.451 E0.0110
G1 X140.020 Y147.419 E0.0126
G1 X147.608 Y143.880 E0.2210
G1 X147.670 Y143.857 E0.2226
G1 X148.027 Y143.753 E0.2319
G1 X148.092 Y143.739 E0.2335
G1 X150.039 Y143.480 E0.2824
G1 X150.238 Y143.431 E0.2875
G1 X150.294 Y143.376 E0.2894
G1 X150.298 Y143.361 E0.2898
G1 X150.301 Y143.343 E0.2903
G1 X150.312 Y137.709 E0.4305
G1 X150.445 Y137.387 E0.4391
G1 X151.862 Y135.973 E0.4890
G1 X152.183 Y135.840 E0.4976
G1 X165.693 Y135.840 E0.8338
G1 X166.015 Y135.973 E0.8424
G1 X167.433 Y137.391 E0.8923
G1 X167.566 Y137.713 E0.9010
G1 X167.566 Y142.545 E1.0212
G1 X167.563 Y142.592 E1.0224
G1 X167.536 Y142.851 E1.0289
G1 X167.528 Y142.897 E1.0300
G1 X167.382 Y143.569 E1.0472
G1 X167.359 Y143.644 E1.0491
G1 X167.192 Y144.047 E1.0600
G1 X167.156 Y144.116 E1.0619
G1 X166.798 Y144.675 E1.0784
G1 X166.750 Y144.736 E1.0803
G1 X166.454 Y145.055 E1.0912
G1 X166.396 Y145.107 E1.0931
G1 X165.745 Y145.596 E1.1134
G1 X165.665 Y145.644 E1.1157
G1 X165.192 Y145.862 E1.1286
G1 X165.103 Y145.891 E1.1310
G1 X164.386 Y146.050 E1.1492
G1 X164.339 Y146.058 E1.1504
G1 X164.075 Y146.087 E1.1571
G1 X164.027 Y146.090 E1.1582
G1 X161.980 Y146.090 E1.2092
G1 X161.974 Y150.523 E1.3195
G1 X161.973 Y150.561 E1.3204
G1 X161.955 Y150.767 E1.3256
G1 X161.950 Y150.804 E1.3265
G1 X161.773 Y151.827 E1.3523
G1 X161.765 Y151.864 E1.3533
G1 X161.711 Y152.068 E1.3585
G1 X161.700 Y152.104 E1.3595
G1 X161.449 Y152.803 E1.3779
G1 X161.438 Y152.831 E1.3787
G1 X161.370 Y152.985 E1.3829
G1 X161.357 Y153.013 E1.3836
G1 X161.012 Y153.670 E1.4021
G1 X160.993 Y153.703 E1.4031
G1 X160.880 Y153.881 E1.4083
G1 X160.858 Y153.912 E1.4093
G1 X160.224 Y154.736 E1.4351
G1 X160.200 Y154.764 E1.4361
G1 X160.057 Y154.920 E1.4413
G1 X160.031 Y154.946 E1.4422
G1 X155.332 Y159.257 E1.6009
G1 X155.280 Y159.298 E1.6026
G1 X154.969 Y159.506 E1.6119
G1 X154.911 Y159.539 E1.6135
G1 X147.322 Y163.078 E1.8219
G1 X147.259 Y163.101 E1.8235
G1 X146.902 Y163.206 E1.8328
G1 X146.836 Y163.219 E1.8345
G1 X139.865 Y164.137 E2.0094
G1 X139.836 Y164.140 E2.0102
G1 X139.672 Y164.151 E2.0142
G1 X139.643 Y164.152 E2.0150
G1 X138.930 Y164.149 E2.0327
G1 X138.900 Y164.148 E2.0335
G1 X138.733 Y164.136 E2.0376
G1 X138.704 Y164.133 E2.0384
G1 X137.996 Y164.033 E2.0561
G1 X137.967 Y164.028 E2.0569
G1 X137.803 Y163.993 E2.0610
G1 X137.774 Y163.986 E2.0618
G1 X137.087 Y163.790 E2.0796
G1 X137.059 Y163.781 E2.0803
G1 X136.902 Y163.724 E2.0845
G1 X136.874 Y163.713 E2.0852
G1 X136.220 Y163.426 E2.1030
G1 X136.193 Y163.413 E2.1037
G1 X136.045 Y163.335 E2.1079
G1 X136.019 Y163.321 E2.1086
G1 X135.392 Y162.935 E2.1269
G1 X135.361 Y162.915 E2.1279
G1 X135.194 Y162.790 E2.1331
G1 X135.164 Y162.767 E2.1340
G1 X134.376 Y162.072 E2.1601
G1 X134.344 Y162.041 E2.1612
G1 X134.174 Y161.857 E2.1675
G1 X134.145 Y161.822 E2.1686
G1 X133.500 Y160.961 E2.1954
G1 X133.475 Y160.923 E2.1965
G1 X133.346 Y160.707 E2.2028
G1 X133.325 Y160.668 E2.2039
G1 X132.881 Y159.716 E2.2300
G1 X132.866 Y159.681 E2.2310
G1 X132.795 Y159.486 E2.2361
G1 X132.783 Y159.450 E2.2371
G1 X132.591 Y158.745 E2.2552
G1 X132.585 Y158.716 E2.2560
G1 X132.552 Y158.554 E2.2601
G1 X132.547 Y158.524 E2.2608
G1 X132.455 Y157.816 E2.2786
G1 X132.452 Y157.787 E2.2794
G1 X132.442 Y157.620 E2.2835
G1 X132.441 Y157.590 E2.2843
G1 X132.446 Y156.855 E2.3026
G1 X132.448 Y156.817 E2.3035
G1 X132.468 Y156.609 E2.3087
G1 X132.473 Y156.572 E2.3096
G1 X132.655 Y155.559 E2.3352
G1 X132.664 Y155.523 E2.3362
G1 X132.718 Y155.321 E2.3413
G1 X132.729 Y155.286 E2.3423
G1 X132.981 Y154.595 E2.3606
G1 X132.993 Y154.567 E2.3613
G1 X133.060 Y154.415 E2.3655
G1 X133.073 Y154.388 E2.3662
G1 X133.417 Y153.738 E2.3845
G1 X133.436 Y153.705 E2.3854
G1 X133.549 Y153.530 E2.3906
G1 X133.571 Y153.499 E2.3916
G1 X134.200 Y152.685 E2.4172
G1 X134.224 Y152.656 E2.4181
G1 X134.365 Y152.503 E2.4233
G1 X134.391 Y152.477 E2.4242
G1 X139.598 Y147.700 E2.6000
G1 X139.825 Y147.967 F6000
G92 E0
G1 X139.857 Y147.943 E0.0010 F900
G1 X140.145 Y147.750 E0.0096
G1 X140.180 Y147.730 E0.0106
G1 X147.744 Y144.203 E0.2183
G1 X147.781 Y144.189 E0.2193
G1 X148.112 Y144.092 E0.2279
G1 X148.151 Y144.084 E0.2289
G1 X150.105 Y143.825 E0.2779
G1 X150.392 Y143.753 E0.2853
G1 X150.413 Y143.743 E0.2858
G1 X150.432 Y143.731 E0.2864
G1 X150.576 Y143.589 E0.2914
G1 X150.587 Y143.574 E0.2919
G1 X150.619 Y143.508 E0.2937
G1 X150.640 Y143.441 E0.2955
G1 X150.651 Y143.370 E0.2973
G1 X150.661 Y137.779 E0.4364
G1 X150.741 Y137.586 E0.4416
G1 X152.060 Y136.270 E0.4879
G1 X152.253 Y136.190 E0.4931
G1 X165.624 Y136.190 E0.8258
G1 X165.817 Y136.270 E0.8310
G1 X167.136 Y137.589 E0.8775
G1 X167.216 Y137.782 E0.8826
G1 X167.216 Y142.536 E1.0009
G1 X167.214 Y142.564 E1.0016
G1 X167.189 Y142.805 E1.0077
G1 X167.184 Y142.832 E1.0084
G1 X167.044 Y143.480 E1.0248
G1 X167.030 Y143.525 E1.0260
G1 X166.875 Y143.899 E1.0361
G1 X166.853 Y143.940 E1.0372
G1 X166.512 Y144.473 E1.0530
G1 X166.483 Y144.509 E1.0541
G1 X166.208 Y144.805 E1.0642
G1 X166.174 Y144.836 E1.0654
G1 X165.550 Y145.305 E1.0848
G1 X165.502 Y145.334 E1.0862
G1 X165.062 Y145.536 E1.0982
G1 X165.009 Y145.554 E1.0996
G1 X164.320 Y145.707 E1.1172
G1 X164.292 Y145.711 E1.1179
G1 X164.046 Y145.738 E1.1240
G1 X164.017 Y145.740 E1.1247
G1 X161.630 Y145.740 E1.1841
G1 X161.624 Y150.516 E1.3030
G1 X161.623 Y150.538 E1.3035
G1 X161.607 Y150.730 E1.3083
G1 X161.604 Y150.752 E1.3089
G1 X161.429 Y151.760 E1.3343
G1 X161.424 Y151.782 E1.3349
G1 X161.375 Y151.971 E1.3397
G1 X161.368 Y151.993 E1.3403
G1 X161.122 Y152.679 E1.3585
G1 X161.115 Y152.696 E1.3589
G1 X161.052 Y152.839 E1.3628
G1 X161.044 Y152.856 E1.3632
G1 X160.706 Y153.501 E1.3814
G1 X160.694 Y153.521 E1.3820
G1 X160.589 Y153.686 E1.3868
G1 X160.576 Y153.704 E1.3874
G1 X159.951 Y154.516 E1.4129
G1 X159.937 Y154.534 E1.4134
G1 X159.805 Y154.678 E1.4183
G1 X159.789 Y154.694 E1.4189
G1 X155.106 Y158.990 E1.5770
G1 X155.074 Y159.015 E1.5780
G1 X154.786 Y159.208 E1.5866
G1 X154.751 Y159.227 E1.5876
G1 X147.186 Y162.755 E1.7953
G1 X147.149 Y162.769 E1.7963
G1 X146.816 Y162.866 E1.8049
G1 X146.777 Y162.874 E1.8059
G1 X139.825 Y163.790 E1.9804
G1 X139.808 Y163.791 E1.9808
G1 X139.656 Y163.801 E1.9846
G1 X139.638 Y163.802 E1.9851
G1 X138.937 Y163.799 E2.0025
G1 X138.919 Y163.799 E2.0030
G1 X138.764 Y163.787 E2.0068
G1 X138.747 Y163.786 E2.0073
G1 X138.051 Y163.687 E2.0247
G1 X138.033 Y163.684 E2.0252
G1 X137.882 Y163.652 E2.0290
G1 X137.864 Y163.648 E2.0295
G1 X137.189 Y163.455 E2.0470
G1 X137.172 Y163.450 E2.0474
G1 X137.026 Y163.397 E2.0513
G1 X137.009 Y163.391 E2.0517
G1 X136.366 Y163.108 E2.0692
G1 X136.350 Y163.100 E2.0696
G1 X136.213 Y163.028 E2.0735
