; G-Code generated by Simplify3D(R) Version 4.1.2
; Jun 11, 2022 at 1:05:59 PM
; Settings Summary
;   processName,Process1
;   applyToModels,Pagoda-base
;   profileName,A11-04-35 Tevo Tornado
;   profileVersion,2022-06-10 08:12:42
;   baseProfile,Creality CR-10(2)
;   printMaterial,PLA
;   printQuality,Medium
;   printExtruders,
;   extruderName,Primary Extruder
;   extruderToolheadNumber,0
;   extruderDiameter,0.4
;   extruderAutoWidth,0
;   extruderWidth,0.35
;   extrusionMultiplier,0.95
;   extruderUseRetract,1
;   extruderRetractionDistance,4.2
;   extruderExtraRestartDistance,0
;   extruderRetractionZLift,0.1
;   extruderRetractionSpeed,6600
;   extruderUseCoasting,1
;   extruderCoastingDistance,0.6
;   extruderUseWipe,1
;   extruderWipeDistance,5
;   primaryExtruder,0
;   layerHeight,0.15
;   topSolidLayers,5
;   bottomSolidLayers,4
;   perimeterOutlines,3
;   printPerimetersInsideOut,0
;   startPointOption,1
;   startPointOriginX,0
;   startPointOriginY,300
;   sequentialIslands,0
;   spiralVaseMode,0
;   firstLayerHeightPercentage,120
;   firstLayerWidthPercentage,100
;   firstLayerUnderspeed,0.4
;   useRaft,0
;   raftExtruder,0
;   raftTopLayers,3
;   raftBaseLayers,2
;   raftOffset,3
;   raftSeparationDistance,0.14
;   raftTopInfill,100
;   aboveRaftSpeedMultiplier,0.3
;   useSkirt,1
;   skirtExtruder,0
;   skirtLayers,1
;   skirtOutlines,2
;   skirtOffset,3
;   usePrimePillar,0
;   primePillarExtruder,999
;   primePillarWidth,12
;   primePillarLocation,7
;   primePillarSpeedMultiplier,1
;   useOozeShield,0
;   oozeShieldExtruder,999
;   oozeShieldOffset,2
;   oozeShieldOutlines,1
;   oozeShieldSidewallShape,1
;   oozeShieldSidewallAngle,30
;   oozeShieldSpeedMultiplier,1
;   infillExtruder,0
;   internalInfillPattern,Rectilinear
;   externalInfillPattern,Rectilinear
;   infillPercentage,35
;   outlineOverlapPercentage,15
;   infillExtrusionWidthPercentage,100
;   minInfillLength,5
;   infillLayerInterval,1
;   internalInfillAngles,45,-45
;   overlapInternalInfillAngles,0
;   externalInfillAngles,45,-45
;   generateSupport,0
;   supportExtruder,0
;   supportInfillPercentage,30
;   supportExtraInflation,0
;   supportBaseLayers,0
;   denseSupportExtruder,0
;   denseSupportLayers,0
;   denseSupportInfillPercentage,70
;   supportLayerInterval,1
;   supportHorizontalPartOffset,0.4
;   supportUpperSeparationLayers,1
;   supportLowerSeparationLayers,1
;   supportType,0
;   supportGridSpacing,4.5
;   maxOverhangAngle,45
;   supportAngles,0
;   temperatureName,Primary Extruder,Heated Bed
;   temperatureNumber,0,0
;   temperatureSetpointCount,2,2
;   temperatureSetpointLayers,1,2,1,2
;   temperatureSetpointTemperatures,215,205,55,50
;   temperatureStabilizeAtStartup,1,1
;   temperatureHeatedBed,0,1
;   fanLayers,1,2
;   fanSpeeds,0,100
;   blipFanToFullPower,0
;   adjustSpeedForCooling,1
;   minSpeedLayerTime,15
;   minCoolingSpeedSlowdown,20
;   increaseFanForCooling,1
;   minFanLayerTime,25
;   maxCoolingFanSpeed,100
;   increaseFanForBridging,1
;   bridgingFanSpeed,100
;   use5D,1
;   relativeEdistances,0
;   allowEaxisZeroing,1
;   independentExtruderAxes,0
;   includeM10123,0
;   stickySupport,1
;   applyToolheadOffsets,0
;   gcodeXoffset,0
;   gcodeYoffset,0
;   gcodeZoffset,0
;   overrideMachineDefinition,1
;   machineTypeOverride,0
;   strokeXoverride,300
;   strokeYoverride,300
;   strokeZoverride,400
;   originOffsetXoverride,0
;   originOffsetYoverride,0
;   originOffsetZoverride,0
;   homeXdirOverride,-1
;   homeYdirOverride,-1
;   homeZdirOverride,-1
;   flipXoverride,1
;   flipYoverride,-1
;   flipZoverride,1
;   toolheadOffsets,0,0|0,0|0,0|0,0|0,0|0,0
;   overrideFirmwareConfiguration,1
;   firmwareTypeOverride,RepRap (Marlin/Repetier/Sprinter)
;   GPXconfigOverride,r2
;   baudRateOverride,250000
;   overridePrinterModels,1
;   printerModelsOverride
;   startingGcode,;,; -]H.P.B[- MarshMalloW  ,; $VER: StartScript 1.02 (26.12.2019) MarshMalloW,;,; Begin Startcode,;,M117 *Preheat*     	; Preheat,;extruder0_temperature,M104 S[extruder0_temperature]  ,M109 S[extruder0_temperature] ,M109 R[extruder0_temperature] ,;,M117 *Auto-leveling*     	; Auto-leveling,M107                   	; Turn layer fan off,G21                    	; Set to metric [change to G20 if you want Imperial],G90                    	; Force coordinates to be absolute relative to the origin,G28                    	; Home X/Y/Z axis,G29                    	; Auto-leveling (BL-Touch),;,M117 *Start Clean*     	; Indicate nozzle clean in progress on LCD,G92 E0                 	; Set Extruder to 0 ,G1 X0 Y0 F2000         	; Move X and Y to 0 with speed 2000 (mm/min),G1 Z0.1 F1000          	; Move Z to   0.1 with speed 1000 (mm/min),G1 X8.0 F2000          	; Move X to   8.0 with speed 2000 (mm/min),G1 Y60.0 E4.0 F1000.0  	; Move Y to  60 and Extruder with 4.0 with speed 1000 (mm/min),G1 Y100.0 E8.5 F1000.0 	; Move Y to 100 and Extruder with 8.5 with speed 1000 (mm/min),G92 E0                 	; Set extruder to 0,G1 X16.0 F3000         	; Move X to 16.0 with speed 3000 (mm/min),G1 Y60.0 F3000         	; Move Y to 60.0 with speed 3000 (mm/min),M117 *End Clean*       	; Indicate nozzle clean in progress on LCD,G1 Z5 F3000            	; Move Z to  5.0 with speed 3000 (mm/min),G1 X20.0 F3000         	; Move X to 20.0 with speed 3000 (mm/min),G1 Y20.0 F3000         	; Move Y to 20.0 with speed 3000 (mm/min),; ,M117 *Printing...*     	; Start printing msg on LCD,;,; End Startcode,;,; Begin printing with sliced GCode after here,;
;   layerChangeGcode,
;   retractionGcode,
;   toolChangeGcode,
;   endingGcode,;,; init 181010,;,;M107 			; Fan off,;G1 E-1 F300 			; Retract the filament a bit before lifting the nozzle,;M104 S0 			; Turn off extruder,;M140 S0 			; Turn off bed,;G91			; Relative positioning,;G28 X0 Y0 			; Move X/Y to min endstops so the head is out of teh way,;M84 			; Disable motors,;G90 			; Absolute positioning,;M117 Print ready...,,;,; // From Cura 181010,; // End_gcode,G92 E0			; Zero the extruded length,;G1 E-30 F300		; Retract E -30,M106 S0			; Turn off cooling fan,M104 S0			; Turn off temperature,M140 S0		     	; Turn off bed,G91			; Relative positioning,G1 E-1 F300			; Retract the filament a bit before lifting the nozzle to release some of the pressure,G1 Z+20 E-5 X-20 Y-20 F7200	; Move Z up a bit and retract filament even more,G1 X0 Y150 F10000		; Move right min,M107			; Turn off layer fan,M84			; Disable motors,G90			; Absolute positioning,M117 *The-End* 		; End msg,;,
;   exportFileFormat,gcode
;   celebration,0
;   celebrationSong,Star Wars
;   postProcessing,|{REPLACE "; layer " "M117 INDICATOR-Layer"}|{REPLACE ", Z = " "\n; Z="}
;   defaultSpeed,2400
;   outlineUnderspeed,0.6
;   solidInfillUnderspeed,0.8
;   supportUnderspeed,0.8
;   rapidXYspeed,3600
;   rapidZspeed,900
;   minBridgingArea,50
;   bridgingExtraInflation,0.2
;   bridgingExtrusionMultiplier,1
;   bridgingSpeedMultiplier,0.6
;   useFixedBridgingAngle,0
;   fixedBridgingAngle,0
;   applyBridgingToPerimeters,0
;   filamentDiameters,1.75|1.75|1.75|1.75|1.75|1.75
;   filamentPricesPerKg,30|46|46|46|46|46
;   filamentDensities,1.25|1.25|1.25|1.25|1.25|1.25
;   useMinPrintHeight,0
;   minPrintHeight,0
;   useMaxPrintHeight,0
;   maxPrintHeight,50
;   useDiaphragm,0
;   diaphragmLayerInterval,20
;   robustSlicing,1
;   mergeAllIntoSolid,0
;   onlyRetractWhenCrossingOutline,1
;   retractBetweenLayers,1
;   useRetractionMinTravel,0
;   retractionMinTravel,3
;   retractWhileWiping,1
;   onlyWipeOutlines,0
;   avoidCrossingOutline,1
;   maxMovementDetourFactor,3
;   toolChangeRetractionDistance,12
;   toolChangeExtraRestartDistance,-0.5
;   toolChangeRetractionSpeed,600
;   externalThinWallType,1
;   internalThinWallType,1
;   thinWallAllowedOverlapPercentage,20
;   singleExtrusionMinLength,1
;   singleExtrusionMinPrintingWidthPercentage,50
;   singleExtrusionMaxPrintingWidthPercentage,200
;   singleExtrusionEndpointExtension,0.2
;   horizontalSizeCompensation,0
G90
M82
M106 S0
M140 S55
M190 S55
;
; -]H.P.B[- MarshMalloW  
; $VER: StartScript 1.02 (26.12.2019) MarshMalloW
;
; Begin Startcode
;
M117 *Preheat*     	; Preheat
;extruder0_temperature
M104 S215  
M109 S215 
M109 R215 
;
M117 *Auto-leveling*     	; Auto-leveling
M107                   	; Turn layer fan off
G21                    	; Set to metric [change to G20 if you want Imperial]
G90                    	; Force coordinates to be absolute relative to the origin
G28                    	; Home X/Y/Z axis
G29                    	; Auto-leveling (BL-Touch)
;
M117 *Start Clean*     	; Indicate nozzle clean in progress on LCD
G92 E0                 	; Set Extruder to 0 
G1 X0 Y0 F2000         	; Move X and Y to 0 with speed 2000 (mm/min)
G1 Z0.1 F1000          	; Move Z to   0.1 with speed 1000 (mm/min)
G1 X8.0 F2000          	; Move X to   8.0 with speed 2000 (mm/min)
G1 Y60.0 E4.0 F1000.0  	; Move Y to  60 and Extruder with 4.0 with speed 1000 (mm/min)
G1 Y100.0 E8.5 F1000.0 	; Move Y to 100 and Extruder with 8.5 with speed 1000 (mm/min)
G92 E0                 	; Set extruder to 0
G1 X16.0 F3000         	; Move X to 16.0 with speed 3000 (mm/min)
G1 Y60.0 F3000         	; Move Y to 60.0 with speed 3000 (mm/min)
M117 *End Clean*       	; Indicate nozzle clean in progress on LCD
G1 Z5 F3000            	; Move Z to  5.0 with speed 3000 (mm/min)
G1 X20.0 F3000         	; Move X to 20.0 with speed 3000 (mm/min)
G1 Y20.0 F3000         	; Move Y to 20.0 with speed 3000 (mm/min)
; 
M117 *Printing...*     	; Start printing msg on LCD
;
; End Startcode
;
; Begin printing with sliced GCode after here
;
; process Process1
M117 INDICATOR-Layer1
; Z=0.180
T0
G92 E0.0000
G1 E-4.2000 F6600
; feature skirt
; tool H0.180 W0.350
G1 Z0.180 F900
G1 X172.525 Y129.540 F3600
G1 E0.0000 F6600
G92 E0.0000
G1 X172.525 Y170.460 E1.0182 F960
G1 X170.460 Y172.525 E1.0909
G1 X129.540 Y172.525 E2.1091
G1 X127.475 Y170.460 E2.1817
G1 X127.475 Y129.540 E3.1999
G1 X129.540 Y127.475 E3.2726
G1 X170.460 Y127.475 E4.2908
G1 X172.525 Y129.540 E4.3635
G92 E0.0000
G1 E-4.2000 F6600
G1 Z0.280 F900
G1 X168.825 Y131.175 F3600
G1 X168.825 Y132.915
G1 X131.175 Y167.259
G1 X131.175 Y168.825
G1 X127.825 Y170.315
G1 Z0.180 F900
G1 E0.0000 F6600
G92 E0.0000
G1 X127.825 Y129.685 E1.0110 F960
G1 X129.685 Y127.825 E1.0764
G1 X170.315 Y127.825 E2.0874
G1 X172.175 Y129.685 E2.1529
G1 X172.175 Y170.315 E3.1639
G1 X170.315 Y172.175 E3.2293
G1 X129.685 Y172.175 E4.2403
G1 X127.825 Y170.315 E4.3058
G92 E0.0000
G1 E-4.2000 F6600
; feature outer perimeter
G1 Z0.280 F900
G1 X168.825 Y168.825 F3600
G1 Z0.180 F900
G1 E0.0000 F6600
G92 E0.0000
G1 X131.175 Y168.825 E0.9368 F576
G1 X131.175 Y131.175 E1.8737
G1 X168.825 Y131.175 E2.8105
G1 X168.825 Y168.225 E3.7324
G1 X168.825 Y168.825 F576
G1 X163.825 Y168.825 F576
; feature inner perimeter
G1 X168.475 Y168.475 F3600
G92 E0.0000
G1 X131.525 Y168.475 E0.9194 F768
G1 X131.525 Y131.525 E1.8388
G1 X168.475 Y131.525 E2.7583
G1 X168.475 Y167.875 E3.6627
G1 X168.475 Y168.475 F768
G1 X163.475 Y168.475 F768
G1 X168.125 Y168.125 F3600
G92 E0.0000
G1 X131.875 Y168.125 E0.9020 F768
G1 X131.875 Y131.875 E1.8040
G1 X168.125 Y131.875 E2.7060
G1 X168.125 Y167.525 E3.5931
G1 X168.125 Y168.125 F768
G1 X163.125 Y168.125 F768
; feature solid layer
G1 X132.189 Y167.827 F3600
G92 E0.0000
G1 X132.173 Y167.811 E0.0006 F768
G1 X132.173 Y167.316 E0.0129
G1 X132.684 Y167.827 E0.0309
G1 X133.179 Y167.827 E0.0432
G1 X132.173 Y166.821 E0.0787
G1 X132.173 Y166.326 E0.0910
G1 X133.674 Y167.827 E0.1438
G1 X134.169 Y167.827 E0.1561
G1 X132.173 Y165.831 E0.2264
G1 X132.173 Y165.336 E0.2387
G1 X134.664 Y167.827 E0.3264
G1 X135.159 Y167.827 E0.3387
G1 X132.173 Y164.841 E0.4438
G1 X132.173 Y164.346 E0.4561
G1 X135.654 Y167.827 E0.5787
G1 X136.149 Y167.827 E0.5910
G1 X132.173 Y163.851 E0.7309
G1 X132.173 Y163.356 E0.7432
G1 X136.644 Y167.827 E0.9006
G1 X137.139 Y167.827 E0.9129
G1 X132.173 Y162.861 E1.0877
G1 X132.173 Y162.366 E1.1000
G1 X137.634 Y167.827 E1.2922
G1 X138.129 Y167.827 E1.3045
G1 X132.173 Y161.871 E1.5141
G1 X132.173 Y161.376 E1.5264
G1 X138.624 Y167.827 E1.7534
G1 X139.119 Y167.827 E1.7658
G1 X132.173 Y160.881 E2.0102
G1 X132.173 Y160.386 E2.0225
G1 X139.614 Y167.827 E2.2844
G1 X140.109 Y167.827 E2.2967
G1 X132.173 Y159.891 E2.5760
G1 X132.173 Y159.396 E2.5883
G1 X140.604 Y167.827 E2.8850
G1 X141.099 Y167.827 E2.8973
G1 X132.173 Y158.901 E3.2114
G1 X132.173 Y158.406 E3.2237
G1 X141.594 Y167.827 E3.5553
G1 X142.089 Y167.827 E3.5676
G1 X132.173 Y157.911 E3.9165
G1 X132.173 Y157.416 E3.9288
G1 X142.584 Y167.827 E4.2952
G1 X143.079 Y167.827 E4.3075
G1 X132.173 Y156.921 E4.6913
G1 X132.173 Y156.426 E4.7036
G1 X143.574 Y167.827 E5.1048
G1 X144.069 Y167.827 E5.1172
G1 X132.173 Y155.931 E5.5358
G1 X132.173 Y155.436 E5.5481
G1 X144.564 Y167.827 E5.9841
G1 X145.059 Y167.827 E5.9964
G1 X132.173 Y154.941 E6.4499
G1 X132.173 Y154.446 E6.4622
G1 X145.554 Y167.827 E6.9331
G1 X146.049 Y167.827 E6.9454
G1 X132.173 Y153.951 E7.4337
G1 X132.173 Y153.456 E7.4460
G1 X146.544 Y167.827 E7.9517
G1 X147.039 Y167.827 E7.9641
G1 X132.173 Y152.961 E8.4872
G1 X132.173 Y152.466 E8.4995
G1 X147.534 Y167.827 E9.0400
G1 X148.029 Y167.827 E9.0524
G1 X132.173 Y151.971 E9.6103
G1 X132.173 Y151.477 E9.6226
G1 X148.523 Y167.827 E10.1980
G1 X149.018 Y167.827 E10.2103
G1 X132.173 Y150.982 E10.8031
G1 X132.173 Y150.487 E10.8155
G1 X149.513 Y167.827 E11.4257
G1 X150.008 Y167.827 E11.4380
G1 X132.173 Y149.992 E12.0656
G1 X132.173 Y149.497 E12.0780
G1 X150.503 Y167.827 E12.7230
G1 X150.998 Y167.827 E12.7353
G1 X132.173 Y149.002 E13.3978
G1 X132.173 Y148.507 E13.4101
G1 X151.493 Y167.827 E14.0900
G1 X151.988 Y167.827 E14.1023
G1 X132.173 Y148.012 E14.7996
G1 X132.173 Y147.517 E14.8119
G1 X152.483 Y167.827 E15.5267
G1 X152.978 Y167.827 E15.5390
G1 X132.173 Y147.022 E16.2711
G1 X132.173 Y146.527 E16.2834
G1 X153.473 Y167.827 E17.0330
G1 X153.968 Y167.827 E17.0453
G1 X132.173 Y146.032 E17.8123
G1 X132.173 Y145.537 E17.8246
G1 X154.463 Y167.827 E18.6090
G1 X154.958 Y167.827 E18.6213
G1 X132.173 Y145.042 E19.4232
G1 X132.173 Y144.547 E19.4355
G1 X155.453 Y167.827 E20.2547
G1 X155.948 Y167.827 E20.2670
G1 X132.173 Y144.052 E21.1037
G1 X132.173 Y143.557 E21.1160
G1 X156.443 Y167.827 E21.9701
G1 X156.938 Y167.827 E21.9824
G1 X132.173 Y143.062 E22.8539
G1 X132.173 Y142.567 E22.8662
G1 X157.433 Y167.827 E23.7551
G1 X157.928 Y167.827 E23.7674
G1 X132.173 Y142.072 E24.6737
G1 X132.173 Y141.577 E24.6860
G1 X158.423 Y167.827 E25.6098
G1 X158.918 Y167.827 E25.6221
G1 X132.173 Y141.082 E26.5633
G1 X132.173 Y140.587 E26.5756
G1 X159.413 Y167.827 E27.5342
G1 X159.908 Y167.827 E27.5465
G1 X132.173 Y140.092 E28.5225
G1 X132.173 Y139.597 E28.5348
G1 X160.403 Y167.827 E29.5282
G1 X160.898 Y167.827 E29.5405
G1 X132.173 Y139.102 E30.5513
G1 X132.173 Y138.607 E30.5637
G1 X161.393 Y167.827 E31.5919
G1 X161.888 Y167.827 E31.6042
G1 X132.173 Y138.112 E32.6499
G1 X132.173 Y137.617 E32.6622
G1 X162.383 Y167.827 E33.7253
G1 X162.878 Y167.827 E33.7376
G1 X132.173 Y137.122 E34.8181
G1 X132.173 Y136.627 E34.8304
G1 X163.373 Y167.827 E35.9284
G1 X163.868 Y167.827 E35.9407
G1 X132.173 Y136.132 E37.0560
G1 X132.173 Y135.637 E37.0683
G1 X164.363 Y167.827 E38.2011
G1 X164.858 Y167.827 E38.2134
G1 X132.173 Y135.142 E39.3636
G1 X132.173 Y134.647 E39.3759
G1 X165.353 Y167.827 E40.5435
G1 X165.848 Y167.827 E40.5558
G1 X132.173 Y134.152 E41.7408
G1 X132.173 Y133.657 E41.7531
G1 X166.343 Y167.827 E42.9556
G1 X166.838 Y167.827 E42.9679
G1 X132.173 Y133.162 E44.1877
G1 X132.173 Y132.667 E44.2000
G1 X167.333 Y167.827 E45.4373
G1 X167.827 Y167.827 E45.4496
G1 X132.173 Y132.173 E46.7043
G1 X132.667 Y132.173 E46.7166
G1 X167.827 Y167.333 E47.9539
G1 X167.827 Y166.838 E47.9662
G1 X133.162 Y132.173 E49.1860
G1 X133.657 Y132.173 E49.1984
G1 X167.827 Y166.343 E50.4008
G1 X167.827 Y165.848 E50.4131
G1 X134.152 Y132.173 E51.5981
G1 X134.647 Y132.173 E51.6104
G1 X167.827 Y165.353 E52.7780
G1 X167.827 Y164.858 E52.7903
G1 X135.142 Y132.173 E53.9405
G1 X135.637 Y132.173 E53.9528
G1 X167.827 Y164.363 E55.0856
