; G-Code generated by Simplify3D(R) Version 4.1.2
; Jun 13, 2022 at 7:22:19 AM
; Settings Summary
;   processName,Process1
;   applyToModels,zenRake
;   profileName,A11-04-35 Tevo Tornado
;   profileVersion,2022-06-13 07:15:06
;   baseProfile,Creality CR-10(2)
;   printMaterial,PLA
;   printQuality,Medium
;   printExtruders,
;   extruderName,Primary Extruder
;   extruderToolheadNumber,0
;   extruderDiameter,0.4
;   extruderAutoWidth,0
;   extruderWidth,0.35
;   extrusionMultiplier,0.95
;   extruderUseRetract,1
;   extruderRetractionDistance,4
;   extruderExtraRestartDistance,0
;   extruderRetractionZLift,0.1
;   extruderRetractionSpeed,6600
;   extruderUseCoasting,1
;   extruderCoastingDistance,0.6
;   extruderUseWipe,1
;   extruderWipeDistance,5
;   primaryExtruder,0
;   layerHeight,0.15
;   topSolidLayers,5
;   bottomSolidLayers,4
;   perimeterOutlines,3
;   printPerimetersInsideOut,0
;   startPointOption,1
;   startPointOriginX,0
;   startPointOriginY,300
;   sequentialIslands,0
;   spiralVaseMode,0
;   firstLayerHeightPercentage,120
;   firstLayerWidthPercentage,100
;   firstLayerUnderspeed,0.4
;   useRaft,0
;   raftExtruder,0
;   raftTopLayers,3
;   raftBaseLayers,2
;   raftOffset,3
;   raftSeparationDistance,0.14
;   raftTopInfill,100
;   aboveRaftSpeedMultiplier,0.3
;   useSkirt,1
;   skirtExtruder,0
;   skirtLayers,1
;   skirtOutlines,2
;   skirtOffset,3
;   usePrimePillar,0
;   primePillarExtruder,999
;   primePillarWidth,12
;   primePillarLocation,7
;   primePillarSpeedMultiplier,1
;   useOozeShield,0
;   oozeShieldExtruder,999
;   oozeShieldOffset,2
;   oozeShieldOutlines,1
;   oozeShieldSidewallShape,1
;   oozeShieldSidewallAngle,30
;   oozeShieldSpeedMultiplier,1
;   infillExtruder,0
;   internalInfillPattern,Rectilinear
;   externalInfillPattern,Rectilinear
;   infillPercentage,35
;   outlineOverlapPercentage,15
;   infillExtrusionWidthPercentage,100
;   minInfillLength,5
;   infillLayerInterval,1
;   internalInfillAngles,45,-45
;   overlapInternalInfillAngles,0
;   externalInfillAngles,45,-45
;   generateSupport,0
;   supportExtruder,0
;   supportInfillPercentage,30
;   supportExtraInflation,0
;   supportBaseLayers,0
;   denseSupportExtruder,0
;   denseSupportLayers,0
;   denseSupportInfillPercentage,70
;   supportLayerInterval,1
;   supportHorizontalPartOffset,0.4
;   supportUpperSeparationLayers,1
;   supportLowerSeparationLayers,1
;   supportType,0
;   supportGridSpacing,4.5
;   maxOverhangAngle,45
;   supportAngles,0
;   temperatureName,Primary Extruder,Heated Bed
;   temperatureNumber,0,0
;   temperatureSetpointCount,2,2
;   temperatureSetpointLayers,1,2,1,2
;   temperatureSetpointTemperatures,215,205,55,50
;   temperatureStabilizeAtStartup,1,1
;   temperatureHeatedBed,0,1
;   fanLayers,1,2
;   fanSpeeds,0,100
;   blipFanToFullPower,0
;   adjustSpeedForCooling,1
;   minSpeedLayerTime,15
;   minCoolingSpeedSlowdown,20
;   increaseFanForCooling,1
;   minFanLayerTime,25
;   maxCoolingFanSpeed,100
;   increaseFanForBridging,1
;   bridgingFanSpeed,100
;   use5D,1
;   relativeEdistances,0
;   allowEaxisZeroing,1
;   independentExtruderAxes,0
;   includeM10123,0
;   stickySupport,1
;   applyToolheadOffsets,0
;   gcodeXoffset,0
;   gcodeYoffset,0
;   gcodeZoffset,0
;   overrideMachineDefinition,1
;   machineTypeOverride,0
;   strokeXoverride,300
;   strokeYoverride,300
;   strokeZoverride,400
;   originOffsetXoverride,0
;   originOffsetYoverride,0
;   originOffsetZoverride,0
;   homeXdirOverride,-1
;   homeYdirOverride,-1
;   homeZdirOverride,-1
;   flipXoverride,1
;   flipYoverride,-1
;   flipZoverride,1
;   toolheadOffsets,0,0|0,0|0,0|0,0|0,0|0,0
;   overrideFirmwareConfiguration,1
;   firmwareTypeOverride,RepRap (Marlin/Repetier/Sprinter)
;   GPXconfigOverride,r2
;   baudRateOverride,250000
;   overridePrinterModels,1
;   printerModelsOverride
;   startingGcode,;,; -]H.P.B[- MarshMalloW  ,; $VER: StartScript 1.02 (26.12.2019) MarshMalloW,;,; Begin Startcode,;,M117 *Preheat*     	; Preheat,;extruder0_temperature,M104 S[extruder0_temperature]  ,M109 S[extruder0_temperature] ,M109 R[extruder0_temperature] ,;,M117 *Auto-leveling*     	; Auto-leveling,M107                   	; Turn layer fan off,G21                    	; Set to metric [change to G20 if you want Imperial],G90                    	; Force coordinates to be absolute relative to the origin,G28                    	; Home X/Y/Z axis,G29                    	; Auto-leveling (BL-Touch),;,M117 *Start Clean*     	; Indicate nozzle clean in progress on LCD,G92 E0                 	; Set Extruder to 0 ,G1 X0 Y0 F2000         	; Move X and Y to 0 with speed 2000 (mm/min),G1 Z0.1 F1000          	; Move Z to   0.1 with speed 1000 (mm/min),G1 X8.0 F2000          	; Move X to   8.0 with speed 2000 (mm/min),G1 Y60.0 E4.0 F1000.0  	; Move Y to  60 and Extruder with 4.0 with speed 1000 (mm/min),G1 Y100.0 E8.5 F1000.0 	; Move Y to 100 and Extruder with 8.5 with speed 1000 (mm/min),G92 E0                 	; Set extruder to 0,G1 X16.0 F3000         	; Move X to 16.0 with speed 3000 (mm/min),G1 Y60.0 F3000         	; Move Y to 60.0 with speed 3000 (mm/min),M117 *End Clean*       	; Indicate nozzle clean in progress on LCD,G1 Z5 F3000            	; Move Z to  5.0 with speed 3000 (mm/min),G1 X20.0 F3000         	; Move X to 20.0 with speed 3000 (mm/min),G1 Y20.0 F3000         	; Move Y to 20.0 with speed 3000 (mm/min),; ,M117 *Printing...*     	; Start printing msg on LCD,;,; End Startcode,;,; Begin printing with sliced GCode after here,;
;   layerChangeGcode,
;   retractionGcode,
;   toolChangeGcode,
;   endingGcode,;,; init 181010,;,;M107 			; Fan off,;G1 E-1 F300 			; Retract the filament a bit before lifting the nozzle,;M104 S0 			; Turn off extruder,;M140 S0 			; Turn off bed,;G91			; Relative positioning,;G28 X0 Y0 			; Move X/Y to min endstops so the head is out of teh way,;M84 			; Disable motors,;G90 			; Absolute positioning,;M117 Print ready...,,;,; // From Cura 181010,; // End_gcode,G92 E0			; Zero the extruded length,;G1 E-30 F300		; Retract E -30,M106 S0			; Turn off cooling fan,M104 S0			; Turn off temperature,M140 S0		     	; Turn off bed,G91			; Relative positioning,G1 E-1 F300			; Retract the filament a bit before lifting the nozzle to release some of the pressure,G1 Z+20 E-5 X-20 Y-20 F7200	; Move Z up a bit and retract filament even more,G1 X0 Y150 F10000		; Move right min,M107			; Turn off layer fan,M84			; Disable motors,G90			; Absolute positioning,M117 *The-End* 		; End msg,;,
;   exportFileFormat,gcode
;   celebration,0
;   celebrationSong,Star Wars
;   postProcessing,|{REPLACE "; layer " "M117 INDICATOR-Layer"}|{REPLACE ", Z = " "\n; Z="}
;   defaultSpeed,2400
;   outlineUnderspeed,0.6
;   solidInfillUnderspeed,0.8
;   supportUnderspeed,0.8
;   rapidXYspeed,3600
;   rapidZspeed,900
;   minBridgingArea,50
;   bridgingExtraInflation,0.2
;   bridgingExtrusionMultiplier,1
;   bridgingSpeedMultiplier,0.6
;   useFixedBridgingAngle,0
;   fixedBridgingAngle,0
;   applyBridgingToPerimeters,0
;   filamentDiameters,1.75|1.75|1.75|1.75|1.75|1.75
;   filamentPricesPerKg,30|46|46|46|46|46
;   filamentDensities,1.25|1.25|1.25|1.25|1.25|1.25
;   useMinPrintHeight,0
;   minPrintHeight,0
;   useMaxPrintHeight,0
;   maxPrintHeight,50
;   useDiaphragm,0
;   diaphragmLayerInterval,20
;   robustSlicing,1
;   mergeAllIntoSolid,0
;   onlyRetractWhenCrossingOutline,1
;   retractBetweenLayers,1
;   useRetractionMinTravel,0
;   retractionMinTravel,3
;   retractWhileWiping,1
;   onlyWipeOutlines,0
;   avoidCrossingOutline,1
;   maxMovementDetourFactor,3
;   toolChangeRetractionDistance,12
;   toolChangeExtraRestartDistance,-0.5
;   toolChangeRetractionSpeed,600
;   externalThinWallType,1
;   internalThinWallType,1
;   thinWallAllowedOverlapPercentage,20
;   singleExtrusionMinLength,1
;   singleExtrusionMinPrintingWidthPercentage,50
;   singleExtrusionMaxPrintingWidthPercentage,200
;   singleExtrusionEndpointExtension,0.2
;   horizontalSizeCompensation,0
G90
M82
M106 S0
M140 S55
M190 S55
;
; -]H.P.B[- MarshMalloW  
; $VER: StartScript 1.02 (26.12.2019) MarshMalloW
;
; Begin Startcode
;
M117 *Preheat*     	; Preheat
;extruder0_temperature
M104 S215  
M109 S215 
M109 R215 
;
M117 *Auto-leveling*     	; Auto-leveling
M107                   	; Turn layer fan off
G21                    	; Set to metric [change to G20 if you want Imperial]
G90                    	; Force coordinates to be absolute relative to the origin
G28                    	; Home X/Y/Z axis
G29                    	; Auto-leveling (BL-Touch)
;
M117 *Start Clean*     	; Indicate nozzle clean in progress on LCD
G92 E0                 	; Set Extruder to 0 
G1 X0 Y0 F2000         	; Move X and Y to 0 with speed 2000 (mm/min)
G1 Z0.1 F1000          	; Move Z to   0.1 with speed 1000 (mm/min)
G1 X8.0 F2000          	; Move X to   8.0 with speed 2000 (mm/min)
G1 Y60.0 E4.0 F1000.0  	; Move Y to  60 and Extruder with 4.0 with speed 1000 (mm/min)
G1 Y100.0 E8.5 F1000.0 	; Move Y to 100 and Extruder with 8.5 with speed 1000 (mm/min)
G92 E0                 	; Set extruder to 0
G1 X16.0 F3000         	; Move X to 16.0 with speed 3000 (mm/min)
G1 Y60.0 F3000         	; Move Y to 60.0 with speed 3000 (mm/min)
M117 *End Clean*       	; Indicate nozzle clean in progress on LCD
G1 Z5 F3000            	; Move Z to  5.0 with speed 3000 (mm/min)
G1 X20.0 F3000         	; Move X to 20.0 with speed 3000 (mm/min)
G1 Y20.0 F3000         	; Move Y to 20.0 with speed 3000 (mm/min)
; 
M117 *Printing...*     	; Start printing msg on LCD
;
; End Startcode
;
; Begin printing with sliced GCode after here
;
; process Process1
M117 INDICATOR-Layer1
; Z=0.180
T0
G92 E0.0000
G1 E-4.0000 F6600
; feature skirt
; tool H0.180 W0.350
G1 Z0.180 F900
G1 X109.532 Y138.540 F3600
G1 E0.0000 F6600
G92 E0.0000
G1 X109.533 Y144.863 E0.1573 F960
G1 X204.536 Y144.863 E2.5213
G1 X206.601 Y146.928 E2.5939
G1 X206.601 Y153.072 E2.7468
G1 X204.536 Y155.137 E2.8195
G1 X109.533 Y155.137 E5.1834
G1 X109.532 Y161.460 E5.3407
G1 X107.468 Y163.525 E5.4134
G1 X98.683 Y163.525 E5.6320
G1 X96.618 Y161.460 E5.7046
G1 X96.618 Y138.540 E6.2750
G1 X98.683 Y136.475 E6.3476
G1 X107.468 Y136.475 E6.5662
G1 X109.532 Y138.540 E6.6389
G92 E0.0000
G1 E-4.0000 F6600
G1 Z0.280 F900
G1 X105.833 Y140.175 F3600
G1 X105.833 Y148.563
G1 X109.378 Y148.563
G1 X109.334 Y151.437
G1 X105.833 Y151.437
G1 X105.833 Y159.825
G1 X109.183 Y161.315
G1 Z0.180 F900
G1 E0.0000 F6600
G92 E0.0000
G1 X107.323 Y163.175 E0.0654 F960
G1 X98.828 Y163.175 E0.2768
G1 X96.968 Y161.315 E0.3423
G1 X96.968 Y138.685 E0.9054
G1 X98.828 Y136.825 E0.9708
G1 X107.323 Y136.825 E1.1822
G1 X109.183 Y138.685 E1.2476
G1 X109.183 Y145.213 E1.4100
G1 X204.391 Y145.213 E3.7791
G1 X206.251 Y147.073 E3.8445
G1 X206.251 Y152.927 E3.9902
G1 X204.391 Y154.787 E4.0557
G1 X109.183 Y154.787 E6.4247
G1 X109.183 Y161.315 E6.5871
G92 E0.0000
G1 E-4.0000 F6600
; feature outer perimeter
G1 Z0.280 F900
G1 X105.833 Y159.825 F3600
G1 X105.833 Y151.437
G1 X181.776 Y151.437
G1 X202.901 Y148.563
G1 Z0.180 F900
G1 E0.0000 F6600
G92 E0.0000
G1 X202.901 Y151.437 E0.0715 F576
G1 X105.833 Y151.437 E2.4868
G1 X105.833 Y159.825 E2.6955
G1 X100.318 Y159.825 E2.8327
G1 X100.318 Y140.175 E3.3217
G1 X105.833 Y140.175 E3.4589
G1 X105.833 Y148.563 E3.6676
G1 X202.301 Y148.563 E6.0680
G1 X202.901 Y148.563 F576
G1 X202.901 Y151.437 F576
G1 X200.775 Y151.437
; feature inner perimeter
G1 X202.551 Y151.087 F3600
G92 E0.0000
G1 X105.483 Y151.087 E2.4153 F768
G1 X105.483 Y159.475 E2.6240
G1 X100.668 Y159.475 E2.7438
G1 X100.668 Y140.525 E3.2153
G1 X105.483 Y140.525 E3.3351
G1 X105.483 Y148.913 E3.5438
G1 X202.551 Y148.913 E5.9591
G1 X202.551 Y150.487 E5.9983
G1 X202.551 Y151.087 F768
G1 X197.551 Y151.087 F768
G1 X202.201 Y150.737 F3600
G92 E0.0000
G1 X105.133 Y150.737 E2.4153 F768
G1 X105.133 Y159.125 E2.6240
G1 X101.018 Y159.125 E2.7264
G1 X101.018 Y140.875 E3.1805
G1 X105.133 Y140.875 E3.2829
G1 X105.133 Y149.263 E3.4916
G1 X202.201 Y149.263 E5.9069
G1 X202.201 Y150.137 E5.9286
G1 X202.201 Y150.737 F768
G1 X197.201 Y150.737 F768
; feature solid layer
G1 X201.533 Y149.560 F3600
G92 E0.0000
G1 X201.903 Y149.931 E0.0130 F768
G1 X201.903 Y150.426 E0.0254
G1 X201.038 Y149.560 E0.0558
G1 X200.543 Y149.560 E0.0681
G1 X201.422 Y150.440 E0.0991
G1 X200.927 Y150.440 E0.1114
G1 X200.048 Y149.560 E0.1423
G1 X199.553 Y149.560 E0.1547
G1 X200.432 Y150.440 E0.1856
G1 X199.937 Y150.440 E0.1979
G1 X199.058 Y149.560 E0.2289
G1 X198.563 Y149.560 E0.2412
G1 X199.442 Y150.440 E0.2721
G1 X198.947 Y150.440 E0.2844
G1 X198.068 Y149.560 E0.3154
G1 X197.573 Y149.560 E0.3277
G1 X198.452 Y150.440 E0.3587
G1 X197.957 Y150.440 E0.3710
G1 X197.078 Y149.560 E0.4019
G1 X196.583 Y149.560 E0.4142
G1 X197.462 Y150.440 E0.4452
G1 X196.967 Y150.440 E0.4575
G1 X196.088 Y149.560 E0.4885
G1 X195.593 Y149.560 E0.5008
G1 X196.472 Y150.440 E0.5317
G1 X195.977 Y150.440 E0.5440
G1 X195.098 Y149.560 E0.5750
G1 X194.603 Y149.560 E0.5873
G1 X195.482 Y150.440 E0.6183
G1 X194.987 Y150.440 E0.6306
G1 X194.108 Y149.560 E0.6615
G1 X193.613 Y149.560 E0.6738
G1 X194.493 Y150.440 E0.7048
G1 X193.998 Y150.440 E0.7171
G1 X193.118 Y149.560 E0.7481
G1 X192.623 Y149.560 E0.7604
G1 X193.503 Y150.440 E0.7913
G1 X193.008 Y150.440 E0.8036
G1 X192.128 Y149.560 E0.8346
G1 X191.633 Y149.560 E0.8469
G1 X192.513 Y150.440 E0.8779
G1 X192.018 Y150.440 E0.8902
G1 X191.138 Y149.560 E0.9211
G1 X190.643 Y149.560 E0.9334
G1 X191.523 Y150.440 E0.9644
G1 X191.028 Y150.440 E0.9767
G1 X190.148 Y149.560 E1.0077
G1 X189.653 Y149.560 E1.0200
G1 X190.533 Y150.440 E1.0509
G1 X190.038 Y150.440 E1.0632
G1 X189.158 Y149.560 E1.0942
G1 X188.663 Y149.560 E1.1065
G1 X189.543 Y150.440 E1.1375
G1 X189.048 Y150.440 E1.1498
G1 X188.168 Y149.560 E1.1807
G1 X187.673 Y149.560 E1.1930
G1 X188.553 Y150.440 E1.2240
G1 X188.058 Y150.440 E1.2363
G1 X187.178 Y149.560 E1.2673
G1 X186.683 Y149.560 E1.2796
G1 X187.563 Y150.440 E1.3105
G1 X187.068 Y150.440 E1.3228
G1 X186.188 Y149.560 E1.3538
G1 X185.693 Y149.560 E1.3661
G1 X186.573 Y150.440 E1.3971
G1 X186.078 Y150.440 E1.4094
G1 X185.198 Y149.560 E1.4403
G1 X184.703 Y149.560 E1.4526
G1 X185.583 Y150.440 E1.4836
G1 X185.088 Y150.440 E1.4959
G1 X184.208 Y149.560 E1.5269
G1 X183.713 Y149.560 E1.5392
G1 X184.593 Y150.440 E1.5701
G1 X184.098 Y150.440 E1.5824
G1 X183.219 Y149.560 E1.6134
G1 X182.724 Y149.560 E1.6257
G1 X183.603 Y150.440 E1.6567
G1 X183.108 Y150.440 E1.6690
G1 X182.229 Y149.560 E1.6999
G1 X181.734 Y149.560 E1.7122
G1 X182.613 Y150.440 E1.7432
G1 X182.118 Y150.440 E1.7555
G1 X181.239 Y149.560 E1.7865
G1 X180.744 Y149.560 E1.7988
G1 X181.623 Y150.440 E1.8297
G1 X181.128 Y150.440 E1.8420
G1 X180.249 Y149.560 E1.8730
G1 X179.754 Y149.560 E1.8853
G1 X180.633 Y150.440 E1.9163
G1 X180.138 Y150.440 E1.9286
G1 X179.259 Y149.560 E1.9595
G1 X178.764 Y149.560 E1.9718
G1 X179.643 Y150.440 E2.0028
G1 X179.148 Y150.440 E2.0151
G1 X178.269 Y149.560 E2.0461
G1 X177.774 Y149.560 E2.0584
G1 X178.653 Y150.440 E2.0893
G1 X178.158 Y150.440 E2.1017
G1 X177.279 Y149.560 E2.1326
G1 X176.784 Y149.560 E2.1449
G1 X177.663 Y150.440 E2.1759
G1 X177.168 Y150.440 E2.1882
G1 X176.289 Y149.560 E2.2191
G1 X175.794 Y149.560 E2.2315
G1 X176.673 Y150.440 E2.2624
G1 X176.178 Y150.440 E2.2747
G1 X175.299 Y149.560 E2.3057
G1 X174.804 Y149.560 E2.3180
G1 X175.684 Y150.440 E2.3489
G1 X175.189 Y150.440 E2.3613
G1 X174.309 Y149.560 E2.3922
G1 X173.814 Y149.560 E2.4045
G1 X174.694 Y150.440 E2.4355
G1 X174.199 Y150.440 E2.4478
G1 X173.319 Y149.560 E2.4788
G1 X172.824 Y149.560 E2.4911
G1 X173.704 Y150.440 E2.5220
G1 X173.209 Y150.440 E2.5343
G1 X172.329 Y149.560 E2.5653
G1 X171.834 Y149.560 E2.5776
G1 X172.714 Y150.440 E2.6086
G1 X172.219 Y150.440 E2.6209
G1 X171.339 Y149.560 E2.6518
G1 X170.844 Y149.560 E2.6641
G1 X171.724 Y150.440 E2.6951
G1 X171.229 Y150.440 E2.7074
G1 X170.349 Y149.560 E2.7384
G1 X169.854 Y149.560 E2.7507
G1 X170.734 Y150.440 E2.7816
G1 X170.239 Y150.440 E2.7940
G1 X169.359 Y149.560 E2.8249
G1 X168.864 Y149.560 E2.8372
G1 X169.744 Y150.440 E2.8682
G1 X169.249 Y150.440 E2.8805
G1 X168.369 Y149.560 E2.9114
