; G-Code generated by Simplify3D(R) Version 4.1.2
; Jun 13, 2022 at 7:16:30 AM
; Settings Summary
;   processName,Process1
;   applyToModels,rake
;   profileName,A11-04-35s Tevo Tornado (modified)
;   profileVersion,2022-06-10 08:12:42
;   baseProfile,Creality CR-10(2)
;   printMaterial,PLA
;   printQuality,Medium
;   printExtruders,
;   extruderName,Primary Extruder
;   extruderToolheadNumber,0
;   extruderDiameter,0.4
;   extruderAutoWidth,0
;   extruderWidth,0.35
;   extrusionMultiplier,0.95
;   extruderUseRetract,1
;   extruderRetractionDistance,4
;   extruderExtraRestartDistance,0
;   extruderRetractionZLift,0.1
;   extruderRetractionSpeed,6600
;   extruderUseCoasting,1
;   extruderCoastingDistance,0.6
;   extruderUseWipe,1
;   extruderWipeDistance,5
;   primaryExtruder,0
;   layerHeight,0.15
;   topSolidLayers,5
;   bottomSolidLayers,4
;   perimeterOutlines,3
;   printPerimetersInsideOut,0
;   startPointOption,1
;   startPointOriginX,0
;   startPointOriginY,300
;   sequentialIslands,0
;   spiralVaseMode,0
;   firstLayerHeightPercentage,120
;   firstLayerWidthPercentage,100
;   firstLayerUnderspeed,0.4
;   useRaft,0
;   raftExtruder,0
;   raftTopLayers,3
;   raftBaseLayers,2
;   raftOffset,3
;   raftSeparationDistance,0.14
;   raftTopInfill,100
;   aboveRaftSpeedMultiplier,0.3
;   useSkirt,1
;   skirtExtruder,0
;   skirtLayers,1
;   skirtOutlines,2
;   skirtOffset,3
;   usePrimePillar,0
;   primePillarExtruder,999
;   primePillarWidth,12
;   primePillarLocation,7
;   primePillarSpeedMultiplier,1
;   useOozeShield,0
;   oozeShieldExtruder,999
;   oozeShieldOffset,2
;   oozeShieldOutlines,1
;   oozeShieldSidewallShape,1
;   oozeShieldSidewallAngle,30
;   oozeShieldSpeedMultiplier,1
;   infillExtruder,0
;   internalInfillPattern,Rectilinear
;   externalInfillPattern,Rectilinear
;   infillPercentage,35
;   outlineOverlapPercentage,15
;   infillExtrusionWidthPercentage,100
;   minInfillLength,5
;   infillLayerInterval,1
;   internalInfillAngles,45,-45
;   overlapInternalInfillAngles,0
;   externalInfillAngles,45,-45
;   generateSupport,1
;   supportExtruder,0
;   supportInfillPercentage,30
;   supportExtraInflation,0
;   supportBaseLayers,0
;   denseSupportExtruder,0
;   denseSupportLayers,0
;   denseSupportInfillPercentage,70
;   supportLayerInterval,1
;   supportHorizontalPartOffset,0.4
;   supportUpperSeparationLayers,1
;   supportLowerSeparationLayers,1
;   supportType,0
;   supportGridSpacing,4.5
;   maxOverhangAngle,45
;   supportAngles,0
;   temperatureName,Primary Extruder,Heated Bed
;   temperatureNumber,0,0
;   temperatureSetpointCount,2,2
;   temperatureSetpointLayers,1,2,1,2
;   temperatureSetpointTemperatures,215,205,55,50
;   temperatureStabilizeAtStartup,1,1
;   temperatureHeatedBed,0,1
;   fanLayers,1,2
;   fanSpeeds,0,100
;   blipFanToFullPower,0
;   adjustSpeedForCooling,1
;   minSpeedLayerTime,15
;   minCoolingSpeedSlowdown,20
;   increaseFanForCooling,1
;   minFanLayerTime,25
;   maxCoolingFanSpeed,100
;   increaseFanForBridging,1
;   bridgingFanSpeed,100
;   use5D,1
;   relativeEdistances,0
;   allowEaxisZeroing,1
;   independentExtruderAxes,0
;   includeM10123,0
;   stickySupport,1
;   applyToolheadOffsets,0
;   gcodeXoffset,0
;   gcodeYoffset,0
;   gcodeZoffset,0
;   overrideMachineDefinition,1
;   machineTypeOverride,0
;   strokeXoverride,300
;   strokeYoverride,300
;   strokeZoverride,400
;   originOffsetXoverride,0
;   originOffsetYoverride,0
;   originOffsetZoverride,0
;   homeXdirOverride,-1
;   homeYdirOverride,-1
;   homeZdirOverride,-1
;   flipXoverride,1
;   flipYoverride,-1
;   flipZoverride,1
;   toolheadOffsets,0,0|0,0|0,0|0,0|0,0|0,0
;   overrideFirmwareConfiguration,1
;   firmwareTypeOverride,RepRap (Marlin/Repetier/Sprinter)
;   GPXconfigOverride,r2
;   baudRateOverride,250000
;   overridePrinterModels,1
;   printerModelsOverride
;   startingGcode,;,; -]H.P.B[- MarshMalloW  ,; $VER: StartScript 1.02 (26.12.2019) MarshMalloW,;,; Begin Startcode,;,M117 *Preheat*     	; Preheat,;extruder0_temperature,M104 S[extruder0_temperature]  ,M109 S[extruder0_temperature] ,M109 R[extruder0_temperature] ,;,M117 *Auto-leveling*     	; Auto-leveling,M107                   	; Turn layer fan off,G21                    	; Set to metric [change to G20 if you want Imperial],G90                    	; Force coordinates to be absolute relative to the origin,G28                    	; Home X/Y/Z axis,G29                    	; Auto-leveling (BL-Touch),;,M117 *Start Clean*     	; Indicate nozzle clean in progress on LCD,G92 E0                 	; Set Extruder to 0 ,G1 X0 Y0 F2000         	; Move X and Y to 0 with speed 2000 (mm/min),G1 Z0.1 F1000          	; Move Z to   0.1 with speed 1000 (mm/min),G1 X8.0 F2000          	; Move X to   8.0 with speed 2000 (mm/min),G1 Y60.0 E4.0 F1000.0  	; Move Y to  60 and Extruder with 4.0 with speed 1000 (mm/min),G1 Y100.0 E8.5 F1000.0 	; Move Y to 100 and Extruder with 8.5 with speed 1000 (mm/min),G92 E0                 	; Set extruder to 0,G1 X16.0 F3000         	; Move X to 16.0 with speed 3000 (mm/min),G1 Y60.0 F3000         	; Move Y to 60.0 with speed 3000 (mm/min),M117 *End Clean*       	; Indicate nozzle clean in progress on LCD,G1 Z5 F3000            	; Move Z to  5.0 with speed 3000 (mm/min),G1 X20.0 F3000         	; Move X to 20.0 with speed 3000 (mm/min),G1 Y20.0 F3000         	; Move Y to 20.0 with speed 3000 (mm/min),; ,M117 *Printing...*     	; Start printing msg on LCD,;,; End Startcode,;,; Begin printing with sliced GCode after here,;
;   layerChangeGcode,
;   retractionGcode,
;   toolChangeGcode,
;   endingGcode,;,; init 181010,;,;M107 			; Fan off,;G1 E-1 F300 			; Retract the filament a bit before lifting the nozzle,;M104 S0 			; Turn off extruder,;M140 S0 			; Turn off bed,;G91			; Relative positioning,;G28 X0 Y0 			; Move X/Y to min endstops so the head is out of teh way,;M84 			; Disable motors,;G90 			; Absolute positioning,;M117 Print ready...,,;,; // From Cura 181010,; // End_gcode,G92 E0			; Zero the extruded length,;G1 E-30 F300		; Retract E -30,M106 S0			; Turn off cooling fan,M104 S0			; Turn off temperature,M140 S0		     	; Turn off bed,G91			; Relative positioning,G1 E-1 F300			; Retract the filament a bit before lifting the nozzle to release some of the pressure,G1 Z+20 E-5 X-20 Y-20 F7200	; Move Z up a bit and retract filament even more,G1 X0 Y150 F10000		; Move right min,M107			; Turn off layer fan,M84			; Disable motors,G90			; Absolute positioning,M117 *The-End* 		; End msg,;,
;   exportFileFormat,gcode
;   celebration,0
;   celebrationSong,Star Wars
;   postProcessing,|{REPLACE "; layer " "M117 INDICATOR-Layer"}|{REPLACE ", Z = " "\n; Z="}
;   defaultSpeed,2400
;   outlineUnderspeed,0.6
;   solidInfillUnderspeed,0.8
;   supportUnderspeed,0.8
;   rapidXYspeed,3600
;   rapidZspeed,900
;   minBridgingArea,50
;   bridgingExtraInflation,0.2
;   bridgingExtrusionMultiplier,1
;   bridgingSpeedMultiplier,0.6
;   useFixedBridgingAngle,0
;   fixedBridgingAngle,0
;   applyBridgingToPerimeters,0
;   filamentDiameters,1.75|1.75|1.75|1.75|1.75|1.75
;   filamentPricesPerKg,30|46|46|46|46|46
;   filamentDensities,1.25|1.25|1.25|1.25|1.25|1.25
;   useMinPrintHeight,0
;   minPrintHeight,0
;   useMaxPrintHeight,0
;   maxPrintHeight,50
;   useDiaphragm,0
;   diaphragmLayerInterval,20
;   robustSlicing,1
;   mergeAllIntoSolid,0
;   onlyRetractWhenCrossingOutline,1
;   retractBetweenLayers,1
;   useRetractionMinTravel,0
;   retractionMinTravel,3
;   retractWhileWiping,1
;   onlyWipeOutlines,0
;   avoidCrossingOutline,1
;   maxMovementDetourFactor,3
;   toolChangeRetractionDistance,12
;   toolChangeExtraRestartDistance,-0.5
;   toolChangeRetractionSpeed,600
;   externalThinWallType,1
;   internalThinWallType,1
;   thinWallAllowedOverlapPercentage,20
;   singleExtrusionMinLength,1
;   singleExtrusionMinPrintingWidthPercentage,50
;   singleExtrusionMaxPrintingWidthPercentage,200
;   singleExtrusionEndpointExtension,0.2
;   horizontalSizeCompensation,0
G90
M82
M106 S0
M140 S55
M190 S55
;
; -]H.P.B[- MarshMalloW  
; $VER: StartScript 1.02 (26.12.2019) MarshMalloW
;
; Begin Startcode
;
M117 *Preheat*     	; Preheat
;extruder0_temperature
M104 S215  
M109 S215 
M109 R215 
;
M117 *Auto-leveling*     	; Auto-leveling
M107                   	; Turn layer fan off
G21                    	; Set to metric [change to G20 if you want Imperial]
G90                    	; Force coordinates to be absolute relative to the origin
G28                    	; Home X/Y/Z axis
G29                    	; Auto-leveling (BL-Touch)
;
M117 *Start Clean*     	; Indicate nozzle clean in progress on LCD
G92 E0                 	; Set Extruder to 0 
G1 X0 Y0 F2000         	; Move X and Y to 0 with speed 2000 (mm/min)
G1 Z0.1 F1000          	; Move Z to   0.1 with speed 1000 (mm/min)
G1 X8.0 F2000          	; Move X to   8.0 with speed 2000 (mm/min)
G1 Y60.0 E4.0 F1000.0  	; Move Y to  60 and Extruder with 4.0 with speed 1000 (mm/min)
G1 Y100.0 E8.5 F1000.0 	; Move Y to 100 and Extruder with 8.5 with speed 1000 (mm/min)
G92 E0                 	; Set extruder to 0
G1 X16.0 F3000         	; Move X to 16.0 with speed 3000 (mm/min)
G1 Y60.0 F3000         	; Move Y to 60.0 with speed 3000 (mm/min)
M117 *End Clean*       	; Indicate nozzle clean in progress on LCD
G1 Z5 F3000            	; Move Z to  5.0 with speed 3000 (mm/min)
G1 X20.0 F3000         	; Move X to 20.0 with speed 3000 (mm/min)
G1 Y20.0 F3000         	; Move Y to 20.0 with speed 3000 (mm/min)
; 
M117 *Printing...*     	; Start printing msg on LCD
;
; End Startcode
;
; Begin printing with sliced GCode after here
;
; process Process1
M117 INDICATOR-Layer1
; Z=0.180
T0
G92 E0.0000
G1 E-4.0000 F6600
; feature skirt
; tool H0.180 W0.350
G1 Z0.180 F900
G1 X155.245 Y99.570 F3600
G1 E0.0000 F6600
G92 E0.0000
G1 X155.245 Y191.532 E2.2883 F960
G1 X155.553 Y191.532 E2.2959
G1 X155.626 Y191.533 E2.2977
G1 X157.932 Y191.629 E2.3552
G1 X158.072 Y191.640 E2.3587
G1 X159.407 Y191.803 E2.3921
G1 X159.804 Y191.899 E2.4023
G1 X160.259 Y192.066 E2.4144
G1 X161.820 Y190.505 E2.4693
G1 X169.680 Y190.505 E2.6649
G1 X173.245 Y194.070 E2.7903
G1 X173.245 Y198.930 E2.9113
G1 X171.180 Y200.995 E2.9839
G1 X166.680 Y200.995 E3.0959
G1 X165.180 Y202.495 E3.1487
G1 X157.320 Y202.495 E3.3443
G1 X155.785 Y200.960 E3.3983
G1 X155.626 Y200.967 E3.4022
G1 X155.553 Y200.968 E3.4040
G1 X144.447 Y200.968 E3.6804
G1 X144.374 Y200.967 E3.6822
G1 X144.215 Y200.960 E3.6862
G1 X142.680 Y202.495 E3.7402
G1 X134.820 Y202.495 E3.9358
G1 X133.320 Y200.995 E3.9886
G1 X128.820 Y200.995 E4.1005
G1 X126.755 Y198.930 E4.1732
G1 X126.755 Y194.070 E4.2941
G1 X130.320 Y190.505 E4.4196
G1 X138.180 Y190.505 E4.6152
G1 X139.741 Y192.066 E4.6701
G1 X140.196 Y191.899 E4.6821
G1 X140.593 Y191.803 E4.6923
G1 X141.928 Y191.640 E4.7258
G1 X142.068 Y191.629 E4.7293
G1 X144.374 Y191.533 E4.7867
G1 X144.447 Y191.532 E4.7885
G1 X144.755 Y191.532 E4.7962
G1 X144.755 Y99.570 E7.0844
G1 X146.820 Y97.505 E7.1571
G1 X153.180 Y97.505 E7.3154
G1 X155.245 Y99.570 E7.3880
G92 E0.0000
G1 E-4.0000 F6600
G1 Z0.280 F900
G1 X142.089 Y191.978 F3600
G1 Z0.180 F900
G1 E0.0000 F6600
G92 E0.0000
G1 X144.385 Y191.883 E0.0572 F960
G1 X144.450 Y191.882 E0.0588
G1 X145.105 Y191.882 E0.0751
G1 X145.105 Y99.715 E2.3685
G1 X146.965 Y97.855 E2.4339
G1 X153.035 Y97.855 E2.5849
G1 X154.895 Y99.715 E2.6504
G1 X154.895 Y191.882 E4.9438
G1 X155.550 Y191.882 E4.9601
G1 X155.615 Y191.883 E4.9617
G1 X157.911 Y191.978 E5.0188
G1 X158.037 Y191.988 E5.0220
G1 X159.344 Y192.148 E5.0548
G1 X159.702 Y192.234 E5.0639
G1 X160.348 Y192.472 E5.0811
G1 X161.965 Y190.855 E5.1380
G1 X169.535 Y190.855 E5.3263
G1 X172.895 Y194.215 E5.4446
G1 X172.895 Y198.785 E5.5583
G1 X171.035 Y200.645 E5.6237
G1 X166.535 Y200.645 E5.7357
G1 X165.035 Y202.145 E5.7885
G1 X157.465 Y202.145 E5.9769
G1 X155.924 Y200.604 E6.0311
G1 X155.615 Y200.617 E6.0388
G1 X155.550 Y200.618 E6.0404
G1 X144.450 Y200.618 E6.3166
G1 X144.385 Y200.617 E6.3182
G1 X144.076 Y200.604 E6.3259
G1 X142.535 Y202.145 E6.3801
G1 X134.965 Y202.145 E6.5685
G1 X133.465 Y200.645 E6.6213
G1 X128.965 Y200.645 E6.7333
G1 X127.105 Y198.785 E6.7987
G1 X127.105 Y194.215 E6.9124
G1 X130.465 Y190.855 E7.0307
G1 X138.035 Y190.855 E7.2190
G1 X139.652 Y192.472 E7.2759
G1 X140.298 Y192.234 E7.2930
G1 X140.656 Y192.148 E7.3022
G1 X141.963 Y191.988 E7.3350
G1 X142.089 Y191.978 E7.3381
G92 E0.0000
G1 E-4.0000 F6600
; feature outer perimeter
G1 Z0.280 F900
G1 X142.298 Y195.322 F3600
G1 X144.487 Y195.232
G1 X153.707 Y195.232
G1 X159.370 Y196.818
G1 Z0.180 F900
G1 E0.0000 F6600
G92 E0.0000
G1 X158.736 Y197.052 E0.0168 F576
G1 X157.702 Y197.178 E0.0427
G1 X155.513 Y197.268 E0.0972
G1 X144.487 Y197.268 E0.3716
G1 X142.298 Y197.178 E0.4261
G1 X141.264 Y197.052 E0.4520
G1 X140.630 Y196.818 E0.4689
G1 X140.630 Y195.682 E0.4971
G1 X141.264 Y195.448 E0.5140
G1 X142.298 Y195.322 E0.5399
G1 X144.487 Y195.232 E0.5944
G1 X155.513 Y195.232 E0.8688
G1 X157.702 Y195.322 E0.9233
G1 X158.736 Y195.448 E0.9492
G1 X159.370 Y195.682 E0.9660
G1 X159.370 Y196.218 E0.9793
G1 X159.370 Y196.818 F576
G1 X158.736 Y197.052 F576
G1 X157.702 Y197.178
G1 X155.513 Y197.268
G1 X154.422 Y197.268
; feature inner perimeter
G1 X155.506 Y196.918 F3600
G92 E0.0000
G1 X144.494 Y196.918 E0.2740 F768
G1 X142.327 Y196.829 E0.3280
G1 X141.347 Y196.709 E0.3526
G1 X140.980 Y196.574 E0.3623
G1 X140.980 Y195.926 E0.3784
G1 X141.347 Y195.791 E0.3881
G1 X142.327 Y195.671 E0.4127
G1 X144.494 Y195.582 E0.4667
G1 X155.506 Y195.582 E0.7407
G1 X157.673 Y195.671 E0.7947
G1 X158.653 Y195.791 E0.8192
G1 X159.020 Y195.926 E0.8290
G1 X159.020 Y196.574 E0.8451
G1 X158.653 Y196.709 E0.8548
G1 X157.673 Y196.829 E0.8794
G1 X156.106 Y196.893 E0.9184
G1 X155.506 Y196.918 F768
G1 X150.506 Y196.918 F768
G1 X155.499 Y196.568 F3600
G92 E0.0000
G1 X144.501 Y196.568 E0.2737 F768
G1 X142.355 Y196.479 E0.3271
G1 X141.489 Y196.374 E0.3488
G1 X141.489 Y196.126 E0.3550
G1 X142.355 Y196.021 E0.3767
G1 X144.501 Y195.932 E0.4301
G1 X155.499 Y195.932 E0.7038
G1 X157.645 Y196.021 E0.7572
G1 X158.511 Y196.126 E0.7789
G1 X158.511 Y196.374 E0.7851
G1 X157.645 Y196.479 E0.8068
G1 X156.099 Y196.543 E0.8453
G1 X155.499 Y196.568 F768
G1 X150.499 Y196.568 F768
; feature solid layer
G1 X155.648 Y196.236 F3600
G92 E0.0000
G1 X155.675 Y196.263 E0.0010 F768
G1 X155.493 Y196.271 E0.0055
G1 X155.188 Y196.271 E0.0131
G1 X155.147 Y196.229 E0.0145
G1 X154.652 Y196.229 E0.0269
G1 X154.693 Y196.271 E0.0283
G1 X154.198 Y196.271 E0.0406
G1 X154.157 Y196.229 E0.0421
G1 X153.662 Y196.229 E0.0544
G1 X153.703 Y196.271 E0.0558
G1 X153.208 Y196.271 E0.0682
G1 X153.167 Y196.229 E0.0696
G1 X152.672 Y196.229 E0.0819
G1 X152.713 Y196.271 E0.0834
G1 X152.218 Y196.271 E0.0957
G1 X152.177 Y196.229 E0.0971
G1 X151.682 Y196.229 E0.1095
G1 X151.723 Y196.271 E0.1109
G1 X151.228 Y196.271 E0.1232
G1 X151.187 Y196.229 E0.1247
G1 X150.692 Y196.229 E0.1370
G1 X150.733 Y196.271 E0.1384
G1 X150.238 Y196.271 E0.1507
G1 X150.197 Y196.229 E0.1522
G1 X149.702 Y196.229 E0.1645
G1 X149.743 Y196.271 E0.1660
G1 X149.248 Y196.271 E0.1783
G1 X149.207 Y196.229 E0.1797
G1 X148.712 Y196.229 E0.1920
G1 X148.753 Y196.271 E0.1935
G1 X148.258 Y196.271 E0.2058
G1 X148.217 Y196.229 E0.2073
G1 X147.722 Y196.229 E0.2196
G1 X147.763 Y196.271 E0.2210
G1 X147.268 Y196.271 E0.2333
G1 X147.227 Y196.229 E0.2348
G1 X146.732 Y196.229 E0.2471
G1 X146.773 Y196.271 E0.2486
G1 X146.278 Y196.271 E0.2609
G1 X146.237 Y196.229 E0.2623
G1 X145.742 Y196.229 E0.2746
G1 X145.783 Y196.271 E0.2761
G1 X145.288 Y196.271 E0.2884
G1 X145.247 Y196.229 E0.2899
G1 X144.758 Y196.229 E0.3020
G1 X144.752 Y196.229 F768
G1 X144.793 Y196.271
G1 X144.507 Y196.271
G1 X144.289 Y196.262
G1 X144.267 Y196.239
G92 E0.0000
G1 X144.289 Y196.262 E-0.2706 F768
G1 X144.507 Y196.271 E-2.1450
G1 X144.723 Y196.271 E-4.0000
G1 X144.793 Y196.271 F768
G1 X144.752 Y196.229
G1 X145.247 Y196.229
G1 X145.288 Y196.271
G1 X145.783 Y196.271
G1 X145.742 Y196.229
G1 X146.237 Y196.229
G1 X146.278 Y196.271
G1 X146.773 Y196.271
G1 X146.732 Y196.229
G1 X147.227 Y196.229
G1 X147.268 Y196.271
