; G-Code generated by Simplify3D(R) Version 4.1.2
; Jun 24, 2022 at 9:03:20 PM
; Settings Summary
;   processName,Process1
;   applyToModels,rake
;   profileName,A11-04-35s Tevo Tornado
;   profileVersion,2022-06-13 07:21:54
;   baseProfile,Creality CR-10(2)
;   printMaterial,PLA
;   printQuality,Medium
;   printExtruders,
;   extruderName,Primary Extruder
;   extruderToolheadNumber,0
;   extruderDiameter,0.4
;   extruderAutoWidth,0
;   extruderWidth,0.35
;   extrusionMultiplier,0.95
;   extruderUseRetract,1
;   extruderRetractionDistance,4
;   extruderExtraRestartDistance,0
;   extruderRetractionZLift,0.1
;   extruderRetractionSpeed,6600
;   extruderUseCoasting,1
;   extruderCoastingDistance,0.6
;   extruderUseWipe,1
;   extruderWipeDistance,5
;   primaryExtruder,0
;   layerHeight,0.15
;   topSolidLayers,5
;   bottomSolidLayers,4
;   perimeterOutlines,3
;   printPerimetersInsideOut,0
;   startPointOption,1
;   startPointOriginX,0
;   startPointOriginY,300
;   sequentialIslands,0
;   spiralVaseMode,0
;   firstLayerHeightPercentage,120
;   firstLayerWidthPercentage,100
;   firstLayerUnderspeed,0.4
;   useRaft,0
;   raftExtruder,0
;   raftTopLayers,3
;   raftBaseLayers,2
;   raftOffset,3
;   raftSeparationDistance,0.14
;   raftTopInfill,100
;   aboveRaftSpeedMultiplier,0.3
;   useSkirt,1
;   skirtExtruder,0
;   skirtLayers,1
;   skirtOutlines,2
;   skirtOffset,3
;   usePrimePillar,0
;   primePillarExtruder,999
;   primePillarWidth,12
;   primePillarLocation,7
;   primePillarSpeedMultiplier,1
;   useOozeShield,0
;   oozeShieldExtruder,999
;   oozeShieldOffset,2
;   oozeShieldOutlines,1
;   oozeShieldSidewallShape,1
;   oozeShieldSidewallAngle,30
;   oozeShieldSpeedMultiplier,1
;   infillExtruder,0
;   internalInfillPattern,Rectilinear
;   externalInfillPattern,Rectilinear
;   infillPercentage,35
;   outlineOverlapPercentage,15
;   infillExtrusionWidthPercentage,100
;   minInfillLength,5
;   infillLayerInterval,1
;   internalInfillAngles,45,-45
;   overlapInternalInfillAngles,0
;   externalInfillAngles,45,-45
;   generateSupport,1
;   supportExtruder,0
;   supportInfillPercentage,30
;   supportExtraInflation,0
;   supportBaseLayers,0
;   denseSupportExtruder,0
;   denseSupportLayers,0
;   denseSupportInfillPercentage,70
;   supportLayerInterval,1
;   supportHorizontalPartOffset,0.4
;   supportUpperSeparationLayers,1
;   supportLowerSeparationLayers,1
;   supportType,0
;   supportGridSpacing,4.5
;   maxOverhangAngle,45
;   supportAngles,0
;   temperatureName,Primary Extruder,Heated Bed
;   temperatureNumber,0,0
;   temperatureSetpointCount,2,2
;   temperatureSetpointLayers,1,2,1,2
;   temperatureSetpointTemperatures,215,205,55,50
;   temperatureStabilizeAtStartup,1,1
;   temperatureHeatedBed,0,1
;   fanLayers,1,2
;   fanSpeeds,0,100
;   blipFanToFullPower,0
;   adjustSpeedForCooling,1
;   minSpeedLayerTime,15
;   minCoolingSpeedSlowdown,20
;   increaseFanForCooling,1
;   minFanLayerTime,25
;   maxCoolingFanSpeed,100
;   increaseFanForBridging,1
;   bridgingFanSpeed,100
;   use5D,1
;   relativeEdistances,0
;   allowEaxisZeroing,1
;   independentExtruderAxes,0
;   includeM10123,0
;   stickySupport,1
;   applyToolheadOffsets,0
;   gcodeXoffset,0
;   gcodeYoffset,0
;   gcodeZoffset,0
;   overrideMachineDefinition,1
;   machineTypeOverride,0
;   strokeXoverride,300
;   strokeYoverride,300
;   strokeZoverride,400
;   originOffsetXoverride,0
;   originOffsetYoverride,0
;   originOffsetZoverride,0
;   homeXdirOverride,-1
;   homeYdirOverride,-1
;   homeZdirOverride,-1
;   flipXoverride,1
;   flipYoverride,-1
;   flipZoverride,1
;   toolheadOffsets,0,0|0,0|0,0|0,0|0,0|0,0
;   overrideFirmwareConfiguration,1
;   firmwareTypeOverride,RepRap (Marlin/Repetier/Sprinter)
;   GPXconfigOverride,r2
;   baudRateOverride,250000
;   overridePrinterModels,1
;   printerModelsOverride
;   startingGcode,;,; -]H.P.B[- MarshMalloW  ,; $VER: StartScript 1.02 (26.12.2019) MarshMalloW,;,; Begin Startcode,;,M117 *Preheat*     	; Preheat,;extruder0_temperature,M104 S[extruder0_temperature]  ,M109 S[extruder0_temperature] ,M109 R[extruder0_temperature] ,;,M117 *Auto-leveling*     	; Auto-leveling,M107                   	; Turn layer fan off,G21                    	; Set to metric [change to G20 if you want Imperial],G90                    	; Force coordinates to be absolute relative to the origin,G28                    	; Home X/Y/Z axis,G29                    	; Auto-leveling (BL-Touch),;,M117 *Start Clean*     	; Indicate nozzle clean in progress on LCD,G92 E0                 	; Set Extruder to 0 ,G1 X0 Y0 F2000         	; Move X and Y to 0 with speed 2000 (mm/min),G1 Z0.1 F1000          	; Move Z to   0.1 with speed 1000 (mm/min),G1 X8.0 F2000          	; Move X to   8.0 with speed 2000 (mm/min),G1 Y60.0 E4.0 F1000.0  	; Move Y to  60 and Extruder with 4.0 with speed 1000 (mm/min),G1 Y100.0 E8.5 F1000.0 	; Move Y to 100 and Extruder with 8.5 with speed 1000 (mm/min),G92 E0                 	; Set extruder to 0,G1 X16.0 F3000         	; Move X to 16.0 with speed 3000 (mm/min),G1 Y60.0 F3000         	; Move Y to 60.0 with speed 3000 (mm/min),M117 *End Clean*       	; Indicate nozzle clean in progress on LCD,G1 Z5 F3000            	; Move Z to  5.0 with speed 3000 (mm/min),G1 X20.0 F3000         	; Move X to 20.0 with speed 3000 (mm/min),G1 Y20.0 F3000         	; Move Y to 20.0 with speed 3000 (mm/min),; ,M117 *Printing...*     	; Start printing msg on LCD,;,; End Startcode,;,; Begin printing with sliced GCode after here,;
;   layerChangeGcode,
;   retractionGcode,
;   toolChangeGcode,
;   endingGcode,;,; init 181010,;,;M107 			; Fan off,;G1 E-1 F300 			; Retract the filament a bit before lifting the nozzle,;M104 S0 			; Turn off extruder,;M140 S0 			; Turn off bed,;G91			; Relative positioning,;G28 X0 Y0 			; Move X/Y to min endstops so the head is out of teh way,;M84 			; Disable motors,;G90 			; Absolute positioning,;M117 Print ready...,,;,; // From Cura 181010,; // End_gcode,G92 E0			; Zero the extruded length,;G1 E-30 F300		; Retract E -30,M106 S0			; Turn off cooling fan,M104 S0			; Turn off temperature,M140 S0		     	; Turn off bed,G91			; Relative positioning,G1 E-1 F300			; Retract the filament a bit before lifting the nozzle to release some of the pressure,G1 Z+20 E-5 X-20 Y-20 F7200	; Move Z up a bit and retract filament even more,G1 X0 Y150 F10000		; Move right min,M107			; Turn off layer fan,M84			; Disable motors,G90			; Absolute positioning,M117 *The-End* 		; End msg,;,
;   exportFileFormat,gcode
;   celebration,0
;   celebrationSong,Star Wars
;   postProcessing,|{REPLACE "; layer " "M117 INDICATOR-Layer"}|{REPLACE ", Z = " "\n; Z="}
;   defaultSpeed,2400
;   outlineUnderspeed,0.6
;   solidInfillUnderspeed,0.8
;   supportUnderspeed,0.8
;   rapidXYspeed,3600
;   rapidZspeed,900
;   minBridgingArea,50
;   bridgingExtraInflation,0.2
;   bridgingExtrusionMultiplier,1
;   bridgingSpeedMultiplier,0.6
;   useFixedBridgingAngle,0
;   fixedBridgingAngle,0
;   applyBridgingToPerimeters,0
;   filamentDiameters,1.75|1.75|1.75|1.75|1.75|1.75
;   filamentPricesPerKg,30|46|46|46|46|46
;   filamentDensities,1.25|1.25|1.25|1.25|1.25|1.25
;   useMinPrintHeight,0
;   minPrintHeight,0
;   useMaxPrintHeight,0
;   maxPrintHeight,50
;   useDiaphragm,0
;   diaphragmLayerInterval,20
;   robustSlicing,1
;   mergeAllIntoSolid,0
;   onlyRetractWhenCrossingOutline,1
;   retractBetweenLayers,1
;   useRetractionMinTravel,0
;   retractionMinTravel,3
;   retractWhileWiping,1
;   onlyWipeOutlines,0
;   avoidCrossingOutline,1
;   maxMovementDetourFactor,3
;   toolChangeRetractionDistance,12
;   toolChangeExtraRestartDistance,-0.5
;   toolChangeRetractionSpeed,600
;   externalThinWallType,1
;   internalThinWallType,1
;   thinWallAllowedOverlapPercentage,20
;   singleExtrusionMinLength,1
;   singleExtrusionMinPrintingWidthPercentage,50
;   singleExtrusionMaxPrintingWidthPercentage,200
;   singleExtrusionEndpointExtension,0.2
;   horizontalSizeCompensation,0
G90
M82
M106 S0
M140 S55
M190 S55
;
; -]H.P.B[- MarshMalloW  
; $VER: StartScript 1.02 (26.12.2019) MarshMalloW
;
; Begin Startcode
;
M117 *Preheat*     	; Preheat
;extruder0_temperature
M104 S215  
M109 S215 
M109 R215 
;
M117 *Auto-leveling*     	; Auto-leveling
M107                   	; Turn layer fan off
G21                    	; Set to metric [change to G20 if you want Imperial]
G90                    	; Force coordinates to be absolute relative to the origin
G28                    	; Home X/Y/Z axis
G29                    	; Auto-leveling (BL-Touch)
;
M117 *Start Clean*     	; Indicate nozzle clean in progress on LCD
G92 E0                 	; Set Extruder to 0 
G1 X0 Y0 F2000         	; Move X and Y to 0 with speed 2000 (mm/min)
G1 Z0.1 F1000          	; Move Z to   0.1 with speed 1000 (mm/min)
G1 X8.0 F2000          	; Move X to   8.0 with speed 2000 (mm/min)
G1 Y60.0 E4.0 F1000.0  	; Move Y to  60 and Extruder with 4.0 with speed 1000 (mm/min)
G1 Y100.0 E8.5 F1000.0 	; Move Y to 100 and Extruder with 8.5 with speed 1000 (mm/min)
G92 E0                 	; Set extruder to 0
G1 X16.0 F3000         	; Move X to 16.0 with speed 3000 (mm/min)
G1 Y60.0 F3000         	; Move Y to 60.0 with speed 3000 (mm/min)
M117 *End Clean*       	; Indicate nozzle clean in progress on LCD
G1 Z5 F3000            	; Move Z to  5.0 with speed 3000 (mm/min)
G1 X20.0 F3000         	; Move X to 20.0 with speed 3000 (mm/min)
G1 Y20.0 F3000         	; Move Y to 20.0 with speed 3000 (mm/min)
; 
M117 *Printing...*     	; Start printing msg on LCD
;
; End Startcode
;
; Begin printing with sliced GCode after here
;
; process Process1
M117 INDICATOR-Layer1
; Z=0.180
T0
G92 E0.0000
G1 E-4.0000 F6600
; feature skirt
; tool H0.180 W0.350
G1 Z0.180 F900
G1 X158.430 Y100.140 F3600
G1 E0.0000 F6600
G92 E0.0000
G1 X158.430 Y190.055 E2.2373 F960
G1 X165.125 Y190.055 E2.4039
G1 X167.190 Y192.120 E2.4766
G1 X167.190 Y199.860 E2.6692
G1 X165.125 Y201.925 E2.7418
G1 X148.625 Y201.925 E3.1524
G1 X146.560 Y199.860 E3.2251
G1 X146.560 Y100.140 E5.7064
G1 X148.625 Y98.075 E5.7791
G1 X156.365 Y98.075 E5.9717
G1 X158.430 Y100.140 E6.0443
G92 E0.0000
G1 E-4.0000 F6600
G1 Z0.280 F900
G1 X164.980 Y190.405 F3600
G1 Z0.180 F900
G1 E0.0000 F6600
G92 E0.0000
G1 X166.840 Y192.265 E0.0654 F960
G1 X166.840 Y199.715 E0.2508
G1 X164.980 Y201.575 E0.3163
G1 X148.770 Y201.575 E0.7196
G1 X146.910 Y199.715 E0.7851
G1 X146.910 Y100.285 E3.2592
G1 X148.770 Y98.425 E3.3246
G1 X156.220 Y98.425 E3.5100
G1 X158.080 Y100.285 E3.5755
G1 X158.080 Y190.405 E5.8179
G1 X164.980 Y190.405 E5.9896
G92 E0.0000
G1 E-4.0000 F6600
; feature outer perimeter
G1 Z0.280 F900
G1 X153.824 Y196.908 F3600
G1 Z0.180 F900
G1 E0.0000 F6600
G92 E0.0000
G1 X152.176 Y196.908 E0.0410 F576
G1 X152.176 Y195.592 E0.0738
G1 X153.824 Y195.592 E0.1148
G1 X153.824 Y196.308 E0.1326
G1 X153.824 Y196.908 F576
G1 X152.176 Y196.908 F576
G1 X152.176 Y195.592
G1 X153.824 Y195.592
G1 X153.824 Y195.978
; feature inner perimeter
G1 X153.474 Y195.942 F3600
G92 E0.0000
G1 X153.474 Y196.558 E0.0153 F768
G1 X152.526 Y196.558 E0.0389
G1 X152.526 Y195.942 E0.0543
G1 X152.874 Y195.942 E0.0630
G1 X153.474 Y195.942 F768
G92 E0.0000
G1 E-4.0000 F6600
; feature support
G1 Z0.280 F900
G1 X153.824 Y196.008 F3600
G1 X153.824 Y196.858
G1 X163.480 Y197.833
G1 Z0.180 F900
G1 E0.0000 F6600
G92 E0.0000
G1 X154.650 Y197.833 E0.2197 F768
G1 X154.650 Y197.399 E0.2305
G1 X154.790 Y197.051 E0.2398
G1 X154.790 Y196.667 E0.2494
G1 X163.480 Y196.667 E0.4656
G1 X163.480 Y195.500 E0.4947
G1 X155.390 Y195.500 E0.6960
G1 X154.790 Y195.500 F768
G92 E0.0000
G1 X155.256 Y195.500 E-4.0000 F768
G1 X159.790 Y195.500 F768
G1 Z0.280 F900
G1 X152.078 Y197.833 F3600
G1 Z0.180 F900
G1 E0.0000 F6600
G92 E0.0000
G1 X150.270 Y197.833 E0.0450 F768
G1 X150.270 Y196.667 E0.0740
G1 X151.210 Y196.667 E0.0974
G1 X151.210 Y195.500 E0.1264
G1 X150.270 Y195.500 E0.1498
G1 X150.270 Y194.333 E0.1788
G1 X163.480 Y194.333 E0.5075
G1 X163.480 Y193.765 E0.5217
G1 X154.720 Y193.765 E0.7397
G1 X154.720 Y193.167 E0.7545
G1 X150.270 Y193.167 E0.8653
G1 X150.270 Y192.000 E0.8943
G1 X154.720 Y192.000 E1.0050
G1 X154.720 Y190.833 E1.0341
G1 X150.270 Y190.833 E1.1448
G1 X150.270 Y189.667 E1.1738
G1 X154.720 Y189.667 E1.2845
G1 X154.720 Y188.500 E1.3136
G1 X150.270 Y188.500 E1.4243
G1 X150.270 Y187.333 E1.4533
G1 X154.720 Y187.333 E1.5641
G1 X154.720 Y186.167 E1.5931
G1 X150.270 Y186.167 E1.7038
G1 X150.270 Y185.000 E1.7329
G1 X154.720 Y185.000 E1.8436
G1 X154.720 Y183.833 E1.8726
G1 X150.270 Y183.833 E1.9833
G1 X150.270 Y182.667 E2.0124
G1 X154.720 Y182.667 E2.1231
G1 X154.720 Y181.500 E2.1521
G1 X150.270 Y181.500 E2.2629
G1 X150.270 Y180.333 E2.2919
G1 X154.720 Y180.333 E2.4026
G1 X154.720 Y179.167 E2.4316
G1 X150.270 Y179.167 E2.5424
G1 X150.270 Y178.000 E2.5714
G1 X154.720 Y178.000 E2.6821
G1 X154.720 Y176.833 E2.7112
G1 X150.270 Y176.833 E2.8219
G1 X150.270 Y175.667 E2.8509
G1 X154.720 Y175.667 E2.9616
G1 X154.720 Y174.500 E2.9907
G1 X150.270 Y174.500 E3.1014
G1 X150.270 Y173.333 E3.1304
G1 X154.720 Y173.333 E3.2412
G1 X154.720 Y172.167 E3.2702
G1 X150.270 Y172.167 E3.3809
G1 X150.270 Y171.000 E3.4099
G1 X154.720 Y171.000 E3.5207
G1 X154.720 Y169.833 E3.5497
G1 X150.270 Y169.833 E3.6604
G1 X150.270 Y168.667 E3.6895
G1 X154.720 Y168.667 E3.8002
G1 X154.720 Y167.500 E3.8292
G1 X150.270 Y167.500 E3.9400
G1 X150.270 Y166.333 E3.9690
G1 X154.720 Y166.333 E4.0797
G1 X154.720 Y165.167 E4.1087
G1 X150.270 Y165.167 E4.2195
G1 X150.270 Y164.000 E4.2485
G1 X154.720 Y164.000 E4.3592
G1 X154.720 Y162.833 E4.3883
G1 X150.270 Y162.833 E4.4990
G1 X150.270 Y161.667 E4.5280
G1 X154.720 Y161.667 E4.6387
G1 X154.720 Y160.500 E4.6678
G1 X150.270 Y160.500 E4.7785
G1 X150.270 Y159.333 E4.8075
G1 X154.720 Y159.333 E4.9183
G1 X154.720 Y158.167 E4.9473
G1 X150.270 Y158.167 E5.0580
G1 X150.270 Y157.000 E5.0870
G1 X154.720 Y157.000 E5.1978
G1 X154.720 Y155.833 E5.2268
G1 X150.270 Y155.833 E5.3375
G1 X150.270 Y154.667 E5.3666
G1 X154.720 Y154.667 E5.4773
G1 X154.720 Y153.500 E5.5063
G1 X150.270 Y153.500 E5.6170
G1 X150.270 Y152.333 E5.6461
G1 X154.720 Y152.333 E5.7568
G1 X154.720 Y151.167 E5.7858
G1 X150.270 Y151.167 E5.8966
G1 X150.270 Y150.000 E5.9256
G1 X154.720 Y150.000 E6.0363
G1 X154.720 Y148.833 E6.0654
G1 X150.270 Y148.833 E6.1761
G1 X150.270 Y147.667 E6.2051
G1 X154.720 Y147.667 E6.3158
G1 X154.720 Y146.500 E6.3449
G1 X150.270 Y146.500 E6.4556
G1 X150.270 Y145.333 E6.4846
G1 X154.720 Y145.333 E6.5954
G1 X154.720 Y144.167 E6.6244
G1 X150.270 Y144.167 E6.7351
G1 X150.270 Y143.000 E6.7641
G1 X154.720 Y143.000 E6.8749
G1 X154.720 Y141.833 E6.9039
G1 X150.270 Y141.833 E7.0146
G1 X150.270 Y140.667 E7.0437
G1 X154.720 Y140.667 E7.1544
G1 X154.720 Y139.500 E7.1834
G1 X150.270 Y139.500 E7.2941
G1 X150.270 Y138.333 E7.3232
G1 X154.720 Y138.333 E7.4339
G1 X154.720 Y137.167 E7.4629
G1 X150.270 Y137.167 E7.5737
G1 X150.270 Y136.000 E7.6027
G1 X154.720 Y136.000 E7.7134
G1 X154.720 Y134.833 E7.7424
G1 X150.270 Y134.833 E7.8532
G1 X150.270 Y133.667 E7.8822
G1 X154.720 Y133.667 E7.9929
G1 X154.720 Y132.500 E8.0220
G1 X150.270 Y132.500 E8.1327
G1 X150.270 Y131.333 E8.1617
G1 X154.720 Y131.333 E8.2725
G1 X154.720 Y130.167 E8.3015
G1 X150.270 Y130.167 E8.4122
G1 X150.270 Y129.000 E8.4412
G1 X154.720 Y129.000 E8.5520
G1 X154.720 Y127.833 E8.5810
G1 X150.270 Y127.833 E8.6917
G1 X150.270 Y126.667 E8.7208
G1 X154.720 Y126.667 E8.8315
G1 X154.720 Y125.500 E8.8605
G1 X150.270 Y125.500 E8.9712
G1 X150.270 Y124.333 E9.0003
G1 X154.720 Y124.333 E9.1110
G1 X154.720 Y123.167 E9.1400
G1 X150.270 Y123.167 E9.2508
G1 X150.270 Y122.000 E9.2798
G1 X154.720 Y122.000 E9.3905
G1 X154.720 Y120.833 E9.4195
G1 X150.270 Y120.833 E9.5303
G1 X150.270 Y119.667 E9.5593
G1 X154.720 Y119.667 E9.6700
G1 X154.720 Y118.500 E9.6991
G1 X150.270 Y118.500 E9.8098
G1 X150.270 Y117.333 E9.8388
G1 X154.720 Y117.333 E9.9495
G1 X154.720 Y116.167 E9.9786
G1 X150.270 Y116.167 E10.0893
G1 X150.270 Y115.000 E10.1183
G1 X154.720 Y115.000 E10.2291
G1 X154.720 Y113.833 E10.2581
G1 X150.270 Y113.833 E10.3688
G1 X150.270 Y112.667 E10.3979
