; G-Code generated by Simplify3D(R) Version 4.1.2
; Nov 24, 2019 at 5:52:12 PM
; Settings Summary
;   processName,Process1
;   applyToModels,nacelle_AR_feux_sur_Mat_SNCB_HO
;   profileName,401 Tevo Tornado (experimental)
;   profileVersion,2019-11-15 20:21:07
;   baseProfile,Creality CR-10(2)
;   printMaterial,PLA
;   printQuality,Medium
;   printExtruders,
;   extruderName,Primary Extruder
;   extruderToolheadNumber,0
;   extruderDiameter,0.4
;   extruderAutoWidth,0
;   extruderWidth,0.35
;   extrusionMultiplier,0.95
;   extruderUseRetract,1
;   extruderRetractionDistance,3.8
;   extruderExtraRestartDistance,0
;   extruderRetractionZLift,0.3
;   extruderRetractionSpeed,3000
;   extruderUseCoasting,0
;   extruderCoastingDistance,0.2
;   extruderUseWipe,0
;   extruderWipeDistance,4
;   primaryExtruder,0
;   layerHeight,0.15
;   topSolidLayers,4
;   bottomSolidLayers,3
;   perimeterOutlines,3
;   printPerimetersInsideOut,0
;   startPointOption,1
;   startPointOriginX,0
;   startPointOriginY,300
;   sequentialIslands,0
;   spiralVaseMode,0
;   firstLayerHeightPercentage,120
;   firstLayerWidthPercentage,100
;   firstLayerUnderspeed,0.5
;   useRaft,0
;   raftExtruder,0
;   raftTopLayers,3
;   raftBaseLayers,2
;   raftOffset,3
;   raftSeparationDistance,0.14
;   raftTopInfill,100
;   aboveRaftSpeedMultiplier,0.3
;   useSkirt,1
;   skirtExtruder,0
;   skirtLayers,1
;   skirtOutlines,3
;   skirtOffset,2
;   usePrimePillar,0
;   primePillarExtruder,999
;   primePillarWidth,12
;   primePillarLocation,7
;   primePillarSpeedMultiplier,1
;   useOozeShield,0
;   oozeShieldExtruder,999
;   oozeShieldOffset,2
;   oozeShieldOutlines,1
;   oozeShieldSidewallShape,1
;   oozeShieldSidewallAngle,30
;   oozeShieldSpeedMultiplier,1
;   infillExtruder,0
;   internalInfillPattern,Grid
;   externalInfillPattern,Concentric
;   infillPercentage,25
;   outlineOverlapPercentage,15
;   infillExtrusionWidthPercentage,100
;   minInfillLength,5
;   infillLayerInterval,1
;   internalInfillAngles,45,-45
;   overlapInternalInfillAngles,1
;   externalInfillAngles,45,-45
;   generateSupport,0
;   supportExtruder,0
;   supportInfillPercentage,30
;   supportExtraInflation,0
;   supportBaseLayers,0
;   denseSupportExtruder,0
;   denseSupportLayers,0
;   denseSupportInfillPercentage,70
;   supportLayerInterval,1
;   supportHorizontalPartOffset,0.4
;   supportUpperSeparationLayers,1
;   supportLowerSeparationLayers,1
;   supportType,0
;   supportGridSpacing,4.5
;   maxOverhangAngle,45
;   supportAngles,0
;   temperatureName,Primary Extruder,Heated Bed
;   temperatureNumber,0,0
;   temperatureSetpointCount,2,1
;   temperatureSetpointLayers,1,2,1
;   temperatureSetpointTemperatures,215,210,60
;   temperatureStabilizeAtStartup,1,1
;   temperatureHeatedBed,0,1
;   fanLayers,1,2
;   fanSpeeds,0,100
;   blipFanToFullPower,0
;   adjustSpeedForCooling,1
;   minSpeedLayerTime,15
;   minCoolingSpeedSlowdown,50
;   increaseFanForCooling,1
;   minFanLayerTime,25
;   maxCoolingFanSpeed,100
;   increaseFanForBridging,1
;   bridgingFanSpeed,100
;   use5D,1
;   relativeEdistances,0
;   allowEaxisZeroing,1
;   independentExtruderAxes,0
;   includeM10123,0
;   stickySupport,1
;   applyToolheadOffsets,0
;   gcodeXoffset,0
;   gcodeYoffset,0
;   gcodeZoffset,0
;   overrideMachineDefinition,1
;   machineTypeOverride,0
;   strokeXoverride,300
;   strokeYoverride,300
;   strokeZoverride,400
;   originOffsetXoverride,0
;   originOffsetYoverride,0
;   originOffsetZoverride,0
;   homeXdirOverride,-1
;   homeYdirOverride,-1
;   homeZdirOverride,-1
;   flipXoverride,1
;   flipYoverride,-1
;   flipZoverride,1
;   toolheadOffsets,0,0|0,0|0,0|0,0|0,0|0,0
;   overrideFirmwareConfiguration,1
;   firmwareTypeOverride,RepRap (Marlin/Repetier/Sprinter)
;   GPXconfigOverride,r2
;   baudRateOverride,250000
;   overridePrinterModels,1
;   printerModelsOverride
;   startingGcode,;,; -]H.P.B[- MarshMalloW  ,; $VER: StartScript 1.01 (13.11.2019) MarshMalloW,;,; Begin Startcode,;,M117 *Start Clean*     	; Indicate nozzle clean in progress on LCD,;,;extruder0_temperature,M104 S[extruder0_temperature]  ,M109 S[extruder0_temperature] ,M109 R[extruder0_temperature] ,;,M107                   	; Turn layer fan off,G21                    	; Set to metric [change to G20 if you want Imperial],G90                    	; Force coordinates to be absolute relative to the origin,G28                    	; Home X/Y/Z axis,G29                    	; Auto-leveling (BL-Touch),;,G92 E0                 	; Set Extruder to 0 ,G1 X0 Y0 F2000         	; Move X and Y to 0 with speed 2000 (mm/min),G1 Z0.1 F1000          	; Move Z to   0.1 with speed 1000 (mm/min),G1 X8.0 F2000          	; Move X to   8.0 with speed 2000 (mm/min),G1 Y60.0 E4.0 F1000.0  	; Move Y to  60 and Extruder with 4.0 with speed 1000 (mm/min),G1 Y100.0 E8.5 F1000.0 	; Move Y to 100 and Extruder with 8.5 with speed 1000 (mm/min),G92 E0                 	; Set extruder to 0,G1 X16.0 F3000         	; Move X to 16.0 with speed 3000 (mm/min),G1 Y60.0 F3000         	; Move Y to 60.0 with speed 3000 (mm/min),M117 *End Clean*       	; Indicate nozzle clean in progress on LCD,G1 Z5 F3000            	; Move Z to  5.0 with speed 3000 (mm/min),G1 X20.0 F3000         	; Move X to 20.0 with speed 3000 (mm/min),; ,M117 *Printing...*     	; Start printing msg on LCD,;,; End Startcode,;,; Begin printing with sliced GCode after here,;
;   layerChangeGcode,
;   retractionGcode,
;   toolChangeGcode,
;   endingGcode,;,; init 181010,;,;M107 			; Fan off,;G1 E-1 F300 			; Retract the filament a bit before lifting the nozzle,;M104 S0 			; Turn off extruder,;M140 S0 			; Turn off bed,;G91			; Relative positioning,;G28 X0 Y0 			; Move X/Y to min endstops so the head is out of teh way,;M84 			; Disable motors,;G90 			; Absolute positioning,;M117 Print ready...,,;,; // From Cura 181010,; // End_gcode,G92 E0			; Zero the extruded length,;G1 E-30 F300		; Retract E -30,M106 S0			; Turn off cooling fan,M104 S0			; Turn off temperature,M140 S0		     	; Turn off bed,G91			; Relative positioning,G1 E-1 F300			; Retract the filament a bit before lifting the nozzle to release some of the pressure,G1 Z+20 E-5 X-20 Y-20 F7200	; Move Z up a bit and retract filament even more,G1 X0 Y150 F10000		; Move right min,M107			; Turn off layer fan,M84			; Disable motors,G90			; Absolute positioning,M117 *The-End* 		; End msg,;,
;   exportFileFormat,gcode
;   celebration,0
;   celebrationSong,Star Wars
;   postProcessing,
;   defaultSpeed,1800
;   outlineUnderspeed,0.5
;   solidInfillUnderspeed,0.8
;   supportUnderspeed,0.8
;   rapidXYspeed,6000
;   rapidZspeed,1002
;   minBridgingArea,50
;   bridgingExtraInflation,0.2
;   bridgingExtrusionMultiplier,1
;   bridgingSpeedMultiplier,0.6
;   useFixedBridgingAngle,0
;   fixedBridgingAngle,0
;   applyBridgingToPerimeters,0
;   filamentDiameters,1.75|1.75|1.75|1.75|1.75|1.75
;   filamentPricesPerKg,30|46|46|46|46|46
;   filamentDensities,1.25|1.25|1.25|1.25|1.25|1.25
;   useMinPrintHeight,0
;   minPrintHeight,0
;   useMaxPrintHeight,0
;   maxPrintHeight,9
;   useDiaphragm,0
;   diaphragmLayerInterval,20
;   robustSlicing,1
;   mergeAllIntoSolid,0
;   onlyRetractWhenCrossingOutline,1
;   retractBetweenLayers,1
;   useRetractionMinTravel,1
;   retractionMinTravel,3
;   retractWhileWiping,1
;   onlyWipeOutlines,1
;   avoidCrossingOutline,1
;   maxMovementDetourFactor,3
;   toolChangeRetractionDistance,12
;   toolChangeExtraRestartDistance,-0.5
;   toolChangeRetractionSpeed,600
;   externalThinWallType,1
;   internalThinWallType,1
;   thinWallAllowedOverlapPercentage,15
;   singleExtrusionMinLength,1
;   singleExtrusionMinPrintingWidthPercentage,50
;   singleExtrusionMaxPrintingWidthPercentage,200
;   singleExtrusionEndpointExtension,0.2
;   horizontalSizeCompensation,0
G90
M82
M106 S0
M140 S60
M190 S60
;
; -]H.P.B[- MarshMalloW  
; $VER: StartScript 1.01 (13.11.2019) MarshMalloW
;
; Begin Startcode
;
M117 *Start Clean*     	; Indicate nozzle clean in progress on LCD
;
;extruder0_temperature
M104 S215  
M109 S215 
M109 R215 
;
M107                   	; Turn layer fan off
G21                    	; Set to metric [change to G20 if you want Imperial]
G90                    	; Force coordinates to be absolute relative to the origin
G28                    	; Home X/Y/Z axis
G29                    	; Auto-leveling (BL-Touch)
;
G92 E0                 	; Set Extruder to 0 
G1 X0 Y0 F2000         	; Move X and Y to 0 with speed 2000 (mm/min)
G1 Z0.1 F1000          	; Move Z to   0.1 with speed 1000 (mm/min)
G1 X8.0 F2000          	; Move X to   8.0 with speed 2000 (mm/min)
G1 Y60.0 E4.0 F1000.0  	; Move Y to  60 and Extruder with 4.0 with speed 1000 (mm/min)
G1 Y100.0 E8.5 F1000.0 	; Move Y to 100 and Extruder with 8.5 with speed 1000 (mm/min)
G92 E0                 	; Set extruder to 0
G1 X16.0 F3000         	; Move X to 16.0 with speed 3000 (mm/min)
G1 Y60.0 F3000         	; Move Y to 60.0 with speed 3000 (mm/min)
M117 *End Clean*       	; Indicate nozzle clean in progress on LCD
G1 Z5 F3000            	; Move Z to  5.0 with speed 3000 (mm/min)
G1 X20.0 F3000         	; Move X to 20.0 with speed 3000 (mm/min)
; 
M117 *Printing...*     	; Start printing msg on LCD
;
; End Startcode
;
; Begin printing with sliced GCode after here
;
; process Process1
; layer 1, Z = 0.180
T0
G92 E0.0000
G1 E-3.8000 F3000
; feature skirt
; tool H0.180 W0.350
G1 Z0.300 F1002
G1 X160.845 Y142.235 F6000
G1 Z0.180 F1002
G1 E0.0000 F3000
G92 E0.0000
G1 X161.625 Y142.460 E0.0202 F900
G1 X162.606 Y143.076 E0.0490
G1 X163.215 Y143.840 E0.0733
G1 X163.544 Y144.779 E0.0981
G1 X163.625 Y145.257 E0.1102
G1 X163.625 Y154.742 E0.3462
G1 X163.544 Y155.221 E0.3582
G1 X163.242 Y156.082 E0.3810
G1 X162.773 Y156.744 E0.4012
G1 X162.063 Y157.310 E0.4237
G1 X161.479 Y157.591 E0.4399
G1 X160.832 Y157.739 E0.4564
G1 X160.511 Y157.775 E0.4644
G1 X148.559 Y157.775 E0.7618
G1 X147.500 Y156.716 E0.7991
G1 X146.441 Y157.775 E0.8364
G1 X139.408 Y157.775 E1.0114
G1 X138.929 Y157.694 E1.0234
G1 X138.068 Y157.392 E1.0461
G1 X137.406 Y156.923 E1.0663
G1 X136.840 Y156.213 E1.0889
G1 X136.559 Y155.629 E1.1051
G1 X136.411 Y154.982 E1.1216
G1 X136.375 Y154.661 E1.1296
G1 X136.375 Y145.258 E1.3636
G1 X136.456 Y144.779 E1.3757
G1 X136.758 Y143.918 E1.3984
G1 X137.227 Y143.256 E1.4186
G1 X137.884 Y142.732 E1.4395
G1 X138.333 Y142.489 E1.4522
G1 X138.887 Y142.307 E1.4667
G1 X139.340 Y142.234 E1.4781
G1 X160.845 Y142.235 E2.0132
G92 E0.0000
G1 E-3.8000 F3000
G1 Z0.480 F1002
G1 X160.400 Y145.282 F6000
G1 X160.340 Y145.275
G1 X156.454 Y145.277
G1 X151.475 Y148.725
G1 X150.375 Y148.725
G1 X150.375 Y149.487
G1 X149.925 Y149.799
G1 X149.925 Y145.725
G1 X145.075 Y145.725
G1 X145.075 Y153.158
G1 X144.625 Y153.469
G1 X144.625 Y154.275
G1 X143.462 Y154.275
G1 X142.812 Y154.725
G1 X139.660 Y154.725
G1 X139.600 Y154.718
G1 X139.017 Y157.354
G1 Z0.180 F1002
G1 E0.0000 F3000
G92 E0.0000
G1 X138.230 Y157.078 E0.0207 F900
G1 X137.649 Y156.666 E0.0385
G1 X137.138 Y156.025 E0.0589
G1 X136.891 Y155.513 E0.0730
G1 X136.757 Y154.924 E0.0881
G1 X136.725 Y154.642 E0.0951
G1 X136.725 Y145.287 E0.3279
G1 X136.796 Y144.867 E0.3385
G1 X137.072 Y144.080 E0.3592
G1 X137.484 Y143.499 E0.3770
G1 X138.078 Y143.025 E0.3959
G1 X138.473 Y142.812 E0.4070
G1 X138.970 Y142.648 E0.4201
G1 X139.368 Y142.584 E0.4301
G1 X160.796 Y142.585 E0.9633
G1 X161.481 Y142.782 E0.9810
G1 X162.369 Y143.341 E1.0071
G1 X162.904 Y144.012 E1.0285
G1 X163.204 Y144.867 E1.0510
G1 X163.275 Y145.287 E1.0616
G1 X163.275 Y154.713 E1.2962
G1 X163.204 Y155.133 E1.3068
G1 X162.928 Y155.920 E1.3275
G1 X162.516 Y156.501 E1.3453
G1 X161.875 Y157.012 E1.3656
G1 X161.363 Y157.259 E1.3798
G1 X160.774 Y157.393 E1.3948
G1 X160.492 Y157.425 E1.4019
G1 X148.704 Y157.425 E1.6952
G1 X147.500 Y156.221 E1.7376
G1 X146.296 Y157.425 E1.7799
G1 X139.437 Y157.425 E1.9506
G1 X139.017 Y157.354 E1.9612
G92 E0.0000
G1 E-3.8000 F3000
G1 Z0.480 F1002
G1 X162.925 Y154.683 F6000
G1 Z0.180 F1002
G1 E0.0000 F3000
G92 E0.0000
G1 X162.864 Y155.045 E0.0091 F900
G1 X162.614 Y155.758 E0.0279
G1 X162.259 Y156.258 E0.0432
G1 X161.688 Y156.714 E0.0614
G1 X161.246 Y156.926 E0.0736
G1 X160.715 Y157.048 E0.0871
G1 X160.472 Y157.075 E0.0932
G1 X148.849 Y157.075 E0.3824
G1 X147.575 Y155.801 E0.4272
G1 X147.575 Y148.075 E0.6195
G1 X147.425 Y148.075 E0.6232
G1 X147.425 Y155.801 E0.8155
G1 X146.151 Y157.075 E0.8603
G1 X139.467 Y157.075 E1.0266
G1 X139.105 Y157.014 E1.0358
G1 X138.392 Y156.764 E1.0545
G1 X137.892 Y156.409 E1.0698
G1 X137.436 Y155.838 E1.0880
G1 X137.224 Y155.396 E1.1002
G1 X137.102 Y154.865 E1.1137
G1 X137.075 Y154.622 E1.1198
G1 X137.075 Y145.317 E1.3514
G1 X137.136 Y144.955 E1.3605
G1 X137.386 Y144.243 E1.3793
G1 X137.741 Y143.742 E1.3946
G1 X138.272 Y143.319 E1.4114
G1 X138.612 Y143.135 E1.4211
G1 X139.053 Y142.989 E1.4326
G1 X139.396 Y142.934 E1.4413
G1 X160.746 Y142.935 E1.9725
G1 X161.336 Y143.105 E1.9878
G1 X162.133 Y143.606 E2.0112
G1 X162.594 Y144.183 E2.0296
G1 X162.864 Y144.955 E2.0499
G1 X162.925 Y145.317 E2.0591
G1 X162.925 Y154.683 E2.2921
G92 E0.0000
G1 E-3.8000 F3000
; feature outer perimeter
G1 Z0.480 F1002
G1 X160.575 Y154.490 F6000
G1 X160.575 Y153.760
G1 X160.125 Y153.583
G1 X160.125 Y153.225
G1 X159.214 Y153.225
G1 X158.069 Y152.775
G1 X160.137 Y152.775
G1 X160.137 Y151.725
G1 X155.397 Y151.725
G1 X154.252 Y151.275
G1 X150.375 Y151.275
G1 X150.375 Y150.225
G1 X151.581 Y150.225
G1 X150.436 Y149.775
G1 X150.375 Y149.775
G1 X150.375 Y149.751
G1 X149.925 Y149.574
G1 X149.925 Y145.725
G1 X145.075 Y145.725
G1 X145.075 Y147.668
G1 X144.625 Y147.491
G1 X144.625 Y147.225
G1 X143.948 Y147.225
G1 X142.803 Y146.775
G1 X139.871 Y146.775
G1 X139.871 Y145.725
G1 X140.131 Y145.725
G1 X139.432 Y145.450
G1 Z0.180 F1002
G1 E0.0000 F3000
G92 E0.0000
G1 X139.448 Y145.403 E0.0012 F450
G1 X139.475 Y145.360 E0.0025
G1 X139.510 Y145.325 E0.0037
G1 X139.552 Y145.299 E0.0050
G1 X139.597 Y145.284 E0.0061
G1 X160.340 Y145.275 E0.5223
G1 X160.400 Y145.282 E0.5238
G1 X160.447 Y145.298 E0.5250
G1 X160.490 Y145.325 E0.5263
G1 X160.525 Y145.360 E0.5275
G1 X160.552 Y145.403 E0.5288
G1 X160.568 Y145.450 E0.5300
G1 X160.575 Y145.510 E0.5315
G1 X160.575 Y154.490 E0.7550
G1 X160.568 Y154.550 E0.7565
G1 X160.552 Y154.597 E0.7577
G1 X160.525 Y154.640 E0.7590
G1 X160.490 Y154.675 E0.7602
G1 X160.447 Y154.702 E0.7615
G1 X160.400 Y154.718 E0.7627
G1 X160.340 Y154.725 E0.7642
G1 X149.925 Y154.725 E1.0234
G1 X149.925 Y145.725 E1.2473
G1 X145.075 Y145.725 E1.3680
G1 X145.075 Y154.725 E1.5919
G1 X139.660 Y154.725 E1.7267
G1 X139.600 Y154.718 E1.7282
G1 X139.553 Y154.702 E1.7294
G1 X139.510 Y154.675 E1.7307
G1 X139.475 Y154.640 E1.7319
G1 X139.448 Y154.597 E1.7332
G1 X139.432 Y154.550 E1.7344
G1 X139.425 Y154.490 E1.7359
G1 X139.425 Y145.510 E1.9593
G1 X139.432 Y145.450 E1.9608
G1 X139.871 Y145.725 F6000
G92 E0.0000
G1 X139.871 Y146.775 E0.0261 F450
G1 X144.625 Y146.775 E0.1444
G1 X144.625 Y145.725 E0.1705
G1 X139.871 Y145.725 E0.2888
G1 X139.874 Y146.775 F6000
G1 X139.875 Y147.225
G92 E0.0000
G1 X139.875 Y148.275 E0.0261 F450
G1 X144.625 Y148.275 E0.1443
G1 X144.625 Y147.225 E0.1704
G1 X139.875 Y147.225 E0.2886
G1 X139.875 Y148.275 F6000
G1 X139.908 Y148.275
G1 X139.922 Y148.725
G92 E0.0000
G1 X139.922 Y149.775 E0.0261 F450
G1 X144.625 Y149.775 E0.1432
G1 X144.625 Y148.725 E0.1693
G1 X139.922 Y148.725 E0.2863
G1 X139.922 Y150.225 F6000
G92 E0.0000
G1 X139.922 Y151.275 E0.0261 F450
G1 X144.625 Y151.275 E0.1432
G1 X144.625 Y150.225 E0.1693
G1 X139.922 Y150.225 E0.2863
G1 X139.875 Y151.725 F6000
G92 E0.0000
G1 X139.875 Y152.775 E0.0261 F450
G1 X144.625 Y152.775 E0.1443
G1 X144.625 Y151.725 E0.1704
G1 X139.875 Y151.725 E0.2886
G1 X139.875 Y153.225 F6000
G92 E0.0000
G1 X139.875 Y154.275 E0.0261 F450
G1 X144.625 Y154.275 E0.1443
G1 X144.625 Y153.225 E0.1704
G1 X139.875 Y153.225 E0.2886
G92 E0.0000
G1 E-3.8000 F3000
G1 Z0.480 F1002
G1 X150.375 Y153.225 F6000
G1 Z0.180 F1002
G1 E0.0000 F3000
G92 E0.0000
G1 X150.375 Y154.275 E0.0261 F450
G1 X160.125 Y154.275 E0.2687
G1 X160.125 Y153.225 E0.2949
G1 X150.375 Y153.225 E0.5375
