; G-Code generated by Simplify3D(R) Version 4.1.2
; Nov 16, 2019 at 2:58:19 PM
; Settings Summary
;   processName,Process1
;   applyToModels,FeuxB02
;   profileName,401_35p Tevo Tornado (experimental)
;   profileVersion,2019-11-15 20:21:15
;   baseProfile,Creality CR-10(2)
;   printMaterial,PLA
;   printQuality,Medium
;   printExtruders,
;   extruderName,Primary Extruder
;   extruderToolheadNumber,0
;   extruderDiameter,0.4
;   extruderAutoWidth,0
;   extruderWidth,0.35
;   extrusionMultiplier,0.95
;   extruderUseRetract,1
;   extruderRetractionDistance,3.8
;   extruderExtraRestartDistance,0
;   extruderRetractionZLift,0.3
;   extruderRetractionSpeed,3000
;   extruderUseCoasting,0
;   extruderCoastingDistance,0.2
;   extruderUseWipe,0
;   extruderWipeDistance,4
;   primaryExtruder,0
;   layerHeight,0.15
;   topSolidLayers,4
;   bottomSolidLayers,3
;   perimeterOutlines,3
;   printPerimetersInsideOut,0
;   startPointOption,1
;   startPointOriginX,0
;   startPointOriginY,300
;   sequentialIslands,0
;   spiralVaseMode,0
;   firstLayerHeightPercentage,120
;   firstLayerWidthPercentage,100
;   firstLayerUnderspeed,0.5
;   useRaft,0
;   raftExtruder,0
;   raftTopLayers,3
;   raftBaseLayers,2
;   raftOffset,3
;   raftSeparationDistance,0.14
;   raftTopInfill,100
;   aboveRaftSpeedMultiplier,0.3
;   useSkirt,1
;   skirtExtruder,0
;   skirtLayers,1
;   skirtOutlines,3
;   skirtOffset,2
;   usePrimePillar,0
;   primePillarExtruder,999
;   primePillarWidth,12
;   primePillarLocation,7
;   primePillarSpeedMultiplier,1
;   useOozeShield,0
;   oozeShieldExtruder,999
;   oozeShieldOffset,2
;   oozeShieldOutlines,1
;   oozeShieldSidewallShape,1
;   oozeShieldSidewallAngle,30
;   oozeShieldSpeedMultiplier,1
;   infillExtruder,0
;   internalInfillPattern,Grid
;   externalInfillPattern,Concentric
;   infillPercentage,35
;   outlineOverlapPercentage,15
;   infillExtrusionWidthPercentage,100
;   minInfillLength,5
;   infillLayerInterval,1
;   internalInfillAngles,45,-45
;   overlapInternalInfillAngles,1
;   externalInfillAngles,45,-45
;   generateSupport,0
;   supportExtruder,0
;   supportInfillPercentage,30
;   supportExtraInflation,0
;   supportBaseLayers,0
;   denseSupportExtruder,0
;   denseSupportLayers,0
;   denseSupportInfillPercentage,70
;   supportLayerInterval,1
;   supportHorizontalPartOffset,0.4
;   supportUpperSeparationLayers,1
;   supportLowerSeparationLayers,1
;   supportType,0
;   supportGridSpacing,4.5
;   maxOverhangAngle,45
;   supportAngles,0
;   temperatureName,Primary Extruder,Heated Bed
;   temperatureNumber,0,0
;   temperatureSetpointCount,2,1
;   temperatureSetpointLayers,1,2,1
;   temperatureSetpointTemperatures,215,210,60
;   temperatureStabilizeAtStartup,1,1
;   temperatureHeatedBed,0,1
;   fanLayers,1,2
;   fanSpeeds,0,100
;   blipFanToFullPower,0
;   adjustSpeedForCooling,1
;   minSpeedLayerTime,15
;   minCoolingSpeedSlowdown,50
;   increaseFanForCooling,1
;   minFanLayerTime,25
;   maxCoolingFanSpeed,100
;   increaseFanForBridging,1
;   bridgingFanSpeed,100
;   use5D,1
;   relativeEdistances,0
;   allowEaxisZeroing,1
;   independentExtruderAxes,0
;   includeM10123,0
;   stickySupport,1
;   applyToolheadOffsets,0
;   gcodeXoffset,0
;   gcodeYoffset,0
;   gcodeZoffset,0
;   overrideMachineDefinition,1
;   machineTypeOverride,0
;   strokeXoverride,300
;   strokeYoverride,300
;   strokeZoverride,400
;   originOffsetXoverride,0
;   originOffsetYoverride,0
;   originOffsetZoverride,0
;   homeXdirOverride,-1
;   homeYdirOverride,-1
;   homeZdirOverride,-1
;   flipXoverride,1
;   flipYoverride,-1
;   flipZoverride,1
;   toolheadOffsets,0,0|0,0|0,0|0,0|0,0|0,0
;   overrideFirmwareConfiguration,1
;   firmwareTypeOverride,RepRap (Marlin/Repetier/Sprinter)
;   GPXconfigOverride,r2
;   baudRateOverride,250000
;   overridePrinterModels,1
;   printerModelsOverride
;   startingGcode,;,; -]H.P.B[- MarshMalloW  ,; $VER: StartScript 1.01 (13.11.2019) MarshMalloW,;,; Begin Startcode,;,M117 *Start Clean*     	; Indicate nozzle clean in progress on LCD,;,;extruder0_temperature,M104 S[extruder0_temperature]  ,M109 S[extruder0_temperature] ,M109 R[extruder0_temperature] ,;,M107                   	; Turn layer fan off,G21                    	; Set to metric [change to G20 if you want Imperial],G90                    	; Force coordinates to be absolute relative to the origin,G28                    	; Home X/Y/Z axis,G29                    	; Auto-leveling (BL-Touch),;,G92 E0                 	; Set Extruder to 0 ,G1 X0 Y0 F2000         	; Move X and Y to 0 with speed 2000 (mm/min),G1 Z0.1 F1000          	; Move Z to   0.1 with speed 1000 (mm/min),G1 X8.0 F2000          	; Move X to   8.0 with speed 2000 (mm/min),G1 Y60.0 E4.0 F1000.0  	; Move Y to  60 and Extruder with 4.0 with speed 1000 (mm/min),G1 Y100.0 E8.5 F1000.0 	; Move Y to 100 and Extruder with 8.5 with speed 1000 (mm/min),G92 E0                 	; Set extruder to 0,G1 X16.0 F3000         	; Move X to 16.0 with speed 3000 (mm/min),G1 Y60.0 F3000         	; Move Y to 60.0 with speed 3000 (mm/min),M117 *End Clean*       	; Indicate nozzle clean in progress on LCD,G1 Z5 F3000            	; Move Z to  5.0 with speed 3000 (mm/min),G1 X20.0 F3000         	; Move X to 20.0 with speed 3000 (mm/min),; ,M117 *Printing...*     	; Start printing msg on LCD,;,; End Startcode,;,; Begin printing with sliced GCode after here,;
;   layerChangeGcode,
;   retractionGcode,
;   toolChangeGcode,
;   endingGcode,;,; init 181010,;,;M107 			; Fan off,;G1 E-1 F300 			; Retract the filament a bit before lifting the nozzle,;M104 S0 			; Turn off extruder,;M140 S0 			; Turn off bed,;G91			; Relative positioning,;G28 X0 Y0 			; Move X/Y to min endstops so the head is out of teh way,;M84 			; Disable motors,;G90 			; Absolute positioning,;M117 Print ready...,,;,; // From Cura 181010,; // End_gcode,G92 E0			; Zero the extruded length,;G1 E-30 F300		; Retract E -30,M106 S0			; Turn off cooling fan,M104 S0			; Turn off temperature,M140 S0		     	; Turn off bed,G91			; Relative positioning,G1 E-1 F300			; Retract the filament a bit before lifting the nozzle to release some of the pressure,G1 Z+20 E-5 X-20 Y-20 F7200	; Move Z up a bit and retract filament even more,G1 X0 Y150 F10000		; Move right min,M107			; Turn off layer fan,M84			; Disable motors,G90			; Absolute positioning,M117 *The-End* 		; End msg,;,
;   exportFileFormat,gcode
;   celebration,0
;   celebrationSong,Star Wars
;   postProcessing,
;   defaultSpeed,1800
;   outlineUnderspeed,0.5
;   solidInfillUnderspeed,0.8
;   supportUnderspeed,0.8
;   rapidXYspeed,6000
;   rapidZspeed,1002
;   minBridgingArea,50
;   bridgingExtraInflation,0.2
;   bridgingExtrusionMultiplier,1
;   bridgingSpeedMultiplier,0.6
;   useFixedBridgingAngle,0
;   fixedBridgingAngle,0
;   applyBridgingToPerimeters,0
;   filamentDiameters,1.75|1.75|1.75|1.75|1.75|1.75
;   filamentPricesPerKg,30|46|46|46|46|46
;   filamentDensities,1.25|1.25|1.25|1.25|1.25|1.25
;   useMinPrintHeight,0
;   minPrintHeight,0
;   useMaxPrintHeight,0
;   maxPrintHeight,9
;   useDiaphragm,0
;   diaphragmLayerInterval,20
;   robustSlicing,1
;   mergeAllIntoSolid,0
;   onlyRetractWhenCrossingOutline,1
;   retractBetweenLayers,1
;   useRetractionMinTravel,1
;   retractionMinTravel,3
;   retractWhileWiping,1
;   onlyWipeOutlines,1
;   avoidCrossingOutline,1
;   maxMovementDetourFactor,3
;   toolChangeRetractionDistance,12
;   toolChangeExtraRestartDistance,-0.5
;   toolChangeRetractionSpeed,600
;   externalThinWallType,1
;   internalThinWallType,1
;   thinWallAllowedOverlapPercentage,15
;   singleExtrusionMinLength,1
;   singleExtrusionMinPrintingWidthPercentage,50
;   singleExtrusionMaxPrintingWidthPercentage,200
;   singleExtrusionEndpointExtension,0.2
;   horizontalSizeCompensation,0
G90
M82
M106 S0
M140 S60
M190 S60
;
; -]H.P.B[- MarshMalloW  
; $VER: StartScript 1.01 (13.11.2019) MarshMalloW
;
; Begin Startcode
;
M117 *Start Clean*     	; Indicate nozzle clean in progress on LCD
;
;extruder0_temperature
M104 S215  
M109 S215 
M109 R215 
;
M107                   	; Turn layer fan off
G21                    	; Set to metric [change to G20 if you want Imperial]
G90                    	; Force coordinates to be absolute relative to the origin
G28                    	; Home X/Y/Z axis
G29                    	; Auto-leveling (BL-Touch)
;
G92 E0                 	; Set Extruder to 0 
G1 X0 Y0 F2000         	; Move X and Y to 0 with speed 2000 (mm/min)
G1 Z0.1 F1000          	; Move Z to   0.1 with speed 1000 (mm/min)
G1 X8.0 F2000          	; Move X to   8.0 with speed 2000 (mm/min)
G1 Y60.0 E4.0 F1000.0  	; Move Y to  60 and Extruder with 4.0 with speed 1000 (mm/min)
G1 Y100.0 E8.5 F1000.0 	; Move Y to 100 and Extruder with 8.5 with speed 1000 (mm/min)
G92 E0                 	; Set extruder to 0
G1 X16.0 F3000         	; Move X to 16.0 with speed 3000 (mm/min)
G1 Y60.0 F3000         	; Move Y to 60.0 with speed 3000 (mm/min)
M117 *End Clean*       	; Indicate nozzle clean in progress on LCD
G1 Z5 F3000            	; Move Z to  5.0 with speed 3000 (mm/min)
G1 X20.0 F3000         	; Move X to 20.0 with speed 3000 (mm/min)
; 
M117 *Printing...*     	; Start printing msg on LCD
;
; End Startcode
;
; Begin printing with sliced GCode after here
;
; process Process1
; layer 1, Z = 0.180
T0
G92 E0.0000
G1 E-3.8000 F3000
; feature skirt
; tool H0.180 W0.350
G1 Z0.300 F1002
G1 X150.973 Y134.684 F6000
G1 Z0.180 F1002
G1 E0.0000 F3000
G92 E0.0000
G1 X152.290 Y134.964 E0.0335 F900
G1 X152.577 Y135.057 E0.0410
G1 X153.807 Y135.605 E0.0745
G1 X154.068 Y135.755 E0.0820
G1 X155.157 Y136.547 E0.1155
G1 X155.381 Y136.749 E0.1230
G1 X156.282 Y137.749 E0.1565
G1 X156.460 Y137.993 E0.1640
G1 X157.133 Y139.159 E0.1975
G1 X157.255 Y139.435 E0.2050
G1 X157.672 Y140.715 E0.2385
G1 X157.734 Y141.010 E0.2460
G1 X157.867 Y142.274 E0.2777
G1 X157.875 Y142.425 E0.2814
G1 X157.875 Y157.575 E0.6584
G1 X157.867 Y157.726 E0.6621
G1 X157.734 Y158.990 E0.6938
G1 X157.672 Y159.285 E0.7013
G1 X157.255 Y160.565 E0.7348
G1 X157.133 Y160.841 E0.7423
G1 X156.460 Y162.007 E0.7758
G1 X156.282 Y162.251 E0.7833
G1 X155.381 Y163.251 E0.8168
G1 X155.157 Y163.453 E0.8243
G1 X154.068 Y164.245 E0.8578
G1 X153.807 Y164.395 E0.8653
G1 X152.577 Y164.943 E0.8988
G1 X152.290 Y165.036 E0.9063
G1 X150.973 Y165.316 E0.9398
G1 X150.673 Y165.348 E0.9473
G1 X149.327 Y165.348 E0.9808
G1 X149.027 Y165.316 E0.9883
G1 X147.710 Y165.036 E1.0218
G1 X147.423 Y164.943 E1.0293
G1 X146.193 Y164.395 E1.0628
G1 X145.932 Y164.245 E1.0703
G1 X144.843 Y163.453 E1.1038
G1 X144.619 Y163.251 E1.1113
G1 X143.718 Y162.251 E1.1448
G1 X143.540 Y162.007 E1.1523
G1 X142.867 Y160.841 E1.1859
G1 X142.745 Y160.565 E1.1934
G1 X142.328 Y159.285 E1.2269
G1 X142.266 Y158.990 E1.2344
G1 X142.133 Y157.726 E1.2660
G1 X142.125 Y157.575 E1.2697
G1 X142.125 Y142.425 E1.6467
G1 X142.133 Y142.274 E1.6505
G1 X142.266 Y141.010 E1.6821
G1 X142.328 Y140.715 E1.6896
G1 X142.745 Y139.435 E1.7231
G1 X142.867 Y139.159 E1.7306
G1 X143.540 Y137.993 E1.7641
G1 X143.718 Y137.749 E1.7716
G1 X144.619 Y136.749 E1.8051
G1 X144.843 Y136.547 E1.8126
G1 X145.932 Y135.755 E1.8461
G1 X146.193 Y135.605 E1.8536
G1 X147.423 Y135.057 E1.8871
G1 X147.710 Y134.964 E1.8946
G1 X149.027 Y134.684 E1.9281
G1 X149.327 Y134.652 E1.9356
G1 X150.673 Y134.652 E1.9691
G1 X150.973 Y134.684 E1.9766
G92 E0.0000
G1 E-3.8000 F3000
G1 Z0.480 F1002
G1 X150.504 Y137.702 F6000
G1 X150.473 Y137.702
G1 X150.118 Y139.843
G1 X149.677 Y139.843
G1 X149.051 Y139.998
G1 X148.480 Y140.297
G1 X147.997 Y140.725
G1 X147.630 Y141.256
G1 X147.401 Y141.860
G1 X147.324 Y142.500
G1 X147.401 Y143.140
G1 X147.630 Y143.744
G1 X147.997 Y144.275
G1 X148.480 Y144.703
G1 X149.051 Y145.002
G1 X149.255 Y145.053
G1 X148.830 Y147.613
G1 X148.480 Y147.797
G1 X147.997 Y148.225
G1 X147.630 Y148.756
G1 X147.401 Y149.360
G1 X147.324 Y150.000
G1 X147.401 Y150.640
G1 X147.630 Y151.244
G1 X147.997 Y151.775
G1 X148.122 Y151.886
G1 X146.625 Y160.922
G1 X146.772 Y161.085
G1 X147.588 Y161.678
G1 X146.123 Y163.951
G1 Z0.180 F1002
G1 E0.0000 F3000
G92 E0.0000
G1 X145.063 Y163.181 E0.0326 F900
G1 X144.866 Y163.004 E0.0392
G1 X143.990 Y162.030 E0.0718
G1 X143.834 Y161.816 E0.0784
G1 X143.179 Y160.682 E0.1110
G1 X143.072 Y160.440 E0.1175
G1 X142.667 Y159.194 E0.1501
G1 X142.612 Y158.935 E0.1567
G1 X142.482 Y157.698 E0.1877
G1 X142.475 Y157.566 E0.1910
G1 X142.475 Y142.434 E0.5675
G1 X142.482 Y142.302 E0.5708
G1 X142.612 Y141.065 E0.6017
G1 X142.667 Y140.806 E0.6083
G1 X143.072 Y139.560 E0.6409
G1 X143.179 Y139.318 E0.6475
G1 X143.834 Y138.184 E0.6801
G1 X143.990 Y137.970 E0.6867
G1 X144.866 Y136.996 E0.7193
G1 X145.063 Y136.819 E0.7259
G1 X146.123 Y136.049 E0.7585
G1 X146.352 Y135.917 E0.7650
G1 X147.549 Y135.384 E0.7976
G1 X147.800 Y135.302 E0.8042
G1 X149.082 Y135.030 E0.8368
G1 X149.345 Y135.002 E0.8434
G1 X150.655 Y135.002 E0.8760
G1 X150.918 Y135.030 E0.8826
G1 X152.200 Y135.302 E0.9152
G1 X152.451 Y135.384 E0.9218
G1 X153.648 Y135.917 E0.9544
G1 X153.877 Y136.049 E0.9609
G1 X154.937 Y136.819 E0.9935
G1 X155.134 Y136.996 E1.0001
G1 X156.010 Y137.970 E1.0327
G1 X156.166 Y138.184 E1.0393
G1 X156.821 Y139.318 E1.0719
G1 X156.928 Y139.560 E1.0785
G1 X157.333 Y140.806 E1.1111
G1 X157.388 Y141.065 E1.1177
G1 X157.518 Y142.302 E1.1486
G1 X157.525 Y142.434 E1.1519
G1 X157.525 Y157.566 E1.5284
G1 X157.518 Y157.698 E1.5317
G1 X157.388 Y158.935 E1.5627
G1 X157.333 Y159.194 E1.5693
G1 X156.928 Y160.440 E1.6018
G1 X156.821 Y160.682 E1.6084
G1 X156.166 Y161.816 E1.6410
G1 X156.010 Y162.030 E1.6476
G1 X155.134 Y163.004 E1.6802
G1 X154.937 Y163.181 E1.6868
G1 X153.877 Y163.951 E1.7194
G1 X153.648 Y164.083 E1.7260
G1 X152.451 Y164.616 E1.7586
G1 X152.200 Y164.698 E1.7652
G1 X150.918 Y164.970 E1.7978
G1 X150.655 Y164.998 E1.8043
G1 X149.345 Y164.998 E1.8369
G1 X149.082 Y164.970 E1.8435
G1 X147.800 Y164.698 E1.8761
G1 X147.549 Y164.616 E1.8827
G1 X146.352 Y164.083 E1.9153
G1 X146.123 Y163.951 E1.9219
G92 E0.0000
G1 E-3.8000 F3000
G1 Z0.480 F1002
G1 X147.588 Y161.678 F6000
G1 X147.307 Y161.474
G1 X148.251 Y159.500
G1 X147.997 Y159.275
G1 X147.630 Y158.744
G1 X147.401 Y158.140
G1 X147.324 Y157.500
G1 X147.401 Y156.860
G1 X147.630 Y156.256
G1 X147.997 Y155.725
G1 X148.480 Y155.297
G1 X149.051 Y154.998
G1 X149.677 Y154.843
G1 X150.323 Y154.843
G1 X150.462 Y154.878
G1 X151.904 Y151.862
G1 X152.003 Y151.775
G1 X152.370 Y151.244
G1 X152.599 Y150.640
G1 X152.636 Y150.332
G1 X154.825 Y145.755
G1 X154.825 Y142.509
G1 X154.719 Y141.497
G1 X157.042 Y141.120
G1 Z0.180 F1002
G1 E0.0000 F3000
G92 E0.0000
G1 X157.169 Y142.329 E0.0303 F900
G1 X157.175 Y142.443 E0.0331
G1 X157.175 Y157.557 E0.4092
G1 X157.169 Y157.671 E0.4120
G1 X157.042 Y158.880 E0.4423
G1 X156.995 Y159.103 E0.4479
G1 X156.601 Y160.314 E0.4796
G1 X156.508 Y160.522 E0.4853
G1 X155.872 Y161.625 E0.5170
G1 X155.738 Y161.810 E0.5227
G1 X154.886 Y162.756 E0.5543
G1 X154.716 Y162.908 E0.5600
G1 X153.686 Y163.657 E0.5917
G1 X153.489 Y163.771 E0.5974
G1 X152.326 Y164.289 E0.6290
G1 X152.109 Y164.359 E0.6347
G1 X150.863 Y164.624 E0.6664
G1 X150.637 Y164.648 E0.6721
G1 X149.363 Y164.648 E0.7038
G1 X149.137 Y164.624 E0.7094
G1 X147.891 Y164.359 E0.7411
G1 X147.674 Y164.289 E0.7468
G1 X146.511 Y163.771 E0.7785
G1 X146.314 Y163.657 E0.7841
G1 X145.284 Y162.908 E0.8158
G1 X145.114 Y162.756 E0.8215
G1 X144.262 Y161.810 E0.8532
G1 X144.128 Y161.625 E0.8588
G1 X143.492 Y160.522 E0.8905
G1 X143.399 Y160.314 E0.8962
G1 X143.005 Y159.103 E0.9279
G1 X142.958 Y158.880 E0.9336
G1 X142.831 Y157.671 E0.9638
G1 X142.825 Y157.557 E0.9667
G1 X142.825 Y142.443 E1.3427
G1 X142.831 Y142.329 E1.3456
G1 X142.958 Y141.120 E1.3758
G1 X143.005 Y140.897 E1.3815
G1 X143.399 Y139.686 E1.4132
G1 X143.492 Y139.478 E1.4189
G1 X144.128 Y138.375 E1.4505
G1 X144.262 Y138.190 E1.4562
G1 X145.114 Y137.244 E1.4879
G1 X145.284 Y137.092 E1.4936
G1 X146.314 Y136.343 E1.5252
G1 X146.511 Y136.229 E1.5309
G1 X147.674 Y135.711 E1.5626
G1 X147.891 Y135.641 E1.5683
G1 X149.137 Y135.376 E1.6000
G1 X149.363 Y135.352 E1.6056
G1 X150.637 Y135.352 E1.6373
G1 X150.863 Y135.376 E1.6430
