; G-Code generated by Simplify3D(R) Version 4.1.2
; Nov 27, 2019 at 7:28:53 PM
; Settings Summary
;   processName,Process1
;   applyToModels,nacelle_AR_feux_sur_Mat_SNCB_HO
;   profileName,A01-04025-15 Tevo Tornado (experimental)
;   profileVersion,2019-11-27 16:10:52
;   baseProfile,Creality CR-10(2)
;   printMaterial,PLA
;   printQuality,Medium
;   printExtruders,
;   extruderName,Primary Extruder
;   extruderToolheadNumber,0
;   extruderDiameter,0.04
;   extruderAutoWidth,0
;   extruderWidth,0.25
;   extrusionMultiplier,0.95
;   extruderUseRetract,1
;   extruderRetractionDistance,3.5
;   extruderExtraRestartDistance,0
;   extruderRetractionZLift,0.3
;   extruderRetractionSpeed,3000
;   extruderUseCoasting,0
;   extruderCoastingDistance,0.2
;   extruderUseWipe,0
;   extruderWipeDistance,4
;   primaryExtruder,0
;   layerHeight,0.15
;   topSolidLayers,4
;   bottomSolidLayers,3
;   perimeterOutlines,3
;   printPerimetersInsideOut,0
;   startPointOption,3
;   startPointOriginX,0
;   startPointOriginY,300
;   sequentialIslands,0
;   spiralVaseMode,0
;   firstLayerHeightPercentage,120
;   firstLayerWidthPercentage,100
;   firstLayerUnderspeed,0.5
;   useRaft,0
;   raftExtruder,0
;   raftTopLayers,3
;   raftBaseLayers,2
;   raftOffset,3
;   raftSeparationDistance,0.14
;   raftTopInfill,100
;   aboveRaftSpeedMultiplier,0.3
;   useSkirt,1
;   skirtExtruder,0
;   skirtLayers,1
;   skirtOutlines,3
;   skirtOffset,2
;   usePrimePillar,0
;   primePillarExtruder,999
;   primePillarWidth,12
;   primePillarLocation,7
;   primePillarSpeedMultiplier,1
;   useOozeShield,0
;   oozeShieldExtruder,999
;   oozeShieldOffset,2
;   oozeShieldOutlines,1
;   oozeShieldSidewallShape,1
;   oozeShieldSidewallAngle,30
;   oozeShieldSpeedMultiplier,1
;   infillExtruder,0
;   internalInfillPattern,Grid
;   externalInfillPattern,Concentric
;   infillPercentage,15
;   outlineOverlapPercentage,15
;   infillExtrusionWidthPercentage,100
;   minInfillLength,5
;   infillLayerInterval,1
;   internalInfillAngles,45,-45
;   overlapInternalInfillAngles,1
;   externalInfillAngles,45,-45
;   generateSupport,0
;   supportExtruder,0
;   supportInfillPercentage,30
;   supportExtraInflation,0
;   supportBaseLayers,0
;   denseSupportExtruder,0
;   denseSupportLayers,0
;   denseSupportInfillPercentage,70
;   supportLayerInterval,1
;   supportHorizontalPartOffset,0.4
;   supportUpperSeparationLayers,1
;   supportLowerSeparationLayers,1
;   supportType,0
;   supportGridSpacing,4.5
;   maxOverhangAngle,45
;   supportAngles,0
;   temperatureName,Primary Extruder,Heated Bed
;   temperatureNumber,0,0
;   temperatureSetpointCount,2,1
;   temperatureSetpointLayers,1,2,1
;   temperatureSetpointTemperatures,215,210,55
;   temperatureStabilizeAtStartup,1,1
;   temperatureHeatedBed,0,1
;   fanLayers,1,2
;   fanSpeeds,0,100
;   blipFanToFullPower,0
;   adjustSpeedForCooling,1
;   minSpeedLayerTime,15
;   minCoolingSpeedSlowdown,50
;   increaseFanForCooling,1
;   minFanLayerTime,25
;   maxCoolingFanSpeed,100
;   increaseFanForBridging,1
;   bridgingFanSpeed,100
;   use5D,1
;   relativeEdistances,0
;   allowEaxisZeroing,1
;   independentExtruderAxes,0
;   includeM10123,0
;   stickySupport,1
;   applyToolheadOffsets,0
;   gcodeXoffset,0
;   gcodeYoffset,0
;   gcodeZoffset,0
;   overrideMachineDefinition,1
;   machineTypeOverride,0
;   strokeXoverride,300
;   strokeYoverride,300
;   strokeZoverride,400
;   originOffsetXoverride,0
;   originOffsetYoverride,0
;   originOffsetZoverride,0
;   homeXdirOverride,-1
;   homeYdirOverride,-1
;   homeZdirOverride,-1
;   flipXoverride,1
;   flipYoverride,-1
;   flipZoverride,1
;   toolheadOffsets,0,0|0,0|0,0|0,0|0,0|0,0
;   overrideFirmwareConfiguration,1
;   firmwareTypeOverride,RepRap (Marlin/Repetier/Sprinter)
;   GPXconfigOverride,r2
;   baudRateOverride,250000
;   overridePrinterModels,1
;   printerModelsOverride
;   startingGcode,;,; -]H.P.B[- MarshMalloW  ,; $VER: StartScript 1.01 (13.11.2019) MarshMalloW,;,; Begin Startcode,;,M117 *Start Clean*     	; Indicate nozzle clean in progress on LCD,;,;extruder0_temperature,M104 S[extruder0_temperature]  ,M109 S[extruder0_temperature] ,M109 R[extruder0_temperature] ,;,M107                   	; Turn layer fan off,G21                    	; Set to metric [change to G20 if you want Imperial],G90                    	; Force coordinates to be absolute relative to the origin,G28                    	; Home X/Y/Z axis,G29                    	; Auto-leveling (BL-Touch),;,G92 E0                 	; Set Extruder to 0 ,G1 X0 Y0 F2000         	; Move X and Y to 0 with speed 2000 (mm/min),G1 Z0.1 F1000          	; Move Z to   0.1 with speed 1000 (mm/min),G1 X8.0 F2000          	; Move X to   8.0 with speed 2000 (mm/min),G1 Y60.0 E4.0 F1000.0  	; Move Y to  60 and Extruder with 4.0 with speed 1000 (mm/min),G1 Y100.0 E8.5 F1000.0 	; Move Y to 100 and Extruder with 8.5 with speed 1000 (mm/min),G92 E0                 	; Set extruder to 0,G1 X16.0 F3000         	; Move X to 16.0 with speed 3000 (mm/min),G1 Y60.0 F3000         	; Move Y to 60.0 with speed 3000 (mm/min),M117 *End Clean*       	; Indicate nozzle clean in progress on LCD,G1 Z5 F3000            	; Move Z to  5.0 with speed 3000 (mm/min),G1 X20.0 F3000         	; Move X to 20.0 with speed 3000 (mm/min),; ,M117 *Printing...*     	; Start printing msg on LCD,;,; End Startcode,;,; Begin printing with sliced GCode after here,;
;   layerChangeGcode,
;   retractionGcode,
;   toolChangeGcode,
;   endingGcode,;,; init 181010,;,;M107 			; Fan off,;G1 E-1 F300 			; Retract the filament a bit before lifting the nozzle,;M104 S0 			; Turn off extruder,;M140 S0 			; Turn off bed,;G91			; Relative positioning,;G28 X0 Y0 			; Move X/Y to min endstops so the head is out of teh way,;M84 			; Disable motors,;G90 			; Absolute positioning,;M117 Print ready...,,;,; // From Cura 181010,; // End_gcode,G92 E0			; Zero the extruded length,;G1 E-30 F300		; Retract E -30,M106 S0			; Turn off cooling fan,M104 S0			; Turn off temperature,M140 S0		     	; Turn off bed,G91			; Relative positioning,G1 E-1 F300			; Retract the filament a bit before lifting the nozzle to release some of the pressure,G1 Z+20 E-5 X-20 Y-20 F7200	; Move Z up a bit and retract filament even more,G1 X0 Y150 F10000		; Move right min,M107			; Turn off layer fan,M84			; Disable motors,G90			; Absolute positioning,M117 *The-End* 		; End msg,;,
;   exportFileFormat,gcode
;   celebration,0
;   celebrationSong,Star Wars
;   postProcessing,
;   defaultSpeed,1800
;   outlineUnderspeed,0.5
;   solidInfillUnderspeed,0.8
;   supportUnderspeed,0.8
;   rapidXYspeed,6000
;   rapidZspeed,1002
;   minBridgingArea,5
;   bridgingExtraInflation,0.2
;   bridgingExtrusionMultiplier,1
;   bridgingSpeedMultiplier,0.6
;   useFixedBridgingAngle,0
;   fixedBridgingAngle,0
;   applyBridgingToPerimeters,0
;   filamentDiameters,1.75|1.75|1.75|1.75|1.75|1.75
;   filamentPricesPerKg,30|46|46|46|46|46
;   filamentDensities,1.25|1.25|1.25|1.25|1.25|1.25
;   useMinPrintHeight,0
;   minPrintHeight,0
;   useMaxPrintHeight,0
;   maxPrintHeight,9
;   useDiaphragm,0
;   diaphragmLayerInterval,20
;   robustSlicing,1
;   mergeAllIntoSolid,0
;   onlyRetractWhenCrossingOutline,1
;   retractBetweenLayers,1
;   useRetractionMinTravel,0
;   retractionMinTravel,3
;   retractWhileWiping,0
;   onlyWipeOutlines,1
;   avoidCrossingOutline,0
;   maxMovementDetourFactor,3
;   toolChangeRetractionDistance,12
;   toolChangeExtraRestartDistance,-0.5
;   toolChangeRetractionSpeed,600
;   externalThinWallType,1
;   internalThinWallType,1
;   thinWallAllowedOverlapPercentage,15
;   singleExtrusionMinLength,1
;   singleExtrusionMinPrintingWidthPercentage,50
;   singleExtrusionMaxPrintingWidthPercentage,200
;   singleExtrusionEndpointExtension,0.2
;   horizontalSizeCompensation,0
G90
M82
M106 S0
M140 S55
M190 S55
;
; -]H.P.B[- MarshMalloW  
; $VER: StartScript 1.01 (13.11.2019) MarshMalloW
;
; Begin Startcode
;
M117 *Start Clean*     	; Indicate nozzle clean in progress on LCD
;
;extruder0_temperature
M104 S215  
M109 S215 
M109 R215 
;
M107                   	; Turn layer fan off
G21                    	; Set to metric [change to G20 if you want Imperial]
G90                    	; Force coordinates to be absolute relative to the origin
G28                    	; Home X/Y/Z axis
G29                    	; Auto-leveling (BL-Touch)
;
G92 E0                 	; Set Extruder to 0 
G1 X0 Y0 F2000         	; Move X and Y to 0 with speed 2000 (mm/min)
G1 Z0.1 F1000          	; Move Z to   0.1 with speed 1000 (mm/min)
G1 X8.0 F2000          	; Move X to   8.0 with speed 2000 (mm/min)
G1 Y60.0 E4.0 F1000.0  	; Move Y to  60 and Extruder with 4.0 with speed 1000 (mm/min)
G1 Y100.0 E8.5 F1000.0 	; Move Y to 100 and Extruder with 8.5 with speed 1000 (mm/min)
G92 E0                 	; Set extruder to 0
G1 X16.0 F3000         	; Move X to 16.0 with speed 3000 (mm/min)
G1 Y60.0 F3000         	; Move Y to 60.0 with speed 3000 (mm/min)
M117 *End Clean*       	; Indicate nozzle clean in progress on LCD
G1 Z5 F3000            	; Move Z to  5.0 with speed 3000 (mm/min)
G1 X20.0 F3000         	; Move X to 20.0 with speed 3000 (mm/min)
; 
M117 *Printing...*     	; Start printing msg on LCD
;
; End Startcode
;
; Begin printing with sliced GCode after here
;
; process Process1
; layer 1, Z = 0.180
T0
G92 E0.0000
G1 E-3.5000 F3000
; feature skirt
; tool H0.180 W0.250
G1 Z0.300 F1002
G1 X137.579 Y156.739 F6000
G1 Z0.180 F1002
G1 E0.0000 F3000
G92 E0.0000
G1 X137.053 Y156.079 E0.0150 F900
G1 X136.796 Y155.546 E0.0255
G1 X136.658 Y154.940 E0.0366
G1 X136.625 Y154.647 E0.0418
G1 X136.625 Y145.279 E0.2083
G1 X136.699 Y144.842 E0.2162
G1 X136.982 Y144.034 E0.2314
G1 X137.411 Y143.429 E0.2446
G1 X138.022 Y142.942 E0.2585
G1 X138.433 Y142.720 E0.2668
G1 X138.946 Y142.550 E0.2764
G1 X139.360 Y142.484 E0.2838
G1 X160.810 Y142.485 E0.6651
G1 X161.522 Y142.690 E0.6782
G1 X162.437 Y143.265 E0.6974
G1 X162.993 Y143.963 E0.7133
G1 X163.301 Y144.842 E0.7299
G1 X163.375 Y145.279 E0.7377
G1 X163.375 Y154.721 E0.9056
G1 X163.301 Y155.158 E0.9134
G1 X163.018 Y155.966 E0.9286
G1 X162.589 Y156.571 E0.9418
G1 X161.929 Y157.097 E0.9568
G1 X161.396 Y157.354 E0.9673
G1 X160.790 Y157.492 E0.9784
G1 X160.497 Y157.525 E0.9836
G1 X148.663 Y157.525 E1.1940
G1 X147.500 Y156.362 E1.2232
G1 X146.337 Y157.525 E1.2524
G1 X139.429 Y157.525 E1.3752
G1 X138.992 Y157.451 E1.3831
G1 X138.184 Y157.168 E1.3983
G1 X137.579 Y156.739 E1.4115
G92 E0.0000
G1 E-3.5000 F3000
G1 Z0.480 F1002
G1 X137.753 Y156.556 F6000
G1 Z0.180 F1002
G1 E0.0000 F3000
G92 E0.0000
G1 X137.266 Y155.945 E0.0139 F900
G1 X137.034 Y155.463 E0.0234
G1 X136.905 Y154.898 E0.0337
G1 X136.875 Y154.633 E0.0384
G1 X136.875 Y145.300 E0.2043
G1 X136.942 Y144.905 E0.2114
G1 X137.206 Y144.150 E0.2256
G1 X137.594 Y143.603 E0.2376
G1 X138.161 Y143.151 E0.2504
G1 X138.532 Y142.950 E0.2580
G1 X139.005 Y142.794 E0.2668
G1 X139.380 Y142.734 E0.2735
G1 X160.774 Y142.735 E0.6538
G1 X161.419 Y142.921 E0.6657
G1 X162.268 Y143.454 E0.6835
G1 X162.771 Y144.085 E0.6979
G1 X163.058 Y144.905 E0.7133
G1 X163.125 Y145.300 E0.7204
G1 X163.125 Y154.700 E0.8875
G1 X163.058 Y155.095 E0.8946
G1 X162.794 Y155.850 E0.9089
G1 X162.406 Y156.397 E0.9208
G1 X161.795 Y156.884 E0.9347
G1 X161.313 Y157.116 E0.9442
G1 X160.748 Y157.245 E0.9545
G1 X160.483 Y157.275 E0.9592
G1 X148.766 Y157.275 E1.1675
G1 X147.500 Y156.009 E1.1993
G1 X146.234 Y157.275 E1.2311
G1 X139.450 Y157.275 E1.3517
G1 X139.055 Y157.208 E1.3588
G1 X138.300 Y156.944 E1.3730
G1 X137.753 Y156.556 E1.3849
G92 E0.0000
G1 E-3.5000 F3000
G1 Z0.480 F1002
G1 X137.926 Y156.372 F6000
G1 Z0.180 F1002
G1 E0.0000 F3000
G92 E0.0000
G1 X137.479 Y155.811 E0.0128 F900
G1 X137.271 Y155.380 E0.0213
G1 X137.152 Y154.857 E0.0308
G1 X137.125 Y154.619 E0.0350
G1 X137.125 Y145.321 E0.2003
G1 X137.185 Y144.967 E0.2067
G1 X137.431 Y144.266 E0.2199
G1 X137.778 Y143.776 E0.2306
G1 X138.299 Y143.360 E0.2424
G1 X138.632 Y143.181 E0.2491
G1 X139.065 Y143.038 E0.2572
G1 X139.400 Y142.984 E0.2633
G1 X160.739 Y142.985 E0.6425
G1 X161.316 Y143.151 E0.6532
G1 X162.099 Y143.643 E0.6696
G1 X162.549 Y144.208 E0.6825
G1 X162.815 Y144.967 E0.6968
G1 X162.875 Y145.321 E0.7032
G1 X162.875 Y154.679 E0.8695
G1 X162.815 Y155.033 E0.8759
G1 X162.569 Y155.734 E0.8891
G1 X162.222 Y156.224 E0.8997
G1 X161.661 Y156.671 E0.9125
G1 X161.230 Y156.879 E0.9210
G1 X160.707 Y156.998 E0.9305
G1 X160.469 Y157.025 E0.9348
G1 X148.870 Y157.025 E1.1409
G1 X147.625 Y155.780 E1.1722
G1 X147.625 Y148.025 E1.3101
G1 X147.375 Y148.025 E1.3145
G1 X147.375 Y155.780 E1.4523
G1 X146.130 Y157.025 E1.4836
G1 X139.471 Y157.025 E1.6020
G1 X139.117 Y156.965 E1.6084
G1 X138.416 Y156.719 E1.6216
G1 X137.926 Y156.372 E1.6322
G92 E0.0000
G1 E-3.5000 F3000
; feature outer perimeter
G1 Z0.480 F1002
G1 X139.479 Y154.714 F6000
G1 Z0.180 F1002
G1 E0.0000 F3000
G92 E0.0000
G1 X139.436 Y154.671 E0.0011 F450
G1 X139.403 Y154.619 E0.0022
G1 X139.383 Y154.561 E0.0033
G1 X139.375 Y154.493 E0.0045
G1 X139.375 Y145.507 E0.1642
G1 X139.383 Y145.439 E0.1654
G1 X139.403 Y145.381 E0.1665
G1 X139.436 Y145.329 E0.1676
G1 X139.479 Y145.286 E0.1687
G1 X139.530 Y145.254 E0.1698
G1 X139.589 Y145.234 E0.1709
G1 X160.343 Y145.225 E0.5397
G1 X160.411 Y145.233 E0.5410
G1 X160.469 Y145.253 E0.5420
G1 X160.521 Y145.286 E0.5431
G1 X160.564 Y145.329 E0.5442
G1 X160.597 Y145.381 E0.5453
G1 X160.617 Y145.439 E0.5464
G1 X160.625 Y145.507 E0.5476
G1 X160.625 Y154.493 E0.7073
G1 X160.617 Y154.561 E0.7086
G1 X160.597 Y154.619 E0.7096
G1 X160.564 Y154.671 E0.7107
G1 X160.521 Y154.714 E0.7118
G1 X160.469 Y154.747 E0.7129
G1 X160.411 Y154.767 E0.7140
G1 X160.343 Y154.775 E0.7152
G1 X149.875 Y154.775 E0.9013
G1 X149.875 Y145.775 E1.0612
G1 X145.125 Y145.775 E1.1457
G1 X145.125 Y154.775 E1.3056
G1 X139.657 Y154.775 E1.4028
G1 X139.589 Y154.767 E1.4040
G1 X139.531 Y154.747 E1.4051
G1 X139.479 Y154.714 E1.4062
G1 X139.925 Y154.225 F6000
G92 E0.0000
G1 X144.575 Y154.225 E0.0826 F450
G1 X144.575 Y153.275 E0.0995
G1 X139.925 Y153.275 E0.1822
G1 X139.925 Y154.225 E0.1991
G1 X139.925 Y152.725 F6000
G92 E0.0000
G1 X144.575 Y152.725 E0.0826 F450
G1 X144.575 Y151.775 E0.0995
G1 X139.925 Y151.775 E0.1822
G1 X139.925 Y152.725 E0.1991
G1 X139.972 Y151.225 F6000
G92 E0.0000
G1 X144.575 Y151.225 E0.0818 F450
G1 X144.575 Y150.275 E0.0987
G1 X139.972 Y150.275 E0.1805
G1 X139.972 Y151.225 E0.1974
G1 X139.972 Y149.725 F6000
G92 E0.0000
G1 X144.575 Y149.725 E0.0818 F450
G1 X144.575 Y148.775 E0.0987
G1 X139.972 Y148.775 E0.1805
G1 X139.972 Y149.725 E0.1974
G1 X139.925 Y148.225 F6000
G92 E0.0000
G1 X144.575 Y148.225 E0.0826 F450
G1 X144.575 Y147.275 E0.0995
G1 X139.925 Y147.275 E0.1822
G1 X139.925 Y148.225 E0.1991
G1 X139.921 Y146.725 F6000
G92 E0.0000
G1 X144.575 Y146.725 E0.0827 F450
G1 X144.575 Y145.775 E0.0996
G1 X139.921 Y145.775 E0.1823
G1 X139.921 Y146.725 E0.1992
G92 E0.0000
G1 E-3.5000 F3000
G1 Z0.480 F1002
G1 X150.425 Y146.725 F6000
G1 Z0.180 F1002
G1 E0.0000 F3000
G92 E0.0000
G1 X160.075 Y146.725 E0.1715 F450
G1 X160.075 Y145.775 E0.1884
G1 X150.425 Y145.775 E0.3599
G1 X150.425 Y146.725 E0.3768
G1 X150.425 Y147.275 F6000
G92 E0.0000
G1 X150.425 Y148.225 E0.0169 F450
G1 X160.075 Y148.225 E0.1884
G1 X160.075 Y147.275 E0.2053
G1 X150.425 Y147.275 E0.3768
G1 X150.425 Y148.775 F6000
G92 E0.0000
G1 X150.425 Y149.725 E0.0169 F450
G1 X160.075 Y149.725 E0.1884
G1 X160.075 Y148.775 E0.2053
G1 X150.425 Y148.775 E0.3768
G1 X150.425 Y150.275 F6000
G92 E0.0000
G1 X150.425 Y151.225 E0.0169 F450
G1 X160.075 Y151.225 E0.1884
G1 X160.075 Y150.275 E0.2053
G1 X150.425 Y150.275 E0.3768
G1 X150.425 Y151.775 F6000
G92 E0.0000
G1 X150.425 Y152.725 E0.0169 F450
G1 X160.087 Y152.725 E0.1886
G1 X160.087 Y151.775 E0.2055
G1 X150.425 Y151.775 E0.3772
G1 X150.425 Y153.275 F6000
G92 E0.0000
G1 X150.425 Y154.225 E0.0169 F450
G1 X160.075 Y154.225 E0.1884
G1 X160.075 Y153.275 E0.2053
G1 X150.425 Y153.275 E0.3768
; feature internal single extrusion
; tool H0.180 W0.300
G1 X150.200 Y153.000 F6000
G92 E0.0000
G1 X160.300 Y153.000 E0.2154 F450
; tool H0.180 W0.263
