; G-Code generated by Simplify3D(R) Version 4.1.2
; Nov 23, 2019 at 10:14:44 AM
; Settings Summary
;   processName,Process1
;   applyToModels,signal_4_feux_cible_arrondis_droite_HO_Mat
;   profileName,401 Tevo Tornado (experimental)
;   profileVersion,2019-11-15 20:21:07
;   baseProfile,Creality CR-10(2)
;   printMaterial,PLA
;   printQuality,Medium
;   printExtruders,
;   extruderName,Primary Extruder
;   extruderToolheadNumber,0
;   extruderDiameter,0.4
;   extruderAutoWidth,0
;   extruderWidth,0.35
;   extrusionMultiplier,0.95
;   extruderUseRetract,1
;   extruderRetractionDistance,3.8
;   extruderExtraRestartDistance,0
;   extruderRetractionZLift,0.3
;   extruderRetractionSpeed,3000
;   extruderUseCoasting,0
;   extruderCoastingDistance,0.2
;   extruderUseWipe,0
;   extruderWipeDistance,4
;   primaryExtruder,0
;   layerHeight,0.15
;   topSolidLayers,4
;   bottomSolidLayers,3
;   perimeterOutlines,3
;   printPerimetersInsideOut,0
;   startPointOption,1
;   startPointOriginX,0
;   startPointOriginY,300
;   sequentialIslands,0
;   spiralVaseMode,0
;   firstLayerHeightPercentage,120
;   firstLayerWidthPercentage,100
;   firstLayerUnderspeed,0.5
;   useRaft,0
;   raftExtruder,0
;   raftTopLayers,3
;   raftBaseLayers,2
;   raftOffset,3
;   raftSeparationDistance,0.14
;   raftTopInfill,100
;   aboveRaftSpeedMultiplier,0.3
;   useSkirt,1
;   skirtExtruder,0
;   skirtLayers,1
;   skirtOutlines,3
;   skirtOffset,2
;   usePrimePillar,0
;   primePillarExtruder,999
;   primePillarWidth,12
;   primePillarLocation,7
;   primePillarSpeedMultiplier,1
;   useOozeShield,0
;   oozeShieldExtruder,999
;   oozeShieldOffset,2
;   oozeShieldOutlines,1
;   oozeShieldSidewallShape,1
;   oozeShieldSidewallAngle,30
;   oozeShieldSpeedMultiplier,1
;   infillExtruder,0
;   internalInfillPattern,Grid
;   externalInfillPattern,Concentric
;   infillPercentage,25
;   outlineOverlapPercentage,15
;   infillExtrusionWidthPercentage,100
;   minInfillLength,5
;   infillLayerInterval,1
;   internalInfillAngles,45,-45
;   overlapInternalInfillAngles,1
;   externalInfillAngles,45,-45
;   generateSupport,0
;   supportExtruder,0
;   supportInfillPercentage,30
;   supportExtraInflation,0
;   supportBaseLayers,0
;   denseSupportExtruder,0
;   denseSupportLayers,0
;   denseSupportInfillPercentage,70
;   supportLayerInterval,1
;   supportHorizontalPartOffset,0.4
;   supportUpperSeparationLayers,1
;   supportLowerSeparationLayers,1
;   supportType,0
;   supportGridSpacing,4.5
;   maxOverhangAngle,45
;   supportAngles,0
;   temperatureName,Primary Extruder,Heated Bed
;   temperatureNumber,0,0
;   temperatureSetpointCount,2,1
;   temperatureSetpointLayers,1,2,1
;   temperatureSetpointTemperatures,215,210,60
;   temperatureStabilizeAtStartup,1,1
;   temperatureHeatedBed,0,1
;   fanLayers,1,2
;   fanSpeeds,0,100
;   blipFanToFullPower,0
;   adjustSpeedForCooling,1
;   minSpeedLayerTime,15
;   minCoolingSpeedSlowdown,50
;   increaseFanForCooling,1
;   minFanLayerTime,25
;   maxCoolingFanSpeed,100
;   increaseFanForBridging,1
;   bridgingFanSpeed,100
;   use5D,1
;   relativeEdistances,0
;   allowEaxisZeroing,1
;   independentExtruderAxes,0
;   includeM10123,0
;   stickySupport,1
;   applyToolheadOffsets,0
;   gcodeXoffset,0
;   gcodeYoffset,0
;   gcodeZoffset,0
;   overrideMachineDefinition,1
;   machineTypeOverride,0
;   strokeXoverride,300
;   strokeYoverride,300
;   strokeZoverride,400
;   originOffsetXoverride,0
;   originOffsetYoverride,0
;   originOffsetZoverride,0
;   homeXdirOverride,-1
;   homeYdirOverride,-1
;   homeZdirOverride,-1
;   flipXoverride,1
;   flipYoverride,-1
;   flipZoverride,1
;   toolheadOffsets,0,0|0,0|0,0|0,0|0,0|0,0
;   overrideFirmwareConfiguration,1
;   firmwareTypeOverride,RepRap (Marlin/Repetier/Sprinter)
;   GPXconfigOverride,r2
;   baudRateOverride,250000
;   overridePrinterModels,1
;   printerModelsOverride
;   startingGcode,;,; -]H.P.B[- MarshMalloW  ,; $VER: StartScript 1.01 (13.11.2019) MarshMalloW,;,; Begin Startcode,;,M117 *Start Clean*     	; Indicate nozzle clean in progress on LCD,;,;extruder0_temperature,M104 S[extruder0_temperature]  ,M109 S[extruder0_temperature] ,M109 R[extruder0_temperature] ,;,M107                   	; Turn layer fan off,G21                    	; Set to metric [change to G20 if you want Imperial],G90                    	; Force coordinates to be absolute relative to the origin,G28                    	; Home X/Y/Z axis,G29                    	; Auto-leveling (BL-Touch),;,G92 E0                 	; Set Extruder to 0 ,G1 X0 Y0 F2000         	; Move X and Y to 0 with speed 2000 (mm/min),G1 Z0.1 F1000          	; Move Z to   0.1 with speed 1000 (mm/min),G1 X8.0 F2000          	; Move X to   8.0 with speed 2000 (mm/min),G1 Y60.0 E4.0 F1000.0  	; Move Y to  60 and Extruder with 4.0 with speed 1000 (mm/min),G1 Y100.0 E8.5 F1000.0 	; Move Y to 100 and Extruder with 8.5 with speed 1000 (mm/min),G92 E0                 	; Set extruder to 0,G1 X16.0 F3000         	; Move X to 16.0 with speed 3000 (mm/min),G1 Y60.0 F3000         	; Move Y to 60.0 with speed 3000 (mm/min),M117 *End Clean*       	; Indicate nozzle clean in progress on LCD,G1 Z5 F3000            	; Move Z to  5.0 with speed 3000 (mm/min),G1 X20.0 F3000         	; Move X to 20.0 with speed 3000 (mm/min),; ,M117 *Printing...*     	; Start printing msg on LCD,;,; End Startcode,;,; Begin printing with sliced GCode after here,;
;   layerChangeGcode,
;   retractionGcode,
;   toolChangeGcode,
;   endingGcode,;,; init 181010,;,;M107 			; Fan off,;G1 E-1 F300 			; Retract the filament a bit before lifting the nozzle,;M104 S0 			; Turn off extruder,;M140 S0 			; Turn off bed,;G91			; Relative positioning,;G28 X0 Y0 			; Move X/Y to min endstops so the head is out of teh way,;M84 			; Disable motors,;G90 			; Absolute positioning,;M117 Print ready...,,;,; // From Cura 181010,; // End_gcode,G92 E0			; Zero the extruded length,;G1 E-30 F300		; Retract E -30,M106 S0			; Turn off cooling fan,M104 S0			; Turn off temperature,M140 S0		     	; Turn off bed,G91			; Relative positioning,G1 E-1 F300			; Retract the filament a bit before lifting the nozzle to release some of the pressure,G1 Z+20 E-5 X-20 Y-20 F7200	; Move Z up a bit and retract filament even more,G1 X0 Y150 F10000		; Move right min,M107			; Turn off layer fan,M84			; Disable motors,G90			; Absolute positioning,M117 *The-End* 		; End msg,;,
;   exportFileFormat,gcode
;   celebration,0
;   celebrationSong,Star Wars
;   postProcessing,
;   defaultSpeed,1800
;   outlineUnderspeed,0.5
;   solidInfillUnderspeed,0.8
;   supportUnderspeed,0.8
;   rapidXYspeed,6000
;   rapidZspeed,1002
;   minBridgingArea,50
;   bridgingExtraInflation,0.2
;   bridgingExtrusionMultiplier,1
;   bridgingSpeedMultiplier,0.6
;   useFixedBridgingAngle,0
;   fixedBridgingAngle,0
;   applyBridgingToPerimeters,0
;   filamentDiameters,1.75|1.75|1.75|1.75|1.75|1.75
;   filamentPricesPerKg,30|46|46|46|46|46
;   filamentDensities,1.25|1.25|1.25|1.25|1.25|1.25
;   useMinPrintHeight,0
;   minPrintHeight,0
;   useMaxPrintHeight,0
;   maxPrintHeight,9
;   useDiaphragm,0
;   diaphragmLayerInterval,20
;   robustSlicing,1
;   mergeAllIntoSolid,0
;   onlyRetractWhenCrossingOutline,1
;   retractBetweenLayers,1
;   useRetractionMinTravel,1
;   retractionMinTravel,3
;   retractWhileWiping,1
;   onlyWipeOutlines,1
;   avoidCrossingOutline,1
;   maxMovementDetourFactor,3
;   toolChangeRetractionDistance,12
;   toolChangeExtraRestartDistance,-0.5
;   toolChangeRetractionSpeed,600
;   externalThinWallType,1
;   internalThinWallType,1
;   thinWallAllowedOverlapPercentage,15
;   singleExtrusionMinLength,1
;   singleExtrusionMinPrintingWidthPercentage,50
;   singleExtrusionMaxPrintingWidthPercentage,200
;   singleExtrusionEndpointExtension,0.2
;   horizontalSizeCompensation,0
G90
M82
M106 S173
M140 S60
M190 S60
;
; -]H.P.B[- MarshMalloW  
; $VER: StartScript 1.01 (13.11.2019) MarshMalloW
;
; Begin Startcode
;
M117 *Start Clean*     	; Indicate nozzle clean in progress on LCD
;
;extruder0_temperature
M104 S215  
M109 S215 
M109 R215 
;
M107                   	; Turn layer fan off
G21                    	; Set to metric [change to G20 if you want Imperial]
G90                    	; Force coordinates to be absolute relative to the origin
G28                    	; Home X/Y/Z axis
G29                    	; Auto-leveling (BL-Touch)
;
G92 E0                 	; Set Extruder to 0 
G1 X0 Y0 F2000         	; Move X and Y to 0 with speed 2000 (mm/min)
G1 Z0.1 F1000          	; Move Z to   0.1 with speed 1000 (mm/min)
G1 X8.0 F2000          	; Move X to   8.0 with speed 2000 (mm/min)
G1 Y60.0 E4.0 F1000.0  	; Move Y to  60 and Extruder with 4.0 with speed 1000 (mm/min)
G1 Y100.0 E8.5 F1000.0 	; Move Y to 100 and Extruder with 8.5 with speed 1000 (mm/min)
G92 E0                 	; Set extruder to 0
G1 X16.0 F3000         	; Move X to 16.0 with speed 3000 (mm/min)
G1 Y60.0 F3000         	; Move Y to 60.0 with speed 3000 (mm/min)
M117 *End Clean*       	; Indicate nozzle clean in progress on LCD
G1 Z5 F3000            	; Move Z to  5.0 with speed 3000 (mm/min)
G1 X20.0 F3000         	; Move X to 20.0 with speed 3000 (mm/min)
; 
M117 *Printing...*     	; Start printing msg on LCD
;
; End Startcode
;
; Begin printing with sliced GCode after here
;
; process Process1
; layer 1, Z = 0.180
T0
G92 E0.0000
G1 E-3.8000 F3000
; feature skirt
; tool H0.180 W0.350
G1 Z0.300 F1002
G1 X153.415 Y124.297 F6000
G1 Z0.180 F1002
G1 E0.0000 F3000
G92 E0.0000
G1 X153.450 Y130.239 E0.1479 F450
G1 X153.450 Y130.252 E0.1482
G1 X153.430 Y136.697 E0.3085
G1 X151.746 Y138.375 E0.3677
G1 X148.253 Y138.375 E0.4546
G1 X146.570 Y136.697 E0.5137
G1 X146.550 Y130.252 E0.6741
G1 X146.550 Y130.239 E0.6744
G1 X146.585 Y124.297 E0.8223
G1 X148.267 Y122.625 E0.8813
G1 X151.733 Y122.625 E0.9675
G1 X153.415 Y124.297 E1.0266
G92 E0.0000
G1 E-3.8000 F3000
G1 Z0.480 F1002
G1 X150.373 Y125.675 F6000
G1 X150.398 Y129.990
G1 X149.604 Y131.487
G1 X149.616 Y135.325
G1 X146.920 Y136.551
G1 Z0.180 F1002
G1 E0.0000 F3000
G92 E0.0000
G1 X146.900 Y130.252 E0.1568 F450
G1 X146.900 Y130.240 E0.1570
G1 X146.934 Y124.444 E0.3013
G1 X148.411 Y122.975 E0.3531
G1 X151.589 Y122.975 E0.4322
G1 X153.066 Y124.444 E0.4840
G1 X153.100 Y130.240 E0.6282
G1 X153.100 Y130.252 E0.6285
G1 X153.080 Y136.551 E0.7853
G1 X151.602 Y138.025 E0.8372
G1 X148.398 Y138.025 E0.9169
G1 X146.920 Y136.551 E0.9689
G92 E0.0000
G1 E-3.8000 F3000
G1 Z0.480 F1002
G1 X149.616 Y135.325 F6000
G1 X149.611 Y133.643
G1 X150.392 Y132.800
G1 X150.400 Y130.250
G1 X152.750 Y130.251
G1 Z0.180 F1002
G1 E0.0000 F3000
G92 E0.0000
G1 X152.730 Y136.406 E0.1531 F450
G1 X151.457 Y137.675 E0.1979
G1 X148.543 Y137.675 E0.2704
G1 X147.270 Y136.406 E0.3151
G1 X147.250 Y130.251 E0.4683
G1 X147.250 Y130.242 E0.4685
G1 X147.283 Y124.590 E0.6091
G1 X148.556 Y123.325 E0.6538
G1 X151.444 Y123.325 E0.7257
G1 X152.717 Y124.590 E0.7703
G1 X152.750 Y130.242 E0.9109
G1 X152.750 Y130.251 E0.9112
G92 E0.0000
G1 E-3.8000 F3000
; feature outer perimeter
G1 Z0.480 F1002
G1 X150.400 Y130.250 F6000
G1 X150.379 Y126.778
G1 X149.627 Y125.675
G1 Z0.180 F1002
G1 E0.0000 F3000
G92 E0.0000
G1 X150.373 Y125.675 E0.0186 F225
G1 X150.400 Y130.249 E0.1324
G1 X150.384 Y135.325 E0.2587
G1 X149.616 Y135.325 E0.2778
G1 X149.600 Y130.249 E0.4041
G1 X149.627 Y125.675 E0.5179
; feature internal single extrusion
; tool H0.180 W0.421
G1 X150.000 Y125.861 F6000
G92 E0.0000
G1 X150.000 Y129.552 E0.1104 F225
; tool H0.180 W0.445
G1 X150.000 Y130.180 E0.1303
; tool H0.180 W0.449
G1 X150.000 Y130.249 E0.1325
; tool H0.180 W0.449
G1 X150.000 Y130.317 E0.1347
; tool H0.180 W0.435
G1 X150.000 Y134.873 E0.2754
; tool H0.180 W0.420
G1 X150.000 Y135.073 E0.2814
G92 E0.0000
G1 E-3.8000 F3000
; layer 2, Z = 0.330
M106 S255
M104 S210 T0
; feature outer perimeter
; tool H0.150 W0.350
G1 Z0.480 F1002
G1 X149.601 Y130.215 F6000
G1 X149.627 Y125.675
G1 X149.227 Y125.675
G1 Z0.330 F1002
G1 E0.0000 F3000
G92 E0.0000
G1 X150.773 Y125.675 E0.0320 F450
G1 X150.781 Y135.325 E0.2321
G1 X149.219 Y135.325 E0.2645
G1 X149.227 Y125.675 E0.4646
; feature inner perimeter
G1 X149.577 Y126.025 F6000
G92 E0.0000
G1 X150.423 Y126.025 E0.0175 F675
G1 X150.431 Y134.975 E0.2031
G1 X149.569 Y134.975 E0.2210
G1 X149.577 Y126.025 E0.4066
; feature internal single extrusion
; tool H0.150 W0.504
G1 X150.000 Y126.280 F6000
G92 E0.0000
G1 X150.000 Y134.721 E0.2518 F450
G92 E0.0000
G1 E-3.8000 F3000
; layer 3, Z = 0.480
; feature outer perimeter
; tool H0.150 W0.350
G1 Z0.630 F1002
G1 X149.926 Y135.325 F6000
G1 X149.219 Y135.325
G1 X148.160 Y149.825
G1 Z0.480 F1002
G1 E0.0000 F3000
G92 E0.0000
G1 X148.160 Y135.675 E0.2934 F691
G1 X148.968 Y135.675 E0.3102
G1 X148.981 Y125.675 E0.5175
G1 X151.019 Y125.675 E0.5598
G1 X151.032 Y135.675 E0.7671
G1 X151.840 Y135.675 E0.7839
G1 X151.840 Y149.825 E1.0773
G1 X148.160 Y149.825 E1.1536
; feature inner perimeter
G1 X148.610 Y144.442 F6000
G1 X148.610 Y140.825
G1 X148.912 Y140.825
G1 X148.967 Y140.175
G1 X148.610 Y140.175
G1 X148.610 Y136.325
G1 X149.288 Y136.325
G1 X149.318 Y135.975
G92 E0.0000
G1 X149.331 Y126.025 E0.2063 F1037
G1 X150.669 Y126.025 E0.2341
G1 X150.682 Y135.975 E0.4404
G1 X149.318 Y135.975 E0.4687
G1 X149.668 Y135.625 F6000
G92 E0.0000
G1 X149.680 Y126.375 E0.1918 F1037
G1 X150.320 Y126.375 E0.2051
G1 X150.332 Y135.625 E0.3969
G1 X149.668 Y135.625 E0.4106
; feature outer perimeter
G1 X148.610 Y136.325 F6000
G92 E0.0000
G1 X148.610 Y140.175 E0.0798 F691
G1 X151.350 Y140.175 E0.1366
G1 X151.350 Y136.325 E0.2165
G1 X148.610 Y136.325 E0.2733
G1 X148.610 Y140.825 F6000
G92 E0.0000
G1 X148.610 Y144.675 E0.0798 F691
G1 X151.390 Y144.675 E0.1375
G1 X151.390 Y140.825 E0.2173
G1 X148.610 Y140.825 E0.2750
G1 X148.610 Y145.325 F6000
G92 E0.0000
G1 X148.610 Y149.175 E0.0798 F691
G1 X151.390 Y149.175 E0.1375
G1 X151.390 Y145.325 E0.2173
G1 X148.610 Y145.325 E0.2750
; feature internal single extrusion
; tool H0.150 W0.300
G1 X148.444 Y145.000 F6000
G92 E0.0000
G1 X151.556 Y145.000 E0.0553 F691
G1 X151.657 Y149.500 F6000
G92 E0.0000
G1 X148.343 Y149.500 E0.0589 F691
; tool H0.150 W0.175
G1 X148.394 Y149.571 F6000
G92 E0.0000
G1 X148.385 Y149.302 E0.0028 F691
G1 X148.385 Y145.189 E0.0454
G1 X148.390 Y145.120 E0.0462
G1 X148.435 Y145.050 E0.0470
; tool H0.150 W0.230
G1 X148.465 Y144.980 E0.0481
; tool H0.150 W0.199
G1 X148.403 Y144.911 E0.0492
; tool H0.150 W0.175
G1 X148.385 Y144.841 E0.0499
G1 X148.385 Y140.659 E0.0933
G1 X148.455 Y140.396 E0.0961
G1 X151.615 Y140.459 F6000
G92 E0.0000
G1 X151.615 Y144.841 E0.0454 F691
G1 X151.597 Y144.911 E0.0462
; tool H0.150 W0.199
G1 X151.535 Y144.980 E0.0473
; tool H0.150 W0.230
G1 X151.565 Y145.050 E0.0483
; tool H0.150 W0.175
G1 X151.610 Y145.120 E0.0492
G1 X151.615 Y145.189 E0.0499
G1 X151.615 Y149.302 E0.0925
G1 X151.606 Y149.571 E0.0953
; tool H0.150 W0.300
G1 X151.390 Y145.637 F6000
G1 X151.390 Y145.325
G1 X151.373 Y145.325
G1 X151.337 Y144.675
G1 X151.390 Y144.675
G1 X151.390 Y140.825
G1 X151.125 Y140.825
G1 X151.090 Y140.175
G1 X151.350 Y140.175
G1 X151.350 Y136.325
G1 X150.878 Y136.325
G1 X150.860 Y136.000
G92 E0.0000
G1 X151.458 Y136.000 E0.0106 F691
; tool H0.150 W0.290
G1 X151.525 Y136.010 E0.0118
; tool H0.150 W0.242
G1 X151.564 Y136.056 E0.0127
; tool H0.150 W0.184
G1 X151.583 Y136.092 E0.0131
; tool H0.150 W0.175
G1 X151.592 Y136.122 E0.0134
G1 X151.595 Y136.150 E0.0137
G1 X151.595 Y136.220 E0.0144
G1 X151.595 Y140.280 E0.0565
G1 X151.595 Y140.350 E0.0573
G1 X151.592 Y140.378 E0.0575
G1 X151.583 Y140.408 E0.0579
; tool H0.150 W0.184
G1 X151.564 Y140.444 E0.0583
; tool H0.150 W0.242
G1 X151.525 Y140.490 E0.0592
; tool H0.150 W0.290
G1 X151.456 Y140.500 E0.0604
; tool H0.150 W0.300
G1 X148.504 Y140.500 E0.1129
; tool H0.150 W0.250
G1 X148.435 Y140.450 E0.1141
; tool H0.150 W0.175
G1 X148.407 Y140.417 E0.1146
G1 X148.394 Y140.391 E0.1149
G1 X148.387 Y140.370 E0.1151
G1 X148.385 Y140.350 E0.1153
G1 X148.385 Y140.280 E0.1160
G1 X148.385 Y136.220 E0.1581
G1 X148.385 Y136.150 E0.1588
G1 X148.387 Y136.130 E0.1590
G1 X148.394 Y136.109 E0.1593
