; G-Code generated by Simplify3D(R) Version 4.1.2
; Nov 20, 2019 at 8:53:35 PM
; Settings Summary
;   processName,Process1
;   applyToModels,signal_4_feux_cible_arrondis_droite_HO_01
;   profileName,401 Tevo Tornado (experimental)
;   profileVersion,2019-11-15 20:21:07
;   baseProfile,Creality CR-10(2)
;   printMaterial,PLA
;   printQuality,Medium
;   printExtruders,
;   extruderName,Primary Extruder
;   extruderToolheadNumber,0
;   extruderDiameter,0.4
;   extruderAutoWidth,0
;   extruderWidth,0.35
;   extrusionMultiplier,0.95
;   extruderUseRetract,1
;   extruderRetractionDistance,3.8
;   extruderExtraRestartDistance,0
;   extruderRetractionZLift,0.3
;   extruderRetractionSpeed,3000
;   extruderUseCoasting,0
;   extruderCoastingDistance,0.2
;   extruderUseWipe,0
;   extruderWipeDistance,4
;   primaryExtruder,0
;   layerHeight,0.15
;   topSolidLayers,4
;   bottomSolidLayers,3
;   perimeterOutlines,3
;   printPerimetersInsideOut,0
;   startPointOption,1
;   startPointOriginX,0
;   startPointOriginY,300
;   sequentialIslands,0
;   spiralVaseMode,0
;   firstLayerHeightPercentage,120
;   firstLayerWidthPercentage,100
;   firstLayerUnderspeed,0.5
;   useRaft,0
;   raftExtruder,0
;   raftTopLayers,3
;   raftBaseLayers,2
;   raftOffset,3
;   raftSeparationDistance,0.14
;   raftTopInfill,100
;   aboveRaftSpeedMultiplier,0.3
;   useSkirt,1
;   skirtExtruder,0
;   skirtLayers,1
;   skirtOutlines,3
;   skirtOffset,2
;   usePrimePillar,0
;   primePillarExtruder,999
;   primePillarWidth,12
;   primePillarLocation,7
;   primePillarSpeedMultiplier,1
;   useOozeShield,0
;   oozeShieldExtruder,999
;   oozeShieldOffset,2
;   oozeShieldOutlines,1
;   oozeShieldSidewallShape,1
;   oozeShieldSidewallAngle,30
;   oozeShieldSpeedMultiplier,1
;   infillExtruder,0
;   internalInfillPattern,Grid
;   externalInfillPattern,Concentric
;   infillPercentage,25
;   outlineOverlapPercentage,15
;   infillExtrusionWidthPercentage,100
;   minInfillLength,5
;   infillLayerInterval,1
;   internalInfillAngles,45,-45
;   overlapInternalInfillAngles,1
;   externalInfillAngles,45,-45
;   generateSupport,0
;   supportExtruder,0
;   supportInfillPercentage,30
;   supportExtraInflation,0
;   supportBaseLayers,0
;   denseSupportExtruder,0
;   denseSupportLayers,0
;   denseSupportInfillPercentage,70
;   supportLayerInterval,1
;   supportHorizontalPartOffset,0.4
;   supportUpperSeparationLayers,1
;   supportLowerSeparationLayers,1
;   supportType,0
;   supportGridSpacing,4.5
;   maxOverhangAngle,45
;   supportAngles,0
;   temperatureName,Primary Extruder,Heated Bed
;   temperatureNumber,0,0
;   temperatureSetpointCount,2,1
;   temperatureSetpointLayers,1,2,1
;   temperatureSetpointTemperatures,215,210,60
;   temperatureStabilizeAtStartup,1,1
;   temperatureHeatedBed,0,1
;   fanLayers,1,2
;   fanSpeeds,0,100
;   blipFanToFullPower,0
;   adjustSpeedForCooling,1
;   minSpeedLayerTime,15
;   minCoolingSpeedSlowdown,50
;   increaseFanForCooling,1
;   minFanLayerTime,25
;   maxCoolingFanSpeed,100
;   increaseFanForBridging,1
;   bridgingFanSpeed,100
;   use5D,1
;   relativeEdistances,0
;   allowEaxisZeroing,1
;   independentExtruderAxes,0
;   includeM10123,0
;   stickySupport,1
;   applyToolheadOffsets,0
;   gcodeXoffset,0
;   gcodeYoffset,0
;   gcodeZoffset,0
;   overrideMachineDefinition,1
;   machineTypeOverride,0
;   strokeXoverride,300
;   strokeYoverride,300
;   strokeZoverride,400
;   originOffsetXoverride,0
;   originOffsetYoverride,0
;   originOffsetZoverride,0
;   homeXdirOverride,-1
;   homeYdirOverride,-1
;   homeZdirOverride,-1
;   flipXoverride,1
;   flipYoverride,-1
;   flipZoverride,1
;   toolheadOffsets,0,0|0,0|0,0|0,0|0,0|0,0
;   overrideFirmwareConfiguration,1
;   firmwareTypeOverride,RepRap (Marlin/Repetier/Sprinter)
;   GPXconfigOverride,r2
;   baudRateOverride,250000
;   overridePrinterModels,1
;   printerModelsOverride
;   startingGcode,;,; -]H.P.B[- MarshMalloW  ,; $VER: StartScript 1.01 (13.11.2019) MarshMalloW,;,; Begin Startcode,;,M117 *Start Clean*     	; Indicate nozzle clean in progress on LCD,;,;extruder0_temperature,M104 S[extruder0_temperature]  ,M109 S[extruder0_temperature] ,M109 R[extruder0_temperature] ,;,M107                   	; Turn layer fan off,G21                    	; Set to metric [change to G20 if you want Imperial],G90                    	; Force coordinates to be absolute relative to the origin,G28                    	; Home X/Y/Z axis,G29                    	; Auto-leveling (BL-Touch),;,G92 E0                 	; Set Extruder to 0 ,G1 X0 Y0 F2000         	; Move X and Y to 0 with speed 2000 (mm/min),G1 Z0.1 F1000          	; Move Z to   0.1 with speed 1000 (mm/min),G1 X8.0 F2000          	; Move X to   8.0 with speed 2000 (mm/min),G1 Y60.0 E4.0 F1000.0  	; Move Y to  60 and Extruder with 4.0 with speed 1000 (mm/min),G1 Y100.0 E8.5 F1000.0 	; Move Y to 100 and Extruder with 8.5 with speed 1000 (mm/min),G92 E0                 	; Set extruder to 0,G1 X16.0 F3000         	; Move X to 16.0 with speed 3000 (mm/min),G1 Y60.0 F3000         	; Move Y to 60.0 with speed 3000 (mm/min),M117 *End Clean*       	; Indicate nozzle clean in progress on LCD,G1 Z5 F3000            	; Move Z to  5.0 with speed 3000 (mm/min),G1 X20.0 F3000         	; Move X to 20.0 with speed 3000 (mm/min),; ,M117 *Printing...*     	; Start printing msg on LCD,;,; End Startcode,;,; Begin printing with sliced GCode after here,;
;   layerChangeGcode,
;   retractionGcode,
;   toolChangeGcode,
;   endingGcode,;,; init 181010,;,;M107 			; Fan off,;G1 E-1 F300 			; Retract the filament a bit before lifting the nozzle,;M104 S0 			; Turn off extruder,;M140 S0 			; Turn off bed,;G91			; Relative positioning,;G28 X0 Y0 			; Move X/Y to min endstops so the head is out of teh way,;M84 			; Disable motors,;G90 			; Absolute positioning,;M117 Print ready...,,;,; // From Cura 181010,; // End_gcode,G92 E0			; Zero the extruded length,;G1 E-30 F300		; Retract E -30,M106 S0			; Turn off cooling fan,M104 S0			; Turn off temperature,M140 S0		     	; Turn off bed,G91			; Relative positioning,G1 E-1 F300			; Retract the filament a bit before lifting the nozzle to release some of the pressure,G1 Z+20 E-5 X-20 Y-20 F7200	; Move Z up a bit and retract filament even more,G1 X0 Y150 F10000		; Move right min,M107			; Turn off layer fan,M84			; Disable motors,G90			; Absolute positioning,M117 *The-End* 		; End msg,;,
;   exportFileFormat,gcode
;   celebration,0
;   celebrationSong,Star Wars
;   postProcessing,
;   defaultSpeed,1800
;   outlineUnderspeed,0.5
;   solidInfillUnderspeed,0.8
;   supportUnderspeed,0.8
;   rapidXYspeed,6000
;   rapidZspeed,1002
;   minBridgingArea,50
;   bridgingExtraInflation,0.2
;   bridgingExtrusionMultiplier,1
;   bridgingSpeedMultiplier,0.6
;   useFixedBridgingAngle,0
;   fixedBridgingAngle,0
;   applyBridgingToPerimeters,0
;   filamentDiameters,1.75|1.75|1.75|1.75|1.75|1.75
;   filamentPricesPerKg,30|46|46|46|46|46
;   filamentDensities,1.25|1.25|1.25|1.25|1.25|1.25
;   useMinPrintHeight,0
;   minPrintHeight,0
;   useMaxPrintHeight,0
;   maxPrintHeight,9
;   useDiaphragm,0
;   diaphragmLayerInterval,20
;   robustSlicing,1
;   mergeAllIntoSolid,0
;   onlyRetractWhenCrossingOutline,1
;   retractBetweenLayers,1
;   useRetractionMinTravel,1
;   retractionMinTravel,3
;   retractWhileWiping,1
;   onlyWipeOutlines,1
;   avoidCrossingOutline,1
;   maxMovementDetourFactor,3
;   toolChangeRetractionDistance,12
;   toolChangeExtraRestartDistance,-0.5
;   toolChangeRetractionSpeed,600
;   externalThinWallType,1
;   internalThinWallType,1
;   thinWallAllowedOverlapPercentage,15
;   singleExtrusionMinLength,1
;   singleExtrusionMinPrintingWidthPercentage,50
;   singleExtrusionMaxPrintingWidthPercentage,200
;   singleExtrusionEndpointExtension,0.2
;   horizontalSizeCompensation,0
G90
M82
M106 S0
M140 S60
M190 S60
;
; -]H.P.B[- MarshMalloW  
; $VER: StartScript 1.01 (13.11.2019) MarshMalloW
;
; Begin Startcode
;
M117 *Start Clean*     	; Indicate nozzle clean in progress on LCD
;
;extruder0_temperature
M104 S215  
M109 S215 
M109 R215 
;
M107                   	; Turn layer fan off
G21                    	; Set to metric [change to G20 if you want Imperial]
G90                    	; Force coordinates to be absolute relative to the origin
G28                    	; Home X/Y/Z axis
G29                    	; Auto-leveling (BL-Touch)
;
G92 E0                 	; Set Extruder to 0 
G1 X0 Y0 F2000         	; Move X and Y to 0 with speed 2000 (mm/min)
G1 Z0.1 F1000          	; Move Z to   0.1 with speed 1000 (mm/min)
G1 X8.0 F2000          	; Move X to   8.0 with speed 2000 (mm/min)
G1 Y60.0 E4.0 F1000.0  	; Move Y to  60 and Extruder with 4.0 with speed 1000 (mm/min)
G1 Y100.0 E8.5 F1000.0 	; Move Y to 100 and Extruder with 8.5 with speed 1000 (mm/min)
G92 E0                 	; Set extruder to 0
G1 X16.0 F3000         	; Move X to 16.0 with speed 3000 (mm/min)
G1 Y60.0 F3000         	; Move Y to 60.0 with speed 3000 (mm/min)
M117 *End Clean*       	; Indicate nozzle clean in progress on LCD
G1 Z5 F3000            	; Move Z to  5.0 with speed 3000 (mm/min)
G1 X20.0 F3000         	; Move X to 20.0 with speed 3000 (mm/min)
; 
M117 *Printing...*     	; Start printing msg on LCD
;
; End Startcode
;
; Begin printing with sliced GCode after here
;
; process Process1
; layer 1, Z = 0.180
T0
G92 E0.0000
G1 E-3.8000 F3000
; feature skirt
; tool H0.180 W0.350
G1 Z0.300 F1002
G1 X151.223 Y138.334 F6000
G1 Z0.180 F1002
G1 E0.0000 F3000
G92 E0.0000
G1 X151.824 Y138.402 E0.0150 F900
G1 X152.139 Y138.474 E0.0231
G1 X152.786 Y138.700 E0.0401
G1 X153.077 Y138.840 E0.0482
G1 X153.657 Y139.205 E0.0652
G1 X153.909 Y139.406 E0.0733
G1 X154.394 Y139.891 E0.0903
G1 X154.595 Y140.143 E0.0983
G1 X154.960 Y140.723 E0.1154
G1 X155.100 Y141.014 E0.1234
G1 X155.326 Y141.661 E0.1405
G1 X155.398 Y141.976 E0.1485
G1 X155.466 Y142.577 E0.1636
G1 X155.475 Y142.738 E0.1676
G1 X155.475 Y148.649 E0.3147
G1 X158.582 Y151.545 E0.4204
G1 X158.685 Y151.651 E0.4240
G1 X159.013 Y152.026 E0.4364
G1 X159.184 Y152.267 E0.4438
G1 X159.465 Y152.767 E0.4580
G1 X159.583 Y153.037 E0.4654
G1 X159.756 Y153.584 E0.4797
G1 X159.816 Y153.873 E0.4870
G1 X159.867 Y154.369 E0.4994
G1 X159.875 Y154.516 E0.5031
G1 X159.875 Y157.412 E0.5751
G1 X159.866 Y157.573 E0.5792
G1 X159.802 Y158.141 E0.5934
G1 X159.730 Y158.456 E0.6014
G1 X159.515 Y159.071 E0.6176
G1 X159.375 Y159.362 E0.6257
G1 X159.028 Y159.913 E0.6419
G1 X158.827 Y160.166 E0.6499
G1 X158.366 Y160.627 E0.6661
G1 X158.114 Y160.828 E0.6742
G1 X157.562 Y161.175 E0.6904
G1 X157.271 Y161.315 E0.6984
G1 X156.656 Y161.530 E0.7146
G1 X156.341 Y161.602 E0.7227
G1 X155.774 Y161.666 E0.7369
G1 X155.612 Y161.675 E0.7409
G1 X144.086 Y161.675 E1.0277
G1 X143.925 Y161.666 E1.0317
G1 X143.424 Y161.610 E1.0442
G1 X143.110 Y161.538 E1.0523
G1 X142.558 Y161.345 E1.0668
G1 X142.267 Y161.205 E1.0748
G1 X141.773 Y160.894 E1.0894
G1 X141.520 Y160.693 E1.0974
G1 X141.107 Y160.280 E1.1119
G1 X140.906 Y160.027 E1.1200
G1 X140.595 Y159.533 E1.1345
G1 X140.455 Y159.242 E1.1425
G1 X140.262 Y158.690 E1.1571
G1 X140.190 Y158.375 E1.1651
G1 X140.134 Y157.875 E1.1776
G1 X140.125 Y157.714 E1.1816
G1 X140.125 Y142.401 E1.5627
G1 X140.134 Y142.240 E1.5667
G1 X140.193 Y141.714 E1.5799
G1 X140.265 Y141.400 E1.5879
G1 X140.467 Y140.824 E1.6031
G1 X140.607 Y140.533 E1.6111
G1 X140.931 Y140.016 E1.6263
G1 X141.133 Y139.764 E1.6343
G1 X141.564 Y139.333 E1.6495
G1 X141.816 Y139.131 E1.6575
G1 X142.333 Y138.807 E1.6727
G1 X142.624 Y138.667 E1.6807
G1 X143.200 Y138.465 E1.6959
G1 X143.515 Y138.393 E1.7040
G1 X144.014 Y138.337 E1.7165
G1 X144.175 Y138.328 E1.7205
G1 X151.061 Y138.325 E1.8918
G1 X151.223 Y138.334 E1.8959
G92 E0.0000
G1 E-3.8000 F3000
G1 Z0.480 F1002
G1 X150.972 Y141.375 F6000
G1 X150.280 Y141.375
G1 X144.933 Y158.625
G1 X144.176 Y158.625
G1 X144.095 Y161.325
G1 Z0.180 F1002
G1 E0.0000 F3000
G92 E0.0000
G1 X143.954 Y161.317 E0.0035 F900
G1 X143.483 Y161.264 E0.0153
G1 X143.207 Y161.201 E0.0224
G1 X142.692 Y161.021 E0.0359
G1 X142.437 Y160.898 E0.0430
G1 X141.976 Y160.608 E0.0565
G1 X141.754 Y160.431 E0.0636
G1 X141.369 Y160.046 E0.0771
G1 X141.192 Y159.824 E0.0842
G1 X140.902 Y159.363 E0.0978
G1 X140.779 Y159.108 E0.1048
G1 X140.599 Y158.593 E0.1184
G1 X140.536 Y158.317 E0.1254
G1 X140.483 Y157.846 E0.1372
G1 X140.475 Y157.705 E0.1407
G1 X140.475 Y142.411 E0.5213
G1 X140.483 Y142.270 E0.5248
G1 X140.539 Y141.773 E0.5372
G1 X140.602 Y141.497 E0.5443
G1 X140.790 Y140.958 E0.5585
G1 X140.914 Y140.702 E0.5656
G1 X141.217 Y140.219 E0.5798
G1 X141.394 Y139.998 E0.5868
G1 X141.798 Y139.594 E0.6010
G1 X142.019 Y139.417 E0.6081
G1 X142.502 Y139.114 E0.6223
G1 X142.758 Y138.990 E0.6293
G1 X143.297 Y138.802 E0.6435
G1 X143.573 Y138.739 E0.6506
G1 X144.044 Y138.686 E0.6624
G1 X144.185 Y138.678 E0.6659
G1 X151.052 Y138.675 E0.8368
G1 X151.194 Y138.683 E0.8403
G1 X151.765 Y138.747 E0.8546
G1 X152.042 Y138.810 E0.8617
G1 X152.652 Y139.024 E0.8777
G1 X152.907 Y139.147 E0.8848
G1 X153.454 Y139.491 E0.9009
G1 X153.676 Y139.667 E0.9079
G1 X154.133 Y140.124 E0.9240
G1 X154.309 Y140.346 E0.9311
G1 X154.653 Y140.893 E0.9471
G1 X154.776 Y141.148 E0.9542
G1 X154.990 Y141.758 E0.9703
G1 X155.053 Y142.035 E0.9773
G1 X155.117 Y142.606 E0.9916
G1 X155.125 Y142.747 E0.9952
G1 X155.125 Y148.802 E1.1458
G1 X158.337 Y151.795 E1.2550
G1 X158.427 Y151.888 E1.2583
G1 X158.738 Y152.243 E1.2700
G1 X158.887 Y152.455 E1.2765
G1 X159.151 Y152.923 E1.2898
G1 X159.255 Y153.161 E1.2963
G1 X159.417 Y153.673 E1.3096
G1 X159.470 Y153.926 E1.3161
G1 X159.518 Y154.396 E1.3278
G1 X159.525 Y154.525 E1.3311
G1 X159.525 Y157.403 E1.4027
G1 X159.517 Y157.544 E1.4062
G1 X159.456 Y158.082 E1.4197
G1 X159.393 Y158.359 E1.4267
G1 X159.191 Y158.937 E1.4420
G1 X159.068 Y159.192 E1.4490
G1 X158.742 Y159.711 E1.4642
G1 X158.565 Y159.932 E1.4713
G1 X158.132 Y160.365 E1.4865
G1 X157.911 Y160.542 E1.4936
G1 X157.392 Y160.868 E1.5088
G1 X157.137 Y160.991 E1.5159
G1 X156.559 Y161.193 E1.5311
G1 X156.282 Y161.256 E1.5382
G1 X155.744 Y161.317 E1.5517
G1 X155.603 Y161.325 E1.5552
G1 X144.095 Y161.325 E1.8415
G92 E0.0000
G1 E-3.8000 F3000
G1 Z0.480 F1002
G1 X144.176 Y158.625 F6000
G1 X145.648 Y158.625
G1 X152.425 Y146.843
G1 X152.425 Y142.828
G1 X154.775 Y142.757
G1 Z0.180 F1002
G1 E0.0000 F3000
G92 E0.0000
G1 X154.775 Y148.954 E0.1542 F900
G1 X158.092 Y152.044 E0.2670
G1 X158.169 Y152.125 E0.2698
G1 X158.462 Y152.460 E0.2809
G1 X158.591 Y152.642 E0.2864
G1 X158.837 Y153.079 E0.2989
G1 X158.926 Y153.284 E0.3044
G1 X159.078 Y153.761 E0.3169
G1 X159.124 Y153.980 E0.3225
G1 X159.169 Y154.423 E0.3335
G1 X159.175 Y154.534 E0.3363
G1 X159.175 Y157.393 E0.4074
G1 X159.168 Y157.515 E0.4105
G1 X159.111 Y158.023 E0.4232
G1 X159.056 Y158.262 E0.4293
G1 X158.867 Y158.803 E0.4436
G1 X158.761 Y159.023 E0.4496
G1 X158.456 Y159.508 E0.4639
G1 X158.304 Y159.699 E0.4700
G1 X157.899 Y160.104 E0.4842
G1 X157.708 Y160.256 E0.4903
G1 X157.223 Y160.561 E0.5046
G1 X157.002 Y160.667 E0.5106
G1 X156.462 Y160.856 E0.5249
G1 X156.223 Y160.911 E0.5310
G1 X155.715 Y160.968 E0.5437
G1 X155.593 Y160.975 E0.5468
G1 X144.105 Y160.975 E0.8326
G1 X143.983 Y160.968 E0.8356
G1 X143.542 Y160.918 E0.8467
G1 X143.304 Y160.864 E0.8528
G1 X142.827 Y160.697 E0.8654
G1 X142.606 Y160.591 E0.8714
G1 X142.179 Y160.322 E0.8840
G1 X141.988 Y160.170 E0.8901
G1 X141.630 Y159.813 E0.9027
G1 X141.478 Y159.621 E0.9087
G1 X141.209 Y159.193 E0.9213
G1 X141.103 Y158.973 E0.9274
G1 X140.936 Y158.496 E0.9400
G1 X140.882 Y158.258 E0.9461
G1 X140.832 Y157.816 E0.9571
G1 X140.825 Y157.695 E0.9601
G1 X140.825 Y142.421 E1.3402
G1 X140.832 Y142.299 E1.3432
G1 X140.885 Y141.832 E1.3549
G1 X140.939 Y141.594 E1.3610
G1 X141.114 Y141.092 E1.3742
G1 X141.220 Y140.872 E1.3803
G1 X141.503 Y140.422 E1.3935
G1 X141.655 Y140.231 E1.3996
G1 X142.031 Y139.855 E1.4128
G1 X142.222 Y139.703 E1.4189
G1 X142.672 Y139.420 E1.4321
G1 X142.892 Y139.314 E1.4382
G1 X143.394 Y139.139 E1.4514
G1 X143.632 Y139.084 E1.4575
G1 X144.073 Y139.035 E1.4686
G1 X144.195 Y139.028 E1.4716
G1 X151.042 Y139.025 E1.6420
G1 X151.164 Y139.032 E1.6450
