; G-Code generated by Simplify3D(R) Version 4.1.2
; Feb 23, 2020 at 1:13:04 AM
; Settings Summary
;   processName,Process1
;   applyToModels,Soldering_Fingers_LED_Mod_-_Snugger_Version
;   profileName,A03-04-15 Tevo Tornado (experimental)
;   profileVersion,2020-02-20 19:28:40
;   baseProfile,Creality CR-10(2)
;   printMaterial,PLA
;   printQuality,Medium
;   printExtruders,
;   extruderName,Primary Extruder
;   extruderToolheadNumber,0
;   extruderDiameter,0.4
;   extruderAutoWidth,0
;   extruderWidth,0.35
;   extrusionMultiplier,0.95
;   extruderUseRetract,1
;   extruderRetractionDistance,4
;   extruderExtraRestartDistance,0
;   extruderRetractionZLift,0.3
;   extruderRetractionSpeed,3000
;   extruderUseCoasting,0
;   extruderCoastingDistance,0.2
;   extruderUseWipe,0
;   extruderWipeDistance,4
;   primaryExtruder,0
;   layerHeight,0.15
;   topSolidLayers,4
;   bottomSolidLayers,3
;   perimeterOutlines,3
;   printPerimetersInsideOut,0
;   startPointOption,1
;   startPointOriginX,0
;   startPointOriginY,300
;   sequentialIslands,0
;   spiralVaseMode,0
;   firstLayerHeightPercentage,120
;   firstLayerWidthPercentage,100
;   firstLayerUnderspeed,0.5
;   useRaft,0
;   raftExtruder,0
;   raftTopLayers,3
;   raftBaseLayers,2
;   raftOffset,3
;   raftSeparationDistance,0.14
;   raftTopInfill,100
;   aboveRaftSpeedMultiplier,0.3
;   useSkirt,1
;   skirtExtruder,0
;   skirtLayers,1
;   skirtOutlines,3
;   skirtOffset,2
;   usePrimePillar,0
;   primePillarExtruder,999
;   primePillarWidth,12
;   primePillarLocation,7
;   primePillarSpeedMultiplier,1
;   useOozeShield,0
;   oozeShieldExtruder,999
;   oozeShieldOffset,2
;   oozeShieldOutlines,1
;   oozeShieldSidewallShape,1
;   oozeShieldSidewallAngle,30
;   oozeShieldSpeedMultiplier,1
;   infillExtruder,0
;   internalInfillPattern,Rectilinear
;   externalInfillPattern,Rectilinear
;   infillPercentage,15
;   outlineOverlapPercentage,15
;   infillExtrusionWidthPercentage,100
;   minInfillLength,5
;   infillLayerInterval,1
;   internalInfillAngles,45,-45
;   overlapInternalInfillAngles,0
;   externalInfillAngles,45,-45
;   generateSupport,0
;   supportExtruder,0
;   supportInfillPercentage,30
;   supportExtraInflation,0
;   supportBaseLayers,0
;   denseSupportExtruder,0
;   denseSupportLayers,0
;   denseSupportInfillPercentage,70
;   supportLayerInterval,1
;   supportHorizontalPartOffset,0.4
;   supportUpperSeparationLayers,1
;   supportLowerSeparationLayers,1
;   supportType,0
;   supportGridSpacing,4.5
;   maxOverhangAngle,45
;   supportAngles,0
;   temperatureName,Primary Extruder,Heated Bed
;   temperatureNumber,0,0
;   temperatureSetpointCount,1,1
;   temperatureSetpointLayers,1,1
;   temperatureSetpointTemperatures,215,55
;   temperatureStabilizeAtStartup,1,1
;   temperatureHeatedBed,0,1
;   fanLayers,1,2
;   fanSpeeds,0,100
;   blipFanToFullPower,0
;   adjustSpeedForCooling,1
;   minSpeedLayerTime,15
;   minCoolingSpeedSlowdown,50
;   increaseFanForCooling,1
;   minFanLayerTime,25
;   maxCoolingFanSpeed,100
;   increaseFanForBridging,1
;   bridgingFanSpeed,100
;   use5D,1
;   relativeEdistances,0
;   allowEaxisZeroing,1
;   independentExtruderAxes,0
;   includeM10123,0
;   stickySupport,1
;   applyToolheadOffsets,0
;   gcodeXoffset,0
;   gcodeYoffset,0
;   gcodeZoffset,0
;   overrideMachineDefinition,1
;   machineTypeOverride,0
;   strokeXoverride,300
;   strokeYoverride,300
;   strokeZoverride,400
;   originOffsetXoverride,0
;   originOffsetYoverride,0
;   originOffsetZoverride,0
;   homeXdirOverride,-1
;   homeYdirOverride,-1
;   homeZdirOverride,-1
;   flipXoverride,1
;   flipYoverride,-1
;   flipZoverride,1
;   toolheadOffsets,0,0|0,0|0,0|0,0|0,0|0,0
;   overrideFirmwareConfiguration,1
;   firmwareTypeOverride,RepRap (Marlin/Repetier/Sprinter)
;   GPXconfigOverride,r2
;   baudRateOverride,250000
;   overridePrinterModels,1
;   printerModelsOverride
;   startingGcode,;,; -]H.P.B[- MarshMalloW  ,; $VER: StartScript 1.02 (26.12.2019) MarshMalloW,;,; Begin Startcode,;,M117 *Preheat*     	; Preheat,;extruder0_temperature,M104 S[extruder0_temperature]  ,M109 S[extruder0_temperature] ,M109 R[extruder0_temperature] ,;,M117 *Auto-leveling*     	; Auto-leveling,M107                   	; Turn layer fan off,G21                    	; Set to metric [change to G20 if you want Imperial],G90                    	; Force coordinates to be absolute relative to the origin,G28                    	; Home X/Y/Z axis,G29                    	; Auto-leveling (BL-Touch),;,M117 *Start Clean*     	; Indicate nozzle clean in progress on LCD,G92 E0                 	; Set Extruder to 0 ,G1 X0 Y0 F2000         	; Move X and Y to 0 with speed 2000 (mm/min),G1 Z0.1 F1000          	; Move Z to   0.1 with speed 1000 (mm/min),G1 X8.0 F2000          	; Move X to   8.0 with speed 2000 (mm/min),G1 Y60.0 E4.0 F1000.0  	; Move Y to  60 and Extruder with 4.0 with speed 1000 (mm/min),G1 Y100.0 E8.5 F1000.0 	; Move Y to 100 and Extruder with 8.5 with speed 1000 (mm/min),G92 E0                 	; Set extruder to 0,G1 X16.0 F3000         	; Move X to 16.0 with speed 3000 (mm/min),G1 Y60.0 F3000         	; Move Y to 60.0 with speed 3000 (mm/min),M117 *End Clean*       	; Indicate nozzle clean in progress on LCD,G1 Z5 F3000            	; Move Z to  5.0 with speed 3000 (mm/min),G1 X20.0 F3000         	; Move X to 20.0 with speed 3000 (mm/min),; ,M117 *Printing...*     	; Start printing msg on LCD,;,; End Startcode,;,; Begin printing with sliced GCode after here,;
;   layerChangeGcode,
;   retractionGcode,
;   toolChangeGcode,
;   endingGcode,;,; init 181010,;,;M107 			; Fan off,;G1 E-1 F300 			; Retract the filament a bit before lifting the nozzle,;M104 S0 			; Turn off extruder,;M140 S0 			; Turn off bed,;G91			; Relative positioning,;G28 X0 Y0 			; Move X/Y to min endstops so the head is out of teh way,;M84 			; Disable motors,;G90 			; Absolute positioning,;M117 Print ready...,,;,; // From Cura 181010,; // End_gcode,G92 E0			; Zero the extruded length,;G1 E-30 F300		; Retract E -30,M106 S0			; Turn off cooling fan,M104 S0			; Turn off temperature,M140 S0		     	; Turn off bed,G91			; Relative positioning,G1 E-1 F300			; Retract the filament a bit before lifting the nozzle to release some of the pressure,G1 Z+20 E-5 X-20 Y-20 F7200	; Move Z up a bit and retract filament even more,G1 X0 Y150 F10000		; Move right min,M107			; Turn off layer fan,M84			; Disable motors,G90			; Absolute positioning,M117 *The-End* 		; End msg,;,
;   exportFileFormat,gcode
;   celebration,0
;   celebrationSong,Star Wars
;   postProcessing,
;   defaultSpeed,1800
;   outlineUnderspeed,0.5
;   solidInfillUnderspeed,0.8
;   supportUnderspeed,0.8
;   rapidXYspeed,6000
;   rapidZspeed,1002
;   minBridgingArea,50
;   bridgingExtraInflation,0.2
;   bridgingExtrusionMultiplier,1
;   bridgingSpeedMultiplier,0.6
;   useFixedBridgingAngle,0
;   fixedBridgingAngle,0
;   applyBridgingToPerimeters,0
;   filamentDiameters,1.75|1.75|1.75|1.75|1.75|1.75
;   filamentPricesPerKg,30|46|46|46|46|46
;   filamentDensities,1.25|1.25|1.25|1.25|1.25|1.25
;   useMinPrintHeight,0
;   minPrintHeight,0
;   useMaxPrintHeight,0
;   maxPrintHeight,9
;   useDiaphragm,0
;   diaphragmLayerInterval,20
;   robustSlicing,1
;   mergeAllIntoSolid,0
;   onlyRetractWhenCrossingOutline,1
;   retractBetweenLayers,1
;   useRetractionMinTravel,0
;   retractionMinTravel,3
;   retractWhileWiping,0
;   onlyWipeOutlines,1
;   avoidCrossingOutline,0
;   maxMovementDetourFactor,3
;   toolChangeRetractionDistance,12
;   toolChangeExtraRestartDistance,-0.5
;   toolChangeRetractionSpeed,600
;   externalThinWallType,1
;   internalThinWallType,1
;   thinWallAllowedOverlapPercentage,10
;   singleExtrusionMinLength,1
;   singleExtrusionMinPrintingWidthPercentage,50
;   singleExtrusionMaxPrintingWidthPercentage,200
;   singleExtrusionEndpointExtension,0.2
;   horizontalSizeCompensation,0
G90
M82
M106 S0
M140 S55
M190 S55
;
; -]H.P.B[- MarshMalloW  
; $VER: StartScript 1.02 (26.12.2019) MarshMalloW
;
; Begin Startcode
;
M117 *Preheat*     	; Preheat
;extruder0_temperature
M104 S215  
M109 S215 
M109 R215 
;
M117 *Auto-leveling*     	; Auto-leveling
M107                   	; Turn layer fan off
G21                    	; Set to metric [change to G20 if you want Imperial]
G90                    	; Force coordinates to be absolute relative to the origin
G28                    	; Home X/Y/Z axis
G29                    	; Auto-leveling (BL-Touch)
;
M117 *Start Clean*     	; Indicate nozzle clean in progress on LCD
G92 E0                 	; Set Extruder to 0 
G1 X0 Y0 F2000         	; Move X and Y to 0 with speed 2000 (mm/min)
G1 Z0.1 F1000          	; Move Z to   0.1 with speed 1000 (mm/min)
G1 X8.0 F2000          	; Move X to   8.0 with speed 2000 (mm/min)
G1 Y60.0 E4.0 F1000.0  	; Move Y to  60 and Extruder with 4.0 with speed 1000 (mm/min)
G1 Y100.0 E8.5 F1000.0 	; Move Y to 100 and Extruder with 8.5 with speed 1000 (mm/min)
G92 E0                 	; Set extruder to 0
G1 X16.0 F3000         	; Move X to 16.0 with speed 3000 (mm/min)
G1 Y60.0 F3000         	; Move Y to 60.0 with speed 3000 (mm/min)
M117 *End Clean*       	; Indicate nozzle clean in progress on LCD
G1 Z5 F3000            	; Move Z to  5.0 with speed 3000 (mm/min)
G1 X20.0 F3000         	; Move X to 20.0 with speed 3000 (mm/min)
; 
M117 *Printing...*     	; Start printing msg on LCD
;
; End Startcode
;
; Begin printing with sliced GCode after here
;
; process Process1
; layer 1, Z = 0.180
T0
G92 E0.0000
G1 E-4.0000 F3000
; feature skirt
; tool H0.180 W0.350
G1 Z0.300 F1002
G1 X138.219 Y118.868 F6000
G1 Z0.180 F1002
G1 E0.0000 F3000
G92 E0.0000
G1 X168.522 Y118.865 E0.7540 F900
G1 X168.631 Y118.869 E0.7568
G1 X169.489 Y118.934 E0.7781
G1 X169.657 Y118.957 E0.7824
G1 X170.322 Y119.088 E0.7992
G1 X170.484 Y119.130 E0.8034
G1 X171.269 Y119.382 E0.8239
G1 X171.438 Y119.448 E0.8284
G1 X171.927 Y119.677 E0.8419
G1 X172.037 Y119.734 E0.8450
G1 X172.883 Y120.223 E0.8693
G1 X173.098 Y120.375 E0.8758
G1 X174.022 Y121.163 E0.9060
G1 X174.207 Y121.353 E0.9126
G1 X174.861 Y122.162 E0.9385
G1 X174.971 Y122.320 E0.9433
G1 X175.469 Y123.140 E0.9672
G1 X175.572 Y123.345 E0.9729
G1 X175.814 Y123.940 E0.9889
G1 X175.857 Y124.060 E0.9920
G1 X176.113 Y124.895 E1.0138
G1 X176.144 Y125.015 E1.0169
G1 X186.189 Y171.735 E2.2060
G1 X186.204 Y171.818 E2.2081
G1 X186.304 Y172.461 E2.2242
G1 X186.321 Y172.681 E2.2297
G1 X186.321 Y173.818 E2.2580
G1 X186.300 Y174.058 E2.2640
G1 X186.127 Y175.081 E2.2898
G1 X186.075 Y175.292 E2.2952
G1 X185.787 Y176.165 E2.3181
G1 X185.696 Y176.381 E2.3239
G1 X185.113 Y177.497 E2.3553
G1 X184.976 Y177.710 E2.3616
G1 X184.428 Y178.420 E2.3839
G1 X184.280 Y178.584 E2.3894
G1 X183.500 Y179.325 E2.4162
G1 X183.317 Y179.472 E2.4220
G1 X182.479 Y180.042 E2.4472
G1 X182.313 Y180.139 E2.4520
G1 X181.686 Y180.452 E2.4694
G1 X181.531 Y180.518 E2.4736
G1 X180.692 Y180.820 E2.4958
G1 X180.406 Y180.891 E2.5031
G1 X178.833 Y181.114 E2.5427
G1 X178.631 Y181.128 E2.5477
G1 X121.441 Y181.131 E3.9708
G1 X121.347 Y181.127 E3.9731
G1 X120.672 Y181.083 E3.9899
G1 X120.482 Y181.058 E3.9947
G1 X119.498 Y180.859 E4.0197
G1 X119.261 Y180.790 E4.0258
G1 X118.205 Y180.380 E4.0540
G1 X117.999 Y180.280 E4.0597
G1 X117.210 Y179.818 E4.0825
G1 X117.063 Y179.719 E4.0869
G1 X116.493 Y179.282 E4.1047
G1 X116.352 Y179.160 E4.1094
G1 X115.705 Y178.515 E4.1321
G1 X115.609 Y178.410 E4.1357
G1 X115.257 Y177.982 E4.1494
G1 X115.168 Y177.861 E4.1532
G1 X114.785 Y177.281 E4.1705
G1 X114.686 Y177.106 E4.1755
G1 X114.274 Y176.238 E4.1994
G1 X114.207 Y176.071 E4.2039
G1 X113.963 Y175.328 E4.2233
G1 X113.905 Y175.080 E4.2297
G1 X113.689 Y173.557 E4.2680
G1 X113.679 Y173.239 E4.2759
G1 X113.767 Y172.148 E4.3031
G1 X113.793 Y171.967 E4.3077
G1 X123.728 Y124.871 E5.5053
G1 X123.749 Y124.781 E5.5076
G1 X123.886 Y124.291 E5.5203
G1 X123.946 Y124.120 E5.5248
G1 X124.305 Y123.265 E5.5479
G1 X124.430 Y123.029 E5.5545
G1 X125.219 Y121.834 E5.5901
G1 X125.360 Y121.653 E5.5958
G1 X125.583 Y121.410 E5.6040
G1 X125.661 Y121.331 E5.6068
G1 X126.465 Y120.582 E5.6342
G1 X126.658 Y120.430 E5.6403
G1 X127.440 Y119.918 E5.6635
G1 X127.596 Y119.829 E5.6680
G1 X128.227 Y119.521 E5.6855
G1 X128.414 Y119.445 E5.6905
G1 X129.455 Y119.107 E5.7177
G1 X129.713 Y119.048 E5.7243
G1 X130.944 Y118.887 E5.7552
G1 X131.126 Y118.875 E5.7597
G1 X138.219 Y118.849 E5.9362
G1 X138.219 Y118.868 E5.9367
G92 E0.0000
G1 E-4.0000 F3000
G1 Z0.480 F1002
G1 X119.374 Y180.458 F6000
G1 Z0.180 F1002
G1 E0.0000 F3000
G92 E0.0000
G1 X118.345 Y180.058 E0.0275 F900
G1 X118.164 Y179.971 E0.0325
G1 X117.397 Y179.521 E0.0546
G1 X117.267 Y179.434 E0.0585
G1 X116.715 Y179.011 E0.0758
G1 X116.591 Y178.903 E0.0799
G1 X115.958 Y178.273 E0.1021
G1 X115.874 Y178.180 E0.1052
G1 X115.533 Y177.767 E0.1186
G1 X115.455 Y177.660 E0.1219
G1 X115.084 Y177.098 E0.1386
G1 X114.997 Y176.944 E0.1430
G1 X114.595 Y176.098 E0.1663
G1 X114.536 Y175.951 E0.1703
G1 X114.300 Y175.233 E0.1891
G1 X114.249 Y175.016 E0.1946
G1 X114.038 Y173.527 E0.2320
G1 X114.030 Y173.248 E0.2390
G1 X114.115 Y172.188 E0.2654
G1 X114.138 Y172.028 E0.2695
G1 X124.069 Y124.948 E1.4667
G1 X124.088 Y124.870 E1.4687
G1 X124.220 Y124.395 E1.4810
G1 X124.273 Y124.245 E1.4849
G1 X124.621 Y123.415 E1.5073
G1 X124.732 Y123.209 E1.5132
G1 X125.503 Y122.038 E1.5481
G1 X125.627 Y121.879 E1.5531
G1 X125.836 Y121.652 E1.5607
G1 X125.905 Y121.582 E1.5632
G1 X126.692 Y120.848 E1.5900
G1 X126.862 Y120.715 E1.5953
G1 X127.623 Y120.217 E1.6180
G1 X127.760 Y120.138 E1.6219
G1 X128.369 Y119.840 E1.6388
G1 X128.534 Y119.774 E1.6432
G1 X129.548 Y119.444 E1.6697
G1 X129.775 Y119.393 E1.6755
G1 X130.979 Y119.236 E1.7057
G1 X131.138 Y119.225 E1.7097
G1 X137.870 Y119.200 E1.8772
G1 X137.870 Y119.218 E1.8777
G1 X168.515 Y119.215 E2.6402
G1 X168.611 Y119.218 E2.6426
G1 X169.452 Y119.282 E2.6636
G1 X169.599 Y119.303 E2.6673
G1 X170.244 Y119.429 E2.6836
G1 X170.387 Y119.466 E2.6873
G1 X171.151 Y119.712 E2.7073
G1 X171.300 Y119.770 E2.7112
G1 X171.772 Y119.991 E2.7242
G1 X171.869 Y120.041 E2.7269
G1 X172.695 Y120.518 E2.7506
G1 X172.883 Y120.651 E2.7564
G1 X173.782 Y121.419 E2.7858
G1 X173.945 Y121.586 E2.7916
G1 X174.581 Y122.373 E2.8168
G1 X174.678 Y122.511 E2.8210
G1 X175.163 Y123.310 E2.8442
G1 X175.253 Y123.490 E2.8493
G1 X175.487 Y124.065 E2.8647
G1 X175.524 Y124.170 E2.8675
G1 X175.776 Y124.991 E2.8888
G1 X175.804 Y125.096 E2.8915
G1 X185.846 Y171.804 E4.0803
G1 X185.859 Y171.877 E4.0822
G1 X185.956 Y172.501 E4.0979
G1 X185.971 Y172.694 E4.1027
G1 X185.971 Y173.804 E4.1303
G1 X185.953 Y174.015 E4.1356
G1 X185.785 Y175.010 E4.1607
G1 X185.739 Y175.195 E4.1654
G1 X185.459 Y176.042 E4.1876
G1 X185.379 Y176.231 E4.1927
G1 X184.810 Y177.321 E4.2233
G1 X184.690 Y177.508 E4.2289
G1 X184.159 Y178.195 E4.2505
G1 X184.029 Y178.339 E4.2553
G1 X183.269 Y179.062 E4.2814
G1 X183.109 Y179.191 E4.2865
G1 X182.292 Y179.746 E4.3111
G1 X182.146 Y179.831 E4.3153
G1 X181.539 Y180.134 E4.3322
G1 X181.403 Y180.193 E4.3359
G1 X180.590 Y180.485 E4.3574
G1 X180.340 Y180.547 E4.3638
G1 X178.796 Y180.766 E4.4026
G1 X178.619 Y180.778 E4.4070
G1 X121.447 Y180.781 E5.8296
G1 X121.365 Y180.778 E5.8316
G1 X120.707 Y180.735 E5.8480
G1 X120.539 Y180.713 E5.8522
G1 X119.582 Y180.519 E5.8765
G1 X119.374 Y180.458 E5.8819
G92 E0.0000
G1 E-4.0000 F3000
G1 Z0.480 F1002
G1 X174.934 Y123.634 F6000
G1 Z0.180 F1002
G1 E0.0000 F3000
G92 E0.0000
G1 X175.160 Y124.190 E0.0149 F900
G1 X175.192 Y124.280 E0.0173
G1 X175.440 Y125.086 E0.0383
G1 X175.463 Y125.177 E0.0406
G1 X185.503 Y171.873 E1.2291
G1 X185.514 Y171.935 E1.2307
G1 X185.608 Y172.541 E1.2459
G1 X185.621 Y172.707 E1.2501
G1 X185.621 Y173.789 E1.2770
G1 X185.605 Y173.971 E1.2815
G1 X185.442 Y174.938 E1.3059
G1 X185.402 Y175.098 E1.3100
G1 X185.131 Y175.918 E1.3315
G1 X185.062 Y176.082 E1.3359
G1 X184.507 Y177.145 E1.3658
G1 X184.404 Y177.306 E1.3706
G1 X183.891 Y177.971 E1.3914
G1 X183.779 Y178.095 E1.3956
G1 X183.038 Y178.798 E1.4210
G1 X182.900 Y178.909 E1.4254
G1 X182.105 Y179.450 E1.4493
G1 X181.979 Y179.523 E1.4530
G1 X181.392 Y179.816 E1.4693
