; G-Code generated by Simplify3D(R) Version 4.1.2
; Oct 4, 2022 at 8:52:08 AM
; Settings Summary
;   processName,A12-04
;   applyToModels,SupportImOk
;   profileName,A12-04-25-04 Tevo Tornado
;   profileVersion,2022-10-02 13:05:34
;   baseProfile,Creality CR-10(2)
;   printMaterial,PLA
;   printQuality,Medium
;   printExtruders,
;   extruderName,Primary Extruder
;   extruderToolheadNumber,0
;   extruderDiameter,0.4
;   extruderAutoWidth,0
;   extruderWidth,0.35
;   extrusionMultiplier,0.95
;   extruderUseRetract,1
;   extruderRetractionDistance,4
;   extruderExtraRestartDistance,0
;   extruderRetractionZLift,0.3
;   extruderRetractionSpeed,3600
;   extruderUseCoasting,0
;   extruderCoastingDistance,0.5
;   extruderUseWipe,0
;   extruderWipeDistance,5
;   primaryExtruder,0
;   layerHeight,0.15
;   topSolidLayers,4
;   bottomSolidLayers,3
;   perimeterOutlines,3
;   printPerimetersInsideOut,0
;   startPointOption,2
;   startPointOriginX,0
;   startPointOriginY,300
;   sequentialIslands,0
;   spiralVaseMode,0
;   firstLayerHeightPercentage,120
;   firstLayerWidthPercentage,100
;   firstLayerUnderspeed,0.5
;   useRaft,0
;   raftExtruder,0
;   raftTopLayers,3
;   raftBaseLayers,2
;   raftOffset,3
;   raftSeparationDistance,0.14
;   raftTopInfill,100
;   aboveRaftSpeedMultiplier,0.3
;   useSkirt,1
;   skirtExtruder,0
;   skirtLayers,1
;   skirtOutlines,2
;   skirtOffset,3
;   usePrimePillar,0
;   primePillarExtruder,999
;   primePillarWidth,12
;   primePillarLocation,7
;   primePillarSpeedMultiplier,1
;   useOozeShield,0
;   oozeShieldExtruder,999
;   oozeShieldOffset,2
;   oozeShieldOutlines,1
;   oozeShieldSidewallShape,1
;   oozeShieldSidewallAngle,30
;   oozeShieldSpeedMultiplier,1
;   infillExtruder,0
;   internalInfillPattern,Full Honeycomb
;   externalInfillPattern,Rectilinear
;   infillPercentage,25
;   outlineOverlapPercentage,15
;   infillExtrusionWidthPercentage,100
;   minInfillLength,5
;   infillLayerInterval,1
;   internalInfillAngles,0,120,-120
;   overlapInternalInfillAngles,0
;   externalInfillAngles,45,-45
;   generateSupport,0
;   supportExtruder,0
;   supportInfillPercentage,30
;   supportExtraInflation,0
;   supportBaseLayers,0
;   denseSupportExtruder,0
;   denseSupportLayers,0
;   denseSupportInfillPercentage,70
;   supportLayerInterval,1
;   supportHorizontalPartOffset,0.4
;   supportUpperSeparationLayers,1
;   supportLowerSeparationLayers,1
;   supportType,0
;   supportGridSpacing,4.5
;   maxOverhangAngle,45
;   supportAngles,0
;   temperatureName,Primary Extruder,Heated Bed
;   temperatureNumber,0,0
;   temperatureSetpointCount,2,2
;   temperatureSetpointLayers,1,2,1,2
;   temperatureSetpointTemperatures,205,200,55,50
;   temperatureStabilizeAtStartup,1,1
;   temperatureHeatedBed,0,1
;   fanLayers,1,2
;   fanSpeeds,0,100
;   blipFanToFullPower,0
;   adjustSpeedForCooling,1
;   minSpeedLayerTime,15
;   minCoolingSpeedSlowdown,20
;   increaseFanForCooling,1
;   minFanLayerTime,25
;   maxCoolingFanSpeed,100
;   increaseFanForBridging,1
;   bridgingFanSpeed,100
;   use5D,1
;   relativeEdistances,0
;   allowEaxisZeroing,1
;   independentExtruderAxes,0
;   includeM10123,0
;   stickySupport,1
;   applyToolheadOffsets,0
;   gcodeXoffset,0
;   gcodeYoffset,0
;   gcodeZoffset,0
;   overrideMachineDefinition,1
;   machineTypeOverride,0
;   strokeXoverride,300
;   strokeYoverride,300
;   strokeZoverride,400
;   originOffsetXoverride,0
;   originOffsetYoverride,0
;   originOffsetZoverride,0
;   homeXdirOverride,-1
;   homeYdirOverride,-1
;   homeZdirOverride,-1
;   flipXoverride,1
;   flipYoverride,-1
;   flipZoverride,1
;   toolheadOffsets,0,0|0,0|0,0|0,0|0,0|0,0
;   overrideFirmwareConfiguration,1
;   firmwareTypeOverride,RepRap (Marlin/Repetier/Sprinter)
;   GPXconfigOverride,r2
;   baudRateOverride,250000
;   overridePrinterModels,1
;   printerModelsOverride
;   startingGcode,;,; -]H.P.B[- MarshMalloW  ,; $VER: StartScript 1.02 (26.12.2019) MarshMalloW,;,; Begin Startcode,;,M117 *Preheat*     	; Preheat,;extruder0_temperature,M104 S[extruder0_temperature]  ,M109 S[extruder0_temperature] ,M109 R[extruder0_temperature] ,;,M117 *Auto-leveling*     	; Auto-leveling,M107                   	; Turn layer fan off,G21                    	; Set to metric [change to G20 if you want Imperial],G90                    	; Force coordinates to be absolute relative to the origin,G28                    	; Home X/Y/Z axis,G29                    	; Auto-leveling (BL-Touch),;,M117 *Start Clean*     	; Indicate nozzle clean in progress on LCD,G92 E0                 	; Set Extruder to 0 ,G1 X0 Y0 F2000         	; Move X and Y to 0 with speed 2000 (mm/min),G1 Z0.1 F1000          	; Move Z to   0.1 with speed 1000 (mm/min),G1 X8.0 F2000          	; Move X to   8.0 with speed 2000 (mm/min),G1 Y60.0 E4.0 F1000.0  	; Move Y to  60 and Extruder with 4.0 with speed 1000 (mm/min),G1 Y100.0 E8.5 F1000.0 	; Move Y to 100 and Extruder with 8.5 with speed 1000 (mm/min),G92 E0                 	; Set extruder to 0,G1 X16.0 F3000         	; Move X to 16.0 with speed 3000 (mm/min),G1 Y60.0 F3000         	; Move Y to 60.0 with speed 3000 (mm/min),M117 *End Clean*       	; Indicate nozzle clean in progress on LCD,G1 Z5 F3000            	; Move Z to  5.0 with speed 3000 (mm/min),G1 X20.0 F3000         	; Move X to 20.0 with speed 3000 (mm/min),G1 Y20.0 F3000         	; Move Y to 20.0 with speed 3000 (mm/min),; ,M117 *Printing...*     	; Start printing msg on LCD,;,; End Startcode,;,; Begin printing with sliced GCode after here,;
;   layerChangeGcode,
;   retractionGcode,
;   toolChangeGcode,
;   endingGcode,;,; init 181010,;,;M107 			; Fan off,;G1 E-1 F300 			; Retract the filament a bit before lifting the nozzle,;M104 S0 			; Turn off extruder,;M140 S0 			; Turn off bed,;G91			; Relative positioning,;G28 X0 Y0 			; Move X/Y to min endstops so the head is out of teh way,;M84 			; Disable motors,;G90 			; Absolute positioning,;M117 Print ready...,,;,; // From Cura 181010,; // End_gcode,G92 E0			; Zero the extruded length,;G1 E-30 F300		; Retract E -30,M106 S0			; Turn off cooling fan,M104 S0			; Turn off temperature,M140 S0		     	; Turn off bed,G91			; Relative positioning,G1 E-1 F300			; Retract the filament a bit before lifting the nozzle to release some of the pressure,G1 Z+20 E-5 X-20 Y-20 F7200	; Move Z up a bit and retract filament even more,G1 X0 Y150 F10000		; Move right min,M107			; Turn off layer fan,M84			; Disable motors,G90			; Absolute positioning,M117 *The-End* 		; End msg,;,
;   exportFileFormat,gcode
;   celebration,0
;   celebrationSong,Star Wars
;   postProcessing,|{REPLACE "; layer " "M117 INDICATOR-Layer"}|{REPLACE ", Z = " "\n; Z="}
;   defaultSpeed,1800
;   outlineUnderspeed,0.5
;   solidInfillUnderspeed,0.8
;   supportUnderspeed,0.8
;   rapidXYspeed,6000
;   rapidZspeed,1002
;   minBridgingArea,50
;   bridgingExtraInflation,0.2
;   bridgingExtrusionMultiplier,1
;   bridgingSpeedMultiplier,0.8
;   useFixedBridgingAngle,0
;   fixedBridgingAngle,0
;   applyBridgingToPerimeters,0
;   filamentDiameters,1.75|1.75|1.75|1.75|1.75|1.75
;   filamentPricesPerKg,30|46|46|46|46|46
;   filamentDensities,1.25|1.25|1.25|1.25|1.25|1.25
;   useMinPrintHeight,0
;   minPrintHeight,0
;   useMaxPrintHeight,0
;   maxPrintHeight,50
;   useDiaphragm,0
;   diaphragmLayerInterval,20
;   robustSlicing,1
;   mergeAllIntoSolid,0
;   onlyRetractWhenCrossingOutline,1
;   retractBetweenLayers,1
;   useRetractionMinTravel,0
;   retractionMinTravel,3
;   retractWhileWiping,0
;   onlyWipeOutlines,1
;   avoidCrossingOutline,0
;   maxMovementDetourFactor,3
;   toolChangeRetractionDistance,12
;   toolChangeExtraRestartDistance,-0.5
;   toolChangeRetractionSpeed,600
;   externalThinWallType,0
;   internalThinWallType,1
;   thinWallAllowedOverlapPercentage,10
;   singleExtrusionMinLength,1
;   singleExtrusionMinPrintingWidthPercentage,50
;   singleExtrusionMaxPrintingWidthPercentage,200
;   singleExtrusionEndpointExtension,0.2
;   horizontalSizeCompensation,0
G90
M82
M106 S0
M140 S55
M190 S55
;
; -]H.P.B[- MarshMalloW  
; $VER: StartScript 1.02 (26.12.2019) MarshMalloW
;
; Begin Startcode
;
M117 *Preheat*     	; Preheat
;extruder0_temperature
M104 S205  
M109 S205 
M109 R205 
;
M117 *Auto-leveling*     	; Auto-leveling
M107                   	; Turn layer fan off
G21                    	; Set to metric [change to G20 if you want Imperial]
G90                    	; Force coordinates to be absolute relative to the origin
G28                    	; Home X/Y/Z axis
G29                    	; Auto-leveling (BL-Touch)
;
M117 *Start Clean*     	; Indicate nozzle clean in progress on LCD
G92 E0                 	; Set Extruder to 0 
G1 X0 Y0 F2000         	; Move X and Y to 0 with speed 2000 (mm/min)
G1 Z0.1 F1000          	; Move Z to   0.1 with speed 1000 (mm/min)
G1 X8.0 F2000          	; Move X to   8.0 with speed 2000 (mm/min)
G1 Y60.0 E4.0 F1000.0  	; Move Y to  60 and Extruder with 4.0 with speed 1000 (mm/min)
G1 Y100.0 E8.5 F1000.0 	; Move Y to 100 and Extruder with 8.5 with speed 1000 (mm/min)
G92 E0                 	; Set extruder to 0
G1 X16.0 F3000         	; Move X to 16.0 with speed 3000 (mm/min)
G1 Y60.0 F3000         	; Move Y to 60.0 with speed 3000 (mm/min)
M117 *End Clean*       	; Indicate nozzle clean in progress on LCD
G1 Z5 F3000            	; Move Z to  5.0 with speed 3000 (mm/min)
G1 X20.0 F3000         	; Move X to 20.0 with speed 3000 (mm/min)
G1 Y20.0 F3000         	; Move Y to 20.0 with speed 3000 (mm/min)
; 
M117 *Printing...*     	; Start printing msg on LCD
;
; End Startcode
;
; Begin printing with sliced GCode after here
;
; process A12-04
M117 INDICATOR-Layer1
; Z=0.180
T0
G92 E0.0000
G1 E-4.0000 F3600
; feature skirt
; tool H0.180 W0.350
G1 Z0.300 F1002
G1 X127.726 Y128.464 F6000
G1 Z0.180 F1002
G1 E0.0000 F3600
G92 E0.0000
G1 X128.752 Y127.472 E0.0355 F900
G1 X128.873 Y127.366 E0.0395
G1 X129.523 Y126.844 E0.0603
G1 X129.648 Y126.752 E0.0641
G1 X130.583 Y126.127 E0.0921
G1 X130.731 Y126.038 E0.0964
G1 X131.731 Y125.504 E0.1246
G1 X131.887 Y125.430 E0.1289
G1 X132.929 Y124.998 E0.1570
G1 X133.081 Y124.943 E0.1610
G1 X133.945 Y124.675 E0.1835
G1 X134.057 Y124.645 E0.1864
G1 X134.845 Y124.456 E0.2066
G1 X134.997 Y124.427 E0.2104
G1 X136.109 Y124.262 E0.2384
G1 X136.281 Y124.245 E0.2427
G1 X137.370 Y124.191 E0.2698
G1 X137.457 Y124.189 E0.2720
G1 X162.543 Y124.189 E0.8962
G1 X162.630 Y124.191 E0.8983
G1 X163.719 Y124.245 E0.9255
G1 X163.891 Y124.262 E0.9298
G1 X165.012 Y124.428 E0.9580
G1 X165.182 Y124.462 E0.9623
G1 X166.276 Y124.736 E0.9904
G1 X166.431 Y124.782 E0.9944
G1 X167.284 Y125.082 E1.0169
G1 X167.392 Y125.123 E1.0198
G1 X168.138 Y125.441 E1.0399
G1 X168.277 Y125.508 E1.0438
G1 X169.282 Y126.045 E1.0721
G1 X169.455 Y126.151 E1.0772
G1 X170.628 Y126.964 E1.1127
G1 X170.757 Y127.062 E1.1167
G1 X171.379 Y127.583 E1.1369
G1 X171.462 Y127.658 E1.1397
G1 X171.897 Y128.072 E1.1546
G1 X171.988 Y128.165 E1.1579
G1 X172.720 Y128.973 E1.1850
G1 X172.804 Y129.072 E1.1882
G1 X173.179 Y129.553 E1.2034
G1 X173.255 Y129.658 E1.2066
G1 X173.873 Y130.583 E1.2343
G1 X173.962 Y130.731 E1.2386
G1 X174.486 Y131.712 E1.2663
G1 X174.543 Y131.828 E1.2695
G1 X174.790 Y132.386 E1.2847
G1 X174.838 Y132.506 E1.2879
G1 X175.213 Y133.553 E1.3156
G1 X175.263 Y133.719 E1.3199
G1 X175.538 Y134.818 E1.3481
G1 X175.572 Y134.988 E1.3524
G1 X175.738 Y136.109 E1.3806
G1 X175.755 Y136.281 E1.3849
G1 X175.809 Y137.371 E1.4120
G1 X175.811 Y137.458 E1.4142
G1 X175.799 Y163.046 E2.0509
G1 X175.794 Y163.175 E2.0541
G1 X175.749 Y163.783 E2.0693
G1 X175.735 Y163.912 E2.0725
G1 X175.572 Y165.012 E2.1002
G1 X175.538 Y165.182 E2.1045
G1 X175.263 Y166.281 E2.1327
G1 X175.213 Y166.447 E2.1370
G1 X174.838 Y167.494 E2.1647
G1 X174.790 Y167.614 E2.1679
G1 X174.543 Y168.172 E2.1831
G1 X174.486 Y168.288 E2.1863
G1 X173.972 Y169.250 E2.2134
G1 X173.906 Y169.362 E2.2167
G1 X173.583 Y169.873 E2.2317
G1 X173.516 Y169.971 E2.2347
G1 X172.981 Y170.702 E2.2572
G1 X172.879 Y170.828 E2.2612
G1 X172.011 Y171.811 E2.2939
G1 X171.905 Y171.920 E2.2977
G1 X171.455 Y172.349 E2.3131
G1 X171.358 Y172.435 E2.3163
G1 X170.499 Y173.140 E2.3440
G1 X170.360 Y173.243 E2.3483
G1 X169.417 Y173.873 E2.3765
G1 X169.269 Y173.962 E2.3808
G1 X168.288 Y174.486 E2.4085
G1 X168.172 Y174.543 E2.4117
G1 X167.614 Y174.790 E2.4269
G1 X167.494 Y174.838 E2.4301
G1 X166.447 Y175.213 E2.4578
G1 X166.281 Y175.263 E2.4621
G1 X165.182 Y175.538 E2.4903
G1 X165.012 Y175.572 E2.4946
G1 X163.912 Y175.735 E2.5223
G1 X163.783 Y175.749 E2.5255
G1 X163.175 Y175.794 E2.5407
G1 X163.045 Y175.799 E2.5439
G1 X136.955 Y175.799 E3.1931
G1 X136.825 Y175.794 E3.1963
G1 X136.217 Y175.749 E3.2115
G1 X136.088 Y175.735 E3.2147
G1 X134.988 Y175.572 E3.2424
G1 X134.818 Y175.538 E3.2467
G1 X133.719 Y175.263 E3.2749
G1 X133.553 Y175.213 E3.2792
G1 X132.506 Y174.838 E3.3069
G1 X132.386 Y174.790 E3.3101
G1 X131.828 Y174.543 E3.3253
G1 X131.712 Y174.486 E3.3285
G1 X130.750 Y173.972 E3.3557
G1 X130.638 Y173.906 E3.3589
G1 X130.127 Y173.583 E3.3739
G1 X130.029 Y173.516 E3.3769
G1 X129.298 Y172.981 E3.3994
G1 X129.172 Y172.879 E3.4035
G1 X128.189 Y172.011 E3.4361
G1 X128.080 Y171.905 E3.4399
G1 X127.651 Y171.455 E3.4553
G1 X127.565 Y171.358 E3.4586
G1 X126.860 Y170.499 E3.4862
G1 X126.757 Y170.360 E3.4905
G1 X126.127 Y169.417 E3.5187
G1 X126.038 Y169.269 E3.5230
G1 X125.504 Y168.269 E3.5512
G1 X125.430 Y168.113 E3.5555
G1 X125.005 Y167.086 E3.5832
G1 X124.959 Y166.964 E3.5864
G1 X124.768 Y166.385 E3.6016
G1 X124.732 Y166.260 E3.6048
G1 X124.462 Y165.182 E3.6325
G1 X124.428 Y165.012 E3.6368
G1 X124.265 Y163.912 E3.6645
G1 X124.251 Y163.783 E3.6677
G1 X124.206 Y163.175 E3.6829
G1 X124.201 Y163.045 E3.6861
G1 X124.201 Y136.955 E4.3353
G1 X124.206 Y136.825 E4.3385
G1 X124.251 Y136.217 E4.3537
G1 X124.265 Y136.088 E4.3570
G1 X124.427 Y134.997 E4.3844
G1 X124.456 Y134.845 E4.3882
G1 X124.645 Y134.057 E4.4084
G1 X124.675 Y133.945 E4.4113
G1 X124.943 Y133.081 E4.4338
G1 X124.998 Y132.929 E4.4378
G1 X125.422 Y131.907 E4.4654
G1 X125.476 Y131.789 E4.4686
G1 X125.740 Y131.263 E4.4832
G1 X125.781 Y131.187 E4.4854
G1 X126.071 Y130.675 E4.5000
G1 X126.139 Y130.565 E4.5033
G1 X126.757 Y129.640 E4.5309
G1 X126.860 Y129.501 E4.5352
G1 X127.589 Y128.614 E4.5638
G1 X127.726 Y128.464 E4.5688
G92 E0.0000
G1 E-4.0000 F3600
G1 Z0.480 F1002
G1 X127.977 Y128.709 F6000
G1 Z0.180 F1002
G1 E0.0000 F3600
G92 E0.0000
G1 X128.989 Y127.730 E0.0351 F900
G1 X129.099 Y127.633 E0.0387
G1 X129.736 Y127.121 E0.0590
G1 X129.849 Y127.039 E0.0625
G1 X130.770 Y126.423 E0.0901
G1 X130.904 Y126.343 E0.0939
G1 X131.888 Y125.817 E0.1217
G1 X132.029 Y125.750 E0.1256
G1 X133.056 Y125.325 E0.1533
G1 X133.193 Y125.275 E0.1569
G1 X134.043 Y125.011 E0.1790
G1 X134.144 Y124.984 E0.1816
G1 X134.919 Y124.798 E0.2015
G1 X135.056 Y124.772 E0.2049
G1 X136.152 Y124.609 E0.2325
G1 X136.307 Y124.594 E0.2364
G1 X137.383 Y124.541 E0.2632
G1 X137.461 Y124.539 E0.2651
G1 X162.539 Y124.539 E0.8891
G1 X162.617 Y124.541 E0.8911
G1 X163.693 Y124.594 E0.9179
G1 X163.848 Y124.609 E0.9218
G1 X164.952 Y124.773 E0.9495
G1 X165.105 Y124.803 E0.9534
G1 X166.183 Y125.073 E0.9811
G1 X166.323 Y125.115 E0.9847
G1 X167.163 Y125.410 E1.0069
G1 X167.260 Y125.448 E1.0095
G1 X167.993 Y125.760 E1.0293
G1 X168.119 Y125.821 E1.0328
G1 X169.108 Y126.349 E1.0607
G1 X169.264 Y126.445 E1.0652
G1 X170.422 Y127.247 E1.1003
G1 X170.538 Y127.335 E1.1039
G1 X171.150 Y127.848 E1.1238
G1 X171.225 Y127.915 E1.1263
G1 X171.651 Y128.321 E1.1409
G1 X171.733 Y128.405 E1.1438
G1 X172.456 Y129.203 E1.1706
G1 X172.532 Y129.292 E1.1735
G1 X172.899 Y129.763 E1.1884
G1 X172.968 Y129.858 E1.1913
G1 X173.577 Y130.770 E1.2186
G1 X173.657 Y130.904 E1.2225
G1 X174.174 Y131.871 E1.2498
G1 X174.225 Y131.976 E1.2527
G1 X174.467 Y132.522 E1.2675
G1 X174.511 Y132.630 E1.2704
G1 X174.880 Y133.663 E1.2977
G1 X174.925 Y133.812 E1.3016
G1 X175.197 Y134.895 E1.3294
G1 X175.227 Y135.048 E1.3333
G1 X175.391 Y136.152 E1.3610
G1 X175.406 Y136.307 E1.3649
G1 X175.459 Y137.383 E1.3917
G1 X175.461 Y137.462 E1.3937
G1 X175.449 Y163.040 E2.0301
