; G-Code generated by Simplify3D(R) Version 4.1.2
; Oct 4, 2022 at 11:41:01 AM
; Settings Summary
;   processName,A12-04
;   applyToModels,SupportImOk(2)
;   profileName,A12-04-25-04 Tevo Tornado
;   profileVersion,2022-10-02 13:05:34
;   baseProfile,Creality CR-10(2)
;   printMaterial,PLA
;   printQuality,Medium
;   printExtruders,
;   extruderName,Primary Extruder
;   extruderToolheadNumber,0
;   extruderDiameter,0.4
;   extruderAutoWidth,0
;   extruderWidth,0.35
;   extrusionMultiplier,0.95
;   extruderUseRetract,1
;   extruderRetractionDistance,4
;   extruderExtraRestartDistance,0
;   extruderRetractionZLift,0.3
;   extruderRetractionSpeed,3600
;   extruderUseCoasting,0
;   extruderCoastingDistance,0.5
;   extruderUseWipe,0
;   extruderWipeDistance,5
;   primaryExtruder,0
;   layerHeight,0.15
;   topSolidLayers,4
;   bottomSolidLayers,3
;   perimeterOutlines,3
;   printPerimetersInsideOut,0
;   startPointOption,2
;   startPointOriginX,0
;   startPointOriginY,300
;   sequentialIslands,0
;   spiralVaseMode,0
;   firstLayerHeightPercentage,120
;   firstLayerWidthPercentage,100
;   firstLayerUnderspeed,0.5
;   useRaft,0
;   raftExtruder,0
;   raftTopLayers,3
;   raftBaseLayers,2
;   raftOffset,3
;   raftSeparationDistance,0.14
;   raftTopInfill,100
;   aboveRaftSpeedMultiplier,0.3
;   useSkirt,1
;   skirtExtruder,0
;   skirtLayers,1
;   skirtOutlines,2
;   skirtOffset,3
;   usePrimePillar,0
;   primePillarExtruder,999
;   primePillarWidth,12
;   primePillarLocation,7
;   primePillarSpeedMultiplier,1
;   useOozeShield,0
;   oozeShieldExtruder,999
;   oozeShieldOffset,2
;   oozeShieldOutlines,1
;   oozeShieldSidewallShape,1
;   oozeShieldSidewallAngle,30
;   oozeShieldSpeedMultiplier,1
;   infillExtruder,0
;   internalInfillPattern,Full Honeycomb
;   externalInfillPattern,Rectilinear
;   infillPercentage,25
;   outlineOverlapPercentage,15
;   infillExtrusionWidthPercentage,100
;   minInfillLength,5
;   infillLayerInterval,1
;   internalInfillAngles,0,120,-120
;   overlapInternalInfillAngles,0
;   externalInfillAngles,45,-45
;   generateSupport,0
;   supportExtruder,0
;   supportInfillPercentage,30
;   supportExtraInflation,0
;   supportBaseLayers,0
;   denseSupportExtruder,0
;   denseSupportLayers,0
;   denseSupportInfillPercentage,70
;   supportLayerInterval,1
;   supportHorizontalPartOffset,0.4
;   supportUpperSeparationLayers,1
;   supportLowerSeparationLayers,1
;   supportType,0
;   supportGridSpacing,4.5
;   maxOverhangAngle,45
;   supportAngles,0
;   temperatureName,Primary Extruder,Heated Bed
;   temperatureNumber,0,0
;   temperatureSetpointCount,2,2
;   temperatureSetpointLayers,1,2,1,2
;   temperatureSetpointTemperatures,205,200,55,50
;   temperatureStabilizeAtStartup,1,1
;   temperatureHeatedBed,0,1
;   fanLayers,1,2
;   fanSpeeds,0,100
;   blipFanToFullPower,0
;   adjustSpeedForCooling,1
;   minSpeedLayerTime,15
;   minCoolingSpeedSlowdown,20
;   increaseFanForCooling,1
;   minFanLayerTime,25
;   maxCoolingFanSpeed,100
;   increaseFanForBridging,1
;   bridgingFanSpeed,100
;   use5D,1
;   relativeEdistances,0
;   allowEaxisZeroing,1
;   independentExtruderAxes,0
;   includeM10123,0
;   stickySupport,1
;   applyToolheadOffsets,0
;   gcodeXoffset,0
;   gcodeYoffset,0
;   gcodeZoffset,0
;   overrideMachineDefinition,1
;   machineTypeOverride,0
;   strokeXoverride,300
;   strokeYoverride,300
;   strokeZoverride,400
;   originOffsetXoverride,0
;   originOffsetYoverride,0
;   originOffsetZoverride,0
;   homeXdirOverride,-1
;   homeYdirOverride,-1
;   homeZdirOverride,-1
;   flipXoverride,1
;   flipYoverride,-1
;   flipZoverride,1
;   toolheadOffsets,0,0|0,0|0,0|0,0|0,0|0,0
;   overrideFirmwareConfiguration,1
;   firmwareTypeOverride,RepRap (Marlin/Repetier/Sprinter)
;   GPXconfigOverride,r2
;   baudRateOverride,250000
;   overridePrinterModels,1
;   printerModelsOverride
;   startingGcode,;,; -]H.P.B[- MarshMalloW  ,; $VER: StartScript 1.02 (26.12.2019) MarshMalloW,;,; Begin Startcode,;,M117 *Preheat*     	; Preheat,;extruder0_temperature,M104 S[extruder0_temperature]  ,M109 S[extruder0_temperature] ,M109 R[extruder0_temperature] ,;,M117 *Auto-leveling*     	; Auto-leveling,M107                   	; Turn layer fan off,G21                    	; Set to metric [change to G20 if you want Imperial],G90                    	; Force coordinates to be absolute relative to the origin,G28                    	; Home X/Y/Z axis,G29                    	; Auto-leveling (BL-Touch),;,M117 *Start Clean*     	; Indicate nozzle clean in progress on LCD,G92 E0                 	; Set Extruder to 0 ,G1 X0 Y0 F2000         	; Move X and Y to 0 with speed 2000 (mm/min),G1 Z0.1 F1000          	; Move Z to   0.1 with speed 1000 (mm/min),G1 X8.0 F2000          	; Move X to   8.0 with speed 2000 (mm/min),G1 Y60.0 E4.0 F1000.0  	; Move Y to  60 and Extruder with 4.0 with speed 1000 (mm/min),G1 Y100.0 E8.5 F1000.0 	; Move Y to 100 and Extruder with 8.5 with speed 1000 (mm/min),G92 E0                 	; Set extruder to 0,G1 X16.0 F3000         	; Move X to 16.0 with speed 3000 (mm/min),G1 Y60.0 F3000         	; Move Y to 60.0 with speed 3000 (mm/min),M117 *End Clean*       	; Indicate nozzle clean in progress on LCD,G1 Z5 F3000            	; Move Z to  5.0 with speed 3000 (mm/min),G1 X20.0 F3000         	; Move X to 20.0 with speed 3000 (mm/min),G1 Y20.0 F3000         	; Move Y to 20.0 with speed 3000 (mm/min),; ,M117 *Printing...*     	; Start printing msg on LCD,;,; End Startcode,;,; Begin printing with sliced GCode after here,;
;   layerChangeGcode,
;   retractionGcode,
;   toolChangeGcode,
;   endingGcode,;,; init 181010,;,;M107 			; Fan off,;G1 E-1 F300 			; Retract the filament a bit before lifting the nozzle,;M104 S0 			; Turn off extruder,;M140 S0 			; Turn off bed,;G91			; Relative positioning,;G28 X0 Y0 			; Move X/Y to min endstops so the head is out of teh way,;M84 			; Disable motors,;G90 			; Absolute positioning,;M117 Print ready...,,;,; // From Cura 181010,; // End_gcode,G92 E0			; Zero the extruded length,;G1 E-30 F300		; Retract E -30,M106 S0			; Turn off cooling fan,M104 S0			; Turn off temperature,M140 S0		     	; Turn off bed,G91			; Relative positioning,G1 E-1 F300			; Retract the filament a bit before lifting the nozzle to release some of the pressure,G1 Z+20 E-5 X-20 Y-20 F7200	; Move Z up a bit and retract filament even more,G1 X0 Y150 F10000		; Move right min,M107			; Turn off layer fan,M84			; Disable motors,G90			; Absolute positioning,M117 *The-End* 		; End msg,;,
;   exportFileFormat,gcode
;   celebration,0
;   celebrationSong,Star Wars
;   postProcessing,|{REPLACE "; layer " "M117 INDICATOR-Layer"}|{REPLACE ", Z = " "\n; Z="}
;   defaultSpeed,1800
;   outlineUnderspeed,0.5
;   solidInfillUnderspeed,0.8
;   supportUnderspeed,0.8
;   rapidXYspeed,6000
;   rapidZspeed,1002
;   minBridgingArea,50
;   bridgingExtraInflation,0.2
;   bridgingExtrusionMultiplier,1
;   bridgingSpeedMultiplier,0.8
;   useFixedBridgingAngle,0
;   fixedBridgingAngle,0
;   applyBridgingToPerimeters,0
;   filamentDiameters,1.75|1.75|1.75|1.75|1.75|1.75
;   filamentPricesPerKg,30|46|46|46|46|46
;   filamentDensities,1.25|1.25|1.25|1.25|1.25|1.25
;   useMinPrintHeight,0
;   minPrintHeight,0
;   useMaxPrintHeight,0
;   maxPrintHeight,50
;   useDiaphragm,0
;   diaphragmLayerInterval,20
;   robustSlicing,1
;   mergeAllIntoSolid,0
;   onlyRetractWhenCrossingOutline,1
;   retractBetweenLayers,1
;   useRetractionMinTravel,0
;   retractionMinTravel,3
;   retractWhileWiping,0
;   onlyWipeOutlines,1
;   avoidCrossingOutline,0
;   maxMovementDetourFactor,3
;   toolChangeRetractionDistance,12
;   toolChangeExtraRestartDistance,-0.5
;   toolChangeRetractionSpeed,600
;   externalThinWallType,0
;   internalThinWallType,1
;   thinWallAllowedOverlapPercentage,10
;   singleExtrusionMinLength,1
;   singleExtrusionMinPrintingWidthPercentage,50
;   singleExtrusionMaxPrintingWidthPercentage,200
;   singleExtrusionEndpointExtension,0.2
;   horizontalSizeCompensation,0
G90
M82
M106 S0
M140 S55
M190 S55
;
; -]H.P.B[- MarshMalloW  
; $VER: StartScript 1.02 (26.12.2019) MarshMalloW
;
; Begin Startcode
;
M117 *Preheat*     	; Preheat
;extruder0_temperature
M104 S205  
M109 S205 
M109 R205 
;
M117 *Auto-leveling*     	; Auto-leveling
M107                   	; Turn layer fan off
G21                    	; Set to metric [change to G20 if you want Imperial]
G90                    	; Force coordinates to be absolute relative to the origin
G28                    	; Home X/Y/Z axis
G29                    	; Auto-leveling (BL-Touch)
;
M117 *Start Clean*     	; Indicate nozzle clean in progress on LCD
G92 E0                 	; Set Extruder to 0 
G1 X0 Y0 F2000         	; Move X and Y to 0 with speed 2000 (mm/min)
G1 Z0.1 F1000          	; Move Z to   0.1 with speed 1000 (mm/min)
G1 X8.0 F2000          	; Move X to   8.0 with speed 2000 (mm/min)
G1 Y60.0 E4.0 F1000.0  	; Move Y to  60 and Extruder with 4.0 with speed 1000 (mm/min)
G1 Y100.0 E8.5 F1000.0 	; Move Y to 100 and Extruder with 8.5 with speed 1000 (mm/min)
G92 E0                 	; Set extruder to 0
G1 X16.0 F3000         	; Move X to 16.0 with speed 3000 (mm/min)
G1 Y60.0 F3000         	; Move Y to 60.0 with speed 3000 (mm/min)
M117 *End Clean*       	; Indicate nozzle clean in progress on LCD
G1 Z5 F3000            	; Move Z to  5.0 with speed 3000 (mm/min)
G1 X20.0 F3000         	; Move X to 20.0 with speed 3000 (mm/min)
G1 Y20.0 F3000         	; Move Y to 20.0 with speed 3000 (mm/min)
; 
M117 *Printing...*     	; Start printing msg on LCD
;
; End Startcode
;
; Begin printing with sliced GCode after here
;
; process A12-04
M117 INDICATOR-Layer1
; Z=0.180
T0
G92 E0.0000
G1 E-4.0000 F3600
; feature skirt
; tool H0.180 W0.350
G1 Z0.300 F1002
G1 X131.109 Y131.050 F6000
G1 Z0.180 F1002
G1 E0.0000 F3600
G92 E0.0000
G1 X131.591 Y130.598 E0.0164 F900
G1 X131.678 Y130.522 E0.0193
G1 X132.328 Y129.989 E0.0402
G1 X132.420 Y129.918 E0.0431
G1 X132.956 Y129.534 E0.0595
G1 X133.076 Y129.455 E0.0631
G1 X133.977 Y128.915 E0.0892
G1 X134.130 Y128.834 E0.0935
G1 X135.092 Y128.378 E0.1200
G1 X135.252 Y128.312 E0.1243
G1 X136.255 Y127.953 E0.1508
G1 X136.421 Y127.903 E0.1552
G1 X137.440 Y127.648 E0.1813
G1 X137.580 Y127.619 E0.1849
G1 X138.231 Y127.511 E0.2013
G1 X138.346 Y127.496 E0.2042
G1 X139.183 Y127.413 E0.2251
G1 X139.298 Y127.406 E0.2280
G1 X139.915 Y127.386 E0.2433
G1 X139.972 Y127.385 E0.2447
G1 X160.043 Y127.385 E0.7442
G1 X160.130 Y127.387 E0.7463
G1 X161.150 Y127.437 E0.7717
G1 X161.323 Y127.454 E0.7760
G1 X162.362 Y127.608 E0.8022
G1 X162.503 Y127.635 E0.8058
G1 X163.153 Y127.787 E0.8224
G1 X163.281 Y127.821 E0.8257
G1 X164.270 Y128.131 E0.8515
G1 X164.417 Y128.185 E0.8554
G1 X165.212 Y128.514 E0.8768
G1 X165.318 Y128.562 E0.8797
G1 X165.910 Y128.854 E0.8961
G1 X166.036 Y128.923 E0.8996
G1 X166.937 Y129.463 E0.9258
G1 X167.081 Y129.559 E0.9301
G1 X167.924 Y130.185 E0.9562
G1 X168.036 Y130.275 E0.9598
G1 X168.532 Y130.710 E0.9762
G1 X168.617 Y130.789 E0.9791
G1 X169.211 Y131.383 E1.0000
G1 X169.290 Y131.468 E1.0029
G1 X169.725 Y131.964 E1.0193
G1 X169.815 Y132.076 E1.0229
G1 X170.441 Y132.919 E1.0490
G1 X170.537 Y133.063 E1.0533
G1 X171.085 Y133.977 E1.0798
G1 X171.166 Y134.130 E1.0841
G1 X171.622 Y135.092 E1.1106
G1 X171.688 Y135.252 E1.1149
G1 X172.047 Y136.255 E1.1415
G1 X172.097 Y136.421 E1.1458
G1 X172.356 Y137.454 E1.1723
G1 X172.389 Y137.624 E1.1766
G1 X172.546 Y138.677 E1.2031
G1 X172.563 Y138.850 E1.2074
G1 X172.613 Y139.870 E1.2328
G1 X172.615 Y139.957 E1.2350
G1 X172.615 Y160.043 E1.7348
G1 X172.613 Y160.130 E1.7369
G1 X172.563 Y161.150 E1.7623
G1 X172.546 Y161.323 E1.7666
G1 X172.389 Y162.376 E1.7932
G1 X172.356 Y162.546 E1.7975
G1 X172.101 Y163.565 E1.8236
G1 X172.060 Y163.702 E1.8272
G1 X171.848 Y164.327 E1.8436
G1 X171.807 Y164.436 E1.8465
G1 X171.486 Y165.212 E1.8674
G1 X171.438 Y165.318 E1.8703
G1 X171.146 Y165.910 E1.8867
G1 X171.077 Y166.036 E1.8903
G1 X170.537 Y166.937 E1.9164
G1 X170.441 Y167.081 E1.9207
G1 X169.815 Y167.924 E1.9468
G1 X169.725 Y168.036 E1.9504
G1 X169.290 Y168.532 E1.9668
G1 X169.211 Y168.617 E1.9697
G1 X168.617 Y169.211 E1.9906
G1 X168.532 Y169.290 E1.9935
G1 X168.036 Y169.725 E2.0099
G1 X167.924 Y169.815 E2.0135
G1 X167.081 Y170.441 E2.0396
G1 X166.937 Y170.537 E2.0439
G1 X166.023 Y171.085 E2.0704
G1 X165.870 Y171.166 E2.0747
G1 X164.908 Y171.622 E2.1012
G1 X164.748 Y171.688 E2.1056
G1 X163.745 Y172.047 E2.1321
G1 X163.579 Y172.097 E2.1364
G1 X162.546 Y172.356 E2.1629
G1 X162.376 Y172.389 E2.1672
G1 X161.323 Y172.546 E2.1937
G1 X161.150 Y172.563 E2.1980
G1 X160.130 Y172.613 E2.2234
G1 X160.043 Y172.615 E2.2256
G1 X139.957 Y172.615 E2.7254
G1 X139.870 Y172.613 E2.7275
G1 X138.850 Y172.563 E2.7530
G1 X138.677 Y172.546 E2.7573
G1 X137.624 Y172.389 E2.7838
G1 X137.454 Y172.356 E2.7881
G1 X136.435 Y172.101 E2.8142
G1 X136.298 Y172.060 E2.8178
G1 X135.673 Y171.848 E2.8342
G1 X135.564 Y171.807 E2.8371
G1 X134.788 Y171.486 E2.8580
G1 X134.682 Y171.438 E2.8609
G1 X134.090 Y171.146 E2.8773
G1 X133.964 Y171.077 E2.8809
G1 X133.063 Y170.537 E2.9070
G1 X132.919 Y170.441 E2.9113
G1 X132.064 Y169.806 E2.9378
G1 X131.930 Y169.697 E2.9421
G1 X131.141 Y168.981 E2.9686
G1 X131.019 Y168.859 E2.9729
G1 X130.303 Y168.070 E2.9994
G1 X130.194 Y167.936 E3.0037
G1 X129.568 Y167.092 E3.0299
G1 X129.487 Y166.974 E3.0334
G1 X129.126 Y166.393 E3.0505
G1 X129.045 Y166.249 E3.0546
G1 X128.401 Y164.959 E3.0904
G1 X128.318 Y164.765 E3.0957
G1 X127.958 Y163.759 E3.1223
G1 X127.915 Y163.622 E3.1259
G1 X127.744 Y162.985 E3.1423
G1 X127.718 Y162.871 E3.1452
G1 X127.554 Y162.047 E3.1661
G1 X127.535 Y161.933 E3.1690
G1 X127.449 Y161.279 E3.1854
G1 X127.437 Y161.136 E3.1889
G1 X127.387 Y160.129 E3.2140
G1 X127.385 Y160.041 E3.2162
G1 X127.402 Y139.382 E3.7303
G1 X127.411 Y139.210 E3.7346
G1 X127.496 Y138.346 E3.7562
G1 X127.511 Y138.231 E3.7590
G1 X127.616 Y137.595 E3.7751
G1 X127.638 Y137.483 E3.7779
G1 X127.785 Y136.855 E3.7940
G1 X127.815 Y136.743 E3.7969
G1 X128.067 Y135.911 E3.8185
G1 X128.125 Y135.748 E3.8228
G1 X128.597 Y134.610 E3.8535
G1 X128.671 Y134.453 E3.8578
G1 X129.080 Y133.687 E3.8794
G1 X129.139 Y133.586 E3.8823
G1 X129.487 Y133.026 E3.8987
G1 X129.568 Y132.908 E3.9023
G1 X130.194 Y132.064 E3.9284
G1 X130.303 Y131.930 E3.9327
G1 X131.009 Y131.152 E3.9588
G1 X131.109 Y131.050 E3.9624
G92 E0.0000
G1 E-4.0000 F3600
G1 Z0.480 F1002
G1 X131.354 Y131.300 F6000
G1 Z0.180 F1002
G1 E0.0000 F3600
G92 E0.0000
G1 X131.826 Y130.858 E0.0161 F900
G1 X131.904 Y130.789 E0.0187
G1 X132.545 Y130.263 E0.0393
G1 X132.628 Y130.199 E0.0419
G1 X133.154 Y129.823 E0.0580
G1 X133.262 Y129.752 E0.0612
G1 X134.150 Y129.220 E0.0870
G1 X134.287 Y129.147 E0.0909
G1 X135.234 Y128.698 E0.1169
G1 X135.378 Y128.639 E0.1208
G1 X136.365 Y128.286 E0.1469
G1 X136.514 Y128.241 E0.1508
G1 X137.518 Y127.989 E0.1765
G1 X137.644 Y127.963 E0.1797
G1 X138.283 Y127.857 E0.1958
G1 X138.386 Y127.844 E0.1984
G1 X139.211 Y127.762 E0.2190
G1 X139.315 Y127.755 E0.2217
G1 X139.923 Y127.736 E0.2368
G1 X139.974 Y127.735 E0.2381
G1 X160.039 Y127.735 E0.7373
G1 X160.117 Y127.737 E0.7393
G1 X161.125 Y127.786 E0.7644
G1 X161.280 Y127.802 E0.7682
G1 X162.303 Y127.954 E0.7940
G1 X162.430 Y127.978 E0.7972
G1 X163.067 Y128.126 E0.8135
G1 X163.182 Y128.157 E0.8164
G1 X164.158 Y128.463 E0.8419
G1 X164.290 Y128.511 E0.8454
G1 X165.073 Y128.835 E0.8665
G1 X165.168 Y128.879 E0.8691
G1 X165.748 Y129.165 E0.8852
G1 X165.862 Y129.227 E0.8884
G1 X166.749 Y129.759 E0.9141
G1 X166.879 Y129.845 E0.9180
G1 X167.710 Y130.462 E0.9438
G1 X167.810 Y130.543 E0.9470
G1 X168.297 Y130.969 E0.9631
G1 X168.373 Y131.041 E0.9657
G1 X168.959 Y131.627 E0.9863
G1 X169.031 Y131.703 E0.9889
G1 X169.457 Y132.190 E1.0050
G1 X169.538 Y132.290 E1.0082
G1 X170.155 Y133.121 E1.0339
G1 X170.241 Y133.251 E1.0378
G1 X170.780 Y134.150 E1.0639
G1 X170.853 Y134.287 E1.0678
G1 X171.302 Y135.234 E1.0939
G1 X171.361 Y135.378 E1.0977
G1 X171.714 Y136.365 E1.1238
G1 X171.759 Y136.514 E1.1277
G1 X172.014 Y137.531 E1.1538
G1 X172.045 Y137.684 E1.1576
G1 X172.198 Y138.720 E1.1837
