; G-Code generated by Simplify3D(R) Version 4.1.2
; Oct 9, 2022 at 11:58:21 PM
; Settings Summary
;   processName,A12-04-50 Tevo Tornado
;   applyToModels,Shower
;   profileName,A13-04-10 Tevo Tornado (Without auto-leveling)
;   profileVersion,2022-10-09 17:10:17
;   baseProfile,Creality CR-10(2)
;   printMaterial,PLA
;   printQuality,Medium
;   printExtruders,
;   extruderName,Primary Extruder
;   extruderToolheadNumber,0
;   extruderDiameter,0.4
;   extruderAutoWidth,0
;   extruderWidth,0.35
;   extrusionMultiplier,0.95
;   extruderUseRetract,1
;   extruderRetractionDistance,4
;   extruderExtraRestartDistance,0
;   extruderRetractionZLift,0.3
;   extruderRetractionSpeed,3600
;   extruderUseCoasting,0
;   extruderCoastingDistance,0.5
;   extruderUseWipe,0
;   extruderWipeDistance,5
;   primaryExtruder,0
;   layerHeight,0.15
;   topSolidLayers,4
;   bottomSolidLayers,3
;   perimeterOutlines,3
;   printPerimetersInsideOut,0
;   startPointOption,2
;   startPointOriginX,0
;   startPointOriginY,300
;   sequentialIslands,0
;   spiralVaseMode,0
;   firstLayerHeightPercentage,120
;   firstLayerWidthPercentage,100
;   firstLayerUnderspeed,0.5
;   useRaft,0
;   raftExtruder,0
;   raftTopLayers,3
;   raftBaseLayers,2
;   raftOffset,3
;   raftSeparationDistance,0.14
;   raftTopInfill,100
;   aboveRaftSpeedMultiplier,0.3
;   useSkirt,0
;   skirtExtruder,0
;   skirtLayers,1
;   skirtOutlines,2
;   skirtOffset,3
;   usePrimePillar,0
;   primePillarExtruder,999
;   primePillarWidth,12
;   primePillarLocation,7
;   primePillarSpeedMultiplier,1
;   useOozeShield,0
;   oozeShieldExtruder,999
;   oozeShieldOffset,2
;   oozeShieldOutlines,1
;   oozeShieldSidewallShape,1
;   oozeShieldSidewallAngle,30
;   oozeShieldSpeedMultiplier,1
;   infillExtruder,0
;   internalInfillPattern,Rectilinear
;   externalInfillPattern,Rectilinear
;   infillPercentage,10
;   outlineOverlapPercentage,15
;   infillExtrusionWidthPercentage,100
;   minInfillLength,5
;   infillLayerInterval,1
;   internalInfillAngles,45,-45
;   overlapInternalInfillAngles,0
;   externalInfillAngles,45,-45
;   generateSupport,0
;   supportExtruder,0
;   supportInfillPercentage,30
;   supportExtraInflation,0
;   supportBaseLayers,0
;   denseSupportExtruder,0
;   denseSupportLayers,0
;   denseSupportInfillPercentage,70
;   supportLayerInterval,1
;   supportHorizontalPartOffset,0.4
;   supportUpperSeparationLayers,1
;   supportLowerSeparationLayers,1
;   supportType,0
;   supportGridSpacing,4.5
;   maxOverhangAngle,45
;   supportAngles,0
;   temperatureName,Primary Extruder,Heated Bed
;   temperatureNumber,0,0
;   temperatureSetpointCount,2,2
;   temperatureSetpointLayers,1,2,1,2
;   temperatureSetpointTemperatures,200,195,55,50
;   temperatureStabilizeAtStartup,1,1
;   temperatureHeatedBed,0,1
;   fanLayers,1,2
;   fanSpeeds,0,100
;   blipFanToFullPower,0
;   adjustSpeedForCooling,1
;   minSpeedLayerTime,15
;   minCoolingSpeedSlowdown,20
;   increaseFanForCooling,1
;   minFanLayerTime,25
;   maxCoolingFanSpeed,100
;   increaseFanForBridging,1
;   bridgingFanSpeed,100
;   use5D,1
;   relativeEdistances,0
;   allowEaxisZeroing,1
;   independentExtruderAxes,0
;   includeM10123,0
;   stickySupport,1
;   applyToolheadOffsets,0
;   gcodeXoffset,0
;   gcodeYoffset,0
;   gcodeZoffset,0
;   overrideMachineDefinition,1
;   machineTypeOverride,0
;   strokeXoverride,300
;   strokeYoverride,300
;   strokeZoverride,400
;   originOffsetXoverride,0
;   originOffsetYoverride,0
;   originOffsetZoverride,0
;   homeXdirOverride,-1
;   homeYdirOverride,-1
;   homeZdirOverride,-1
;   flipXoverride,1
;   flipYoverride,-1
;   flipZoverride,1
;   toolheadOffsets,0,0|0,0|0,0|0,0|0,0|0,0
;   overrideFirmwareConfiguration,1
;   firmwareTypeOverride,RepRap (Marlin/Repetier/Sprinter)
;   GPXconfigOverride,r2
;   baudRateOverride,250000
;   overridePrinterModels,1
;   printerModelsOverride
;   startingGcode,;,; -]H.P.B[- MarshMalloW  ,; $VER: StartScript 1.02 (26.12.2019) MarshMalloW,;,; Begin Startcode,;,M117 *Preheat*     	; Preheat,;extruder0_temperature,M104 S[extruder0_temperature]  ,M109 S[extruder0_temperature] ,M109 R[extruder0_temperature] ,;,M117 *Auto-leveling*     	; Auto-leveling,M107                   	; Turn layer fan off,G21                    	; Set to metric [change to G20 if you want Imperial],G90                    	; Force coordinates to be absolute relative to the origin,G28                    	; Home X/Y/Z axis,;G29                    	; Auto-leveling (BL-Touch),;,M117 *Start Clean*     	; Indicate nozzle clean in progress on LCD,G92 E0                 	; Set Extruder to 0 ,G1 X0 Y0 F2000         	; Move X and Y to 0 with speed 2000 (mm/min),G1 Z0.1 F1000          	; Move Z to   0.1 with speed 1000 (mm/min),G1 X8.0 F2000          	; Move X to   8.0 with speed 2000 (mm/min),G1 Y60.0 E4.0 F1000.0  	; Move Y to  60 and Extruder with 4.0 with speed 1000 (mm/min),G1 Y100.0 E8.5 F1000.0 	; Move Y to 100 and Extruder with 8.5 with speed 1000 (mm/min),G92 E0                 	; Set extruder to 0,G1 X16.0 F3000         	; Move X to 16.0 with speed 3000 (mm/min),G1 Y60.0 F3000         	; Move Y to 60.0 with speed 3000 (mm/min),M117 *End Clean*       	; Indicate nozzle clean in progress on LCD,G1 Z5 F3000            	; Move Z to  5.0 with speed 3000 (mm/min),G1 X20.0 F3000         	; Move X to 20.0 with speed 3000 (mm/min),G1 Y20.0 F3000         	; Move Y to 20.0 with speed 3000 (mm/min),; ,M117 *Printing...*     	; Start printing msg on LCD,;,; End Startcode,;,; Begin printing with sliced GCode after here,;
;   layerChangeGcode,
;   retractionGcode,
;   toolChangeGcode,
;   endingGcode,;,; init 181010,;,;M107 			; Fan off,;G1 E-1 F300 			; Retract the filament a bit before lifting the nozzle,;M104 S0 			; Turn off extruder,;M140 S0 			; Turn off bed,;G91			; Relative positioning,;G28 X0 Y0 			; Move X/Y to min endstops so the head is out of teh way,;M84 			; Disable motors,;G90 			; Absolute positioning,;M117 Print ready...,,;,; // From Cura 181010,; // End_gcode,G92 E0			; Zero the extruded length,;G1 E-30 F300		; Retract E -30,M106 S0			; Turn off cooling fan,M104 S0			; Turn off temperature,M140 S0		     	; Turn off bed,G91			; Relative positioning,G1 E-1 F300			; Retract the filament a bit before lifting the nozzle to release some of the pressure,G1 Z+20 E-5 X-20 Y-20 F7200	; Move Z up a bit and retract filament even more,G1 X0 Y150 F10000		; Move right min,M107			; Turn off layer fan,M84			; Disable motors,G90			; Absolute positioning,M117 *The-End* 		; End msg,;,
;   exportFileFormat,gcode
;   celebration,0
;   celebrationSong,Star Wars
;   postProcessing,|{REPLACE "; layer " "M117 INDICATOR-Layer"}|{REPLACE ", Z = " "\n; Z="}
;   defaultSpeed,1800
;   outlineUnderspeed,0.5
;   solidInfillUnderspeed,0.8
;   supportUnderspeed,0.8
;   rapidXYspeed,6000
;   rapidZspeed,1002
;   minBridgingArea,50
;   bridgingExtraInflation,0.2
;   bridgingExtrusionMultiplier,1
;   bridgingSpeedMultiplier,0.8
;   useFixedBridgingAngle,0
;   fixedBridgingAngle,0
;   applyBridgingToPerimeters,0
;   filamentDiameters,1.75|1.75|1.75|1.75|1.75|1.75
;   filamentPricesPerKg,30|46|46|46|46|46
;   filamentDensities,1.25|1.25|1.25|1.25|1.25|1.25
;   useMinPrintHeight,0
;   minPrintHeight,0
;   useMaxPrintHeight,0
;   maxPrintHeight,50
;   useDiaphragm,0
;   diaphragmLayerInterval,20
;   robustSlicing,1
;   mergeAllIntoSolid,0
;   onlyRetractWhenCrossingOutline,1
;   retractBetweenLayers,1
;   useRetractionMinTravel,0
;   retractionMinTravel,3
;   retractWhileWiping,0
;   onlyWipeOutlines,1
;   avoidCrossingOutline,0
;   maxMovementDetourFactor,3
;   toolChangeRetractionDistance,12
;   toolChangeExtraRestartDistance,-0.5
;   toolChangeRetractionSpeed,600
;   externalThinWallType,0
;   internalThinWallType,1
;   thinWallAllowedOverlapPercentage,10
;   singleExtrusionMinLength,1
;   singleExtrusionMinPrintingWidthPercentage,50
;   singleExtrusionMaxPrintingWidthPercentage,200
;   singleExtrusionEndpointExtension,0.2
;   horizontalSizeCompensation,0
G90
M82
M106 S0
M140 S55
M190 S55
;
; -]H.P.B[- MarshMalloW  
; $VER: StartScript 1.02 (26.12.2019) MarshMalloW
;
; Begin Startcode
;
M117 *Preheat*     	; Preheat
;extruder0_temperature
M104 S200  
M109 S200 
M109 R200 
;
M117 *Auto-leveling*     	; Auto-leveling
M107                   	; Turn layer fan off
G21                    	; Set to metric [change to G20 if you want Imperial]
G90                    	; Force coordinates to be absolute relative to the origin
G28                    	; Home X/Y/Z axis
;G29                    	; Auto-leveling (BL-Touch)
;
M117 *Start Clean*     	; Indicate nozzle clean in progress on LCD
G92 E0                 	; Set Extruder to 0 
G1 X0 Y0 F2000         	; Move X and Y to 0 with speed 2000 (mm/min)
G1 Z0.1 F1000          	; Move Z to   0.1 with speed 1000 (mm/min)
G1 X8.0 F2000          	; Move X to   8.0 with speed 2000 (mm/min)
G1 Y60.0 E4.0 F1000.0  	; Move Y to  60 and Extruder with 4.0 with speed 1000 (mm/min)
G1 Y100.0 E8.5 F1000.0 	; Move Y to 100 and Extruder with 8.5 with speed 1000 (mm/min)
G92 E0                 	; Set extruder to 0
G1 X16.0 F3000         	; Move X to 16.0 with speed 3000 (mm/min)
G1 Y60.0 F3000         	; Move Y to 60.0 with speed 3000 (mm/min)
M117 *End Clean*       	; Indicate nozzle clean in progress on LCD
G1 Z5 F3000            	; Move Z to  5.0 with speed 3000 (mm/min)
G1 X20.0 F3000         	; Move X to 20.0 with speed 3000 (mm/min)
G1 Y20.0 F3000         	; Move Y to 20.0 with speed 3000 (mm/min)
; 
M117 *Printing...*     	; Start printing msg on LCD
;
; End Startcode
;
; Begin printing with sliced GCode after here
;
; process A12-04-50 Tevo Tornado
; layer 1
M117 INDICATOR-Layer1
; Z=0.180
T0
G92 E0.0000
G1 E-4.0000 F3600
; feature outer perimeter
; tool H0.180 W0.350
G1 Z0.300 F1002
G1 X122.107 Y149.737 F6000
G1 Z0.180 F1002
G1 E0.0000 F3600
G92 E0.0000
G1 X122.212 Y149.678 E0.0030 F450
G1 X122.313 Y149.669 E0.0055
G1 X122.408 Y149.703 E0.0080
G1 X122.483 Y149.775 E0.0106
G1 X125.055 Y153.452 E0.1223
G1 X125.083 Y153.529 E0.1243
G1 X125.080 Y153.622 E0.1266
G1 X125.052 Y153.690 E0.1285
G1 X124.981 Y153.764 E0.1310
G1 X124.870 Y153.831 E0.1342
G1 X124.769 Y153.846 E0.1368
G1 X124.674 Y153.817 E0.1393
G1 X124.586 Y153.737 E0.1422
G1 X122.016 Y150.064 E0.2538
G1 X121.985 Y149.969 E0.2562
G1 X121.989 Y149.896 E0.2581
G1 X122.026 Y149.814 E0.2603
G1 X122.107 Y149.737 E0.2631
; feature internal single extrusion
; tool H0.180 W0.198
G1 X122.181 Y149.821 F6000
G92 E0.0000
G1 X122.308 Y150.003 E0.0031 F450
G1 X124.777 Y153.533 E0.0638
; tool H0.180 W0.198
G1 X124.906 Y153.721 E0.0670
G92 E0.0000
G1 E-4.0000 F3600
; feature outer perimeter
; tool H0.180 W0.350
G1 Z0.480 F1002
G1 X125.678 Y154.837 F6000
G1 Z0.180 F1002
G1 E0.0000 F3600
G92 E0.0000
G1 X125.783 Y154.778 E0.0030 F450
G1 X125.884 Y154.768 E0.0055
G1 X125.979 Y154.803 E0.0080
G1 X126.054 Y154.874 E0.0106
G1 X128.613 Y158.533 E0.1217
G1 X128.644 Y158.628 E0.1242
G1 X128.640 Y158.701 E0.1260
G1 X128.603 Y158.786 E0.1283
G1 X128.542 Y158.846 E0.1304
G1 X128.429 Y158.914 E0.1337
G1 X128.328 Y158.929 E0.1363
G1 X128.233 Y158.900 E0.1387
G1 X128.145 Y158.820 E0.1417
G1 X125.587 Y155.163 E0.2527
G1 X125.556 Y155.069 E0.2552
G1 X125.560 Y154.996 E0.2570
G1 X125.597 Y154.913 E0.2593
G1 X125.678 Y154.837 E0.2621
; feature internal single extrusion
; tool H0.180 W0.198
G1 X125.752 Y154.920 F6000
G92 E0.0000
G1 X125.879 Y155.102 E0.0031 F450
G1 X128.334 Y158.612 E0.0634
; tool H0.180 W0.198
G1 X128.465 Y158.803 E0.0667
G92 E0.0000
G1 E-4.0000 F3600
; feature outer perimeter
; tool H0.180 W0.350
G1 Z0.480 F1002
G1 X129.259 Y159.872 F6000
G1 Z0.180 F1002
G1 E0.0000 F3600
G92 E0.0000
G1 X129.350 Y159.832 E0.0025 F450
G1 X129.439 Y159.830 E0.0047
G1 X129.523 Y159.863 E0.0069
G1 X129.587 Y159.921 E0.0091
G1 X132.197 Y163.651 E0.1224
G1 X132.232 Y163.762 E0.1253
G1 X132.223 Y163.869 E0.1279
G1 X132.172 Y163.966 E0.1307
G1 X132.102 Y164.027 E0.1330
G1 X132.013 Y164.060 E0.1353
G1 X131.919 Y164.061 E0.1377
G1 X131.830 Y164.030 E0.1400
G1 X131.751 Y163.966 E0.1426
G1 X129.131 Y160.224 E0.2562
G1 X129.101 Y160.134 E0.2586
G1 X129.112 Y160.031 E0.2611
G1 X129.155 Y159.955 E0.2633
G1 X129.259 Y159.872 E0.2666
; feature internal single extrusion
; tool H0.180 W0.197
G1 X129.295 Y159.982 F6000
G92 E0.0000
G1 X129.414 Y160.151 E0.0029 F450
; tool H0.180 W0.197
G1 X131.918 Y163.729 E0.0639
; tool H0.180 W0.196
G1 X131.950 Y163.774 E0.0647
; tool H0.180 W0.196
G1 X132.010 Y163.971 E0.0676
G92 E0.0000
G1 E-4.0000 F3600
; feature outer perimeter
; tool H0.180 W0.350
G1 Z0.480 F1002
G1 X123.305 Y169.790 F6000
G1 Z0.180 F1002
G1 E0.0000 F3600
G92 E0.0000
G1 X123.369 Y169.888 E0.0029 F450
G1 X123.387 Y169.994 E0.0056
G1 X123.363 Y170.099 E0.0083
G1 X123.299 Y170.188 E0.0110
G1 X123.222 Y170.238 E0.0133
G1 X123.129 Y170.259 E0.0156
G1 X123.033 Y170.247 E0.0180
G1 X122.958 Y170.211 E0.0201
G1 X119.882 Y167.630 E0.1201
G1 X119.829 Y167.549 E0.1225
G1 X119.812 Y167.460 E0.1247
G1 X119.825 Y167.388 E0.1265
G1 X119.876 Y167.304 E0.1290
G1 X119.977 Y167.216 E0.1323
G1 X120.065 Y167.181 E0.1347
G1 X120.151 Y167.182 E0.1368
G1 X120.257 Y167.230 E0.1397
G1 X123.305 Y169.790 E0.2388
; feature internal single extrusion
; tool H0.180 W0.198
G1 X123.226 Y170.141 F6000
G92 E0.0000
; tool H0.180 W0.195
G1 X123.099 Y169.972 E0.0029 F450
; tool H0.180 W0.196
G1 X123.057 Y169.938 E0.0037
; tool H0.180 W0.197
G1 X120.152 Y167.499 E0.0567
; tool H0.180 W0.198
G1 X119.978 Y167.353 E0.0599
G92 E0.0000
G1 E-4.0000 F3600
; feature outer perimeter
; tool H0.180 W0.350
G1 Z0.480 F1002
G1 X118.962 Y166.444 F6000
G1 Z0.180 F1002
G1 E0.0000 F3600
G92 E0.0000
G1 X118.850 Y166.545 E0.0038 F450
G1 X118.765 Y166.579 E0.0060
G1 X118.664 Y166.576 E0.0086
G1 X118.558 Y166.521 E0.0115
G1 X115.143 Y163.653 E0.1225
G1 X115.089 Y163.570 E0.1250
G1 X115.074 Y163.482 E0.1272
G1 X115.093 Y163.397 E0.1294
G1 X115.173 Y163.293 E0.1326
G1 X115.257 Y163.228 E0.1353
G1 X115.345 Y163.201 E0.1375
G1 X115.434 Y163.210 E0.1398
G1 X115.528 Y163.261 E0.1424
G1 X118.947 Y166.132 E0.2535
G1 X118.993 Y166.200 E0.2556
G1 X119.015 Y166.288 E0.2578
G1 X119.001 Y166.377 E0.2601
G1 X118.962 Y166.444 E0.2620
; feature internal single extrusion
; tool H0.180 W0.198
G1 X118.861 Y166.424 F6000
G92 E0.0000
; tool H0.180 W0.198
G1 X118.700 Y166.283 E0.0030 F450
; tool H0.180 W0.198
G1 X115.418 Y163.527 E0.0634
; tool H0.180 W0.198
G1 X115.220 Y163.359 E0.0670
G92 E0.0000
G1 E-4.0000 F3600
; feature outer perimeter
; tool H0.180 W0.350
G1 Z0.480 F1002
G1 X114.207 Y162.451 F6000
G1 Z0.180 F1002
G1 E0.0000 F3600
G92 E0.0000
G1 X114.097 Y162.553 E0.0037 F450
G1 X114.004 Y162.592 E0.0062
G1 X113.952 Y162.596 E0.0075
G1 X113.911 Y162.590 E0.0086
G1 X113.854 Y162.568 E0.0101
G1 X113.811 Y162.538 E0.0114
G1 X110.388 Y159.663 E0.1226
G1 X110.334 Y159.581 E0.1251
G1 X110.318 Y159.493 E0.1273
G1 X110.337 Y159.409 E0.1294
G1 X110.413 Y159.307 E0.1326
G1 X110.508 Y159.233 E0.1356
G1 X110.592 Y159.209 E0.1378
G1 X110.679 Y159.219 E0.1400
G1 X110.771 Y159.270 E0.1426
G1 X114.191 Y162.142 E0.2537
G1 X114.239 Y162.213 E0.2558
G1 X114.258 Y162.289 E0.2578
G1 X114.251 Y162.365 E0.2597
G1 X114.207 Y162.451 E0.2621
; feature internal single extrusion
; tool H0.180 W0.198
G1 X114.096 Y162.420 F6000
G92 E0.0000
; tool H0.180 W0.198
G1 X110.661 Y159.535 E0.0632 F450
; tool H0.180 W0.198
G1 X110.484 Y159.386 E0.0664
G92 E0.0000
G1 E-4.0000 F3600
; feature outer perimeter
; tool H0.180 W0.350
G1 Z0.480 F1002
G1 X105.122 Y171.615 F6000
G1 Z0.180 F1002
G1 E0.0000 F3600
G92 E0.0000
G1 X105.195 Y171.681 E0.0024 F450
G1 X105.233 Y171.761 E0.0047
G1 X105.237 Y171.852 E0.0069
G1 X105.213 Y171.925 E0.0088
G1 X105.117 Y172.047 E0.0127
G1 X105.054 Y172.091 E0.0146
G1 X104.952 Y172.114 E0.0172
G1 X104.854 Y172.095 E0.0197
G1 X100.843 Y170.222 E0.1298
G1 X100.771 Y170.158 E0.1322
G1 X100.732 Y170.079 E0.1344
G1 X100.727 Y169.991 E0.1366
G1 X100.757 Y169.903 E0.1389
G1 X100.841 Y169.794 E0.1423
G1 X100.907 Y169.746 E0.1444
G1 X100.996 Y169.723 E0.1467
