; G-Code generated by Simplify3D(R) Version 4.1.2
; Sep 25, 2022 at 9:27:17 AM
; Settings Summary
;   processName,A11-04-50 Tevo Tornado
;   applyToModels,do_it
;   profileName,A11-04-50 Tevo Tornado
;   profileVersion,2022-06-13 07:15:06
;   baseProfile,Creality CR-10(2)
;   printMaterial,PLA
;   printQuality,Medium
;   printExtruders,
;   extruderName,Primary Extruder
;   extruderToolheadNumber,0
;   extruderDiameter,0.4
;   extruderAutoWidth,0
;   extruderWidth,0.35
;   extrusionMultiplier,0.95
;   extruderUseRetract,1
;   extruderRetractionDistance,4
;   extruderExtraRestartDistance,0
;   extruderRetractionZLift,0.1
;   extruderRetractionSpeed,6600
;   extruderUseCoasting,1
;   extruderCoastingDistance,0.6
;   extruderUseWipe,1
;   extruderWipeDistance,5
;   primaryExtruder,0
;   layerHeight,0.15
;   topSolidLayers,5
;   bottomSolidLayers,4
;   perimeterOutlines,3
;   printPerimetersInsideOut,0
;   startPointOption,1
;   startPointOriginX,0
;   startPointOriginY,300
;   sequentialIslands,0
;   spiralVaseMode,0
;   firstLayerHeightPercentage,120
;   firstLayerWidthPercentage,100
;   firstLayerUnderspeed,0.4
;   useRaft,0
;   raftExtruder,0
;   raftTopLayers,3
;   raftBaseLayers,2
;   raftOffset,3
;   raftSeparationDistance,0.14
;   raftTopInfill,100
;   aboveRaftSpeedMultiplier,0.3
;   useSkirt,1
;   skirtExtruder,0
;   skirtLayers,1
;   skirtOutlines,2
;   skirtOffset,3
;   usePrimePillar,0
;   primePillarExtruder,999
;   primePillarWidth,12
;   primePillarLocation,7
;   primePillarSpeedMultiplier,1
;   useOozeShield,0
;   oozeShieldExtruder,999
;   oozeShieldOffset,2
;   oozeShieldOutlines,1
;   oozeShieldSidewallShape,1
;   oozeShieldSidewallAngle,30
;   oozeShieldSpeedMultiplier,1
;   infillExtruder,0
;   internalInfillPattern,Rectilinear
;   externalInfillPattern,Rectilinear
;   infillPercentage,50
;   outlineOverlapPercentage,15
;   infillExtrusionWidthPercentage,100
;   minInfillLength,5
;   infillLayerInterval,1
;   internalInfillAngles,45,-45
;   overlapInternalInfillAngles,0
;   externalInfillAngles,45,-45
;   generateSupport,0
;   supportExtruder,0
;   supportInfillPercentage,30
;   supportExtraInflation,0
;   supportBaseLayers,0
;   denseSupportExtruder,0
;   denseSupportLayers,0
;   denseSupportInfillPercentage,70
;   supportLayerInterval,1
;   supportHorizontalPartOffset,0.4
;   supportUpperSeparationLayers,1
;   supportLowerSeparationLayers,1
;   supportType,0
;   supportGridSpacing,4.5
;   maxOverhangAngle,45
;   supportAngles,0
;   temperatureName,Primary Extruder,Heated Bed
;   temperatureNumber,0,0
;   temperatureSetpointCount,2,2
;   temperatureSetpointLayers,1,2,1,2
;   temperatureSetpointTemperatures,215,205,55,50
;   temperatureStabilizeAtStartup,1,1
;   temperatureHeatedBed,0,1
;   fanLayers,1,2
;   fanSpeeds,0,100
;   blipFanToFullPower,0
;   adjustSpeedForCooling,1
;   minSpeedLayerTime,15
;   minCoolingSpeedSlowdown,20
;   increaseFanForCooling,1
;   minFanLayerTime,25
;   maxCoolingFanSpeed,100
;   increaseFanForBridging,1
;   bridgingFanSpeed,100
;   use5D,1
;   relativeEdistances,0
;   allowEaxisZeroing,1
;   independentExtruderAxes,0
;   includeM10123,0
;   stickySupport,1
;   applyToolheadOffsets,0
;   gcodeXoffset,0
;   gcodeYoffset,0
;   gcodeZoffset,0
;   overrideMachineDefinition,1
;   machineTypeOverride,0
;   strokeXoverride,300
;   strokeYoverride,300
;   strokeZoverride,400
;   originOffsetXoverride,0
;   originOffsetYoverride,0
;   originOffsetZoverride,0
;   homeXdirOverride,-1
;   homeYdirOverride,-1
;   homeZdirOverride,-1
;   flipXoverride,1
;   flipYoverride,-1
;   flipZoverride,1
;   toolheadOffsets,0,0|0,0|0,0|0,0|0,0|0,0
;   overrideFirmwareConfiguration,1
;   firmwareTypeOverride,RepRap (Marlin/Repetier/Sprinter)
;   GPXconfigOverride,r2
;   baudRateOverride,250000
;   overridePrinterModels,1
;   printerModelsOverride
;   startingGcode,;,; -]H.P.B[- MarshMalloW  ,; $VER: StartScript 1.02 (26.12.2019) MarshMalloW,;,; Begin Startcode,;,M117 *Preheat*     	; Preheat,;extruder0_temperature,M104 S[extruder0_temperature]  ,M109 S[extruder0_temperature] ,M109 R[extruder0_temperature] ,;,M117 *Auto-leveling*     	; Auto-leveling,M107                   	; Turn layer fan off,G21                    	; Set to metric [change to G20 if you want Imperial],G90                    	; Force coordinates to be absolute relative to the origin,G28                    	; Home X/Y/Z axis,G29                    	; Auto-leveling (BL-Touch),;,M117 *Start Clean*     	; Indicate nozzle clean in progress on LCD,G92 E0                 	; Set Extruder to 0 ,G1 X0 Y0 F2000         	; Move X and Y to 0 with speed 2000 (mm/min),G1 Z0.1 F1000          	; Move Z to   0.1 with speed 1000 (mm/min),G1 X8.0 F2000          	; Move X to   8.0 with speed 2000 (mm/min),G1 Y60.0 E4.0 F1000.0  	; Move Y to  60 and Extruder with 4.0 with speed 1000 (mm/min),G1 Y100.0 E8.5 F1000.0 	; Move Y to 100 and Extruder with 8.5 with speed 1000 (mm/min),G92 E0                 	; Set extruder to 0,G1 X16.0 F3000         	; Move X to 16.0 with speed 3000 (mm/min),G1 Y60.0 F3000         	; Move Y to 60.0 with speed 3000 (mm/min),M117 *End Clean*       	; Indicate nozzle clean in progress on LCD,G1 Z5 F3000            	; Move Z to  5.0 with speed 3000 (mm/min),G1 X20.0 F3000         	; Move X to 20.0 with speed 3000 (mm/min),G1 Y20.0 F3000         	; Move Y to 20.0 with speed 3000 (mm/min),; ,M117 *Printing...*     	; Start printing msg on LCD,;,; End Startcode,;,; Begin printing with sliced GCode after here,;
;   layerChangeGcode,
;   retractionGcode,
;   toolChangeGcode,
;   endingGcode,;,; init 181010,;,;M107 			; Fan off,;G1 E-1 F300 			; Retract the filament a bit before lifting the nozzle,;M104 S0 			; Turn off extruder,;M140 S0 			; Turn off bed,;G91			; Relative positioning,;G28 X0 Y0 			; Move X/Y to min endstops so the head is out of teh way,;M84 			; Disable motors,;G90 			; Absolute positioning,;M117 Print ready...,,;,; // From Cura 181010,; // End_gcode,G92 E0			; Zero the extruded length,;G1 E-30 F300		; Retract E -30,M106 S0			; Turn off cooling fan,M104 S0			; Turn off temperature,M140 S0		     	; Turn off bed,G91			; Relative positioning,G1 E-1 F300			; Retract the filament a bit before lifting the nozzle to release some of the pressure,G1 Z+20 E-5 X-20 Y-20 F7200	; Move Z up a bit and retract filament even more,G1 X0 Y150 F10000		; Move right min,M107			; Turn off layer fan,M84			; Disable motors,G90			; Absolute positioning,M117 *The-End* 		; End msg,;,
;   exportFileFormat,gcode
;   celebration,0
;   celebrationSong,Star Wars
;   postProcessing,|{REPLACE "; layer " "M117 INDICATOR-Layer"}|{REPLACE ", Z = " "\n; Z="}
;   defaultSpeed,2400
;   outlineUnderspeed,0.6
;   solidInfillUnderspeed,0.8
;   supportUnderspeed,0.8
;   rapidXYspeed,3600
;   rapidZspeed,900
;   minBridgingArea,50
;   bridgingExtraInflation,0.2
;   bridgingExtrusionMultiplier,1
;   bridgingSpeedMultiplier,0.6
;   useFixedBridgingAngle,0
;   fixedBridgingAngle,0
;   applyBridgingToPerimeters,0
;   filamentDiameters,1.75|1.75|1.75|1.75|1.75|1.75
;   filamentPricesPerKg,30|46|46|46|46|46
;   filamentDensities,1.25|1.25|1.25|1.25|1.25|1.25
;   useMinPrintHeight,0
;   minPrintHeight,0
;   useMaxPrintHeight,0
;   maxPrintHeight,50
;   useDiaphragm,0
;   diaphragmLayerInterval,20
;   robustSlicing,1
;   mergeAllIntoSolid,0
;   onlyRetractWhenCrossingOutline,1
;   retractBetweenLayers,1
;   useRetractionMinTravel,0
;   retractionMinTravel,3
;   retractWhileWiping,1
;   onlyWipeOutlines,0
;   avoidCrossingOutline,1
;   maxMovementDetourFactor,3
;   toolChangeRetractionDistance,12
;   toolChangeExtraRestartDistance,-0.5
;   toolChangeRetractionSpeed,600
;   externalThinWallType,1
;   internalThinWallType,1
;   thinWallAllowedOverlapPercentage,20
;   singleExtrusionMinLength,1
;   singleExtrusionMinPrintingWidthPercentage,50
;   singleExtrusionMaxPrintingWidthPercentage,200
;   singleExtrusionEndpointExtension,0.2
;   horizontalSizeCompensation,0
G90
M82
M106 S0
M140 S55
M190 S55
;
; -]H.P.B[- MarshMalloW  
; $VER: StartScript 1.02 (26.12.2019) MarshMalloW
;
; Begin Startcode
;
M117 *Preheat*     	; Preheat
;extruder0_temperature
M104 S215  
M109 S215 
M109 R215 
;
M117 *Auto-leveling*     	; Auto-leveling
M107                   	; Turn layer fan off
G21                    	; Set to metric [change to G20 if you want Imperial]
G90                    	; Force coordinates to be absolute relative to the origin
G28                    	; Home X/Y/Z axis
G29                    	; Auto-leveling (BL-Touch)
;
M117 *Start Clean*     	; Indicate nozzle clean in progress on LCD
G92 E0                 	; Set Extruder to 0 
G1 X0 Y0 F2000         	; Move X and Y to 0 with speed 2000 (mm/min)
G1 Z0.1 F1000          	; Move Z to   0.1 with speed 1000 (mm/min)
G1 X8.0 F2000          	; Move X to   8.0 with speed 2000 (mm/min)
G1 Y60.0 E4.0 F1000.0  	; Move Y to  60 and Extruder with 4.0 with speed 1000 (mm/min)
G1 Y100.0 E8.5 F1000.0 	; Move Y to 100 and Extruder with 8.5 with speed 1000 (mm/min)
G92 E0                 	; Set extruder to 0
G1 X16.0 F3000         	; Move X to 16.0 with speed 3000 (mm/min)
G1 Y60.0 F3000         	; Move Y to 60.0 with speed 3000 (mm/min)
M117 *End Clean*       	; Indicate nozzle clean in progress on LCD
G1 Z5 F3000            	; Move Z to  5.0 with speed 3000 (mm/min)
G1 X20.0 F3000         	; Move X to 20.0 with speed 3000 (mm/min)
G1 Y20.0 F3000         	; Move Y to 20.0 with speed 3000 (mm/min)
; 
M117 *Printing...*     	; Start printing msg on LCD
;
; End Startcode
;
; Begin printing with sliced GCode after here
;
; process A11-04-50 Tevo Tornado
M117 INDICATOR-Layer1
; Z=0.180
T0
G92 E0.0000
G1 E-4.0000 F6600
; feature skirt
; tool H0.180 W0.350
G1 Z0.180 F900
G1 X165.558 Y58.144 F3600
G1 E0.0000 F6600
G92 E0.0000
G1 X165.598 Y58.185 E0.0014 F960
G1 X169.351 Y62.190 E0.1380
G1 X169.426 Y62.276 E0.1408
G1 X172.930 Y66.538 E0.2781
G1 X172.999 Y66.629 E0.2810
G1 X176.219 Y71.109 E0.4182
G1 X176.282 Y71.204 E0.4211
G1 X179.204 Y75.884 E0.5584
G1 X179.261 Y75.983 E0.5612
G1 X181.873 Y80.842 E0.6985
G1 X181.924 Y80.945 E0.7013
G1 X184.215 Y85.963 E0.8386
G1 X184.260 Y86.069 E0.8415
G1 X186.220 Y91.226 E0.9787
G1 X186.257 Y91.334 E0.9816
G1 X187.879 Y96.607 E1.1189
G1 X187.909 Y96.717 E1.1217
G1 X189.186 Y102.085 E1.2590
G1 X189.209 Y102.197 E1.2618
G1 X190.133 Y107.632 E1.3990
G1 X190.148 Y107.739 E1.4017
G1 X190.661 Y112.484 E1.5205
G1 X190.669 Y112.601 E1.5234
G1 X190.866 Y117.375 E1.6423
G1 X190.867 Y117.492 E1.6452
G1 X190.747 Y122.268 E1.7641
G1 X190.741 Y122.385 E1.7670
G1 X190.304 Y127.143 E1.8859
G1 X190.290 Y127.259 E1.8888
G1 X189.539 Y131.977 E2.0076
G1 X189.517 Y132.092 E2.0106
G1 X188.869 Y134.934 E2.0831
G1 X193.595 Y133.680 E2.2047
G1 X193.719 Y133.651 E2.2079
G1 X199.365 Y132.584 E2.3509
G1 X199.492 Y132.565 E2.3541
G1 X205.200 Y131.910 E2.4970
G1 X205.328 Y131.900 E2.5002
G1 X211.069 Y131.662 E2.6432
G1 X211.197 Y131.661 E2.6464
G1 X216.940 Y131.840 E2.7894
G1 X217.068 Y131.849 E2.7926
G1 X222.783 Y132.444 E2.9355
G1 X222.909 Y132.462 E2.9387
G1 X228.566 Y133.470 E3.0817
G1 X228.691 Y133.497 E3.0849
G1 X234.260 Y134.914 E3.2278
G1 X234.383 Y134.950 E3.2310
G1 X239.834 Y136.767 E3.3740
G1 X239.953 Y136.812 E3.3772
G1 X245.258 Y139.020 E3.5202
G1 X245.374 Y139.073 E3.5233
G1 X250.505 Y141.661 E3.6663
G1 X250.617 Y141.723 E3.6695
G1 X255.546 Y144.675 E3.8125
G1 X255.653 Y144.745 E3.8157
G1 X260.355 Y148.048 E3.9586
G1 X260.457 Y148.125 E3.9618
G1 X264.907 Y151.761 E4.1048
G1 X265.003 Y151.845 E4.1080
G1 X269.176 Y155.794 E4.2509
G1 X269.266 Y155.886 E4.2541
G1 X273.142 Y160.127 E4.3971
G1 X273.225 Y160.225 E4.4003
G1 X276.783 Y164.737 E4.5433
G1 X276.859 Y164.840 E4.5465
G1 X280.080 Y169.598 E4.6894
G1 X280.148 Y169.707 E4.6926
G1 X283.015 Y174.686 E4.8356
G1 X283.075 Y174.799 E4.8388
G1 X285.573 Y179.973 E4.9817
G1 X285.624 Y180.091 E4.9849
G1 X287.740 Y185.433 E5.1279
G1 X287.783 Y185.553 E5.1311
G1 X289.506 Y191.035 E5.2741
G1 X289.540 Y191.158 E5.2772
G1 X290.860 Y196.751 E5.4202
G1 X290.885 Y196.876 E5.4234
G1 X291.795 Y202.549 E5.5664
G1 X291.811 Y202.677 E5.5696
G1 X292.307 Y208.401 E5.7125
G1 X292.314 Y208.529 E5.7157
G1 X292.393 Y214.274 E5.8587
G1 X292.390 Y214.402 E5.8619
G1 X292.053 Y220.138 E6.0049
G1 X292.041 Y220.265 E6.0080
G1 X291.287 Y225.962 E6.1510
G1 X291.266 Y226.088 E6.1542
G1 X290.101 Y231.715 E6.2972
G1 X290.071 Y231.839 E6.3004
G1 X288.500 Y237.366 E6.4433
G1 X288.461 Y237.488 E6.4465
G1 X286.494 Y242.886 E6.5895
G1 X286.446 Y243.005 E6.5927
G1 X284.092 Y248.247 E6.7356
G1 X284.035 Y248.361 E6.7388
G1 X281.307 Y253.418 E6.8818
G1 X281.242 Y253.529 E6.8850
G1 X278.154 Y258.374 E7.0280
G1 X278.081 Y258.479 E7.0311
G1 X274.649 Y263.088 E7.1741
G1 X274.569 Y263.188 E7.1773
G1 X270.812 Y267.535 E7.3203
G1 X270.724 Y267.629 E7.3235
G1 X266.662 Y271.692 E7.4664
G1 X266.568 Y271.779 E7.4696
G1 X262.221 Y275.536 E7.6126
G1 X262.121 Y275.616 E7.6158
G1 X257.512 Y279.048 E7.7588
G1 X257.407 Y279.121 E7.7619
G1 X252.562 Y282.209 E7.9049
G1 X252.451 Y282.274 E7.9081
G1 X247.394 Y285.002 E8.0511
G1 X247.280 Y285.059 E8.0543
G1 X242.038 Y287.413 E8.1972
G1 X241.919 Y287.461 E8.2004
G1 X236.521 Y289.428 E8.3434
G1 X236.399 Y289.467 E8.3466
G1 X230.872 Y291.038 E8.4895
G1 X230.747 Y291.068 E8.4927
G1 X225.121 Y292.233 E8.6357
G1 X224.995 Y292.254 E8.6389
G1 X219.298 Y293.008 E8.7819
G1 X219.171 Y293.020 E8.7851
G1 X213.435 Y293.358 E8.9280
G1 X213.307 Y293.360 E8.9312
G1 X207.562 Y293.281 E9.0742
G1 X207.434 Y293.274 E9.0774
G1 X201.709 Y292.778 E9.2203
G1 X201.582 Y292.762 E9.2235
G1 X195.909 Y291.852 E9.3665
G1 X195.784 Y291.827 E9.3697
G1 X190.191 Y290.507 E9.5127
G1 X190.068 Y290.473 E9.5158
G1 X184.586 Y288.750 E9.6588
G1 X184.466 Y288.707 E9.6620
G1 X179.124 Y286.592 E9.8050
G1 X179.006 Y286.540 E9.8082
G1 X173.832 Y284.042 E9.9511
G1 X173.719 Y283.982 E9.9543
G1 X168.739 Y281.115 E10.0973
G1 X168.631 Y281.047 E10.1005
G1 X163.873 Y277.826 E10.2435
G1 X163.769 Y277.750 E10.2466
G1 X159.258 Y274.192 E10.3896
G1 X159.160 Y274.109 E10.3928
G1 X154.919 Y270.233 E10.5358
G1 X154.827 Y270.144 E10.5390
G1 X150.878 Y265.970 E10.6819
G1 X150.794 Y265.874 E10.6851
G1 X147.158 Y261.424 E10.8281
G1 X147.081 Y261.322 E10.8313
G1 X143.778 Y256.621 E10.9742
G1 X143.708 Y256.513 E10.9774
G1 X140.755 Y251.584 E11.1204
G1 X140.694 Y251.472 E11.1236
G1 X138.106 Y246.342 E11.2666
G1 X138.053 Y246.225 E11.2697
G1 X135.845 Y240.921 E11.4127
G1 X135.800 Y240.801 E11.4159
G1 X133.983 Y235.350 E11.5589
G1 X133.947 Y235.227 E11.5621
G1 X132.530 Y229.658 E11.7050
G1 X132.503 Y229.533 E11.7082
G1 X131.495 Y223.876 E11.8512
G1 X131.477 Y223.750 E11.8544
G1 X130.881 Y218.035 E11.9974
G1 X130.873 Y217.907 E12.0005
G1 X130.694 Y212.164 E12.1435
G1 X130.695 Y212.036 E12.1467
G1 X130.933 Y206.295 E12.2897
G1 X130.943 Y206.167 E12.2929
G1 X131.598 Y200.459 E12.4358
G1 X131.617 Y200.332 E12.4390
G1 X132.684 Y194.686 E12.5820
G1 X132.713 Y194.562 E12.5852
G1 X133.967 Y189.836 E12.7068
G1 X131.125 Y190.484 E12.7793
G1 X131.010 Y190.506 E12.7823
G1 X126.292 Y191.257 E12.9011
G1 X126.176 Y191.271 E12.9041
G1 X121.418 Y191.708 E13.0229
G1 X121.301 Y191.714 E13.0259
G1 X116.525 Y191.834 E13.1447
G1 X116.408 Y191.833 E13.1476
G1 X111.634 Y191.636 E13.2665
G1 X111.517 Y191.628 E13.2694
G1 X106.772 Y191.115 E13.3882
G1 X106.666 Y191.101 E13.3909
G1 X101.235 Y190.179 E13.5279
G1 X101.123 Y190.156 E13.5308
G1 X95.758 Y188.883 E13.6680
G1 X95.648 Y188.853 E13.6708
G1 X90.378 Y187.234 E13.8080
G1 X90.269 Y187.197 E13.8109
G1 X85.115 Y185.239 E13.9480
G1 X85.010 Y185.195 E13.9509
G1 X79.994 Y182.907 E14.0881
G1 X79.891 Y182.856 E14.0909
G1 X75.034 Y180.247 E14.2281
G1 X74.935 Y180.189 E14.2310
G1 X70.258 Y177.270 E14.3681
G1 X70.163 Y177.207 E14.3710
G1 X65.685 Y173.990 E14.5082
G1 X65.595 Y173.920 E14.5110
G1 X61.335 Y170.420 E14.6482
G1 X61.249 Y170.344 E14.6511
G1 X57.247 Y166.594 E14.7875
G1 X57.206 Y166.554 E14.7890
G1 X9.193 Y118.541 E16.4785
G1 X9.193 Y115.621 E16.5512
G1 X114.654 Y10.160 E20.2623
G1 X117.574 Y10.160 E20.3350
