; G-Code generated by Simplify3D(R) Version 4.1.2
; Sep 23, 2022 at 6:20:46 PM
; Settings Summary
;   processName,A11-04-10 Tevo Tornado
;   applyToModels,do_it
;   profileName,A11-04-10 Tevo Tornado
;   profileVersion,2022-06-24 21:08:53
;   baseProfile,Creality CR-10(2)
;   printMaterial,PLA
;   printQuality,Medium
;   printExtruders,
;   extruderName,Primary Extruder
;   extruderToolheadNumber,0
;   extruderDiameter,0.4
;   extruderAutoWidth,0
;   extruderWidth,0.35
;   extrusionMultiplier,0.95
;   extruderUseRetract,1
;   extruderRetractionDistance,4
;   extruderExtraRestartDistance,0
;   extruderRetractionZLift,0.1
;   extruderRetractionSpeed,6000
;   extruderUseCoasting,1
;   extruderCoastingDistance,0.6
;   extruderUseWipe,1
;   extruderWipeDistance,5
;   primaryExtruder,0
;   layerHeight,0.15
;   topSolidLayers,5
;   bottomSolidLayers,4
;   perimeterOutlines,3
;   printPerimetersInsideOut,0
;   startPointOption,1
;   startPointOriginX,0
;   startPointOriginY,300
;   sequentialIslands,0
;   spiralVaseMode,0
;   firstLayerHeightPercentage,120
;   firstLayerWidthPercentage,100
;   firstLayerUnderspeed,0.4
;   useRaft,0
;   raftExtruder,0
;   raftTopLayers,3
;   raftBaseLayers,2
;   raftOffset,3
;   raftSeparationDistance,0.14
;   raftTopInfill,100
;   aboveRaftSpeedMultiplier,0.3
;   useSkirt,1
;   skirtExtruder,0
;   skirtLayers,1
;   skirtOutlines,2
;   skirtOffset,3
;   usePrimePillar,0
;   primePillarExtruder,999
;   primePillarWidth,12
;   primePillarLocation,7
;   primePillarSpeedMultiplier,1
;   useOozeShield,0
;   oozeShieldExtruder,999
;   oozeShieldOffset,2
;   oozeShieldOutlines,1
;   oozeShieldSidewallShape,1
;   oozeShieldSidewallAngle,30
;   oozeShieldSpeedMultiplier,1
;   infillExtruder,0
;   internalInfillPattern,Rectilinear
;   externalInfillPattern,Rectilinear
;   infillPercentage,10
;   outlineOverlapPercentage,15
;   infillExtrusionWidthPercentage,100
;   minInfillLength,5
;   infillLayerInterval,1
;   internalInfillAngles,45,-45
;   overlapInternalInfillAngles,0
;   externalInfillAngles,45,-45
;   generateSupport,0
;   supportExtruder,0
;   supportInfillPercentage,30
;   supportExtraInflation,0
;   supportBaseLayers,0
;   denseSupportExtruder,0
;   denseSupportLayers,0
;   denseSupportInfillPercentage,70
;   supportLayerInterval,1
;   supportHorizontalPartOffset,0.4
;   supportUpperSeparationLayers,1
;   supportLowerSeparationLayers,1
;   supportType,0
;   supportGridSpacing,4.5
;   maxOverhangAngle,45
;   supportAngles,0
;   temperatureName,Primary Extruder,Heated Bed
;   temperatureNumber,0,0
;   temperatureSetpointCount,2,2
;   temperatureSetpointLayers,1,2,1,2
;   temperatureSetpointTemperatures,215,210,55,50
;   temperatureStabilizeAtStartup,1,1
;   temperatureHeatedBed,0,1
;   fanLayers,1,2
;   fanSpeeds,0,100
;   blipFanToFullPower,0
;   adjustSpeedForCooling,1
;   minSpeedLayerTime,15
;   minCoolingSpeedSlowdown,20
;   increaseFanForCooling,1
;   minFanLayerTime,25
;   maxCoolingFanSpeed,100
;   increaseFanForBridging,1
;   bridgingFanSpeed,100
;   use5D,1
;   relativeEdistances,0
;   allowEaxisZeroing,1
;   independentExtruderAxes,0
;   includeM10123,0
;   stickySupport,1
;   applyToolheadOffsets,0
;   gcodeXoffset,0
;   gcodeYoffset,0
;   gcodeZoffset,0
;   overrideMachineDefinition,1
;   machineTypeOverride,0
;   strokeXoverride,300
;   strokeYoverride,300
;   strokeZoverride,400
;   originOffsetXoverride,0
;   originOffsetYoverride,0
;   originOffsetZoverride,0
;   homeXdirOverride,-1
;   homeYdirOverride,-1
;   homeZdirOverride,-1
;   flipXoverride,1
;   flipYoverride,-1
;   flipZoverride,1
;   toolheadOffsets,0,0|0,0|0,0|0,0|0,0|0,0
;   overrideFirmwareConfiguration,1
;   firmwareTypeOverride,RepRap (Marlin/Repetier/Sprinter)
;   GPXconfigOverride,r2
;   baudRateOverride,250000
;   overridePrinterModels,1
;   printerModelsOverride
;   startingGcode,;,; -]H.P.B[- MarshMalloW  ,; $VER: StartScript 1.02 (26.12.2019) MarshMalloW,;,; Begin Startcode,;,M117 *Preheat*     	; Preheat,;extruder0_temperature,M104 S[extruder0_temperature]  ,M109 S[extruder0_temperature] ,M109 R[extruder0_temperature] ,;,M117 *Auto-leveling*     	; Auto-leveling,M107                   	; Turn layer fan off,G21                    	; Set to metric [change to G20 if you want Imperial],G90                    	; Force coordinates to be absolute relative to the origin,G28                    	; Home X/Y/Z axis,G29                    	; Auto-leveling (BL-Touch),;,M117 *Start Clean*     	; Indicate nozzle clean in progress on LCD,G92 E0                 	; Set Extruder to 0 ,G1 X0 Y0 F2000         	; Move X and Y to 0 with speed 2000 (mm/min),G1 Z0.1 F1000          	; Move Z to   0.1 with speed 1000 (mm/min),G1 X8.0 F2000          	; Move X to   8.0 with speed 2000 (mm/min),G1 Y60.0 E4.0 F1000.0  	; Move Y to  60 and Extruder with 4.0 with speed 1000 (mm/min),G1 Y100.0 E8.5 F1000.0 	; Move Y to 100 and Extruder with 8.5 with speed 1000 (mm/min),G92 E0                 	; Set extruder to 0,G1 X16.0 F3000         	; Move X to 16.0 with speed 3000 (mm/min),G1 Y60.0 F3000         	; Move Y to 60.0 with speed 3000 (mm/min),M117 *End Clean*       	; Indicate nozzle clean in progress on LCD,G1 Z5 F3000            	; Move Z to  5.0 with speed 3000 (mm/min),G1 X20.0 F3000         	; Move X to 20.0 with speed 3000 (mm/min),G1 Y20.0 F3000         	; Move Y to 20.0 with speed 3000 (mm/min),; ,M117 *Printing...*     	; Start printing msg on LCD,;,; End Startcode,;,; Begin printing with sliced GCode after here,;
;   layerChangeGcode,
;   retractionGcode,
;   toolChangeGcode,
;   endingGcode,;,; init 181010,;,;M107 			; Fan off,;G1 E-1 F300 			; Retract the filament a bit before lifting the nozzle,;M104 S0 			; Turn off extruder,;M140 S0 			; Turn off bed,;G91			; Relative positioning,;G28 X0 Y0 			; Move X/Y to min endstops so the head is out of teh way,;M84 			; Disable motors,;G90 			; Absolute positioning,;M117 Print ready...,,;,; // From Cura 181010,; // End_gcode,G92 E0			; Zero the extruded length,;G1 E-30 F300		; Retract E -30,M106 S0			; Turn off cooling fan,M104 S0			; Turn off temperature,M140 S0		     	; Turn off bed,G91			; Relative positioning,G1 E-1 F300			; Retract the filament a bit before lifting the nozzle to release some of the pressure,G1 Z+20 E-5 X-20 Y-20 F7200	; Move Z up a bit and retract filament even more,G1 X0 Y150 F10000		; Move right min,M107			; Turn off layer fan,M84			; Disable motors,G90			; Absolute positioning,M117 *The-End* 		; End msg,;,
;   exportFileFormat,gcode
;   celebration,0
;   celebrationSong,Star Wars
;   postProcessing,|{REPLACE "; layer " "M117 INDICATOR-Layer"}|{REPLACE ", Z = " "\n; Z="}
;   defaultSpeed,2400
;   outlineUnderspeed,0.6
;   solidInfillUnderspeed,0.8
;   supportUnderspeed,0.8
;   rapidXYspeed,3600
;   rapidZspeed,900
;   minBridgingArea,50
;   bridgingExtraInflation,0.2
;   bridgingExtrusionMultiplier,1
;   bridgingSpeedMultiplier,0.6
;   useFixedBridgingAngle,0
;   fixedBridgingAngle,0
;   applyBridgingToPerimeters,0
;   filamentDiameters,1.75|1.75|1.75|1.75|1.75|1.75
;   filamentPricesPerKg,30|46|46|46|46|46
;   filamentDensities,1.25|1.25|1.25|1.25|1.25|1.25
;   useMinPrintHeight,0
;   minPrintHeight,0
;   useMaxPrintHeight,0
;   maxPrintHeight,50
;   useDiaphragm,0
;   diaphragmLayerInterval,20
;   robustSlicing,1
;   mergeAllIntoSolid,0
;   onlyRetractWhenCrossingOutline,1
;   retractBetweenLayers,1
;   useRetractionMinTravel,0
;   retractionMinTravel,3
;   retractWhileWiping,1
;   onlyWipeOutlines,1
;   avoidCrossingOutline,1
;   maxMovementDetourFactor,3
;   toolChangeRetractionDistance,12
;   toolChangeExtraRestartDistance,-0.5
;   toolChangeRetractionSpeed,600
;   externalThinWallType,1
;   internalThinWallType,1
;   thinWallAllowedOverlapPercentage,20
;   singleExtrusionMinLength,1
;   singleExtrusionMinPrintingWidthPercentage,50
;   singleExtrusionMaxPrintingWidthPercentage,200
;   singleExtrusionEndpointExtension,0.2
;   horizontalSizeCompensation,0
G90
M82
M106 S0
M140 S55
M190 S55
;
; -]H.P.B[- MarshMalloW  
; $VER: StartScript 1.02 (26.12.2019) MarshMalloW
;
; Begin Startcode
;
M117 *Preheat*     	; Preheat
;extruder0_temperature
M104 S215  
M109 S215 
M109 R215 
;
M117 *Auto-leveling*     	; Auto-leveling
M107                   	; Turn layer fan off
G21                    	; Set to metric [change to G20 if you want Imperial]
G90                    	; Force coordinates to be absolute relative to the origin
G28                    	; Home X/Y/Z axis
G29                    	; Auto-leveling (BL-Touch)
;
M117 *Start Clean*     	; Indicate nozzle clean in progress on LCD
G92 E0                 	; Set Extruder to 0 
G1 X0 Y0 F2000         	; Move X and Y to 0 with speed 2000 (mm/min)
G1 Z0.1 F1000          	; Move Z to   0.1 with speed 1000 (mm/min)
G1 X8.0 F2000          	; Move X to   8.0 with speed 2000 (mm/min)
G1 Y60.0 E4.0 F1000.0  	; Move Y to  60 and Extruder with 4.0 with speed 1000 (mm/min)
G1 Y100.0 E8.5 F1000.0 	; Move Y to 100 and Extruder with 8.5 with speed 1000 (mm/min)
G92 E0                 	; Set extruder to 0
G1 X16.0 F3000         	; Move X to 16.0 with speed 3000 (mm/min)
G1 Y60.0 F3000         	; Move Y to 60.0 with speed 3000 (mm/min)
M117 *End Clean*       	; Indicate nozzle clean in progress on LCD
G1 Z5 F3000            	; Move Z to  5.0 with speed 3000 (mm/min)
G1 X20.0 F3000         	; Move X to 20.0 with speed 3000 (mm/min)
G1 Y20.0 F3000         	; Move Y to 20.0 with speed 3000 (mm/min)
; 
M117 *Printing...*     	; Start printing msg on LCD
;
; End Startcode
;
; Begin printing with sliced GCode after here
;
; process A11-04-10 Tevo Tornado
M117 INDICATOR-Layer1
; Z=0.180
T0
G92 E0.0000
G1 E-4.0000 F6000
; feature skirt
; tool H0.180 W0.350
G1 Z0.180 F900
G1 X97.531 Y24.743 F3600
G1 E0.0000 F6000
G92 E0.0000
G1 X102.904 Y25.130 E0.1341 F960
G1 X103.031 Y25.144 E0.1372
G1 X108.363 Y25.920 E0.2713
G1 X108.489 Y25.943 E0.2745
G1 X113.749 Y27.104 E0.4085
G1 X113.873 Y27.136 E0.4117
G1 X119.036 Y28.676 E0.5458
G1 X119.157 Y28.717 E0.5490
G1 X124.194 Y30.628 E0.6830
G1 X124.313 Y30.677 E0.6862
G1 X129.198 Y32.948 E0.8203
G1 X129.312 Y33.007 E0.8234
G1 X134.019 Y35.626 E0.9575
G1 X134.129 Y35.693 E0.9607
G1 X138.634 Y38.647 E1.0947
G1 X138.738 Y38.722 E1.0979
G1 X143.017 Y41.995 E1.2320
G1 X143.115 Y42.077 E1.2352
G1 X147.145 Y45.653 E1.3692
G1 X147.238 Y45.741 E1.3724
G1 X150.997 Y49.600 E1.5064
G1 X151.083 Y49.695 E1.5096
G1 X154.552 Y53.817 E1.6437
G1 X154.631 Y53.918 E1.6469
G1 X157.792 Y58.280 E1.7809
G1 X157.863 Y58.387 E1.7841
G1 X160.699 Y62.967 E1.9182
G1 X160.763 Y63.078 E1.9214
G1 X163.258 Y67.853 E2.0554
G1 X163.314 Y67.968 E2.0586
G1 X165.456 Y72.911 E2.1926
G1 X165.503 Y73.030 E2.1958
G1 X167.281 Y78.116 E2.3299
G1 X167.319 Y78.238 E2.3331
G1 X168.723 Y83.439 E2.4671
G1 X168.752 Y83.564 E2.4703
G1 X169.775 Y88.853 E2.6044
G1 X169.795 Y88.980 E2.6075
G1 X170.431 Y94.330 E2.7416
G1 X170.442 Y94.457 E2.7448
G1 X170.688 Y99.839 E2.8788
G1 X170.689 Y99.967 E2.8820
G1 X170.544 Y105.353 E3.0161
G1 X170.536 Y105.480 E3.0193
G1 X170.001 Y110.841 E3.1533
G1 X169.984 Y110.968 E3.1565
G1 X169.262 Y115.114 E3.2612
G1 X171.509 Y114.391 E3.3200
G1 X171.621 Y114.359 E3.3229
G1 X175.968 Y113.272 E3.4344
G1 X176.083 Y113.248 E3.4373
G1 X180.492 Y112.452 E3.5488
G1 X180.607 Y112.435 E3.5517
G1 X185.060 Y111.932 E3.6632
G1 X185.176 Y111.923 E3.6661
G1 X189.652 Y111.717 E3.7776
G1 X189.769 Y111.715 E3.7805
G1 X194.243 Y111.806 E3.8918
G1 X194.350 Y111.812 E3.8945
G1 X199.498 Y112.228 E4.0230
G1 X199.612 Y112.241 E4.0258
G1 X204.726 Y112.992 E4.1545
G1 X204.838 Y113.013 E4.1573
G1 X209.893 Y114.094 E4.2859
G1 X210.004 Y114.121 E4.2888
G1 X214.977 Y115.529 E4.4174
G1 X215.086 Y115.563 E4.4202
G1 X219.958 Y117.291 E4.5488
G1 X220.065 Y117.332 E4.5517
G1 X224.814 Y119.372 E4.6803
G1 X224.918 Y119.421 E4.6831
G1 X229.524 Y121.765 E4.8118
G1 X229.624 Y121.820 E4.8146
G1 X234.069 Y124.458 E4.9432
G1 X234.166 Y124.520 E4.9461
G1 X238.430 Y127.441 E5.0747
G1 X238.522 Y127.509 E5.0775
G1 X242.565 Y130.683 E5.2054
G1 X242.609 Y130.720 E5.2069
G1 X291.378 Y171.642 E6.7910
G1 X291.633 Y174.551 E6.8636
G1 X201.762 Y281.654 E10.3426
G1 X198.853 Y281.909 E10.4153
G1 X150.113 Y241.012 E11.9984
G1 X150.070 Y240.974 E11.9998
G1 X146.239 Y237.542 E12.1278
G1 X146.157 Y237.463 E12.1307
G1 X142.537 Y233.768 E12.2594
G1 X142.459 Y233.684 E12.2622
G1 X139.086 Y229.763 E12.3909
G1 X139.015 Y229.674 E12.3938
G1 X135.903 Y225.542 E12.5225
G1 X135.838 Y225.448 E12.5253
G1 X133.001 Y221.123 E12.6540
G1 X132.941 Y221.025 E12.6569
G1 X130.392 Y216.526 E12.7856
G1 X130.339 Y216.424 E12.7884
G1 X128.086 Y211.768 E12.9171
G1 X128.040 Y211.664 E12.9200
G1 X126.094 Y206.871 E13.0487
G1 X126.054 Y206.764 E13.0515
G1 X124.424 Y201.855 E13.1802
G1 X124.391 Y201.746 E13.1830
G1 X123.083 Y196.745 E13.3117
G1 X123.059 Y196.641 E13.3143
G1 X122.193 Y192.249 E13.4257
G1 X122.174 Y192.134 E13.4286
G1 X121.600 Y187.690 E13.5401
G1 X121.589 Y187.574 E13.5430
G1 X121.310 Y183.102 E13.6545
G1 X121.307 Y182.985 E13.6574
G1 X121.325 Y178.505 E13.7689
G1 X121.330 Y178.388 E13.7718
G1 X121.645 Y173.919 E13.8833
G1 X121.657 Y173.802 E13.8862
G1 X121.979 Y171.464 E13.9449
G1 X118.021 Y172.894 E14.0497
G1 X117.899 Y172.934 E14.0528
G1 X112.713 Y174.392 E14.1869
G1 X112.588 Y174.422 E14.1901
G1 X107.310 Y175.500 E14.3241
G1 X107.184 Y175.521 E14.3273
G1 X101.841 Y176.213 E14.4614
G1 X101.713 Y176.225 E14.4646
G1 X96.334 Y176.527 E14.5986
G1 X96.206 Y176.529 E14.6018
G1 X90.820 Y176.440 E14.7359
G1 X90.692 Y176.434 E14.7390
G1 X85.326 Y175.954 E14.8731
G1 X85.199 Y175.938 E14.8763
G1 X79.882 Y175.070 E15.0103
G1 X79.756 Y175.044 E15.0135
G1 X74.516 Y173.793 E15.1476
G1 X74.393 Y173.758 E15.1508
G1 X69.258 Y172.129 E15.2848
G1 X69.137 Y172.086 E15.2880
G1 X64.134 Y170.089 E15.4221
G1 X64.017 Y170.037 E15.4252
G1 X59.171 Y167.682 E15.5593
G1 X59.058 Y167.622 E15.5625
G1 X54.397 Y164.921 E15.6965
G1 X54.289 Y164.853 E15.6997
G1 X49.835 Y161.821 E15.8338
G1 X49.732 Y161.745 E15.8370
G1 X45.511 Y158.397 E15.9710
G1 X45.414 Y158.314 E15.9742
G1 X41.447 Y154.669 E16.1082
G1 X41.355 Y154.579 E16.1114
G1 X37.663 Y150.656 E16.2455
G1 X37.579 Y150.559 E16.2487
G1 X34.182 Y146.378 E16.3827
G1 X34.105 Y146.276 E16.3859
G1 X31.020 Y141.859 E16.5200
G1 X30.950 Y141.752 E16.5232
G1 X28.194 Y137.123 E16.6572
G1 X28.132 Y137.011 E16.6604
G1 X25.719 Y132.194 E16.7944
G1 X25.666 Y132.077 E16.7976
G1 X23.609 Y127.098 E16.9317
G1 X23.565 Y126.978 E16.9349
G1 X21.875 Y121.863 E17.0689
G1 X21.839 Y121.740 E17.0721
G1 X20.525 Y116.515 E17.2062
G1 X20.498 Y116.390 E17.2094
G1 X19.567 Y111.083 E17.3434
G1 X19.549 Y110.957 E17.3466
G1 X19.005 Y105.597 E17.4806
G1 X18.997 Y105.469 E17.4838
G1 X18.844 Y100.084 E17.6179
G1 X18.845 Y99.956 E17.6211
G1 X19.083 Y94.574 E17.7551
G1 X19.093 Y94.446 E17.7583
G1 X19.721 Y89.095 E17.8924
G1 X19.741 Y88.969 E17.8955
G1 X20.756 Y83.678 E18.0296
G1 X20.785 Y83.553 E18.0328
G1 X22.181 Y78.350 E18.1668
G1 X22.219 Y78.227 E18.1700
G1 X23.989 Y73.139 E18.3041
G1 X24.036 Y73.020 E18.3073
G1 X26.171 Y68.074 E18.4413
G1 X26.226 Y67.958 E18.4445
G1 X28.714 Y63.180 E18.5786
G1 X28.777 Y63.068 E18.5817
G1 X31.606 Y58.483 E18.7158
G1 X31.677 Y58.377 E18.7190
G1 X34.832 Y54.009 E18.8530
G1 X34.910 Y53.908 E18.8562
G1 X38.373 Y49.781 E18.9903
G1 X38.459 Y49.686 E18.9935
G1 X42.212 Y45.822 E19.1275
G1 X42.305 Y45.733 E19.1307
G1 X46.329 Y42.151 E19.2648
G1 X46.428 Y42.070 E19.2679
G1 X50.701 Y38.789 E19.4020
G1 X50.806 Y38.715 E19.4052
G1 X55.306 Y35.753 E19.5392
G1 X55.415 Y35.687 E19.5424
G1 X60.119 Y33.060 E19.6765
G1 X60.233 Y33.001 E19.6797
G1 X65.115 Y30.723 E19.8137
G1 X65.232 Y30.673 E19.8169
G1 X70.267 Y28.755 E19.9509
G1 X70.388 Y28.713 E19.9541
G1 X75.548 Y27.166 E20.0882
G1 X75.672 Y27.133 E20.0914
G1 X80.931 Y25.964 E20.2254
G1 X81.057 Y25.941 E20.2286
G1 X86.387 Y25.157 E20.3627
G1 X86.514 Y25.143 E20.3659
G1 X91.887 Y24.747 E20.4999
G1 X92.015 Y24.743 E20.5031
G1 X97.403 Y24.739 E20.6371
G1 X97.531 Y24.743 E20.6403
G92 E0.0000
G1 E-4.0000 F6000
G1 Z0.280 F900
