; G-Code generated by Simplify3D(R) Version 4.0.1
;
;
;
;
; Feb 24, 2023 at 11:58:31 PM
; Settings Summary
;   processName,PLA B01
;   applyToModels,AngryGuardCat-WithPaws
;   profileName,PLA_B02_04_15_OS180_05 Tevo Tornado
;   profileVersion,2023-02-12 10:27:10
;   baseProfile,Creality CR-10(2)
;   printMaterial,PLA
;   printQuality,High
;   printExtruders,
;   extruderName,Primary Extruder
;   extruderToolheadNumber,0
;   extruderDiameter,0.4
;   extruderAutoWidth,0
;   extruderWidth,0.35
;   extrusionMultiplier,0.95
;   extruderUseRetract,1
;   extruderRetractionDistance,4
;   extruderExtraRestartDistance,0
;   extruderRetractionZLift,0.3
;   extruderRetractionSpeed,3000
;   extruderUseCoasting,1
;   extruderCoastingDistance,0.2
;   extruderUseWipe,0
;   extruderWipeDistance,5
;   primaryExtruder,0
;   layerHeight,0.12
;   topSolidLayers,6
;   bottomSolidLayers,5
;   perimeterOutlines,4
;   printPerimetersInsideOut,1
;   startPointOption,2
;   startPointOriginX,0
;   startPointOriginY,300
;   sequentialIslands,0
;   spiralVaseMode,0
;   firstLayerHeightPercentage,120
;   firstLayerWidthPercentage,100
;   firstLayerUnderspeed,0.25
;   useRaft,0
;   raftExtruder,0
;   raftTopLayers,3
;   raftBaseLayers,2
;   raftOffset,3
;   raftSeparationDistance,0.14
;   raftTopInfill,100
;   aboveRaftSpeedMultiplier,0.3
;   useSkirt,1
;   skirtExtruder,0
;   skirtLayers,2
;   skirtOutlines,2
;   skirtOffset,3
;   usePrimePillar,0
;   primePillarExtruder,999
;   primePillarWidth,12
;   primePillarLocation,7
;   primePillarSpeedMultiplier,1
;   useOozeShield,0
;   oozeShieldExtruder,999
;   oozeShieldOffset,2
;   oozeShieldOutlines,1
;   oozeShieldSidewallShape,1
;   oozeShieldSidewallAngle,30
;   oozeShieldSpeedMultiplier,1
;   infillExtruder,0
;   internalInfillPattern,Fast Honeycomb
;   externalInfillPattern,Rectilinear
;   infillPercentage,15
;   outlineOverlapPercentage,15
;   infillExtrusionWidthPercentage,100
;   minInfillLength,5
;   infillLayerInterval,1
;   internalInfillAngles,0
;   overlapInternalInfillAngles,0
;   externalInfillAngles,45,-45
;   generateSupport,0
;   supportExtruder,0
;   supportInfillPercentage,40
;   supportExtraInflation,0
;   supportBaseLayers,0
;   denseSupportExtruder,0
;   denseSupportLayers,0
;   denseSupportInfillPercentage,70
;   supportLayerInterval,1
;   supportHorizontalPartOffset,0.4
;   supportUpperSeparationLayers,1
;   supportLowerSeparationLayers,1
;   supportType,0
;   supportGridSpacing,4.5
;   maxOverhangAngle,45
;   supportAngles,0
;   temperatureName,Primary Extruder,Heated Bed
;   temperatureNumber,0,0
;   temperatureSetpointCount,2,2
;   temperatureSetpointLayers,1,2,1,2
;   temperatureSetpointTemperatures,185,180,10,5
;   temperatureStabilizeAtStartup,1,1
;   temperatureHeatedBed,0,1
;   temperatureRelayBetweenLayers,0,0
;   temperatureRelayBetweenLoops,0,0
;   fanLayers,1,2
;   fanSpeeds,0,100
;   blipFanToFullPower,0
;   adjustSpeedForCooling,1
;   minSpeedLayerTime,15
;   minCoolingSpeedSlowdown,20
;   increaseFanForCooling,1
;   minFanLayerTime,25
;   maxCoolingFanSpeed,100
;   increaseFanForBridging,1
;   bridgingFanSpeed,100
;   use5D,1
;   relativeEdistances,0
;   allowEaxisZeroing,1
;   independentExtruderAxes,0
;   includeM10123,0
;   stickySupport,1
;   applyToolheadOffsets,0
;   gcodeXoffset,0
;   gcodeYoffset,0
;   gcodeZoffset,0
;   overrideMachineDefinition,1
;   machineTypeOverride,0
;   strokeXoverride,300
;   strokeYoverride,300
;   strokeZoverride,400
;   originOffsetXoverride,0
;   originOffsetYoverride,0
;   originOffsetZoverride,0
;   homeXdirOverride,-1
;   homeYdirOverride,-1
;   homeZdirOverride,-1
;   flipXoverride,1
;   flipYoverride,-1
;   flipZoverride,1
;   toolheadOffsets,0,0|0,0|0,0|0,0|0,0|0,0
;   overrideFirmwareConfiguration,1
;   firmwareTypeOverride,RepRap (Marlin/Repetier/Sprinter)
;   GPXconfigOverride,r2
;   baudRateOverride,250000
;   overridePrinterModels,1
;   printerModelsOverride
;   startingGcode,;,; -]H.P.B[- MarshMalloW  ,; $VER: StartScript 1.03 (18.12.2022) MarshMalloW,;,; Begin Startcode,;,M117 *Preheat*	; Preheat,;extruder0_temperature,M104 S[extruder0_temperature],M109 S[extruder0_temperature],;M109 R[extruder0_temperature] ,;,M117 *Auto-leveling*     	; Auto-leveling,M107                   	; Turn layer fan off,G21                    	; Set to metric [change to G20 if you want Imperial],G90                    	; Force coordinates to be absolute relative to the origin,G28                    	; Home X/Y/Z axis,G29                    	; Auto-leveling (BL-Touch),;,M117 *Start Clean*     	; Indicate nozzle clean in progress on LCD,G92 E0                 	; Set Extruder to 0 ,G1 X0 Y0 F2000         	; Move X and Y to 0 with speed 2000 (mm/min),G1 Z0.1 F1000          	; Move Z to   0.1 with speed 1000 (mm/min),G1 X8.0 F2000          	; Move X to   8.0 with speed 2000 (mm/min),G1 Y60.0 E4.0 F1000.0  	; Move Y to  60 and Extruder with 4.0 with speed 1000 (mm/min),G1 Y100.0 E8.5 F1000.0 	; Move Y to 100 and Extruder with 8.5 with speed 1000 (mm/min),G92 E0                 	; Set extruder to 0,G1 X16.0 F3000         	; Move X to 16.0 with speed 3000 (mm/min),G1 Y60.0 F3000         	; Move Y to 60.0 with speed 3000 (mm/min),M117 *End Clean*       	; Indicate nozzle clean in progress on LCD,G1 Z5 F3000            	; Move Z to  5.0 with speed 3000 (mm/min),G1 X20.0 F3000         	; Move X to 20.0 with speed 3000 (mm/min),G1 Y20.0 F3000         	; Move Y to 20.0 with speed 3000 (mm/min),; ,M117 *Printing...*     	; Start printing msg on LCD,;,; End Startcode,;,; Begin printing with sliced GCode after here,;
;   layerChangeGcode,
;   retractionGcode,
;   toolChangeGcode,
;   endingGcode,;,; init 181010,;,;M107 			; Fan off,;G1 E-1 F300 			; Retract the filament a bit before lifting the nozzle,;M104 S0 			; Turn off extruder,;M140 S0 			; Turn off bed,;G91			; Relative positioning,;G28 X0 Y0 			; Move X/Y to min endstops so the head is out of teh way,;M84 			; Disable motors,;G90 			; Absolute positioning,;M117 Print ready...,,;,; // From Cura 181010,; // End_gcode,G92 E0			; Zero the extruded length,;G1 E-30 F300		; Retract E -30,M106 S0			; Turn off cooling fan,M104 S0			; Turn off temperature,M140 S0		     	; Turn off bed,G91			; Relative positioning,G1 E-1 F300			; Retract the filament a bit before lifting the nozzle to release some of the pressure,G1 Z+20 E-5 X-20 Y-20 F7200	; Move Z up a bit and retract filament even more,G1 X0 Y150 F10000		; Move right min,M107			; Turn off layer fan,M84			; Disable motors,G90			; Absolute positioning,M117 *The-End* 		; End msg,;,
;   exportFileFormat,gcode
;   celebration,0
;   celebrationSong,Star Wars
;   postProcessing,D:\S3D_Thumbs\S3D_Thumbs.exe f="[output_filepath]" x=600 y=110 w=953 lw=400 lh=300 sw=32 sh=32 d=Y
;   defaultSpeed,4200
;   outlineUnderspeed,0.5
;   solidInfillUnderspeed,0.8
;   supportUnderspeed,0.8
;   rapidXYspeed,6000
;   rapidZspeed,1002
;   minBridgingArea,50
;   bridgingExtraInflation,0.2
;   bridgingExtrusionMultiplier,1
;   bridgingSpeedMultiplier,0.8
;   useFixedBridgingAngle,0
;   fixedBridgingAngle,0
;   applyBridgingToPerimeters,0
;   filamentDiameters,1.75|1.75|1.75|1.75|1.75|1.75
;   filamentPricesPerKg,30|46|46|46|46|46
;   filamentDensities,1.25|1.25|1.25|1.25|1.25|1.25
;   useMinPrintHeight,0
;   minPrintHeight,0
;   useMaxPrintHeight,0
;   maxPrintHeight,50
;   useDiaphragm,0
;   diaphragmLayerInterval,20
;   robustSlicing,1
;   mergeAllIntoSolid,0
;   onlyRetractWhenCrossingOutline,1
;   retractBetweenLayers,1
;   useRetractionMinTravel,0
;   retractionMinTravel,3
;   retractWhileWiping,1
;   onlyWipeOutlines,1
;   avoidCrossingOutline,0
;   maxMovementDetourFactor,3
;   toolChangeRetractionDistance,12
;   toolChangeExtraRestartDistance,-0.5
;   toolChangeRetractionSpeed,600
;   externalThinWallType,1
;   internalThinWallType,1
;   thinWallAllowedOverlapPercentage,10
;   singleExtrusionMinLength,1
;   singleExtrusionMinPrintingWidthPercentage,50
;   singleExtrusionMaxPrintingWidthPercentage,200
;   singleExtrusionEndpointExtension,0.2
;   horizontalSizeCompensation,0
G90
M82
M106 S0
M140 S10
M190 S10
;
; -]H.P.B[- MarshMalloW  
; $VER: StartScript 1.03 (18.12.2022) MarshMalloW
;
; Begin Startcode
;
M117 *Preheat*	; Preheat
;extruder0_temperature
M104 S185
M109 S185
;M109 R185 
;
M117 *Auto-leveling*     	; Auto-leveling
M107                   	; Turn layer fan off
G21                    	; Set to metric [change to G20 if you want Imperial]
G90                    	; Force coordinates to be absolute relative to the origin
G28                    	; Home X/Y/Z axis
G29                    	; Auto-leveling (BL-Touch)
;
M117 *Start Clean*     	; Indicate nozzle clean in progress on LCD
G92 E0                 	; Set Extruder to 0 
G1 X0 Y0 F2000         	; Move X and Y to 0 with speed 2000 (mm/min)
G1 Z0.1 F1000          	; Move Z to   0.1 with speed 1000 (mm/min)
G1 X8.0 F2000          	; Move X to   8.0 with speed 2000 (mm/min)
G1 Y60.0 E4.0 F1000.0  	; Move Y to  60 and Extruder with 4.0 with speed 1000 (mm/min)
G1 Y100.0 E8.5 F1000.0 	; Move Y to 100 and Extruder with 8.5 with speed 1000 (mm/min)
G92 E0                 	; Set extruder to 0
G1 X16.0 F3000         	; Move X to 16.0 with speed 3000 (mm/min)
G1 Y60.0 F3000         	; Move Y to 60.0 with speed 3000 (mm/min)
M117 *End Clean*       	; Indicate nozzle clean in progress on LCD
G1 Z5 F3000            	; Move Z to  5.0 with speed 3000 (mm/min)
G1 X20.0 F3000         	; Move X to 20.0 with speed 3000 (mm/min)
G1 Y20.0 F3000         	; Move Y to 20.0 with speed 3000 (mm/min)
; 
M117 *Printing...*     	; Start printing msg on LCD
;
; End Startcode
;
; Begin printing with sliced GCode after here
;
G92 E0
G1 E-4.0000 F3000
G1 Z0.444 F1002
; process PLA B01
; layer 1, Z = 0.144
T0
; tool H0.144 W0.350
; skirt
G1 X97.583 Y31.820 F6000
G1 Z0.144 F1002
G1 E0.0000 F900
G92 E0
G1 X98.085 Y30.616 E0.0260 F1050
G1 X98.143 Y30.530 E0.0280
G1 X100.821 Y27.875 E0.1031
G1 X100.822 Y27.873 E0.1031
G1 X100.842 Y27.854 E0.1037
G1 X100.843 Y27.853 E0.1037
G1 X102.730 Y26.043 E0.1558
G1 X102.748 Y26.028 E0.1562
G1 X102.971 Y25.849 E0.1619
G1 X102.989 Y25.835 E0.1624
G1 X104.666 Y24.714 E0.2025
G1 X104.710 Y24.691 E0.2035
G1 X105.282 Y24.449 E0.2159
G1 X105.330 Y24.434 E0.2169
G1 X107.267 Y24.023 E0.2563
G1 X107.292 Y24.019 E0.2568
G1 X107.604 Y23.983 E0.2631
G1 X107.629 Y23.982 E0.2636
G1 X110.158 Y23.939 E0.3139
G1 X110.168 Y23.939 E0.3141
G1 X110.283 Y23.942 E0.3164
G1 X110.292 Y23.942 E0.3166
G1 X114.724 Y24.182 E0.4049
G1 X114.749 Y24.184 E0.4054
G1 X115.046 Y24.228 E0.4114
G1 X115.069 Y24.232 E0.4119
G1 X116.807 Y24.654 E0.4475
G1 X116.824 Y24.659 E0.4478
G1 X117.039 Y24.727 E0.4523
G1 X117.057 Y24.733 E0.4527
G1 X118.773 Y25.412 E0.4894
G1 X118.789 Y25.419 E0.4898
G1 X118.990 Y25.515 E0.4942
G1 X119.006 Y25.523 E0.4946
G1 X121.517 Y26.936 E0.5519
G1 X121.544 Y26.954 E0.5526
G1 X121.870 Y27.195 E0.5606
G1 X121.895 Y27.216 E0.5613
G1 X122.936 Y28.209 E0.5899
G1 X122.950 Y28.223 E0.5903
G1 X123.116 Y28.406 E0.5952
G1 X123.129 Y28.422 E0.5956
G1 X125.655 Y31.690 E0.6779
G1 X125.666 Y31.705 E0.6782
G1 X125.793 Y31.897 E0.6828
G1 X125.803 Y31.913 E0.6832
G1 X126.867 Y33.785 E0.7261
G1 X126.876 Y33.802 E0.7264
G1 X126.978 Y34.018 E0.7312
G1 X126.986 Y34.035 E0.7316
G1 X128.026 Y36.713 E0.7887
G1 X128.030 Y36.723 E0.7890
G1 X128.076 Y36.858 E0.7918
G1 X128.079 Y36.869 E0.7920
G1 X128.938 Y39.817 E0.8532
G1 X128.941 Y39.829 E0.8534
G1 X128.978 Y39.985 E0.8566
G1 X128.981 Y39.997 E0.8568
G1 X129.498 Y42.756 E0.9127
G1 X129.501 Y42.773 E0.9131
G1 X129.526 Y42.983 E0.9173
G1 X129.528 Y43.000 E0.9176
G1 X129.647 Y45.112 E0.9597
G1 X129.647 Y45.125 E0.9600
G1 X129.648 Y45.292 E0.9633
G1 X129.648 Y45.306 E0.9636
G1 X129.549 Y47.446 E1.0062
G1 X129.548 Y47.458 E1.0065
G1 X129.534 Y47.609 E1.0095
G1 X129.533 Y47.621 E1.0097
G1 X129.233 Y49.764 E1.0528
G1 X129.231 Y49.775 E1.0530
G1 X129.205 Y49.917 E1.0559
G1 X129.202 Y49.928 E1.0561
G1 X128.714 Y52.039 E1.0993
G1 X128.711 Y52.050 E1.0995
G1 X128.672 Y52.188 E1.1023
G1 X128.669 Y52.199 E1.1026
G1 X128.002 Y54.243 E1.1454
G1 X127.998 Y54.254 E1.1456
G1 X127.945 Y54.394 E1.1486
G1 X127.941 Y54.406 E1.1488
G1 X127.104 Y56.345 E1.1909
G1 X127.098 Y56.357 E1.1911
G1 X127.025 Y56.505 E1.1944
G1 X127.019 Y56.517 E1.1947
G1 X126.016 Y58.317 E1.2357
G1 X126.008 Y58.330 E1.2360
G1 X125.907 Y58.489 E1.2398
G1 X125.899 Y58.502 E1.2401
G1 X124.716 Y60.144 E1.2803
G1 X124.703 Y60.161 E1.2808
G1 X124.525 Y60.368 E1.2862
G1 X124.510 Y60.384 E1.2866
G1 X122.830 Y62.045 E1.3337
G1 X122.811 Y62.062 E1.3342
G1 X122.553 Y62.270 E1.3408
G1 X122.532 Y62.285 E1.3413
G1 X120.386 Y63.682 E1.3923
G1 X120.382 Y63.685 E1.3924
G1 X120.324 Y63.721 E1.3937
G1 X120.319 Y63.724 E1.3938
G1 X115.425 Y66.626 E1.5071
G1 X115.412 Y66.634 E1.5074
G1 X115.242 Y66.721 E1.5112
G1 X115.228 Y66.728 E1.5115
G1 X113.622 Y67.441 E1.5465
G1 X113.600 Y67.450 E1.5470
G1 X113.318 Y67.546 E1.5529
G1 X113.295 Y67.552 E1.5534
G1 X111.722 Y67.930 E1.5856
G1 X111.700 Y67.935 E1.5860
G1 X111.426 Y67.976 E1.5915
G1 X111.403 Y67.979 E1.5920
G1 X109.760 Y68.087 E1.6248
G1 X109.753 Y68.087 E1.6249
G1 X109.665 Y68.090 E1.6267
G1 X109.657 Y68.091 E1.6268
G1 X107.562 Y68.114 E1.6685
G1 X107.500 Y68.107 E1.6698
G1 X106.920 Y67.972 E1.6816
G1 X106.920 Y76.107 E1.8436
G1 X106.960 Y85.933 E2.0392
G1 X107.054 Y85.925 E2.0411
G1 X107.070 Y85.924 E2.0414
G1 X107.265 Y85.918 E2.0452
G1 X107.280 Y85.918 E2.0456
G1 X109.946 Y85.999 E2.0986
G1 X109.955 Y86.000 E2.0988
G1 X110.063 Y86.007 E2.1010
G1 X110.072 Y86.007 E2.1011
G1 X113.064 Y86.298 E2.1610
G1 X113.072 Y86.299 E2.1611
G1 X113.172 Y86.311 E2.1632
G1 X113.180 Y86.313 E2.1633
G1 X116.182 Y86.794 E2.2238
G1 X116.199 Y86.797 E2.2242
G1 X116.401 Y86.843 E2.2283
G1 X116.417 Y86.847 E2.2286
G1 X121.982 Y88.485 E2.3441
G1 X121.991 Y88.488 E2.3443
G1 X122.111 Y88.528 E2.3468
G1 X122.120 Y88.531 E2.3470
G1 X127.415 Y90.545 E2.4598
G1 X127.435 Y90.554 E2.4602
G1 X127.685 Y90.674 E2.4657
G1 X127.705 Y90.685 E2.4662
G1 X130.799 Y92.513 E2.5377
G1 X130.802 Y92.514 E2.5378
G1 X130.833 Y92.533 E2.5385
G1 X130.835 Y92.534 E2.5386
G1 X132.373 Y93.489 E2.5746
G1 X132.409 Y93.468 E2.5754
G1 X132.478 Y93.439 E2.5769
G1 X133.388 Y93.206 E2.5956
G1 X133.463 Y93.198 E2.5971
G1 X133.658 Y93.205 E2.6010
G1 X133.842 Y92.923 E2.6077
G1 X133.871 Y92.887 E2.6086
G1 X134.815 Y91.891 E2.6359
G1 X134.907 Y91.827 E2.6382
G1 X136.204 Y91.296 E2.6661
G1 X136.314 Y91.276 E2.6683
G1 X137.126 Y91.304 E2.6845
G1 X139.780 Y90.551 E2.7394
G1 X140.024 Y90.597 E2.7443
G1 X142.024 Y92.127 E2.7944
G1 X142.046 Y92.135 E2.7949
G1 X142.627 Y92.196 E2.8065
G1 X144.027 Y92.148 E2.8344
G1 X144.033 Y92.148 E2.8345
G1 X144.103 Y92.147 E2.8359
G1 X144.109 Y92.147 E2.8360
G1 X153.995 Y92.237 E3.0329
G1 X155.563 Y92.049 E3.0643
G1 X157.504 Y91.653 E3.1037
G1 X160.829 Y90.881 E3.1717
G1 X160.841 Y90.878 E3.1719
G1 X160.986 Y90.852 E3.1748
G1 X160.998 Y90.850 E3.1751
G1 X163.285 Y90.533 E3.2210
G1 X163.300 Y90.531 E3.2213
G1 X163.491 Y90.516 E3.2252
G1 X163.507 Y90.515 E3.2255
G1 X172.961 Y90.325 E3.4137
G1 X179.090 Y89.627 E3.5365
G1 X179.103 Y89.625 E3.5368
G1 X179.265 Y89.615 E3.5400
G1 X179.278 Y89.615 E3.5403
G1 X182.195 Y89.574 E3.5983
G1 X182.210 Y89.574 E3.5986
G1 X182.400 Y89.582 E3.6024
G1 X182.415 Y89.583 E3.6027
G1 X185.250 Y89.874 E3.6594
G1 X185.264 Y89.876 E3.6597
G1 X185.442 Y89.905 E3.6633
G1 X185.456 Y89.907 E3.6636
G1 X188.373 Y90.537 E3.7230
G1 X188.387 Y90.540 E3.7233
G1 X188.571 Y90.591 E3.7271
G1 X188.585 Y90.596 E3.7274
G1 X190.872 Y91.377 E3.7755
G1 X190.887 Y91.383 E3.7758
G1 X191.075 Y91.460 E3.7799
G1 X191.090 Y91.467 E3.7802
G1 X193.238 Y92.513 E3.8277
G1 X193.253 Y92.521 E3.8281
G1 X193.446 Y92.632 E3.8325
G1 X193.461 Y92.641 E3.8329
G1 X195.287 Y93.862 E3.8766
G1 X195.310 Y93.880 E3.8772
G1 X195.590 Y94.116 E3.8845
G1 X195.611 Y94.136 E3.8850
G1 X196.923 Y95.524 E3.9231
G1 X196.954 Y95.563 E3.9240
G1 X197.287 Y96.085 E3.9364
G1 X197.310 Y96.129 E3.9374
G1 X197.792 Y97.340 E3.9633
G1 X197.804 Y97.380 E3.9641
