; G-Code generated by Simplify3D(R) Version 4.1.2
; Oct 10, 2022 at 12:01:34 AM
; Settings Summary
;   processName,A12-04-50 Tevo Tornado
;   applyToModels,ShowerBackPlane
;   profileName,A13-04-10 Tevo Tornado
;   profileVersion,2022-10-09 17:10:17
;   baseProfile,Creality CR-10(2)
;   printMaterial,PLA
;   printQuality,Medium
;   printExtruders,
;   extruderName,Primary Extruder
;   extruderToolheadNumber,0
;   extruderDiameter,0.4
;   extruderAutoWidth,0
;   extruderWidth,0.35
;   extrusionMultiplier,0.95
;   extruderUseRetract,1
;   extruderRetractionDistance,4
;   extruderExtraRestartDistance,0
;   extruderRetractionZLift,0.3
;   extruderRetractionSpeed,3600
;   extruderUseCoasting,0
;   extruderCoastingDistance,0.5
;   extruderUseWipe,0
;   extruderWipeDistance,5
;   primaryExtruder,0
;   layerHeight,0.15
;   topSolidLayers,4
;   bottomSolidLayers,3
;   perimeterOutlines,3
;   printPerimetersInsideOut,0
;   startPointOption,2
;   startPointOriginX,0
;   startPointOriginY,300
;   sequentialIslands,0
;   spiralVaseMode,0
;   firstLayerHeightPercentage,120
;   firstLayerWidthPercentage,100
;   firstLayerUnderspeed,0.5
;   useRaft,0
;   raftExtruder,0
;   raftTopLayers,3
;   raftBaseLayers,2
;   raftOffset,3
;   raftSeparationDistance,0.14
;   raftTopInfill,100
;   aboveRaftSpeedMultiplier,0.3
;   useSkirt,1
;   skirtExtruder,0
;   skirtLayers,1
;   skirtOutlines,2
;   skirtOffset,3
;   usePrimePillar,0
;   primePillarExtruder,999
;   primePillarWidth,12
;   primePillarLocation,7
;   primePillarSpeedMultiplier,1
;   useOozeShield,0
;   oozeShieldExtruder,999
;   oozeShieldOffset,2
;   oozeShieldOutlines,1
;   oozeShieldSidewallShape,1
;   oozeShieldSidewallAngle,30
;   oozeShieldSpeedMultiplier,1
;   infillExtruder,0
;   internalInfillPattern,Rectilinear
;   externalInfillPattern,Rectilinear
;   infillPercentage,10
;   outlineOverlapPercentage,15
;   infillExtrusionWidthPercentage,100
;   minInfillLength,5
;   infillLayerInterval,1
;   internalInfillAngles,45,-45
;   overlapInternalInfillAngles,0
;   externalInfillAngles,45,-45
;   generateSupport,0
;   supportExtruder,0
;   supportInfillPercentage,30
;   supportExtraInflation,0
;   supportBaseLayers,0
;   denseSupportExtruder,0
;   denseSupportLayers,0
;   denseSupportInfillPercentage,70
;   supportLayerInterval,1
;   supportHorizontalPartOffset,0.4
;   supportUpperSeparationLayers,1
;   supportLowerSeparationLayers,1
;   supportType,0
;   supportGridSpacing,4.5
;   maxOverhangAngle,45
;   supportAngles,0
;   temperatureName,Primary Extruder,Heated Bed
;   temperatureNumber,0,0
;   temperatureSetpointCount,2,2
;   temperatureSetpointLayers,1,2,1,2
;   temperatureSetpointTemperatures,200,195,55,50
;   temperatureStabilizeAtStartup,1,1
;   temperatureHeatedBed,0,1
;   fanLayers,1,2
;   fanSpeeds,0,100
;   blipFanToFullPower,0
;   adjustSpeedForCooling,1
;   minSpeedLayerTime,15
;   minCoolingSpeedSlowdown,20
;   increaseFanForCooling,1
;   minFanLayerTime,25
;   maxCoolingFanSpeed,100
;   increaseFanForBridging,1
;   bridgingFanSpeed,100
;   use5D,1
;   relativeEdistances,0
;   allowEaxisZeroing,1
;   independentExtruderAxes,0
;   includeM10123,0
;   stickySupport,1
;   applyToolheadOffsets,0
;   gcodeXoffset,0
;   gcodeYoffset,0
;   gcodeZoffset,0
;   overrideMachineDefinition,1
;   machineTypeOverride,0
;   strokeXoverride,300
;   strokeYoverride,300
;   strokeZoverride,400
;   originOffsetXoverride,0
;   originOffsetYoverride,0
;   originOffsetZoverride,0
;   homeXdirOverride,-1
;   homeYdirOverride,-1
;   homeZdirOverride,-1
;   flipXoverride,1
;   flipYoverride,-1
;   flipZoverride,1
;   toolheadOffsets,0,0|0,0|0,0|0,0|0,0|0,0
;   overrideFirmwareConfiguration,1
;   firmwareTypeOverride,RepRap (Marlin/Repetier/Sprinter)
;   GPXconfigOverride,r2
;   baudRateOverride,250000
;   overridePrinterModels,1
;   printerModelsOverride
;   startingGcode,;,; -]H.P.B[- MarshMalloW  ,; $VER: StartScript 1.02 (26.12.2019) MarshMalloW,;,; Begin Startcode,;,M117 *Preheat*     	; Preheat,;extruder0_temperature,M104 S[extruder0_temperature]  ,M109 S[extruder0_temperature] ,M109 R[extruder0_temperature] ,;,M117 *Auto-leveling*     	; Auto-leveling,M107                   	; Turn layer fan off,G21                    	; Set to metric [change to G20 if you want Imperial],G90                    	; Force coordinates to be absolute relative to the origin,G28                    	; Home X/Y/Z axis,G29                    	; Auto-leveling (BL-Touch),;,M117 *Start Clean*     	; Indicate nozzle clean in progress on LCD,G92 E0                 	; Set Extruder to 0 ,G1 X0 Y0 F2000         	; Move X and Y to 0 with speed 2000 (mm/min),G1 Z0.1 F1000          	; Move Z to   0.1 with speed 1000 (mm/min),G1 X8.0 F2000          	; Move X to   8.0 with speed 2000 (mm/min),G1 Y60.0 E4.0 F1000.0  	; Move Y to  60 and Extruder with 4.0 with speed 1000 (mm/min),G1 Y100.0 E8.5 F1000.0 	; Move Y to 100 and Extruder with 8.5 with speed 1000 (mm/min),G92 E0                 	; Set extruder to 0,G1 X16.0 F3000         	; Move X to 16.0 with speed 3000 (mm/min),G1 Y60.0 F3000         	; Move Y to 60.0 with speed 3000 (mm/min),M117 *End Clean*       	; Indicate nozzle clean in progress on LCD,G1 Z5 F3000            	; Move Z to  5.0 with speed 3000 (mm/min),G1 X20.0 F3000         	; Move X to 20.0 with speed 3000 (mm/min),G1 Y20.0 F3000         	; Move Y to 20.0 with speed 3000 (mm/min),; ,M117 *Printing...*     	; Start printing msg on LCD,;,; End Startcode,;,; Begin printing with sliced GCode after here,;
;   layerChangeGcode,
;   retractionGcode,
;   toolChangeGcode,
;   endingGcode,;,; init 181010,;,;M107 			; Fan off,;G1 E-1 F300 			; Retract the filament a bit before lifting the nozzle,;M104 S0 			; Turn off extruder,;M140 S0 			; Turn off bed,;G91			; Relative positioning,;G28 X0 Y0 			; Move X/Y to min endstops so the head is out of teh way,;M84 			; Disable motors,;G90 			; Absolute positioning,;M117 Print ready...,,;,; // From Cura 181010,; // End_gcode,G92 E0			; Zero the extruded length,;G1 E-30 F300		; Retract E -30,M106 S0			; Turn off cooling fan,M104 S0			; Turn off temperature,M140 S0		     	; Turn off bed,G91			; Relative positioning,G1 E-1 F300			; Retract the filament a bit before lifting the nozzle to release some of the pressure,G1 Z+20 E-5 X-20 Y-20 F7200	; Move Z up a bit and retract filament even more,G1 X0 Y150 F10000		; Move right min,M107			; Turn off layer fan,M84			; Disable motors,G90			; Absolute positioning,M117 *The-End* 		; End msg,;,
;   exportFileFormat,gcode
;   celebration,0
;   celebrationSong,Star Wars
;   postProcessing,|{REPLACE "; layer " "M117 INDICATOR-Layer"}|{REPLACE ", Z = " "\n; Z="}
;   defaultSpeed,1800
;   outlineUnderspeed,0.5
;   solidInfillUnderspeed,0.8
;   supportUnderspeed,0.8
;   rapidXYspeed,6000
;   rapidZspeed,1002
;   minBridgingArea,50
;   bridgingExtraInflation,0.2
;   bridgingExtrusionMultiplier,1
;   bridgingSpeedMultiplier,0.8
;   useFixedBridgingAngle,0
;   fixedBridgingAngle,0
;   applyBridgingToPerimeters,0
;   filamentDiameters,1.75|1.75|1.75|1.75|1.75|1.75
;   filamentPricesPerKg,30|46|46|46|46|46
;   filamentDensities,1.25|1.25|1.25|1.25|1.25|1.25
;   useMinPrintHeight,0
;   minPrintHeight,0
;   useMaxPrintHeight,0
;   maxPrintHeight,50
;   useDiaphragm,0
;   diaphragmLayerInterval,20
;   robustSlicing,1
;   mergeAllIntoSolid,0
;   onlyRetractWhenCrossingOutline,1
;   retractBetweenLayers,1
;   useRetractionMinTravel,0
;   retractionMinTravel,3
;   retractWhileWiping,0
;   onlyWipeOutlines,1
;   avoidCrossingOutline,0
;   maxMovementDetourFactor,3
;   toolChangeRetractionDistance,12
;   toolChangeExtraRestartDistance,-0.5
;   toolChangeRetractionSpeed,600
;   externalThinWallType,0
;   internalThinWallType,1
;   thinWallAllowedOverlapPercentage,10
;   singleExtrusionMinLength,1
;   singleExtrusionMinPrintingWidthPercentage,50
;   singleExtrusionMaxPrintingWidthPercentage,200
;   singleExtrusionEndpointExtension,0.2
;   horizontalSizeCompensation,0
G90
M82
M106 S0
M140 S55
M190 S55
;
; -]H.P.B[- MarshMalloW  
; $VER: StartScript 1.02 (26.12.2019) MarshMalloW
;
; Begin Startcode
;
M117 *Preheat*     	; Preheat
;extruder0_temperature
M104 S200  
M109 S200 
M109 R200 
;
M117 *Auto-leveling*     	; Auto-leveling
M107                   	; Turn layer fan off
G21                    	; Set to metric [change to G20 if you want Imperial]
G90                    	; Force coordinates to be absolute relative to the origin
G28                    	; Home X/Y/Z axis
G29                    	; Auto-leveling (BL-Touch)
;
M117 *Start Clean*     	; Indicate nozzle clean in progress on LCD
G92 E0                 	; Set Extruder to 0 
G1 X0 Y0 F2000         	; Move X and Y to 0 with speed 2000 (mm/min)
G1 Z0.1 F1000          	; Move Z to   0.1 with speed 1000 (mm/min)
G1 X8.0 F2000          	; Move X to   8.0 with speed 2000 (mm/min)
G1 Y60.0 E4.0 F1000.0  	; Move Y to  60 and Extruder with 4.0 with speed 1000 (mm/min)
G1 Y100.0 E8.5 F1000.0 	; Move Y to 100 and Extruder with 8.5 with speed 1000 (mm/min)
G92 E0                 	; Set extruder to 0
G1 X16.0 F3000         	; Move X to 16.0 with speed 3000 (mm/min)
G1 Y60.0 F3000         	; Move Y to 60.0 with speed 3000 (mm/min)
M117 *End Clean*       	; Indicate nozzle clean in progress on LCD
G1 Z5 F3000            	; Move Z to  5.0 with speed 3000 (mm/min)
G1 X20.0 F3000         	; Move X to 20.0 with speed 3000 (mm/min)
G1 Y20.0 F3000         	; Move Y to 20.0 with speed 3000 (mm/min)
; 
M117 *Printing...*     	; Start printing msg on LCD
;
; End Startcode
;
; Begin printing with sliced GCode after here
;
; process A12-04-50 Tevo Tornado
; layer 1
M117 INDICATOR-Layer1
; Z=0.180
T0
G92 E0.0000
G1 E-4.0000 F3600
; feature skirt
; tool H0.180 W0.350
G1 Z0.300 F1002
G1 X99.168 Y99.088 F6000
G1 Z0.180 F1002
G1 E0.0000 F3600
G92 E0.0000
G1 X99.227 Y99.024 E0.0022 F900
G1 X101.860 Y96.324 E0.0960
G1 X101.923 Y96.263 E0.0982
G1 X104.687 Y93.698 E0.1920
G1 X104.753 Y93.640 E0.1942
G1 X107.642 Y91.216 E0.2880
G1 X107.711 Y91.161 E0.2902
G1 X110.716 Y88.885 E0.3841
G1 X110.788 Y88.833 E0.3862
G1 X113.903 Y86.709 E0.4801
G1 X113.977 Y86.661 E0.4823
G1 X117.195 Y84.695 E0.5761
G1 X117.271 Y84.651 E0.5783
G1 X120.583 Y82.848 E0.6721
G1 X120.661 Y82.808 E0.6743
G1 X124.058 Y81.172 E0.7681
G1 X124.138 Y81.136 E0.7703
G1 X127.613 Y79.671 E0.8641
G1 X127.695 Y79.639 E0.8663
G1 X131.238 Y78.349 E0.9601
G1 X131.321 Y78.321 E0.9623
G1 X134.925 Y77.210 E1.0562
G1 X135.009 Y77.186 E1.0583
G1 X138.663 Y76.255 E1.1522
G1 X138.749 Y76.236 E1.1544
G1 X142.445 Y75.489 E1.2482
G1 X142.532 Y75.473 E1.2504
G1 X146.260 Y74.911 E1.3442
G1 X146.348 Y74.900 E1.3464
G1 X150.100 Y74.525 E1.4402
G1 X150.187 Y74.518 E1.4424
G1 X153.953 Y74.330 E1.5362
G1 X154.041 Y74.328 E1.5384
G1 X157.812 Y74.328 E1.6322
G1 X157.900 Y74.330 E1.6344
G1 X161.666 Y74.518 E1.7283
G1 X161.754 Y74.525 E1.7305
G1 X165.506 Y74.900 E1.8243
G1 X165.593 Y74.911 E1.8265
G1 X169.322 Y75.473 E1.9203
G1 X169.408 Y75.489 E1.9225
G1 X173.104 Y76.236 E2.0163
G1 X173.190 Y76.255 E2.0185
G1 X176.844 Y77.186 E2.1123
G1 X176.929 Y77.210 E2.1145
G1 X180.532 Y78.321 E2.2083
G1 X180.615 Y78.349 E2.2105
G1 X184.159 Y79.639 E2.3043
G1 X184.240 Y79.671 E2.3065
G1 X187.715 Y81.136 E2.4004
G1 X187.795 Y81.172 E2.4026
G1 X191.193 Y82.808 E2.4964
G1 X191.271 Y82.848 E2.4986
G1 X194.582 Y84.651 E2.5924
G1 X194.659 Y84.695 E2.5946
G1 X197.876 Y86.661 E2.6884
G1 X197.950 Y86.709 E2.6906
G1 X201.066 Y88.833 E2.7844
G1 X201.137 Y88.885 E2.7866
G1 X202.834 Y90.170 E2.8396
G1 X204.143 Y91.161 E2.8804
G1 X204.211 Y91.216 E2.8826
G1 X207.100 Y93.640 E2.9765
G1 X207.166 Y93.698 E2.9786
G1 X209.930 Y96.263 E3.0725
G1 X209.993 Y96.324 E3.0747
G1 X212.626 Y99.024 E3.1685
G1 X212.686 Y99.088 E3.1707
G1 X215.181 Y101.915 E3.2645
G1 X215.237 Y101.983 E3.2667
G1 X217.588 Y104.931 E3.3605
G1 X217.641 Y105.001 E3.3627
G1 X219.843 Y108.063 E3.4565
G1 X219.892 Y108.135 E3.4587
G1 X221.938 Y111.303 E3.5525
G1 X221.984 Y111.378 E3.5547
G1 X223.869 Y114.643 E3.6486
G1 X223.911 Y114.721 E3.6507
G1 X225.631 Y118.076 E3.7446
G1 X225.670 Y118.155 E3.7468
G1 X227.220 Y121.592 E3.8406
G1 X227.255 Y121.673 E3.8428
G1 X228.632 Y125.183 E3.9366
G1 X228.662 Y125.266 E3.9388
G1 X229.863 Y128.840 E4.0326
G1 X229.889 Y128.924 E4.0348
G1 X230.910 Y132.554 E4.1286
G1 X230.932 Y132.639 E4.1308
G1 X231.771 Y136.316 E4.2246
G1 X231.789 Y136.402 E4.2268
G1 X232.443 Y140.115 E4.3207
G1 X232.457 Y140.202 E4.3228
G1 X232.925 Y143.944 E4.4167
G1 X232.934 Y144.031 E4.4189
G1 X233.216 Y147.791 E4.5127
G1 X233.220 Y147.879 E4.5149
G1 X233.314 Y151.649 E4.6087
G1 X233.314 Y151.737 E4.6109
G1 X233.220 Y155.506 E4.7047
G1 X233.216 Y155.594 E4.7069
G1 X232.934 Y159.354 E4.8007
G1 X232.925 Y159.442 E4.8029
G1 X232.457 Y163.183 E4.8967
G1 X232.443 Y163.270 E4.8989
G1 X231.789 Y166.984 E4.9928
G1 X231.771 Y167.070 E4.9949
G1 X230.932 Y170.746 E5.0888
G1 X230.910 Y170.831 E5.0910
G1 X229.889 Y174.461 E5.1848
G1 X229.863 Y174.545 E5.1870
G1 X228.662 Y178.120 E5.2808
G1 X228.632 Y178.202 E5.2830
G1 X227.255 Y181.712 E5.3768
G1 X227.220 Y181.793 E5.3790
G1 X225.670 Y185.231 E5.4728
G1 X225.631 Y185.310 E5.4750
G1 X223.911 Y188.665 E5.5688
G1 X223.869 Y188.742 E5.5710
G1 X221.984 Y192.008 E5.6649
G1 X221.938 Y192.083 E5.6670
G1 X219.892 Y195.251 E5.7609
G1 X219.843 Y195.323 E5.7631
G1 X217.641 Y198.385 E5.8569
G1 X217.588 Y198.455 E5.8591
G1 X215.237 Y201.403 E5.9529
G1 X215.181 Y201.470 E5.9551
G1 X212.686 Y204.298 E6.0489
G1 X212.626 Y204.362 E6.0511
G1 X209.993 Y207.061 E6.1449
G1 X209.930 Y207.123 E6.1471
G1 X207.166 Y209.688 E6.2409
G1 X207.100 Y209.746 E6.2431
G1 X204.211 Y212.170 E6.3370
G1 X204.143 Y212.224 E6.3391
G1 X201.137 Y214.501 E6.4330
G1 X201.066 Y214.552 E6.4352
G1 X197.950 Y216.677 E6.5290
G1 X197.876 Y216.724 E6.5312
G1 X194.659 Y218.691 E6.6250
G1 X194.582 Y218.734 E6.6272
G1 X191.271 Y220.538 E6.7210
G1 X191.193 Y220.578 E6.7232
G1 X187.795 Y222.214 E6.8170
G1 X187.715 Y222.250 E6.8192
G1 X184.240 Y223.715 E6.9130
G1 X184.159 Y223.747 E6.9152
G1 X180.615 Y225.037 E7.0091
G1 X180.532 Y225.065 E7.0113
G1 X176.929 Y226.176 E7.1051
G1 X176.844 Y226.200 E7.1073
G1 X173.190 Y227.130 E7.2011
G1 X173.104 Y227.150 E7.2033
G1 X169.408 Y227.897 E7.2971
G1 X169.322 Y227.912 E7.2993
G1 X165.593 Y228.474 E7.3931
G1 X165.506 Y228.485 E7.3953
G1 X161.754 Y228.861 E7.4891
G1 X161.666 Y228.867 E7.4913
G1 X157.900 Y229.055 E7.5852
G1 X157.812 Y229.058 E7.5873
G1 X154.041 Y229.058 E7.6812
G1 X153.953 Y229.055 E7.6834
G1 X150.187 Y228.867 E7.7772
G1 X150.100 Y228.861 E7.7794
G1 X146.348 Y228.485 E7.8732
G1 X146.260 Y228.474 E7.8754
G1 X142.532 Y227.912 E7.9692
G1 X142.445 Y227.897 E7.9714
G1 X138.749 Y227.150 E8.0652
G1 X138.663 Y227.130 E8.0674
G1 X135.009 Y226.200 E8.1612
G1 X134.925 Y226.176 E8.1634
G1 X131.321 Y225.065 E8.2573
G1 X131.238 Y225.037 E8.2594
G1 X127.695 Y223.747 E8.3533
G1 X127.613 Y223.715 E8.3555
G1 X124.138 Y222.250 E8.4493
G1 X124.058 Y222.214 E8.4515
G1 X120.661 Y220.578 E8.5453
G1 X120.583 Y220.538 E8.5475
G1 X117.271 Y218.734 E8.6413
G1 X117.195 Y218.691 E8.6435
G1 X113.977 Y216.724 E8.7373
G1 X113.903 Y216.677 E8.7395
G1 X110.788 Y214.552 E8.8333
G1 X110.716 Y214.501 E8.8355
G1 X107.711 Y212.224 E8.9294
G1 X107.642 Y212.170 E8.9315
G1 X104.753 Y209.746 E9.0254
G1 X104.687 Y209.688 E9.0276
G1 X101.923 Y207.123 E9.1214
G1 X101.860 Y207.061 E9.1236
G1 X99.227 Y204.362 E9.2174
G1 X99.168 Y204.298 E9.2196
G1 X96.673 Y201.470 E9.3134
G1 X96.616 Y201.403 E9.3156
G1 X94.265 Y198.455 E9.4094
G1 X94.212 Y198.385 E9.4116
G1 X92.011 Y195.323 E9.5054
G1 X91.961 Y195.251 E9.5076
G1 X89.915 Y192.083 E9.6015
G1 X89.870 Y192.008 E9.6036
G1 X87.984 Y188.742 E9.6975
G1 X87.942 Y188.665 E9.6997
G1 X86.222 Y185.310 E9.7935
G1 X86.184 Y185.230 E9.7957
G1 X84.633 Y181.793 E9.8895
G1 X84.599 Y181.712 E9.8917
G1 X83.221 Y178.202 E9.9855
G1 X83.191 Y178.120 E9.9877
G1 X81.990 Y174.545 E10.0815
G1 X81.964 Y174.461 E10.0837
G1 X80.943 Y170.831 E10.1775
G1 X80.921 Y170.746 E10.1797
G1 X80.082 Y167.070 E10.2736
