; G-Code generated by Simplify3D(R) Version 4.1.2
; Sep 23, 2022 at 6:18:15 PM
; Settings Summary
;   processName,A11-04-10 Tevo Tornado
;   applyToModels,im_ok
;   profileName,A11-04-10 Tevo Tornado
;   profileVersion,2022-06-24 21:08:53
;   baseProfile,Creality CR-10(2)
;   printMaterial,PLA
;   printQuality,Medium
;   printExtruders,
;   extruderName,Primary Extruder
;   extruderToolheadNumber,0
;   extruderDiameter,0.4
;   extruderAutoWidth,0
;   extruderWidth,0.35
;   extrusionMultiplier,0.95
;   extruderUseRetract,1
;   extruderRetractionDistance,4
;   extruderExtraRestartDistance,0
;   extruderRetractionZLift,0.1
;   extruderRetractionSpeed,6000
;   extruderUseCoasting,1
;   extruderCoastingDistance,0.6
;   extruderUseWipe,1
;   extruderWipeDistance,5
;   primaryExtruder,0
;   layerHeight,0.15
;   topSolidLayers,5
;   bottomSolidLayers,4
;   perimeterOutlines,3
;   printPerimetersInsideOut,0
;   startPointOption,1
;   startPointOriginX,0
;   startPointOriginY,300
;   sequentialIslands,0
;   spiralVaseMode,0
;   firstLayerHeightPercentage,120
;   firstLayerWidthPercentage,100
;   firstLayerUnderspeed,0.4
;   useRaft,0
;   raftExtruder,0
;   raftTopLayers,3
;   raftBaseLayers,2
;   raftOffset,3
;   raftSeparationDistance,0.14
;   raftTopInfill,100
;   aboveRaftSpeedMultiplier,0.3
;   useSkirt,1
;   skirtExtruder,0
;   skirtLayers,1
;   skirtOutlines,2
;   skirtOffset,3
;   usePrimePillar,0
;   primePillarExtruder,999
;   primePillarWidth,12
;   primePillarLocation,7
;   primePillarSpeedMultiplier,1
;   useOozeShield,0
;   oozeShieldExtruder,999
;   oozeShieldOffset,2
;   oozeShieldOutlines,1
;   oozeShieldSidewallShape,1
;   oozeShieldSidewallAngle,30
;   oozeShieldSpeedMultiplier,1
;   infillExtruder,0
;   internalInfillPattern,Rectilinear
;   externalInfillPattern,Rectilinear
;   infillPercentage,10
;   outlineOverlapPercentage,15
;   infillExtrusionWidthPercentage,100
;   minInfillLength,5
;   infillLayerInterval,1
;   internalInfillAngles,45,-45
;   overlapInternalInfillAngles,0
;   externalInfillAngles,45,-45
;   generateSupport,0
;   supportExtruder,0
;   supportInfillPercentage,30
;   supportExtraInflation,0
;   supportBaseLayers,0
;   denseSupportExtruder,0
;   denseSupportLayers,0
;   denseSupportInfillPercentage,70
;   supportLayerInterval,1
;   supportHorizontalPartOffset,0.4
;   supportUpperSeparationLayers,1
;   supportLowerSeparationLayers,1
;   supportType,0
;   supportGridSpacing,4.5
;   maxOverhangAngle,45
;   supportAngles,0
;   temperatureName,Primary Extruder,Heated Bed
;   temperatureNumber,0,0
;   temperatureSetpointCount,2,2
;   temperatureSetpointLayers,1,2,1,2
;   temperatureSetpointTemperatures,215,210,55,50
;   temperatureStabilizeAtStartup,1,1
;   temperatureHeatedBed,0,1
;   fanLayers,1,2
;   fanSpeeds,0,100
;   blipFanToFullPower,0
;   adjustSpeedForCooling,1
;   minSpeedLayerTime,15
;   minCoolingSpeedSlowdown,20
;   increaseFanForCooling,1
;   minFanLayerTime,25
;   maxCoolingFanSpeed,100
;   increaseFanForBridging,1
;   bridgingFanSpeed,100
;   use5D,1
;   relativeEdistances,0
;   allowEaxisZeroing,1
;   independentExtruderAxes,0
;   includeM10123,0
;   stickySupport,1
;   applyToolheadOffsets,0
;   gcodeXoffset,0
;   gcodeYoffset,0
;   gcodeZoffset,0
;   overrideMachineDefinition,1
;   machineTypeOverride,0
;   strokeXoverride,300
;   strokeYoverride,300
;   strokeZoverride,400
;   originOffsetXoverride,0
;   originOffsetYoverride,0
;   originOffsetZoverride,0
;   homeXdirOverride,-1
;   homeYdirOverride,-1
;   homeZdirOverride,-1
;   flipXoverride,1
;   flipYoverride,-1
;   flipZoverride,1
;   toolheadOffsets,0,0|0,0|0,0|0,0|0,0|0,0
;   overrideFirmwareConfiguration,1
;   firmwareTypeOverride,RepRap (Marlin/Repetier/Sprinter)
;   GPXconfigOverride,r2
;   baudRateOverride,250000
;   overridePrinterModels,1
;   printerModelsOverride
;   startingGcode,;,; -]H.P.B[- MarshMalloW  ,; $VER: StartScript 1.02 (26.12.2019) MarshMalloW,;,; Begin Startcode,;,M117 *Preheat*     	; Preheat,;extruder0_temperature,M104 S[extruder0_temperature]  ,M109 S[extruder0_temperature] ,M109 R[extruder0_temperature] ,;,M117 *Auto-leveling*     	; Auto-leveling,M107                   	; Turn layer fan off,G21                    	; Set to metric [change to G20 if you want Imperial],G90                    	; Force coordinates to be absolute relative to the origin,G28                    	; Home X/Y/Z axis,G29                    	; Auto-leveling (BL-Touch),;,M117 *Start Clean*     	; Indicate nozzle clean in progress on LCD,G92 E0                 	; Set Extruder to 0 ,G1 X0 Y0 F2000         	; Move X and Y to 0 with speed 2000 (mm/min),G1 Z0.1 F1000          	; Move Z to   0.1 with speed 1000 (mm/min),G1 X8.0 F2000          	; Move X to   8.0 with speed 2000 (mm/min),G1 Y60.0 E4.0 F1000.0  	; Move Y to  60 and Extruder with 4.0 with speed 1000 (mm/min),G1 Y100.0 E8.5 F1000.0 	; Move Y to 100 and Extruder with 8.5 with speed 1000 (mm/min),G92 E0                 	; Set extruder to 0,G1 X16.0 F3000         	; Move X to 16.0 with speed 3000 (mm/min),G1 Y60.0 F3000         	; Move Y to 60.0 with speed 3000 (mm/min),M117 *End Clean*       	; Indicate nozzle clean in progress on LCD,G1 Z5 F3000            	; Move Z to  5.0 with speed 3000 (mm/min),G1 X20.0 F3000         	; Move X to 20.0 with speed 3000 (mm/min),G1 Y20.0 F3000         	; Move Y to 20.0 with speed 3000 (mm/min),; ,M117 *Printing...*     	; Start printing msg on LCD,;,; End Startcode,;,; Begin printing with sliced GCode after here,;
;   layerChangeGcode,
;   retractionGcode,
;   toolChangeGcode,
;   endingGcode,;,; init 181010,;,;M107 			; Fan off,;G1 E-1 F300 			; Retract the filament a bit before lifting the nozzle,;M104 S0 			; Turn off extruder,;M140 S0 			; Turn off bed,;G91			; Relative positioning,;G28 X0 Y0 			; Move X/Y to min endstops so the head is out of teh way,;M84 			; Disable motors,;G90 			; Absolute positioning,;M117 Print ready...,,;,; // From Cura 181010,; // End_gcode,G92 E0			; Zero the extruded length,;G1 E-30 F300		; Retract E -30,M106 S0			; Turn off cooling fan,M104 S0			; Turn off temperature,M140 S0		     	; Turn off bed,G91			; Relative positioning,G1 E-1 F300			; Retract the filament a bit before lifting the nozzle to release some of the pressure,G1 Z+20 E-5 X-20 Y-20 F7200	; Move Z up a bit and retract filament even more,G1 X0 Y150 F10000		; Move right min,M107			; Turn off layer fan,M84			; Disable motors,G90			; Absolute positioning,M117 *The-End* 		; End msg,;,
;   exportFileFormat,gcode
;   celebration,0
;   celebrationSong,Star Wars
;   postProcessing,|{REPLACE "; layer " "M117 INDICATOR-Layer"}|{REPLACE ", Z = " "\n; Z="}
;   defaultSpeed,2400
;   outlineUnderspeed,0.6
;   solidInfillUnderspeed,0.8
;   supportUnderspeed,0.8
;   rapidXYspeed,3600
;   rapidZspeed,900
;   minBridgingArea,50
;   bridgingExtraInflation,0.2
;   bridgingExtrusionMultiplier,1
;   bridgingSpeedMultiplier,0.6
;   useFixedBridgingAngle,0
;   fixedBridgingAngle,0
;   applyBridgingToPerimeters,0
;   filamentDiameters,1.75|1.75|1.75|1.75|1.75|1.75
;   filamentPricesPerKg,30|46|46|46|46|46
;   filamentDensities,1.25|1.25|1.25|1.25|1.25|1.25
;   useMinPrintHeight,0
;   minPrintHeight,0
;   useMaxPrintHeight,0
;   maxPrintHeight,50
;   useDiaphragm,0
;   diaphragmLayerInterval,20
;   robustSlicing,1
;   mergeAllIntoSolid,0
;   onlyRetractWhenCrossingOutline,1
;   retractBetweenLayers,1
;   useRetractionMinTravel,0
;   retractionMinTravel,3
;   retractWhileWiping,1
;   onlyWipeOutlines,1
;   avoidCrossingOutline,1
;   maxMovementDetourFactor,3
;   toolChangeRetractionDistance,12
;   toolChangeExtraRestartDistance,-0.5
;   toolChangeRetractionSpeed,600
;   externalThinWallType,1
;   internalThinWallType,1
;   thinWallAllowedOverlapPercentage,20
;   singleExtrusionMinLength,1
;   singleExtrusionMinPrintingWidthPercentage,50
;   singleExtrusionMaxPrintingWidthPercentage,200
;   singleExtrusionEndpointExtension,0.2
;   horizontalSizeCompensation,0
G90
M82
M106 S0
M140 S55
M190 S55
;
; -]H.P.B[- MarshMalloW  
; $VER: StartScript 1.02 (26.12.2019) MarshMalloW
;
; Begin Startcode
;
M117 *Preheat*     	; Preheat
;extruder0_temperature
M104 S215  
M109 S215 
M109 R215 
;
M117 *Auto-leveling*     	; Auto-leveling
M107                   	; Turn layer fan off
G21                    	; Set to metric [change to G20 if you want Imperial]
G90                    	; Force coordinates to be absolute relative to the origin
G28                    	; Home X/Y/Z axis
G29                    	; Auto-leveling (BL-Touch)
;
M117 *Start Clean*     	; Indicate nozzle clean in progress on LCD
G92 E0                 	; Set Extruder to 0 
G1 X0 Y0 F2000         	; Move X and Y to 0 with speed 2000 (mm/min)
G1 Z0.1 F1000          	; Move Z to   0.1 with speed 1000 (mm/min)
G1 X8.0 F2000          	; Move X to   8.0 with speed 2000 (mm/min)
G1 Y60.0 E4.0 F1000.0  	; Move Y to  60 and Extruder with 4.0 with speed 1000 (mm/min)
G1 Y100.0 E8.5 F1000.0 	; Move Y to 100 and Extruder with 8.5 with speed 1000 (mm/min)
G92 E0                 	; Set extruder to 0
G1 X16.0 F3000         	; Move X to 16.0 with speed 3000 (mm/min)
G1 Y60.0 F3000         	; Move Y to 60.0 with speed 3000 (mm/min)
M117 *End Clean*       	; Indicate nozzle clean in progress on LCD
G1 Z5 F3000            	; Move Z to  5.0 with speed 3000 (mm/min)
G1 X20.0 F3000         	; Move X to 20.0 with speed 3000 (mm/min)
G1 Y20.0 F3000         	; Move Y to 20.0 with speed 3000 (mm/min)
; 
M117 *Printing...*     	; Start printing msg on LCD
;
; End Startcode
;
; Begin printing with sliced GCode after here
;
; process A11-04-10 Tevo Tornado
M117 INDICATOR-Layer1
; Z=0.180
T0
G92 E0.0000
G1 E-4.0000 F6000
; feature skirt
; tool H0.180 W0.350
G1 Z0.180 F900
G1 X272.943 Y29.122 F3600
G1 E0.0000 F6000
G92 E0.0000
G1 X272.943 Y270.878 E6.0156 F960
G1 X270.878 Y272.943 E6.0882
G1 X29.122 Y272.943 E12.1038
G1 X27.057 Y270.878 E12.1764
G1 X27.057 Y29.122 E18.1920
G1 X29.122 Y27.057 E18.2647
G1 X270.878 Y27.057 E24.2802
G1 X272.943 Y29.122 E24.3529
G92 E0.0000
G1 E-4.0000 F6000
G1 Z0.280 F900
G1 X269.243 Y30.757 F3600
G1 X269.243 Y32.763
G1 X144.930 Y155.088
G1 X144.231 Y154.975
G1 X141.997 Y154.865
G1 X139.865 Y154.972
G1 X137.925 Y155.256
G1 X136.210 Y155.665
G1 X133.263 Y156.621
G1 X131.838 Y157.055
G1 X130.332 Y157.407
G1 X128.700 Y157.659
G1 X126.502 Y157.840
G1 X127.087 Y158.344
G1 X127.307 Y158.650
G1 X127.496 Y159.049
G1 X127.648 Y159.539
G1 X127.842 Y160.801
G1 X127.888 Y162.387
G1 X127.803 Y164.243
G1 X127.612 Y166.295
G1 X127.016 Y170.675
G1 X126.588 Y173.137
G1 X121.768 Y177.880
G1 X122.084 Y176.744
G1 X122.565 Y174.723
G1 X123.337 Y170.855
G1 X123.947 Y167.183
G1 X124.148 Y165.431
G1 X124.209 Y163.762
G1 X124.069 Y162.200
G1 X123.681 Y160.773
G1 X123.026 Y159.505
G1 X122.126 Y158.409
G1 X121.027 Y157.488
G1 X119.781 Y156.736
G1 X118.433 Y156.148
G1 X117.009 Y155.719
G1 X115.525 Y155.446
G1 X113.983 Y155.328
G1 X111.376 Y155.467
G1 X108.919 Y155.789
G1 X106.608 Y156.284
G1 X104.425 Y156.904
G1 X100.236 Y158.132
G1 X98.139 Y158.577
G1 X95.740 Y158.911
G1 X96.941 Y160.933
G1 X97.682 Y162.871
G1 X98.106 Y164.971
G1 X98.220 Y167.243
G1 X98.038 Y169.705
G1 X97.585 Y172.380
G1 X96.901 Y175.288
G1 X96.040 Y178.440
G1 X95.070 Y181.829
G1 X94.079 Y185.418
G1 X93.169 Y189.137
G1 X92.452 Y192.886
G1 X92.039 Y196.549
G1 X91.979 Y198.315
G1 X92.029 Y200.014
G1 X92.200 Y201.635
G1 X92.497 Y203.165
G1 X92.924 Y204.594
G1 X93.421 Y205.774
G1 X30.757 Y267.437
G1 X30.757 Y269.243
G1 X27.407 Y270.733
G1 Z0.180 F900
G1 E0.0000 F6000
G92 E0.0000
G1 X27.407 Y29.267 E6.0083 F960
G1 X29.267 Y27.407 E6.0738
G1 X270.733 Y27.407 E12.0821
G1 X272.593 Y29.267 E12.1476
G1 X272.593 Y270.733 E18.1559
G1 X270.733 Y272.593 E18.2214
G1 X29.267 Y272.593 E24.2297
G1 X27.407 Y270.733 E24.2952
G92 E0.0000
G1 E-4.0000 F6000
; feature outer perimeter
G1 Z0.280 F900
G1 X269.243 Y269.243 F3600
G1 Z0.180 F900
G1 E0.0000 F6000
G92 E0.0000
G1 X30.757 Y269.243 E5.9342 F576
G1 X30.757 Y30.757 E11.8684
G1 X269.243 Y30.757 E17.8026
G1 X269.243 Y268.643 E23.7218
G1 X269.243 Y269.243 F576
G1 X264.243 Y269.243 F576
; feature inner perimeter
G1 X268.893 Y268.893 F3600
G92 E0.0000
G1 X31.107 Y268.893 E5.9168 F768
G1 X31.107 Y31.107 E11.8335
G1 X268.893 Y31.107 E17.7503
G1 X268.893 Y268.293 E23.6522
G1 X268.893 Y268.893 F768
G1 X268.543 Y268.543 F3600
G92 E0.0000
G1 X31.457 Y268.543 E5.8994 F768
G1 X31.457 Y31.457 E11.7987
G1 X268.543 Y31.457 E17.6981
G1 X268.543 Y267.943 E23.5825
G1 X268.543 Y268.543 F768
; feature outer perimeter
G1 X228.553 Y243.683 F3600
G92 E0.0000
G1 X228.170 Y241.655 E0.0514 F576
G1 X228.012 Y239.570 E0.1034
G1 X228.050 Y237.231 E0.1616
G1 X228.286 Y234.572 E0.2280
G1 X228.479 Y233.095 E0.2651
G1 X228.724 Y231.497 E0.3053
G1 X229.019 Y229.768 E0.3489
G1 X229.363 Y227.898 E0.3963
G1 X229.757 Y225.878 E0.4475
G1 X230.682 Y221.381 E0.5617
G1 X231.770 Y216.328 E0.6903
G1 X233.622 Y208.029 E0.9019
G1 X234.940 Y202.316 E1.0478
G1 X236.269 Y196.724 E1.1908
G1 X237.564 Y191.463 E1.3256
G1 X238.188 Y189.000 E1.3889
G1 X239.370 Y184.473 E1.5053
G1 X241.874 Y175.189 E1.7445
G1 X242.656 Y171.989 E1.8265
G1 X243.253 Y168.913 E1.9045
G1 X243.576 Y165.936 E1.9790
G1 X243.599 Y164.494 E2.0149
G1 X243.509 Y163.104 E2.0495
G1 X243.293 Y161.781 E2.0829
G1 X242.941 Y160.539 E2.1150
G1 X242.444 Y159.397 E2.1460
G1 X241.803 Y158.371 E2.1761
G1 X241.022 Y157.475 E2.2057
G1 X240.110 Y156.720 E2.2351
G1 X239.083 Y156.114 E2.2648
G1 X237.955 Y155.657 E2.2951
G1 X236.744 Y155.344 E2.3262
G1 X235.463 Y155.165 E2.3584
G1 X232.774 Y155.140 E2.4253
G1 X229.987 Y155.422 E2.4950
G1 X221.841 Y156.714 E2.7003
G1 X219.131 Y157.086 E2.7683
G1 X219.641 Y160.384 E2.8514
G1 X219.862 Y163.412 E2.9269
G1 X219.825 Y166.360 E3.0003
G1 X219.537 Y169.254 E3.0726
G1 X219.017 Y172.139 E3.1456
G1 X218.295 Y175.090 E3.2212
G1 X217.409 Y178.196 E3.3016
G1 X215.301 Y185.221 E3.4840
G1 X214.137 Y189.249 E3.5884
G1 X210.267 Y203.172 E3.9479
G1 X208.884 Y208.001 E4.0729
G1 X207.374 Y213.109 E4.2055
G1 X205.923 Y217.923 E4.3306
G1 X204.585 Y222.480 E4.4488
G1 X204.001 Y224.630 E4.5042
G1 X203.500 Y226.682 E4.5567
G1 X203.101 Y228.624 E4.6061
G1 X202.824 Y230.452 E4.6521
G1 X202.686 Y232.158 E4.6947
G1 X202.702 Y233.741 E4.7341
G1 X202.883 Y235.197 E4.7706
G1 X203.236 Y236.525 E4.8048
G1 X203.761 Y237.726 E4.8374
G1 X204.450 Y238.802 E4.8692
G1 X205.289 Y239.757 E4.9008
G1 X206.258 Y240.598 E4.9327
G1 X207.334 Y241.336 E4.9652
G1 X208.499 Y241.982 E4.9983
G1 X210.990 Y243.027 E5.0656
G1 X213.594 Y243.800 E5.1332
G1 X216.213 Y244.334 E5.1997
G1 X218.793 Y244.647 E5.2643
G1 X221.310 Y244.741 E5.3270
G1 X223.753 Y244.618 E5.3879
G1 X226.117 Y244.278 E5.4473
G1 X227.970 Y243.826 E5.4948
G1 X228.553 Y243.683 F576
G1 X228.170 Y241.655 F576
G1 X228.012 Y239.570
G1 X228.026 Y238.725
; feature inner perimeter
G1 X228.363 Y239.560 F3600
G92 E0.0000
G1 X228.400 Y237.249 E0.0575 F768
G1 X228.634 Y234.610 E0.1234
G1 X228.826 Y233.144 E0.1602
G1 X229.069 Y231.552 E0.2003
G1 X229.363 Y229.829 E0.2438
G1 X229.707 Y227.964 E0.2910
G1 X230.100 Y225.947 E0.3421
G1 X231.025 Y221.454 E0.4563
G1 X232.112 Y216.402 E0.5848
G1 X233.964 Y208.106 E0.7963
G1 X235.281 Y202.397 E0.9421
G1 X236.609 Y196.806 E1.0851
G1 X237.903 Y191.547 E1.2199
G1 X238.527 Y189.088 E1.2830
G1 X239.708 Y184.563 E1.3994
G1 X242.214 Y175.277 E1.6387
G1 X242.998 Y172.064 E1.7210
G1 X243.599 Y168.966 E1.7995
G1 X243.926 Y165.958 E1.8748
G1 X243.949 Y164.485 E1.9115
G1 X243.858 Y163.065 E1.9469
G1 X243.636 Y161.704 E1.9812
G1 X243.271 Y160.421 E2.0144
G1 X242.755 Y159.234 E2.0466
G1 X242.085 Y158.162 E2.0780
G1 X241.267 Y157.224 E2.1090
G1 X240.312 Y156.433 E2.1398
G1 X239.239 Y155.799 E2.1709
G1 X238.065 Y155.324 E2.2024
G1 X236.812 Y155.000 E2.2346
G1 X235.489 Y154.815 E2.2678
G1 X232.757 Y154.789 E2.3358
G1 X229.942 Y155.075 E2.4062
G1 X221.790 Y156.368 E2.6116
G1 X218.731 Y156.788 E2.6884
G1 X219.293 Y160.424 E2.7800
G1 X219.512 Y163.422 E2.8548
G1 X219.475 Y166.341 E2.9274
G1 X219.190 Y169.206 E2.9991
G1 X218.675 Y172.066 E3.0714
