; G-Code generated by Simplify3D(R) Version 4.1.2
;
;
;
;
; Feb 19, 2023 at 1:35:05 AM
; Settings Summary
;   processName,PLA B01
;   applyToModels,AngryGuardCat-WithPaws
;   profileName,PLA_B01_04_10_OS180_05 Tevo Tornado
;   profileVersion,2023-02-18 09:49:35
;   baseProfile,Creality CR-10(2)
;   printMaterial,PLA
;   printQuality,High
;   printExtruders,
;   extruderName,Primary Extruder
;   extruderToolheadNumber,0
;   extruderDiameter,0.4
;   extruderAutoWidth,0
;   extruderWidth,0.35
;   extrusionMultiplier,0.95
;   extruderUseRetract,1
;   extruderRetractionDistance,4
;   extruderExtraRestartDistance,0
;   extruderRetractionZLift,0.3
;   extruderRetractionSpeed,3000
;   extruderUseCoasting,1
;   extruderCoastingDistance,0.2
;   extruderUseWipe,0
;   extruderWipeDistance,5
;   primaryExtruder,0
;   layerHeight,0.12
;   topSolidLayers,6
;   bottomSolidLayers,6
;   perimeterOutlines,4
;   printPerimetersInsideOut,1
;   startPointOption,2
;   startPointOriginX,0
;   startPointOriginY,300
;   sequentialIslands,0
;   spiralVaseMode,0
;   firstLayerHeightPercentage,120
;   firstLayerWidthPercentage,100
;   firstLayerUnderspeed,0.25
;   useRaft,0
;   raftExtruder,0
;   raftTopLayers,3
;   raftBaseLayers,2
;   raftOffset,3
;   raftSeparationDistance,0.14
;   raftTopInfill,100
;   aboveRaftSpeedMultiplier,0.3
;   useSkirt,1
;   skirtExtruder,0
;   skirtLayers,2
;   skirtOutlines,2
;   skirtOffset,3
;   usePrimePillar,0
;   primePillarExtruder,999
;   primePillarWidth,12
;   primePillarLocation,7
;   primePillarSpeedMultiplier,1
;   useOozeShield,0
;   oozeShieldExtruder,999
;   oozeShieldOffset,2
;   oozeShieldOutlines,1
;   oozeShieldSidewallShape,1
;   oozeShieldSidewallAngle,30
;   oozeShieldSpeedMultiplier,1
;   infillExtruder,0
;   internalInfillPattern,Fast Honeycomb
;   externalInfillPattern,Rectilinear
;   infillPercentage,10
;   outlineOverlapPercentage,15
;   infillExtrusionWidthPercentage,100
;   minInfillLength,5
;   infillLayerInterval,1
;   internalInfillAngles,0
;   overlapInternalInfillAngles,0
;   externalInfillAngles,45,-45
;   generateSupport,0
;   supportExtruder,0
;   supportInfillPercentage,40
;   supportExtraInflation,0
;   supportBaseLayers,0
;   denseSupportExtruder,0
;   denseSupportLayers,0
;   denseSupportInfillPercentage,70
;   supportLayerInterval,1
;   supportHorizontalPartOffset,0.4
;   supportUpperSeparationLayers,1
;   supportLowerSeparationLayers,1
;   supportType,0
;   supportGridSpacing,4.5
;   maxOverhangAngle,45
;   supportAngles,0
;   temperatureName,Primary Extruder,Heated Bed
;   temperatureNumber,0,0
;   temperatureSetpointCount,2,2
;   temperatureSetpointLayers,1,2,1,2
;   temperatureSetpointTemperatures,185,180,10,5
;   temperatureStabilizeAtStartup,1,1
;   temperatureHeatedBed,0,1
;   fanLayers,1,2
;   fanSpeeds,0,100
;   blipFanToFullPower,0
;   adjustSpeedForCooling,1
;   minSpeedLayerTime,15
;   minCoolingSpeedSlowdown,20
;   increaseFanForCooling,1
;   minFanLayerTime,25
;   maxCoolingFanSpeed,100
;   increaseFanForBridging,1
;   bridgingFanSpeed,100
;   use5D,1
;   relativeEdistances,0
;   allowEaxisZeroing,1
;   independentExtruderAxes,0
;   includeM10123,0
;   stickySupport,1
;   applyToolheadOffsets,0
;   gcodeXoffset,0
;   gcodeYoffset,0
;   gcodeZoffset,0
;   overrideMachineDefinition,1
;   machineTypeOverride,0
;   strokeXoverride,300
;   strokeYoverride,300
;   strokeZoverride,400
;   originOffsetXoverride,0
;   originOffsetYoverride,0
;   originOffsetZoverride,0
;   homeXdirOverride,-1
;   homeYdirOverride,-1
;   homeZdirOverride,-1
;   flipXoverride,1
;   flipYoverride,-1
;   flipZoverride,1
;   toolheadOffsets,0,0|0,0|0,0|0,0|0,0|0,0
;   overrideFirmwareConfiguration,1
;   firmwareTypeOverride,RepRap (Marlin/Repetier/Sprinter)
;   GPXconfigOverride,r2
;   baudRateOverride,250000
;   overridePrinterModels,1
;   printerModelsOverride
;   startingGcode,;,; -]H.P.B[- MarshMalloW  ,; $VER: StartScript 1.03 (18.12.2022) MarshMalloW,;,; Begin Startcode,;,M117 *Preheat*	; Preheat,;extruder0_temperature,M104 S[extruder0_temperature],M109 S[extruder0_temperature],;M109 R[extruder0_temperature] ,;,M117 *Auto-leveling*     	; Auto-leveling,M107                   	; Turn layer fan off,G21                    	; Set to metric [change to G20 if you want Imperial],G90                    	; Force coordinates to be absolute relative to the origin,G28                    	; Home X/Y/Z axis,G29                    	; Auto-leveling (BL-Touch),;,M117 *Start Clean*     	; Indicate nozzle clean in progress on LCD,G92 E0                 	; Set Extruder to 0 ,G1 X0 Y0 F2000         	; Move X and Y to 0 with speed 2000 (mm/min),G1 Z0.1 F1000          	; Move Z to   0.1 with speed 1000 (mm/min),G1 X8.0 F2000          	; Move X to   8.0 with speed 2000 (mm/min),G1 Y60.0 E4.0 F1000.0  	; Move Y to  60 and Extruder with 4.0 with speed 1000 (mm/min),G1 Y100.0 E8.5 F1000.0 	; Move Y to 100 and Extruder with 8.5 with speed 1000 (mm/min),G92 E0                 	; Set extruder to 0,G1 X16.0 F3000         	; Move X to 16.0 with speed 3000 (mm/min),G1 Y60.0 F3000         	; Move Y to 60.0 with speed 3000 (mm/min),M117 *End Clean*       	; Indicate nozzle clean in progress on LCD,G1 Z5 F3000            	; Move Z to  5.0 with speed 3000 (mm/min),G1 X20.0 F3000         	; Move X to 20.0 with speed 3000 (mm/min),G1 Y20.0 F3000         	; Move Y to 20.0 with speed 3000 (mm/min),; ,M117 *Printing...*     	; Start printing msg on LCD,;,; End Startcode,;,; Begin printing with sliced GCode after here,;
;   layerChangeGcode,
;   retractionGcode,
;   toolChangeGcode,
;   endingGcode,;,; init 181010,;,;M107 			; Fan off,;G1 E-1 F300 			; Retract the filament a bit before lifting the nozzle,;M104 S0 			; Turn off extruder,;M140 S0 			; Turn off bed,;G91			; Relative positioning,;G28 X0 Y0 			; Move X/Y to min endstops so the head is out of teh way,;M84 			; Disable motors,;G90 			; Absolute positioning,;M117 Print ready...,,;,; // From Cura 181010,; // End_gcode,G92 E0			; Zero the extruded length,;G1 E-30 F300		; Retract E -30,M106 S0			; Turn off cooling fan,M104 S0			; Turn off temperature,M140 S0		     	; Turn off bed,G91			; Relative positioning,G1 E-1 F300			; Retract the filament a bit before lifting the nozzle to release some of the pressure,G1 Z+20 E-5 X-20 Y-20 F7200	; Move Z up a bit and retract filament even more,G1 X0 Y150 F10000		; Move right min,M107			; Turn off layer fan,M84			; Disable motors,G90			; Absolute positioning,M117 *The-End* 		; End msg,;,
;   exportFileFormat,gcode
;   celebration,0
;   celebrationSong,Star Wars
;   postProcessing,D:\S3D_Thumbs\S3D_Thumbs.exe f="[output_filepath]" x=600 y=110 w=953 lw=400 lh=300 sw=32 sh=32 d=Y
;   defaultSpeed,4200
;   outlineUnderspeed,0.5
;   solidInfillUnderspeed,0.8
;   supportUnderspeed,0.8
;   rapidXYspeed,6000
;   rapidZspeed,1002
;   minBridgingArea,50
;   bridgingExtraInflation,0.2
;   bridgingExtrusionMultiplier,1
;   bridgingSpeedMultiplier,0.8
;   useFixedBridgingAngle,0
;   fixedBridgingAngle,0
;   applyBridgingToPerimeters,0
;   filamentDiameters,1.75|1.75|1.75|1.75|1.75|1.75
;   filamentPricesPerKg,30|46|46|46|46|46
;   filamentDensities,1.25|1.25|1.25|1.25|1.25|1.25
;   useMinPrintHeight,0
;   minPrintHeight,0
;   useMaxPrintHeight,0
;   maxPrintHeight,50
;   useDiaphragm,0
;   diaphragmLayerInterval,20
;   robustSlicing,1
;   mergeAllIntoSolid,0
;   onlyRetractWhenCrossingOutline,1
;   retractBetweenLayers,1
;   useRetractionMinTravel,0
;   retractionMinTravel,3
;   retractWhileWiping,1
;   onlyWipeOutlines,1
;   avoidCrossingOutline,0
;   maxMovementDetourFactor,3
;   toolChangeRetractionDistance,12
;   toolChangeExtraRestartDistance,-0.5
;   toolChangeRetractionSpeed,600
;   externalThinWallType,1
;   internalThinWallType,1
;   thinWallAllowedOverlapPercentage,10
;   singleExtrusionMinLength,1
;   singleExtrusionMinPrintingWidthPercentage,50
;   singleExtrusionMaxPrintingWidthPercentage,200
;   singleExtrusionEndpointExtension,0.2
;   horizontalSizeCompensation,0
G90
M82
M106 S0
M140 S10
;
; -]H.P.B[- MarshMalloW  
; $VER: StartScript 1.03 (18.12.2022) MarshMalloW
;
; Begin Startcode
;
M117 *Preheat*	; Preheat
;extruder0_temperature
M104 S185
M109 S185
;M109 R185 
;
M117 *Auto-leveling*     	; Auto-leveling
M107                   	; Turn layer fan off
G21                    	; Set to metric [change to G20 if you want Imperial]
G90                    	; Force coordinates to be absolute relative to the origin
G28                    	; Home X/Y/Z axis
G29                    	; Auto-leveling (BL-Touch)
;
M117 *Start Clean*     	; Indicate nozzle clean in progress on LCD
G92 E0                 	; Set Extruder to 0 
G1 X0 Y0 F2000         	; Move X and Y to 0 with speed 2000 (mm/min)
G1 Z0.1 F1000          	; Move Z to   0.1 with speed 1000 (mm/min)
G1 X8.0 F2000          	; Move X to   8.0 with speed 2000 (mm/min)
G1 Y60.0 E4.0 F1000.0  	; Move Y to  60 and Extruder with 4.0 with speed 1000 (mm/min)
G1 Y100.0 E8.5 F1000.0 	; Move Y to 100 and Extruder with 8.5 with speed 1000 (mm/min)
G92 E0                 	; Set extruder to 0
G1 X16.0 F3000         	; Move X to 16.0 with speed 3000 (mm/min)
G1 Y60.0 F3000         	; Move Y to 60.0 with speed 3000 (mm/min)
M117 *End Clean*       	; Indicate nozzle clean in progress on LCD
G1 Z5 F3000            	; Move Z to  5.0 with speed 3000 (mm/min)
G1 X20.0 F3000         	; Move X to 20.0 with speed 3000 (mm/min)
G1 Y20.0 F3000         	; Move Y to 20.0 with speed 3000 (mm/min)
; 
M117 *Printing...*     	; Start printing msg on LCD
;
; End Startcode
;
; Begin printing with sliced GCode after here
;
; process PLA B01
; layer 1, Z = 0.144
T0
G92 E0.0000
G1 E-4.0000 F3000
; feature skirt
; tool H0.144 W0.350
G1 Z0.300 F1002
G1 X47.999 Y38.517 F6000
G1 Z0.144 F1002
G1 E0.0000 F3000
G92 E0.0000
G1 X254.766 Y38.519 E4.1159 F1050
G1 X256.078 Y39.071 E4.1443
G1 X260.020 Y43.107 E4.2566
G1 X260.225 Y43.360 E4.2631
G1 X261.247 Y44.887 E4.2996
G1 X261.508 Y45.506 E4.3130
G1 X261.882 Y47.268 E4.3489
G1 X261.920 Y47.606 E4.3556
G1 X261.957 Y49.821 E4.3997
G1 X261.955 Y49.946 E4.4022
G1 X261.747 Y53.790 E4.4789
G1 X261.700 Y54.111 E4.4853
G1 X261.324 Y55.657 E4.5170
G1 X261.251 Y55.890 E4.5218
G1 X260.650 Y57.407 E4.5543
G1 X260.547 Y57.624 E4.5591
G1 X259.302 Y59.836 E4.6096
G1 X259.041 Y60.189 E4.6184
G1 X258.141 Y61.134 E4.6444
G1 X257.942 Y61.313 E4.6497
G1 X255.099 Y63.510 E4.7212
G1 X254.892 Y63.648 E4.7262
G1 X253.242 Y64.586 E4.7639
G1 X253.009 Y64.696 E4.7691
G1 X250.675 Y65.603 E4.8189
G1 X250.530 Y65.653 E4.8220
G1 X247.971 Y66.398 E4.8750
G1 X247.803 Y66.438 E4.8784
G1 X245.398 Y66.889 E4.9272
G1 X245.172 Y66.917 E4.9317
G1 X243.320 Y67.021 E4.9686
G1 X243.139 Y67.022 E4.9722
G1 X241.270 Y66.935 E5.0095
G1 X241.107 Y66.920 E5.0127
G1 X239.238 Y66.659 E5.0503
G1 X239.085 Y66.630 E5.0534
G1 X237.245 Y66.204 E5.0910
G1 X237.095 Y66.163 E5.0941
G1 X235.314 Y65.581 E5.1314
G1 X235.162 Y65.524 E5.1346
G1 X233.467 Y64.793 E5.1714
G1 X233.308 Y64.714 E5.1749
G1 X231.731 Y63.835 E5.2108
G1 X231.559 Y63.726 E5.2149
G1 X230.110 Y62.683 E5.2504
G1 X229.886 Y62.491 E5.2563
G1 X228.416 Y61.003 E5.2979
G1 X228.192 Y60.725 E5.3050
G1 X226.970 Y58.850 E5.3496
G1 X226.931 Y58.787 E5.3511
G1 X224.430 Y54.568 E5.4487
G1 X224.335 Y54.385 E5.4528
G1 X223.701 Y52.959 E5.4839
G1 X223.598 Y52.654 E5.4903
G1 X223.259 Y51.244 E5.5191
G1 X223.214 Y50.947 E5.5251
G1 X223.119 Y49.499 E5.5540
G1 X223.115 Y49.403 E5.5559
G1 X223.095 Y47.546 E5.5929
G1 X216.749 Y47.546 E5.7192
G1 X208.841 Y47.578 E5.8766
G1 X208.777 Y49.662 E5.9181
G1 X208.770 Y49.779 E5.9205
G1 X208.519 Y52.366 E5.9722
G1 X208.505 Y52.475 E5.9744
G1 X208.087 Y55.081 E6.0269
G1 X208.038 Y55.300 E6.0314
G1 X206.624 Y60.104 E6.1311
G1 X206.581 Y60.233 E6.1338
G1 X204.839 Y64.812 E6.2313
G1 X204.709 Y65.082 E6.2373
G1 X203.125 Y67.764 E6.2993
G1 X203.105 Y67.797 E6.3001
G1 X202.412 Y68.913 E6.3262
G1 X202.610 Y69.685 E6.3421
G1 X202.671 Y69.725 E6.3435
G1 X203.687 Y70.687 E6.3714
G1 X204.261 Y72.089 E6.4015
G1 X204.235 Y72.864 E6.4170
G1 X204.960 Y75.419 E6.4698
G1 X203.504 Y77.323 E6.5176
G1 X203.469 Y77.657 E6.5242
G1 X203.509 Y78.829 E6.5476
G1 X203.510 Y78.905 E6.5491
G1 X203.433 Y87.353 E6.7173
G1 X203.588 Y88.643 E6.7431
G1 X203.922 Y90.279 E6.7764
G1 X204.586 Y93.138 E6.8348
G1 X204.615 Y93.295 E6.8380
G1 X204.892 Y95.292 E6.8781
G1 X204.908 Y95.499 E6.8822
G1 X205.071 Y103.598 E7.0435
G1 X205.669 Y108.845 E7.1486
G1 X205.680 Y109.020 E7.1521
G1 X205.716 Y111.559 E7.2026
G1 X205.706 Y111.763 E7.2067
G1 X205.453 Y114.234 E7.2562
G1 X205.422 Y114.426 E7.2600
G1 X204.874 Y116.965 E7.3118
G1 X204.819 Y117.163 E7.3158
G1 X204.136 Y119.164 E7.3579
G1 X204.052 Y119.367 E7.3623
G1 X203.135 Y121.250 E7.4040
G1 X203.015 Y121.458 E7.4088
G1 X201.932 Y123.077 E7.4475
G1 X201.677 Y123.379 E7.4554
G1 X200.408 Y124.579 E7.4902
G1 X199.844 Y124.939 E7.5035
G1 X198.688 Y125.400 E7.5283
G1 X198.141 Y125.522 E7.5394
G1 X196.961 Y125.595 E7.5630
G1 X196.515 Y125.566 E7.5719
G1 X195.366 Y125.343 E7.5952
G1 X195.054 Y125.252 E7.6016
G1 X193.911 Y124.801 E7.6261
G1 X193.663 Y124.680 E7.6316
G1 X191.316 Y123.297 E7.6858
G1 X191.217 Y123.234 E7.6881
G1 X188.104 Y121.109 E7.7632
G1 X188.050 Y121.070 E7.7645
G1 X184.744 Y118.626 E7.8463
G1 X184.685 Y118.580 E7.8478
G1 X181.773 Y116.230 E7.9223
G1 X181.638 Y116.109 E7.9259
G1 X176.809 Y111.314 E8.0614
G1 X176.784 Y111.289 E8.0621
G1 X172.910 Y107.288 E8.1730
G1 X170.451 Y105.024 E8.2395
G1 X169.000 Y104.039 E8.2744
G1 X167.909 Y103.644 E8.2975
G1 X167.468 Y103.583 E8.3064
G1 X166.635 Y103.589 E8.3229
G1 X160.780 Y104.425 E8.4407
G1 X160.671 Y104.437 E8.4429
G1 X157.960 Y104.654 E8.4970
G1 X157.929 Y104.656 E8.4976
G1 X153.290 Y104.944 E8.5901
G1 X153.234 Y104.946 E8.5913
G1 X148.854 Y105.078 E8.6785
G1 X148.694 Y105.076 E8.6817
G1 X140.828 Y104.601 E8.8385
G1 X139.896 Y104.635 E8.8571
G1 X139.662 Y104.721 E8.8621
G1 X139.220 Y104.995 E8.8724
G1 X138.130 Y106.064 E8.9028
G1 X134.282 Y109.983 E9.0121
G1 X134.241 Y110.024 E9.0133
G1 X130.161 Y113.914 E9.1255
G1 X130.117 Y113.954 E9.1267
G1 X126.207 Y117.439 E9.2310
G1 X126.145 Y117.491 E9.2326
G1 X122.792 Y120.214 E9.3186
G1 X122.774 Y120.228 E9.3190
G1 X119.352 Y122.933 E9.4058
G1 X119.311 Y122.964 E9.4069
G1 X116.220 Y125.266 E9.4836
G1 X116.156 Y125.312 E9.4852
G1 X113.100 Y127.383 E9.5586
G1 X113.025 Y127.431 E9.5604
G1 X111.487 Y128.363 E9.5962
G1 X111.228 Y128.492 E9.6020
G1 X109.684 Y129.110 E9.6351
G1 X109.237 Y129.224 E9.6443
G1 X107.646 Y129.414 E9.6762
G1 X106.934 Y129.355 E9.6904
G1 X105.304 Y128.878 E9.7242
G1 X104.471 Y128.352 E9.7438
G1 X103.573 Y127.350 E9.7706
G1 X103.363 Y127.063 E9.7777
G1 X102.669 Y125.875 E9.8050
G1 X102.550 Y125.628 E9.8105
G1 X101.581 Y123.156 E9.8634
G1 X101.461 Y122.603 E9.8746
G1 X101.353 Y120.548 E9.9156
G1 X101.351 Y120.425 E9.9180
G1 X101.422 Y116.250 E10.0012
G1 X101.423 Y116.196 E10.0022
G1 X101.680 Y110.836 E10.1091
G1 X101.709 Y110.590 E10.1140
G1 X102.073 Y108.686 E10.1526
G1 X102.099 Y108.570 E10.1549
G1 X102.730 Y106.160 E10.2045
G1 X103.237 Y103.985 E10.2490
G1 X103.792 Y98.854 E10.3517
G1 X103.848 Y98.566 E10.3576
G1 X104.459 Y96.394 E10.4025
G1 X105.078 Y93.906 E10.4535
G1 X105.353 Y91.323 E10.5052
G1 X105.392 Y90.516 E10.5213
G1 X105.011 Y89.595 E10.5411
G1 X104.987 Y89.532 E10.5425
G1 X104.462 Y88.111 E10.5726
G1 X104.390 Y87.859 E10.5779
G1 X104.112 Y86.522 E10.6050
G1 X104.077 Y86.083 E10.6138
G1 X104.136 Y84.764 E10.6401
G1 X104.203 Y84.352 E10.6484
G1 X104.288 Y84.058 E10.6545
G1 X102.801 Y82.700 E10.6946
G1 X102.458 Y80.167 E10.7454
G1 X103.256 Y78.897 E10.7753
G1 X102.650 Y77.650 E10.8029
G1 X103.893 Y75.163 E10.8582
G1 X103.892 Y75.124 E10.8590
G1 X104.015 Y74.918 E10.8638
G1 X104.203 Y74.543 E10.8721
G1 X104.244 Y74.535 E10.8730
G1 X104.276 Y74.482 E10.8742
G1 X103.598 Y72.729 E10.9116
G1 X101.067 Y68.575 E11.0085
G1 X100.950 Y68.346 E11.0136
G1 X98.398 Y62.326 E11.1437
G1 X98.345 Y62.184 E11.1467
G1 X97.704 Y60.217 E11.1879
G1 X97.659 Y60.053 E11.1913
G1 X97.270 Y58.301 E11.2270
