; G-Code generated by Simplify3D(R) Version 4.1.2
; Sep 30, 2022 at 8:45:24 AM
; Settings Summary
;   processName,A12-04 Tevo Tornado
;   applyToModels,do_it
;   profileName,A12-04-10-04 Tevo Tornado
;   profileVersion,2022-09-29 17:21:54
;   baseProfile,Creality CR-10(2)
;   printMaterial,PLA
;   printQuality,Medium
;   printExtruders,
;   extruderName,Primary Extruder
;   extruderToolheadNumber,0
;   extruderDiameter,0.4
;   extruderAutoWidth,0
;   extruderWidth,0.35
;   extrusionMultiplier,0.95
;   extruderUseRetract,1
;   extruderRetractionDistance,4
;   extruderExtraRestartDistance,0
;   extruderRetractionZLift,0.3
;   extruderRetractionSpeed,3600
;   extruderUseCoasting,0
;   extruderCoastingDistance,0.5
;   extruderUseWipe,0
;   extruderWipeDistance,5
;   primaryExtruder,0
;   layerHeight,0.15
;   topSolidLayers,4
;   bottomSolidLayers,3
;   perimeterOutlines,3
;   printPerimetersInsideOut,0
;   startPointOption,2
;   startPointOriginX,0
;   startPointOriginY,300
;   sequentialIslands,0
;   spiralVaseMode,0
;   firstLayerHeightPercentage,120
;   firstLayerWidthPercentage,100
;   firstLayerUnderspeed,0.5
;   useRaft,0
;   raftExtruder,0
;   raftTopLayers,3
;   raftBaseLayers,2
;   raftOffset,3
;   raftSeparationDistance,0.14
;   raftTopInfill,100
;   aboveRaftSpeedMultiplier,0.3
;   useSkirt,1
;   skirtExtruder,0
;   skirtLayers,1
;   skirtOutlines,2
;   skirtOffset,3
;   usePrimePillar,0
;   primePillarExtruder,999
;   primePillarWidth,12
;   primePillarLocation,7
;   primePillarSpeedMultiplier,1
;   useOozeShield,0
;   oozeShieldExtruder,999
;   oozeShieldOffset,2
;   oozeShieldOutlines,1
;   oozeShieldSidewallShape,1
;   oozeShieldSidewallAngle,30
;   oozeShieldSpeedMultiplier,1
;   infillExtruder,0
;   internalInfillPattern,Rectilinear
;   externalInfillPattern,Rectilinear
;   infillPercentage,10
;   outlineOverlapPercentage,15
;   infillExtrusionWidthPercentage,100
;   minInfillLength,5
;   infillLayerInterval,1
;   internalInfillAngles,45,-45
;   overlapInternalInfillAngles,0
;   externalInfillAngles,45,-45
;   generateSupport,1
;   supportExtruder,0
;   supportInfillPercentage,30
;   supportExtraInflation,0
;   supportBaseLayers,0
;   denseSupportExtruder,0
;   denseSupportLayers,0
;   denseSupportInfillPercentage,70
;   supportLayerInterval,1
;   supportHorizontalPartOffset,0.4
;   supportUpperSeparationLayers,1
;   supportLowerSeparationLayers,1
;   supportType,0
;   supportGridSpacing,4.5
;   maxOverhangAngle,45
;   supportAngles,0
;   temperatureName,Primary Extruder,Heated Bed
;   temperatureNumber,0,0
;   temperatureSetpointCount,2,2
;   temperatureSetpointLayers,1,2,1,2
;   temperatureSetpointTemperatures,205,200,55,50
;   temperatureStabilizeAtStartup,1,1
;   temperatureHeatedBed,0,1
;   fanLayers,1,2
;   fanSpeeds,0,100
;   blipFanToFullPower,0
;   adjustSpeedForCooling,1
;   minSpeedLayerTime,15
;   minCoolingSpeedSlowdown,20
;   increaseFanForCooling,1
;   minFanLayerTime,25
;   maxCoolingFanSpeed,100
;   increaseFanForBridging,1
;   bridgingFanSpeed,100
;   use5D,1
;   relativeEdistances,0
;   allowEaxisZeroing,1
;   independentExtruderAxes,0
;   includeM10123,0
;   stickySupport,1
;   applyToolheadOffsets,0
;   gcodeXoffset,0
;   gcodeYoffset,0
;   gcodeZoffset,0
;   overrideMachineDefinition,1
;   machineTypeOverride,0
;   strokeXoverride,300
;   strokeYoverride,300
;   strokeZoverride,400
;   originOffsetXoverride,0
;   originOffsetYoverride,0
;   originOffsetZoverride,0
;   homeXdirOverride,-1
;   homeYdirOverride,-1
;   homeZdirOverride,-1
;   flipXoverride,1
;   flipYoverride,-1
;   flipZoverride,1
;   toolheadOffsets,0,0|0,0|0,0|0,0|0,0|0,0
;   overrideFirmwareConfiguration,1
;   firmwareTypeOverride,RepRap (Marlin/Repetier/Sprinter)
;   GPXconfigOverride,r2
;   baudRateOverride,250000
;   overridePrinterModels,1
;   printerModelsOverride
;   startingGcode,;,; -]H.P.B[- MarshMalloW  ,; $VER: StartScript 1.02 (26.12.2019) MarshMalloW,;,; Begin Startcode,;,M117 *Preheat*     	; Preheat,;extruder0_temperature,M104 S[extruder0_temperature]  ,M109 S[extruder0_temperature] ,M109 R[extruder0_temperature] ,;,M117 *Auto-leveling*     	; Auto-leveling,M107                   	; Turn layer fan off,G21                    	; Set to metric [change to G20 if you want Imperial],G90                    	; Force coordinates to be absolute relative to the origin,G28                    	; Home X/Y/Z axis,G29                    	; Auto-leveling (BL-Touch),;,M117 *Start Clean*     	; Indicate nozzle clean in progress on LCD,G92 E0                 	; Set Extruder to 0 ,G1 X0 Y0 F2000         	; Move X and Y to 0 with speed 2000 (mm/min),G1 Z0.1 F1000          	; Move Z to   0.1 with speed 1000 (mm/min),G1 X8.0 F2000          	; Move X to   8.0 with speed 2000 (mm/min),G1 Y60.0 E4.0 F1000.0  	; Move Y to  60 and Extruder with 4.0 with speed 1000 (mm/min),G1 Y100.0 E8.5 F1000.0 	; Move Y to 100 and Extruder with 8.5 with speed 1000 (mm/min),G92 E0                 	; Set extruder to 0,G1 X16.0 F3000         	; Move X to 16.0 with speed 3000 (mm/min),G1 Y60.0 F3000         	; Move Y to 60.0 with speed 3000 (mm/min),M117 *End Clean*       	; Indicate nozzle clean in progress on LCD,G1 Z5 F3000            	; Move Z to  5.0 with speed 3000 (mm/min),G1 X20.0 F3000         	; Move X to 20.0 with speed 3000 (mm/min),G1 Y20.0 F3000         	; Move Y to 20.0 with speed 3000 (mm/min),; ,M117 *Printing...*     	; Start printing msg on LCD,;,; End Startcode,;,; Begin printing with sliced GCode after here,;
;   layerChangeGcode,
;   retractionGcode,
;   toolChangeGcode,
;   endingGcode,;,; init 181010,;,;M107 			; Fan off,;G1 E-1 F300 			; Retract the filament a bit before lifting the nozzle,;M104 S0 			; Turn off extruder,;M140 S0 			; Turn off bed,;G91			; Relative positioning,;G28 X0 Y0 			; Move X/Y to min endstops so the head is out of teh way,;M84 			; Disable motors,;G90 			; Absolute positioning,;M117 Print ready...,,;,; // From Cura 181010,; // End_gcode,G92 E0			; Zero the extruded length,;G1 E-30 F300		; Retract E -30,M106 S0			; Turn off cooling fan,M104 S0			; Turn off temperature,M140 S0		     	; Turn off bed,G91			; Relative positioning,G1 E-1 F300			; Retract the filament a bit before lifting the nozzle to release some of the pressure,G1 Z+20 E-5 X-20 Y-20 F7200	; Move Z up a bit and retract filament even more,G1 X0 Y150 F10000		; Move right min,M107			; Turn off layer fan,M84			; Disable motors,G90			; Absolute positioning,M117 *The-End* 		; End msg,;,
;   exportFileFormat,gcode
;   celebration,0
;   celebrationSong,Star Wars
;   postProcessing,|{REPLACE "; layer " "M117 INDICATOR-Layer"}|{REPLACE ", Z = " "\n; Z="}
;   defaultSpeed,1800
;   outlineUnderspeed,0.5
;   solidInfillUnderspeed,0.8
;   supportUnderspeed,0.8
;   rapidXYspeed,6000
;   rapidZspeed,1002
;   minBridgingArea,50
;   bridgingExtraInflation,0.2
;   bridgingExtrusionMultiplier,1
;   bridgingSpeedMultiplier,0.8
;   useFixedBridgingAngle,0
;   fixedBridgingAngle,0
;   applyBridgingToPerimeters,0
;   filamentDiameters,1.75|1.75|1.75|1.75|1.75|1.75
;   filamentPricesPerKg,30|46|46|46|46|46
;   filamentDensities,1.25|1.25|1.25|1.25|1.25|1.25
;   useMinPrintHeight,0
;   minPrintHeight,0
;   useMaxPrintHeight,0
;   maxPrintHeight,50
;   useDiaphragm,0
;   diaphragmLayerInterval,20
;   robustSlicing,1
;   mergeAllIntoSolid,0
;   onlyRetractWhenCrossingOutline,1
;   retractBetweenLayers,1
;   useRetractionMinTravel,0
;   retractionMinTravel,3
;   retractWhileWiping,0
;   onlyWipeOutlines,1
;   avoidCrossingOutline,0
;   maxMovementDetourFactor,3
;   toolChangeRetractionDistance,12
;   toolChangeExtraRestartDistance,-0.5
;   toolChangeRetractionSpeed,600
;   externalThinWallType,0
;   internalThinWallType,1
;   thinWallAllowedOverlapPercentage,10
;   singleExtrusionMinLength,1
;   singleExtrusionMinPrintingWidthPercentage,50
;   singleExtrusionMaxPrintingWidthPercentage,200
;   singleExtrusionEndpointExtension,0.2
;   horizontalSizeCompensation,0
G90
M82
M106 S0
M140 S55
M190 S55
;
; -]H.P.B[- MarshMalloW  
; $VER: StartScript 1.02 (26.12.2019) MarshMalloW
;
; Begin Startcode
;
M117 *Preheat*     	; Preheat
;extruder0_temperature
M104 S205  
M109 S205 
M109 R205 
;
M117 *Auto-leveling*     	; Auto-leveling
M107                   	; Turn layer fan off
G21                    	; Set to metric [change to G20 if you want Imperial]
G90                    	; Force coordinates to be absolute relative to the origin
G28                    	; Home X/Y/Z axis
G29                    	; Auto-leveling (BL-Touch)
;
M117 *Start Clean*     	; Indicate nozzle clean in progress on LCD
G92 E0                 	; Set Extruder to 0 
G1 X0 Y0 F2000         	; Move X and Y to 0 with speed 2000 (mm/min)
G1 Z0.1 F1000          	; Move Z to   0.1 with speed 1000 (mm/min)
G1 X8.0 F2000          	; Move X to   8.0 with speed 2000 (mm/min)
G1 Y60.0 E4.0 F1000.0  	; Move Y to  60 and Extruder with 4.0 with speed 1000 (mm/min)
G1 Y100.0 E8.5 F1000.0 	; Move Y to 100 and Extruder with 8.5 with speed 1000 (mm/min)
G92 E0                 	; Set extruder to 0
G1 X16.0 F3000         	; Move X to 16.0 with speed 3000 (mm/min)
G1 Y60.0 F3000         	; Move Y to 60.0 with speed 3000 (mm/min)
M117 *End Clean*       	; Indicate nozzle clean in progress on LCD
G1 Z5 F3000            	; Move Z to  5.0 with speed 3000 (mm/min)
G1 X20.0 F3000         	; Move X to 20.0 with speed 3000 (mm/min)
G1 Y20.0 F3000         	; Move Y to 20.0 with speed 3000 (mm/min)
; 
M117 *Printing...*     	; Start printing msg on LCD
;
; End Startcode
;
; Begin printing with sliced GCode after here
;
; process A12-04 Tevo Tornado
M117 INDICATOR-Layer1
; Z=0.180
T0
G92 E0.0000
G1 E-4.0000 F3600
; feature skirt
; tool H0.180 W0.350
G1 Z0.300 F1002
G1 X117.074 Y21.194 F6000
G1 Z0.180 F1002
G1 E0.0000 F3600
G92 E0.0000
G1 X119.995 Y21.194 E0.0727 F900
G1 X163.656 Y64.856 E1.6091
G1 X163.696 Y64.897 E1.6105
G1 X167.104 Y68.534 E1.7345
G1 X167.180 Y68.620 E1.7374
G1 X170.363 Y72.493 E1.8621
G1 X170.432 Y72.584 E1.8650
G1 X173.357 Y76.655 E1.9897
G1 X173.421 Y76.750 E1.9926
G1 X176.075 Y81.003 E2.1173
G1 X176.133 Y81.102 E2.1202
G1 X178.505 Y85.518 E2.2449
G1 X178.556 Y85.621 E2.2477
G1 X180.636 Y90.182 E2.3725
G1 X180.681 Y90.287 E2.3753
G1 X182.461 Y94.974 E2.5001
G1 X182.498 Y95.082 E2.5029
G1 X183.970 Y99.874 E2.6276
G1 X184.000 Y99.984 E2.6305
G1 X185.157 Y104.862 E2.7552
G1 X185.180 Y104.974 E2.7581
G1 X186.018 Y109.913 E2.8827
G1 X186.033 Y110.018 E2.8854
G1 X186.499 Y114.334 E2.9934
G1 X186.508 Y114.451 E2.9963
G1 X186.687 Y118.793 E3.1044
G1 X186.688 Y118.910 E3.1074
G1 X186.579 Y123.254 E3.2155
G1 X186.572 Y123.371 E3.2184
G1 X186.175 Y127.699 E3.3265
G1 X186.161 Y127.815 E3.3295
G1 X185.478 Y132.107 E3.4376
G1 X185.456 Y132.222 E3.4405
G1 X184.987 Y134.279 E3.4930
G1 X188.758 Y133.278 E3.5901
G1 X188.882 Y133.249 E3.5933
G1 X194.017 Y132.279 E3.7233
G1 X194.143 Y132.260 E3.7265
G1 X199.335 Y131.664 E3.8565
G1 X199.462 Y131.654 E3.8597
G1 X204.683 Y131.438 E3.9897
G1 X204.811 Y131.437 E3.9929
G1 X210.034 Y131.599 E4.1229
G1 X210.162 Y131.608 E4.1261
G1 X215.359 Y132.149 E4.2561
G1 X215.486 Y132.167 E4.2593
G1 X220.630 Y133.085 E4.3893
G1 X220.755 Y133.112 E4.3925
G1 X225.819 Y134.400 E4.5225
G1 X225.942 Y134.436 E4.5257
G1 X230.899 Y136.088 E4.6557
G1 X231.019 Y136.133 E4.6589
G1 X235.843 Y138.141 E4.7889
G1 X235.959 Y138.195 E4.7921
G1 X240.625 Y140.548 E4.9221
G1 X240.737 Y140.609 E4.9253
G1 X245.220 Y143.295 E5.0553
G1 X245.327 Y143.365 E5.0585
G1 X249.603 Y146.368 E5.1885
G1 X249.705 Y146.446 E5.1917
G1 X253.751 Y149.752 E5.3217
G1 X253.847 Y149.836 E5.3249
G1 X257.643 Y153.427 E5.4550
G1 X257.733 Y153.519 E5.4581
G1 X261.258 Y157.376 E5.5882
G1 X261.341 Y157.474 E5.5913
G1 X264.576 Y161.577 E5.7214
G1 X264.652 Y161.680 E5.7246
G1 X267.581 Y166.007 E5.8546
G1 X267.649 Y166.116 E5.8578
G1 X270.256 Y170.644 E5.9878
G1 X270.316 Y170.757 E5.9910
G1 X272.588 Y175.463 E6.1210
G1 X272.640 Y175.580 E6.1242
G1 X274.564 Y180.438 E6.2542
G1 X274.607 Y180.559 E6.2574
G1 X276.173 Y185.544 E6.3874
G1 X276.207 Y185.667 E6.3906
G1 X277.408 Y190.753 E6.5206
G1 X277.432 Y190.878 E6.5238
G1 X278.260 Y196.037 E6.6538
G1 X278.276 Y196.165 E6.6570
G1 X278.728 Y201.370 E6.7870
G1 X278.734 Y201.498 E6.7902
G1 X278.806 Y206.723 E6.9202
G1 X278.804 Y206.851 E6.9234
G1 X278.496 Y212.067 E7.0534
G1 X278.484 Y212.195 E7.0566
G1 X277.799 Y217.375 E7.1866
G1 X277.778 Y217.501 E7.1898
G1 X276.718 Y222.618 E7.3198
G1 X276.688 Y222.742 E7.3230
G1 X275.260 Y227.769 E7.4530
G1 X275.221 Y227.891 E7.4562
G1 X273.432 Y232.800 E7.5863
G1 X273.383 Y232.919 E7.5894
G1 X271.243 Y237.685 E7.7195
G1 X271.186 Y237.800 E7.7226
G1 X268.705 Y242.399 E7.8527
G1 X268.640 Y242.509 E7.8558
G1 X265.832 Y246.916 E7.9859
G1 X265.759 Y247.021 E7.9891
G1 X262.638 Y251.212 E8.1191
G1 X262.558 Y251.312 E8.1223
G1 X259.141 Y255.265 E8.2523
G1 X259.054 Y255.359 E8.2555
G1 X255.359 Y259.054 E8.3855
G1 X255.265 Y259.141 E8.3887
G1 X251.312 Y262.558 E8.5187
G1 X251.212 Y262.638 E8.5219
G1 X247.021 Y265.759 E8.6519
G1 X246.916 Y265.832 E8.6551
G1 X242.509 Y268.640 E8.7851
G1 X242.399 Y268.705 E8.7883
G1 X237.800 Y271.186 E8.9183
G1 X237.685 Y271.243 E8.9215
G1 X232.919 Y273.383 E9.0515
G1 X232.800 Y273.432 E9.0547
G1 X227.891 Y275.221 E9.1847
G1 X227.769 Y275.260 E9.1879
G1 X222.742 Y276.688 E9.3179
G1 X222.618 Y276.718 E9.3211
G1 X217.501 Y277.778 E9.4511
G1 X217.375 Y277.799 E9.4543
G1 X212.195 Y278.484 E9.5843
G1 X212.067 Y278.496 E9.5875
G1 X206.851 Y278.804 E9.7175
G1 X206.723 Y278.806 E9.7207
G1 X201.498 Y278.734 E9.8508
G1 X201.370 Y278.728 E9.8539
G1 X196.165 Y278.276 E9.9840
G1 X196.037 Y278.260 E9.9871
G1 X190.878 Y277.432 E10.1172
G1 X190.753 Y277.408 E10.1204
G1 X185.667 Y276.207 E10.2504
G1 X185.544 Y276.173 E10.2536
G1 X180.559 Y274.607 E10.3836
G1 X180.438 Y274.564 E10.3868
G1 X175.580 Y272.640 E10.5168
G1 X175.463 Y272.588 E10.5200
G1 X170.757 Y270.316 E10.6500
G1 X170.644 Y270.256 E10.6532
G1 X166.115 Y267.649 E10.7832
G1 X166.007 Y267.581 E10.7864
G1 X161.680 Y264.652 E10.9164
G1 X161.577 Y264.576 E10.9196
G1 X157.474 Y261.341 E11.0496
G1 X157.376 Y261.258 E11.0528
G1 X153.519 Y257.733 E11.1828
G1 X153.427 Y257.643 E11.1860
G1 X149.836 Y253.847 E11.3160
G1 X149.752 Y253.751 E11.3192
G1 X146.446 Y249.705 E11.4492
G1 X146.368 Y249.603 E11.4524
G1 X143.365 Y245.327 E11.5824
G1 X143.295 Y245.220 E11.5856
G1 X140.609 Y240.737 E11.7156
G1 X140.548 Y240.625 E11.7188
G1 X138.195 Y235.959 E11.8488
G1 X138.141 Y235.843 E11.8520
G1 X136.133 Y231.019 E11.9820
G1 X136.089 Y230.899 E11.9852
G1 X134.436 Y225.942 E12.1153
G1 X134.400 Y225.819 E12.1184
G1 X133.112 Y220.755 E12.2485
G1 X133.085 Y220.630 E12.2516
G1 X132.167 Y215.486 E12.3817
G1 X132.149 Y215.359 E12.3849
G1 X131.608 Y210.162 E12.5149
G1 X131.599 Y210.034 E12.5181
G1 X131.437 Y204.811 E12.6481
G1 X131.437 Y204.683 E12.6513
G1 X131.654 Y199.462 E12.7813
G1 X131.664 Y199.335 E12.7845
G1 X132.260 Y194.143 E12.9145
G1 X132.279 Y194.017 E12.9177
G1 X133.249 Y188.882 E13.0477
G1 X133.278 Y188.758 E13.0509
G1 X134.279 Y184.987 E13.1480
G1 X132.222 Y185.456 E13.2005
G1 X132.107 Y185.478 E13.2034
G1 X127.815 Y186.161 E13.3115
G1 X127.699 Y186.175 E13.3144
G1 X123.371 Y186.572 E13.4226
G1 X123.255 Y186.579 E13.4255
G1 X118.910 Y186.688 E13.5336
G1 X118.793 Y186.687 E13.5365
G1 X114.451 Y186.508 E13.6447
G1 X114.334 Y186.499 E13.6476
G1 X110.018 Y186.033 E13.7556
G1 X109.911 Y186.018 E13.7583
G1 X104.969 Y185.177 E13.8830
G1 X104.857 Y185.154 E13.8858
G1 X99.977 Y183.994 E14.0107
G1 X99.867 Y183.964 E14.0135
G1 X95.072 Y182.489 E14.1383
G1 X94.964 Y182.452 E14.1412
G1 X90.275 Y180.669 E14.2660
G1 X90.169 Y180.625 E14.2688
G1 X85.606 Y178.542 E14.3937
G1 X85.504 Y178.491 E14.3965
G1 X81.085 Y176.116 E14.5213
G1 X80.986 Y176.058 E14.5242
G1 X76.731 Y173.402 E14.6490
G1 X76.636 Y173.338 E14.6518
G1 X72.562 Y170.411 E14.7767
G1 X72.472 Y170.341 E14.7795
G1 X68.596 Y167.156 E14.9043
G1 X68.510 Y167.080 E14.9072
G1 X64.871 Y163.670 E15.0313
G1 X64.830 Y163.630 E15.0327
G1 X21.194 Y119.994 E16.5682
