; G-Code generated by Simplify3D(R) Version 4.1.2
; Oct 6, 2022 at 4:59:16 PM
; Settings Summary
;   processName,A12-04-50 Tevo Tornado
;   applyToModels,Portkey Test
;   profileName,A12-04-10-04 Tevo Tornado
;   profileVersion,2022-09-29 18:33:49
;   baseProfile,Creality CR-10(2)
;   printMaterial,PLA
;   printQuality,Medium
;   printExtruders,
;   extruderName,Primary Extruder
;   extruderToolheadNumber,0
;   extruderDiameter,0.4
;   extruderAutoWidth,0
;   extruderWidth,0.35
;   extrusionMultiplier,0.95
;   extruderUseRetract,1
;   extruderRetractionDistance,4
;   extruderExtraRestartDistance,0
;   extruderRetractionZLift,0.3
;   extruderRetractionSpeed,3600
;   extruderUseCoasting,0
;   extruderCoastingDistance,0.5
;   extruderUseWipe,0
;   extruderWipeDistance,5
;   primaryExtruder,0
;   layerHeight,0.15
;   topSolidLayers,4
;   bottomSolidLayers,3
;   perimeterOutlines,3
;   printPerimetersInsideOut,0
;   startPointOption,2
;   startPointOriginX,0
;   startPointOriginY,300
;   sequentialIslands,0
;   spiralVaseMode,0
;   firstLayerHeightPercentage,120
;   firstLayerWidthPercentage,100
;   firstLayerUnderspeed,0.5
;   useRaft,0
;   raftExtruder,0
;   raftTopLayers,3
;   raftBaseLayers,2
;   raftOffset,3
;   raftSeparationDistance,0.14
;   raftTopInfill,100
;   aboveRaftSpeedMultiplier,0.3
;   useSkirt,1
;   skirtExtruder,0
;   skirtLayers,1
;   skirtOutlines,2
;   skirtOffset,3
;   usePrimePillar,0
;   primePillarExtruder,999
;   primePillarWidth,12
;   primePillarLocation,7
;   primePillarSpeedMultiplier,1
;   useOozeShield,0
;   oozeShieldExtruder,999
;   oozeShieldOffset,2
;   oozeShieldOutlines,1
;   oozeShieldSidewallShape,1
;   oozeShieldSidewallAngle,30
;   oozeShieldSpeedMultiplier,1
;   infillExtruder,0
;   internalInfillPattern,Rectilinear
;   externalInfillPattern,Rectilinear
;   infillPercentage,10
;   outlineOverlapPercentage,15
;   infillExtrusionWidthPercentage,100
;   minInfillLength,5
;   infillLayerInterval,1
;   internalInfillAngles,45,-45
;   overlapInternalInfillAngles,0
;   externalInfillAngles,45,-45
;   generateSupport,0
;   supportExtruder,0
;   supportInfillPercentage,30
;   supportExtraInflation,0
;   supportBaseLayers,0
;   denseSupportExtruder,0
;   denseSupportLayers,0
;   denseSupportInfillPercentage,70
;   supportLayerInterval,1
;   supportHorizontalPartOffset,0.4
;   supportUpperSeparationLayers,1
;   supportLowerSeparationLayers,1
;   supportType,0
;   supportGridSpacing,4.5
;   maxOverhangAngle,45
;   supportAngles,0
;   temperatureName,Primary Extruder,Heated Bed
;   temperatureNumber,0,0
;   temperatureSetpointCount,2,2
;   temperatureSetpointLayers,1,2,1,2
;   temperatureSetpointTemperatures,205,200,55,50
;   temperatureStabilizeAtStartup,1,1
;   temperatureHeatedBed,0,1
;   fanLayers,1,2
;   fanSpeeds,0,100
;   blipFanToFullPower,0
;   adjustSpeedForCooling,1
;   minSpeedLayerTime,15
;   minCoolingSpeedSlowdown,20
;   increaseFanForCooling,1
;   minFanLayerTime,25
;   maxCoolingFanSpeed,100
;   increaseFanForBridging,1
;   bridgingFanSpeed,100
;   use5D,1
;   relativeEdistances,0
;   allowEaxisZeroing,1
;   independentExtruderAxes,0
;   includeM10123,0
;   stickySupport,1
;   applyToolheadOffsets,0
;   gcodeXoffset,0
;   gcodeYoffset,0
;   gcodeZoffset,0
;   overrideMachineDefinition,1
;   machineTypeOverride,0
;   strokeXoverride,300
;   strokeYoverride,300
;   strokeZoverride,400
;   originOffsetXoverride,0
;   originOffsetYoverride,0
;   originOffsetZoverride,0
;   homeXdirOverride,-1
;   homeYdirOverride,-1
;   homeZdirOverride,-1
;   flipXoverride,1
;   flipYoverride,-1
;   flipZoverride,1
;   toolheadOffsets,0,0|0,0|0,0|0,0|0,0|0,0
;   overrideFirmwareConfiguration,1
;   firmwareTypeOverride,RepRap (Marlin/Repetier/Sprinter)
;   GPXconfigOverride,r2
;   baudRateOverride,250000
;   overridePrinterModels,1
;   printerModelsOverride
;   startingGcode,;,; -]H.P.B[- MarshMalloW  ,; $VER: StartScript 1.02 (26.12.2019) MarshMalloW,;,; Begin Startcode,;,M117 *Preheat*     	; Preheat,;extruder0_temperature,M104 S[extruder0_temperature]  ,M109 S[extruder0_temperature] ,M109 R[extruder0_temperature] ,;,M117 *Auto-leveling*     	; Auto-leveling,M107                   	; Turn layer fan off,G21                    	; Set to metric [change to G20 if you want Imperial],G90                    	; Force coordinates to be absolute relative to the origin,G28                    	; Home X/Y/Z axis,G29                    	; Auto-leveling (BL-Touch),;,M117 *Start Clean*     	; Indicate nozzle clean in progress on LCD,G92 E0                 	; Set Extruder to 0 ,G1 X0 Y0 F2000         	; Move X and Y to 0 with speed 2000 (mm/min),G1 Z0.1 F1000          	; Move Z to   0.1 with speed 1000 (mm/min),G1 X8.0 F2000          	; Move X to   8.0 with speed 2000 (mm/min),G1 Y60.0 E4.0 F1000.0  	; Move Y to  60 and Extruder with 4.0 with speed 1000 (mm/min),G1 Y100.0 E8.5 F1000.0 	; Move Y to 100 and Extruder with 8.5 with speed 1000 (mm/min),G92 E0                 	; Set extruder to 0,G1 X16.0 F3000         	; Move X to 16.0 with speed 3000 (mm/min),G1 Y60.0 F3000         	; Move Y to 60.0 with speed 3000 (mm/min),M117 *End Clean*       	; Indicate nozzle clean in progress on LCD,G1 Z5 F3000            	; Move Z to  5.0 with speed 3000 (mm/min),G1 X20.0 F3000         	; Move X to 20.0 with speed 3000 (mm/min),G1 Y20.0 F3000         	; Move Y to 20.0 with speed 3000 (mm/min),; ,M117 *Printing...*     	; Start printing msg on LCD,;,; End Startcode,;,; Begin printing with sliced GCode after here,;
;   layerChangeGcode,
;   retractionGcode,
;   toolChangeGcode,
;   endingGcode,;,; init 181010,;,;M107 			; Fan off,;G1 E-1 F300 			; Retract the filament a bit before lifting the nozzle,;M104 S0 			; Turn off extruder,;M140 S0 			; Turn off bed,;G91			; Relative positioning,;G28 X0 Y0 			; Move X/Y to min endstops so the head is out of teh way,;M84 			; Disable motors,;G90 			; Absolute positioning,;M117 Print ready...,,;,; // From Cura 181010,; // End_gcode,G92 E0			; Zero the extruded length,;G1 E-30 F300		; Retract E -30,M106 S0			; Turn off cooling fan,M104 S0			; Turn off temperature,M140 S0		     	; Turn off bed,G91			; Relative positioning,G1 E-1 F300			; Retract the filament a bit before lifting the nozzle to release some of the pressure,G1 Z+20 E-5 X-20 Y-20 F7200	; Move Z up a bit and retract filament even more,G1 X0 Y150 F10000		; Move right min,M107			; Turn off layer fan,M84			; Disable motors,G90			; Absolute positioning,M117 *The-End* 		; End msg,;,
;   exportFileFormat,gcode
;   celebration,0
;   celebrationSong,Star Wars
;   postProcessing,|{REPLACE "; layer " "M117 INDICATOR-Layer"}|{REPLACE ", Z = " "\n; Z="}
;   defaultSpeed,1800
;   outlineUnderspeed,0.5
;   solidInfillUnderspeed,0.8
;   supportUnderspeed,0.8
;   rapidXYspeed,6000
;   rapidZspeed,1002
;   minBridgingArea,50
;   bridgingExtraInflation,0.2
;   bridgingExtrusionMultiplier,1
;   bridgingSpeedMultiplier,0.8
;   useFixedBridgingAngle,0
;   fixedBridgingAngle,0
;   applyBridgingToPerimeters,0
;   filamentDiameters,1.75|1.75|1.75|1.75|1.75|1.75
;   filamentPricesPerKg,30|46|46|46|46|46
;   filamentDensities,1.25|1.25|1.25|1.25|1.25|1.25
;   useMinPrintHeight,0
;   minPrintHeight,0
;   useMaxPrintHeight,0
;   maxPrintHeight,50
;   useDiaphragm,0
;   diaphragmLayerInterval,20
;   robustSlicing,1
;   mergeAllIntoSolid,0
;   onlyRetractWhenCrossingOutline,1
;   retractBetweenLayers,1
;   useRetractionMinTravel,0
;   retractionMinTravel,3
;   retractWhileWiping,0
;   onlyWipeOutlines,1
;   avoidCrossingOutline,0
;   maxMovementDetourFactor,3
;   toolChangeRetractionDistance,12
;   toolChangeExtraRestartDistance,-0.5
;   toolChangeRetractionSpeed,600
;   externalThinWallType,0
;   internalThinWallType,1
;   thinWallAllowedOverlapPercentage,10
;   singleExtrusionMinLength,1
;   singleExtrusionMinPrintingWidthPercentage,50
;   singleExtrusionMaxPrintingWidthPercentage,200
;   singleExtrusionEndpointExtension,0.2
;   horizontalSizeCompensation,0
G90
M82
M106 S0
M140 S55
M190 S55
;
; -]H.P.B[- MarshMalloW  
; $VER: StartScript 1.02 (26.12.2019) MarshMalloW
;
; Begin Startcode
;
M117 *Preheat*     	; Preheat
;extruder0_temperature
M104 S205  
M109 S205 
M109 R205 
;
M117 *Auto-leveling*     	; Auto-leveling
M107                   	; Turn layer fan off
G21                    	; Set to metric [change to G20 if you want Imperial]
G90                    	; Force coordinates to be absolute relative to the origin
G28                    	; Home X/Y/Z axis
G29                    	; Auto-leveling (BL-Touch)
;
M117 *Start Clean*     	; Indicate nozzle clean in progress on LCD
G92 E0                 	; Set Extruder to 0 
G1 X0 Y0 F2000         	; Move X and Y to 0 with speed 2000 (mm/min)
G1 Z0.1 F1000          	; Move Z to   0.1 with speed 1000 (mm/min)
G1 X8.0 F2000          	; Move X to   8.0 with speed 2000 (mm/min)
G1 Y60.0 E4.0 F1000.0  	; Move Y to  60 and Extruder with 4.0 with speed 1000 (mm/min)
G1 Y100.0 E8.5 F1000.0 	; Move Y to 100 and Extruder with 8.5 with speed 1000 (mm/min)
G92 E0                 	; Set extruder to 0
G1 X16.0 F3000         	; Move X to 16.0 with speed 3000 (mm/min)
G1 Y60.0 F3000         	; Move Y to 60.0 with speed 3000 (mm/min)
M117 *End Clean*       	; Indicate nozzle clean in progress on LCD
G1 Z5 F3000            	; Move Z to  5.0 with speed 3000 (mm/min)
G1 X20.0 F3000         	; Move X to 20.0 with speed 3000 (mm/min)
G1 Y20.0 F3000         	; Move Y to 20.0 with speed 3000 (mm/min)
; 
M117 *Printing...*     	; Start printing msg on LCD
;
; End Startcode
;
; Begin printing with sliced GCode after here
;
; process A12-04-50 Tevo Tornado
M117 INDICATOR-Layer1
; Z=0.180
T0
G92 E0.0000
G1 E-4.0000 F3600
; feature skirt
; tool H0.180 W0.350
G1 Z0.300 F1002
G1 X131.519 Y115.223 F6000
G1 Z0.180 F1002
G1 E0.0000 F3600
G92 E0.0000
G1 X132.141 Y114.441 E0.0249 F900
G1 X132.341 Y114.229 E0.0321
G1 X132.819 Y113.799 E0.0481
G1 X133.551 Y113.023 E0.0746
G1 X133.732 Y112.857 E0.0808
G1 X133.821 Y112.785 E0.0836
G1 X134.171 Y112.394 E0.0967
G1 X134.448 Y111.874 E0.1113
G1 X135.135 Y111.413 E0.1319
G1 X136.082 Y110.548 E0.1638
G1 X136.167 Y110.475 E0.1666
G1 X137.554 Y109.362 E0.2109
G1 X137.599 Y109.327 E0.2123
G1 X138.827 Y108.404 E0.2505
G1 X138.958 Y108.315 E0.2545
G1 X139.651 Y107.886 E0.2747
G1 X140.360 Y107.362 E0.2967
G1 X140.633 Y107.196 E0.3046
G1 X142.604 Y106.233 E0.3592
G1 X142.776 Y106.160 E0.3639
G1 X143.953 Y105.732 E0.3950
G1 X144.127 Y105.679 E0.3995
G1 X145.777 Y105.265 E0.4419
G1 X146.072 Y105.217 E0.4493
G1 X147.683 Y105.093 E0.4895
G1 X147.853 Y105.089 E0.4938
G1 X148.425 Y105.100 E0.5080
G1 X148.548 Y105.107 E0.5111
G1 X150.038 Y105.243 E0.5483
G1 X150.267 Y105.315 E0.5543
G1 X150.286 Y105.318 E0.5547
G1 X151.903 Y105.724 E0.5962
G1 X152.118 Y105.793 E0.6018
G1 X153.572 Y106.364 E0.6407
G1 X153.666 Y106.405 E0.6433
G1 X154.328 Y106.710 E0.6614
G1 X154.415 Y106.753 E0.6638
G1 X154.934 Y107.028 E0.6784
G1 X155.143 Y107.091 E0.6838
G1 X156.296 Y107.776 E0.7172
G1 X156.331 Y107.797 E0.7182
G1 X157.033 Y108.236 E0.7388
G1 X157.100 Y108.280 E0.7408
G1 X158.669 Y109.363 E0.7883
G1 X158.785 Y109.450 E0.7919
G1 X161.640 Y111.788 E0.8837
G1 X161.744 Y111.880 E0.8872
G1 X164.728 Y114.746 E0.9901
G1 X164.903 Y114.976 E0.9973
G1 X165.310 Y115.383 E1.0116
G1 X165.406 Y115.487 E1.0151
G1 X165.830 Y115.985 E1.0314
G1 X165.961 Y116.090 E1.0356
G1 X166.192 Y116.312 E1.0436
G1 X168.086 Y118.498 E1.1155
G1 X168.413 Y118.647 E1.1245
G1 X169.265 Y119.974 E1.1637
G1 X171.500 Y122.885 E1.2550
G1 X171.551 Y122.955 E1.2572
G1 X172.529 Y124.369 E1.3000
G1 X172.559 Y124.414 E1.3013
G1 X173.744 Y126.243 E1.3555
G1 X174.163 Y126.824 E1.3734
G1 X174.213 Y126.896 E1.3755
G1 X174.868 Y127.904 E1.4055
G1 X174.891 Y127.940 E1.4065
G1 X176.007 Y129.752 E1.4595
G1 X176.083 Y129.888 E1.4633
G1 X176.176 Y130.075 E1.4686
G1 X176.444 Y130.493 E1.4809
G1 X176.478 Y130.548 E1.4825
G1 X178.828 Y134.522 E1.5974
G1 X178.889 Y134.634 E1.6006
G1 X179.245 Y135.348 E1.6204
G1 X179.920 Y136.458 E1.6527
G1 X179.990 Y136.586 E1.6564
G1 X180.158 Y136.921 E1.6657
G1 X180.658 Y137.766 E1.6901
G1 X180.727 Y137.766 E1.6919
G1 X181.011 Y137.884 E1.6995
G1 X181.258 Y137.966 E1.7060
G1 X181.469 Y137.966 E1.7112
G1 X181.724 Y138.121 E1.7187
G1 X181.887 Y138.175 E1.7229
G1 X182.205 Y138.414 E1.7328
G1 X183.159 Y138.996 E1.7606
G1 X183.369 Y139.403 E1.7720
G1 X183.867 Y140.057 E1.7925
G1 X184.078 Y140.496 E1.8046
G1 X184.340 Y140.984 E1.8184
G1 X184.436 Y141.457 E1.8304
G1 X184.524 Y141.689 E1.8366
G1 X184.588 Y141.892 E1.8419
G1 X184.663 Y142.193 E1.8496
G1 X184.838 Y142.628 E1.8612
G1 X184.935 Y142.960 E1.8698
G1 X185.084 Y143.752 E1.8899
G1 X185.099 Y143.848 E1.8923
G1 X185.273 Y145.173 E1.9256
G1 X185.387 Y145.659 E1.9380
G1 X185.434 Y146.063 E1.9481
G1 X185.434 Y146.291 E1.9538
G1 X185.563 Y147.284 E1.9787
G1 X185.569 Y147.337 E1.9800
G1 X185.784 Y149.486 E2.0338
G1 X185.792 Y149.661 E2.0381
G1 X185.792 Y150.116 E2.0495
G1 X186.039 Y153.991 E2.1461
G1 X186.043 Y154.070 E2.1481
G1 X186.095 Y156.922 E2.2190
G1 X186.143 Y157.686 E2.2381
G1 X186.146 Y157.842 E2.2420
G1 X186.081 Y160.282 E2.3027
G1 X186.002 Y160.504 E2.3086
G1 X185.984 Y160.809 E2.3162
G1 X185.962 Y160.999 E2.3209
G1 X185.652 Y162.838 E2.3673
G1 X185.496 Y163.140 E2.3758
G1 X185.364 Y163.621 E2.3882
G1 X185.347 Y164.251 E2.4039
G1 X184.015 Y165.620 E2.4514
G1 X183.990 Y165.650 E2.4524
G1 X183.975 Y165.662 E2.4528
G1 X183.429 Y166.223 E2.4723
G1 X183.124 Y166.240 E2.4799
G1 X182.559 Y166.522 E2.4956
G1 X182.219 Y166.603 E2.5043
G1 X182.204 Y166.635 E2.5052
G1 X182.132 Y166.913 E2.5124
G1 X182.049 Y167.156 E2.5187
G1 X181.649 Y168.100 E2.5443
G1 X181.237 Y169.281 E2.5754
G1 X181.149 Y169.488 E2.5810
G1 X181.092 Y169.602 E2.5842
G1 X180.582 Y170.991 E2.6210
G1 X180.556 Y171.059 E2.6228
G1 X179.776 Y172.940 E2.6735
G1 X179.755 Y172.988 E2.6748
G1 X179.154 Y174.322 E2.7112
G1 X179.021 Y174.720 E2.7216
G1 X178.906 Y174.990 E2.7289
G1 X177.650 Y177.356 E2.7956
G1 X177.631 Y177.391 E2.7966
G1 X176.368 Y179.646 E2.8609
G1 X176.308 Y179.744 E2.8637
G1 X175.671 Y180.726 E2.8928
G1 X175.633 Y180.782 E2.8945
G1 X175.025 Y181.644 E2.9208
G1 X174.992 Y181.689 E2.9222
G1 X173.434 Y183.753 E2.9865
G1 X173.281 Y184.019 E2.9942
G1 X172.505 Y184.976 E3.0248
G1 X172.270 Y185.089 E3.0313
G1 X170.883 Y186.518 E3.0809
G1 X170.794 Y186.604 E3.0839
G1 X168.732 Y188.452 E3.1528
G1 X168.667 Y188.507 E3.1550
G1 X168.255 Y188.842 E3.1682
G1 X168.135 Y188.931 E3.1719
G1 X166.956 Y189.733 E3.2074
G1 X166.297 Y190.232 E3.2279
G1 X166.171 Y190.319 E3.2318
G1 X163.696 Y191.874 E3.3045
G1 X163.326 Y192.051 E3.3147
G1 X162.886 Y192.201 E3.3263
G1 X161.098 Y193.044 E3.3754
G1 X160.690 Y193.178 E3.3861
G1 X160.545 Y193.207 E3.3898
G1 X160.189 Y193.346 E3.3993
G1 X160.116 Y193.373 E3.4013
G1 X158.147 Y194.044 E3.4530
G1 X157.931 Y194.103 E3.4586
G1 X155.273 Y194.646 E3.5261
G1 X155.149 Y194.667 E3.5292
G1 X154.149 Y194.798 E3.5543
G1 X153.922 Y194.812 E3.5600
G1 X153.491 Y194.813 E3.5707
G1 X152.144 Y194.909 E3.6043
G1 X151.864 Y194.907 E3.6113
G1 X150.614 Y194.797 E3.6425
G1 X148.057 Y194.703 E3.7062
G1 X147.760 Y194.413 E3.7165
G1 X146.299 Y194.167 E3.7534
G1 X145.967 Y194.077 E3.7619
G1 X145.159 Y193.771 E3.7834
G1 X143.500 Y193.236 E3.8268
G1 X143.347 Y193.179 E3.8308
G1 X141.809 Y192.520 E3.8725
G1 X141.716 Y192.477 E3.8750
G1 X141.055 Y192.148 E3.8934
G1 X141.045 Y192.145 E3.8937
G1 X140.585 Y191.958 E3.9060
G1 X137.971 Y190.439 E3.9813
G1 X137.878 Y190.381 E3.9840
G1 X136.974 Y189.778 E4.0110
G1 X136.836 Y189.676 E4.0153
G1 X136.363 Y189.289 E4.0305
G1 X135.454 Y188.667 E4.0579
G1 X135.339 Y188.581 E4.0615
G1 X133.025 Y186.705 E4.1356
G1 X132.797 Y186.483 E4.1435
G1 X132.542 Y186.186 E4.1533
G1 X131.378 Y185.113 E4.1926
G1 X131.253 Y184.986 E4.1971
G1 X130.931 Y184.622 E4.2092
G1 X130.764 Y184.484 E4.2146
G1 X130.574 Y184.301 E4.2211
G1 X128.850 Y182.374 E4.2855
G1 X128.796 Y182.311 E4.2875
G1 X127.957 Y181.278 E4.3206
G1 X127.810 Y181.011 E4.3282
G1 X127.024 Y180.067 E4.3588
G1 X126.937 Y179.954 E4.3623
