; G-Code generated by Simplify3D(R) Version 4.1.2
; Dec 11, 2020 at 10:38:47 PM
; Settings Summary
;   processName,Process1
;   applyToModels,SupportBobine8mm
;   profileName,A10-04-15 Tevo Tornado
;   profileVersion,2020-12-06 16:18:07
;   baseProfile,Creality CR-10(2)
;   printMaterial,PLA
;   printQuality,Medium
;   printExtruders,
;   extruderName,Primary Extruder
;   extruderToolheadNumber,0
;   extruderDiameter,0.4
;   extruderAutoWidth,0
;   extruderWidth,0.35
;   extrusionMultiplier,0.95
;   extruderUseRetract,1
;   extruderRetractionDistance,4
;   extruderExtraRestartDistance,0
;   extruderRetractionZLift,0.1
;   extruderRetractionSpeed,6000
;   extruderUseCoasting,1
;   extruderCoastingDistance,0.4
;   extruderUseWipe,1
;   extruderWipeDistance,5
;   primaryExtruder,0
;   layerHeight,0.15
;   topSolidLayers,5
;   bottomSolidLayers,4
;   perimeterOutlines,3
;   printPerimetersInsideOut,0
;   startPointOption,1
;   startPointOriginX,0
;   startPointOriginY,300
;   sequentialIslands,0
;   spiralVaseMode,0
;   firstLayerHeightPercentage,120
;   firstLayerWidthPercentage,100
;   firstLayerUnderspeed,0.4
;   useRaft,0
;   raftExtruder,0
;   raftTopLayers,3
;   raftBaseLayers,2
;   raftOffset,3
;   raftSeparationDistance,0.14
;   raftTopInfill,100
;   aboveRaftSpeedMultiplier,0.3
;   useSkirt,1
;   skirtExtruder,0
;   skirtLayers,1
;   skirtOutlines,2
;   skirtOffset,3
;   usePrimePillar,0
;   primePillarExtruder,999
;   primePillarWidth,12
;   primePillarLocation,7
;   primePillarSpeedMultiplier,1
;   useOozeShield,0
;   oozeShieldExtruder,999
;   oozeShieldOffset,2
;   oozeShieldOutlines,1
;   oozeShieldSidewallShape,1
;   oozeShieldSidewallAngle,30
;   oozeShieldSpeedMultiplier,1
;   infillExtruder,0
;   internalInfillPattern,Rectilinear
;   externalInfillPattern,Rectilinear
;   infillPercentage,15
;   outlineOverlapPercentage,15
;   infillExtrusionWidthPercentage,100
;   minInfillLength,5
;   infillLayerInterval,1
;   internalInfillAngles,45,-45
;   overlapInternalInfillAngles,0
;   externalInfillAngles,45,-45
;   generateSupport,0
;   supportExtruder,0
;   supportInfillPercentage,30
;   supportExtraInflation,0
;   supportBaseLayers,0
;   denseSupportExtruder,0
;   denseSupportLayers,0
;   denseSupportInfillPercentage,70
;   supportLayerInterval,1
;   supportHorizontalPartOffset,0.4
;   supportUpperSeparationLayers,1
;   supportLowerSeparationLayers,1
;   supportType,0
;   supportGridSpacing,4.5
;   maxOverhangAngle,45
;   supportAngles,0
;   temperatureName,Primary Extruder,Heated Bed
;   temperatureNumber,0,0
;   temperatureSetpointCount,2,2
;   temperatureSetpointLayers,1,2,1,2
;   temperatureSetpointTemperatures,215,210,55,50
;   temperatureStabilizeAtStartup,1,1
;   temperatureHeatedBed,0,1
;   fanLayers,1,2
;   fanSpeeds,0,100
;   blipFanToFullPower,0
;   adjustSpeedForCooling,1
;   minSpeedLayerTime,15
;   minCoolingSpeedSlowdown,20
;   increaseFanForCooling,1
;   minFanLayerTime,25
;   maxCoolingFanSpeed,100
;   increaseFanForBridging,1
;   bridgingFanSpeed,100
;   use5D,1
;   relativeEdistances,0
;   allowEaxisZeroing,1
;   independentExtruderAxes,0
;   includeM10123,0
;   stickySupport,1
;   applyToolheadOffsets,0
;   gcodeXoffset,0
;   gcodeYoffset,0
;   gcodeZoffset,0
;   overrideMachineDefinition,1
;   machineTypeOverride,0
;   strokeXoverride,300
;   strokeYoverride,300
;   strokeZoverride,400
;   originOffsetXoverride,0
;   originOffsetYoverride,0
;   originOffsetZoverride,0
;   homeXdirOverride,-1
;   homeYdirOverride,-1
;   homeZdirOverride,-1
;   flipXoverride,1
;   flipYoverride,-1
;   flipZoverride,1
;   toolheadOffsets,0,0|0,0|0,0|0,0|0,0|0,0
;   overrideFirmwareConfiguration,1
;   firmwareTypeOverride,RepRap (Marlin/Repetier/Sprinter)
;   GPXconfigOverride,r2
;   baudRateOverride,250000
;   overridePrinterModels,1
;   printerModelsOverride
;   startingGcode,;,; -]H.P.B[- MarshMalloW  ,; $VER: StartScript 1.02 (26.12.2019) MarshMalloW,;,; Begin Startcode,;,M117 *Preheat*     	; Preheat,;extruder0_temperature,M104 S[extruder0_temperature]  ,M109 S[extruder0_temperature] ,M109 R[extruder0_temperature] ,;,M117 *Auto-leveling*     	; Auto-leveling,M107                   	; Turn layer fan off,G21                    	; Set to metric [change to G20 if you want Imperial],G90                    	; Force coordinates to be absolute relative to the origin,G28                    	; Home X/Y/Z axis,G29                    	; Auto-leveling (BL-Touch),;,M117 *Start Clean*     	; Indicate nozzle clean in progress on LCD,G92 E0                 	; Set Extruder to 0 ,G1 X0 Y0 F2000         	; Move X and Y to 0 with speed 2000 (mm/min),G1 Z0.1 F1000          	; Move Z to   0.1 with speed 1000 (mm/min),G1 X8.0 F2000          	; Move X to   8.0 with speed 2000 (mm/min),G1 Y60.0 E4.0 F1000.0  	; Move Y to  60 and Extruder with 4.0 with speed 1000 (mm/min),G1 Y100.0 E8.5 F1000.0 	; Move Y to 100 and Extruder with 8.5 with speed 1000 (mm/min),G92 E0                 	; Set extruder to 0,G1 X16.0 F3000         	; Move X to 16.0 with speed 3000 (mm/min),G1 Y60.0 F3000         	; Move Y to 60.0 with speed 3000 (mm/min),M117 *End Clean*       	; Indicate nozzle clean in progress on LCD,G1 Z5 F3000            	; Move Z to  5.0 with speed 3000 (mm/min),G1 X20.0 F3000         	; Move X to 20.0 with speed 3000 (mm/min),G1 Y20.0 F3000         	; Move Y to 20.0 with speed 3000 (mm/min),; ,M117 *Printing...*     	; Start printing msg on LCD,;,; End Startcode,;,; Begin printing with sliced GCode after here,;
;   layerChangeGcode,
;   retractionGcode,
;   toolChangeGcode,
;   endingGcode,;,; init 181010,;,;M107 			; Fan off,;G1 E-1 F300 			; Retract the filament a bit before lifting the nozzle,;M104 S0 			; Turn off extruder,;M140 S0 			; Turn off bed,;G91			; Relative positioning,;G28 X0 Y0 			; Move X/Y to min endstops so the head is out of teh way,;M84 			; Disable motors,;G90 			; Absolute positioning,;M117 Print ready...,,;,; // From Cura 181010,; // End_gcode,G92 E0			; Zero the extruded length,;G1 E-30 F300		; Retract E -30,M106 S0			; Turn off cooling fan,M104 S0			; Turn off temperature,M140 S0		     	; Turn off bed,G91			; Relative positioning,G1 E-1 F300			; Retract the filament a bit before lifting the nozzle to release some of the pressure,G1 Z+20 E-5 X-20 Y-20 F7200	; Move Z up a bit and retract filament even more,G1 X0 Y150 F10000		; Move right min,M107			; Turn off layer fan,M84			; Disable motors,G90			; Absolute positioning,M117 *The-End* 		; End msg,;,
;   exportFileFormat,gcode
;   celebration,0
;   celebrationSong,Star Wars
;   postProcessing,|{REPLACE "; layer " "M117 INDICATOR-Layer"}|{REPLACE ", Z = " "\n; Z="}
;   defaultSpeed,2400
;   outlineUnderspeed,0.6
;   solidInfillUnderspeed,0.8
;   supportUnderspeed,0.8
;   rapidXYspeed,3600
;   rapidZspeed,900
;   minBridgingArea,50
;   bridgingExtraInflation,0.2
;   bridgingExtrusionMultiplier,1
;   bridgingSpeedMultiplier,0.6
;   useFixedBridgingAngle,0
;   fixedBridgingAngle,0
;   applyBridgingToPerimeters,0
;   filamentDiameters,1.75|1.75|1.75|1.75|1.75|1.75
;   filamentPricesPerKg,30|46|46|46|46|46
;   filamentDensities,1.25|1.25|1.25|1.25|1.25|1.25
;   useMinPrintHeight,0
;   minPrintHeight,0
;   useMaxPrintHeight,0
;   maxPrintHeight,50
;   useDiaphragm,0
;   diaphragmLayerInterval,20
;   robustSlicing,1
;   mergeAllIntoSolid,0
;   onlyRetractWhenCrossingOutline,1
;   retractBetweenLayers,1
;   useRetractionMinTravel,0
;   retractionMinTravel,3
;   retractWhileWiping,1
;   onlyWipeOutlines,1
;   avoidCrossingOutline,1
;   maxMovementDetourFactor,3
;   toolChangeRetractionDistance,12
;   toolChangeExtraRestartDistance,-0.5
;   toolChangeRetractionSpeed,600
;   externalThinWallType,1
;   internalThinWallType,1
;   thinWallAllowedOverlapPercentage,20
;   singleExtrusionMinLength,1
;   singleExtrusionMinPrintingWidthPercentage,50
;   singleExtrusionMaxPrintingWidthPercentage,200
;   singleExtrusionEndpointExtension,0.2
;   horizontalSizeCompensation,0
G90
M82
M106 S0
M140 S55
M190 S55
;
; -]H.P.B[- MarshMalloW  
; $VER: StartScript 1.02 (26.12.2019) MarshMalloW
;
; Begin Startcode
;
M117 *Preheat*     	; Preheat
;extruder0_temperature
M104 S215  
M109 S215 
M109 R215 
;
M117 *Auto-leveling*     	; Auto-leveling
M107                   	; Turn layer fan off
G21                    	; Set to metric [change to G20 if you want Imperial]
G90                    	; Force coordinates to be absolute relative to the origin
G28                    	; Home X/Y/Z axis
G29                    	; Auto-leveling (BL-Touch)
;
M117 *Start Clean*     	; Indicate nozzle clean in progress on LCD
G92 E0                 	; Set Extruder to 0 
G1 X0 Y0 F2000         	; Move X and Y to 0 with speed 2000 (mm/min)
G1 Z0.1 F1000          	; Move Z to   0.1 with speed 1000 (mm/min)
G1 X8.0 F2000          	; Move X to   8.0 with speed 2000 (mm/min)
G1 Y60.0 E4.0 F1000.0  	; Move Y to  60 and Extruder with 4.0 with speed 1000 (mm/min)
G1 Y100.0 E8.5 F1000.0 	; Move Y to 100 and Extruder with 8.5 with speed 1000 (mm/min)
G92 E0                 	; Set extruder to 0
G1 X16.0 F3000         	; Move X to 16.0 with speed 3000 (mm/min)
G1 Y60.0 F3000         	; Move Y to 60.0 with speed 3000 (mm/min)
M117 *End Clean*       	; Indicate nozzle clean in progress on LCD
G1 Z5 F3000            	; Move Z to  5.0 with speed 3000 (mm/min)
G1 X20.0 F3000         	; Move X to 20.0 with speed 3000 (mm/min)
G1 Y20.0 F3000         	; Move Y to 20.0 with speed 3000 (mm/min)
; 
M117 *Printing...*     	; Start printing msg on LCD
;
; End Startcode
;
; Begin printing with sliced GCode after here
;
; process Process1
M117 INDICATOR-Layer1
; Z=0.180
T0
G92 E0.0000
G1 E-4.0000 F6000
; feature skirt
; tool H0.180 W0.350
G1 Z0.180 F900
G1 X165.811 Y76.775 F3600
G1 E0.0000 F6000
G92 E0.0000
G1 X166.163 Y76.830 E0.0089 F960
G1 X168.342 Y77.402 E0.0649
G1 X168.676 Y77.527 E0.0738
G1 X170.696 Y78.525 E0.1299
G1 X170.998 Y78.714 E0.1387
G1 X172.776 Y80.098 E0.1948
G1 X173.034 Y80.344 E0.2037
G1 X174.499 Y82.056 E0.2597
G1 X174.702 Y82.349 E0.2686
G1 X175.793 Y84.320 E0.3247
G1 X175.933 Y84.648 E0.3335
G1 X176.606 Y86.799 E0.3896
G1 X176.678 Y87.148 E0.3985
G1 X176.905 Y89.390 E0.4545
G1 X176.905 Y89.746 E0.4634
G1 X176.678 Y91.988 E0.5195
G1 X176.606 Y92.337 E0.5284
G1 X175.933 Y94.487 E0.5844
G1 X175.793 Y94.815 E0.5933
G1 X174.702 Y96.787 E0.6494
G1 X174.499 Y97.080 E0.6582
G1 X173.034 Y98.792 E0.7143
G1 X172.776 Y99.038 E0.7232
G1 X170.998 Y100.421 E0.7792
G1 X170.696 Y100.611 E0.7881
G1 X168.676 Y101.609 E0.8442
G1 X168.342 Y101.734 E0.8530
G1 X166.163 Y102.306 E0.9091
G1 X165.811 Y102.361 E0.9180
G1 X163.558 Y102.484 E0.9741
G1 X163.195 Y102.467 E0.9831
G1 X160.882 Y102.114 E1.0414
G1 X160.530 Y102.022 E1.0504
G1 X158.416 Y101.232 E1.1066
G1 X158.096 Y101.074 E1.1155
G1 X156.187 Y99.877 E1.1715
G1 X155.906 Y99.658 E1.1804
G1 X154.276 Y98.103 E1.2365
G1 X154.044 Y97.832 E1.2453
G1 X152.760 Y95.980 E1.3014
G1 X152.587 Y95.668 E1.3103
G1 X151.701 Y93.597 E1.3663
G1 X151.594 Y93.256 E1.3752
G1 X151.142 Y91.049 E1.4313
G1 X151.106 Y90.694 E1.4401
G1 X151.106 Y88.441 E1.4962
G1 X151.142 Y88.086 E1.5051
G1 X151.594 Y85.879 E1.5611
G1 X151.701 Y85.539 E1.5700
G1 X152.587 Y83.468 E1.6261
G1 X152.760 Y83.155 E1.6349
G1 X154.044 Y81.304 E1.6910
G1 X154.276 Y81.033 E1.6999
G1 X155.906 Y79.478 E1.7559
G1 X156.187 Y79.259 E1.7648
G1 X158.096 Y78.062 E1.8209
G1 X158.416 Y77.904 E1.8298
G1 X160.529 Y77.114 E1.8859
G1 X160.882 Y77.022 E1.8950
G1 X163.195 Y76.669 E1.9532
G1 X163.558 Y76.652 E1.9622
G1 X165.811 Y76.775 E2.0184
G92 E0.0000
G1 E-4.0000 F6000
G1 Z0.280 F900
G1 X165.413 Y80.458 F3600
G1 X164.715 Y80.420
G1 X159.545 Y97.615
G1 X159.895 Y97.835
G1 X158.555 Y100.910
G1 Z0.180 F900
G1 E0.0000 F6000
G92 E0.0000
G1 X158.267 Y100.768 E0.0080 F960
G1 X156.388 Y99.590 E0.0632
G1 X156.134 Y99.393 E0.0712
G1 X154.530 Y97.862 E0.1263
G1 X154.321 Y97.617 E0.1343
G1 X153.057 Y95.795 E0.1895
G1 X152.902 Y95.514 E0.1975
G1 X152.030 Y93.475 E0.2527
G1 X151.934 Y93.169 E0.2607
G1 X151.488 Y90.996 E0.3159
G1 X151.456 Y90.677 E0.3239
G1 X151.456 Y88.459 E0.3790
G1 X151.488 Y88.139 E0.3870
G1 X151.934 Y85.967 E0.4422
G1 X152.030 Y85.660 E0.4502
G1 X152.902 Y83.621 E0.5054
G1 X153.057 Y83.340 E0.5134
G1 X154.321 Y81.518 E0.5686
G1 X154.530 Y81.274 E0.5766
G1 X156.134 Y79.743 E0.6317
G1 X156.388 Y79.546 E0.6397
G1 X158.267 Y78.368 E0.6949
G1 X158.555 Y78.226 E0.7029
G1 X160.635 Y77.448 E0.7582
G1 X160.953 Y77.365 E0.7663
G1 X163.230 Y77.018 E0.8237
G1 X163.557 Y77.002 E0.8318
G1 X165.774 Y77.123 E0.8870
G1 X166.091 Y77.173 E0.8950
G1 X168.236 Y77.736 E0.9502
G1 X168.537 Y77.849 E0.9582
G1 X170.525 Y78.831 E1.0134
G1 X170.797 Y79.001 E1.0214
G1 X172.548 Y80.363 E1.0766
G1 X172.780 Y80.585 E1.0846
G1 X174.221 Y82.270 E1.1397
G1 X174.404 Y82.534 E1.1477
G1 X175.478 Y84.474 E1.2029
G1 X175.605 Y84.770 E1.2109
G1 X176.267 Y86.886 E1.2661
G1 X176.331 Y87.201 E1.2741
G1 X176.555 Y89.407 E1.3293
G1 X176.555 Y89.728 E1.3373
G1 X176.331 Y91.935 E1.3924
G1 X176.267 Y92.250 E1.4004
G1 X175.605 Y94.366 E1.4556
G1 X175.478 Y94.661 E1.4636
G1 X174.404 Y96.602 E1.5188
G1 X174.221 Y96.866 E1.5268
G1 X172.780 Y98.551 E1.5820
G1 X172.548 Y98.773 E1.5899
G1 X170.797 Y100.134 E1.6451
G1 X170.525 Y100.305 E1.6531
G1 X168.537 Y101.287 E1.7083
G1 X168.236 Y101.400 E1.7163
G1 X166.091 Y101.963 E1.7715
G1 X165.774 Y102.013 E1.7795
G1 X163.557 Y102.134 E1.8347
G1 X163.230 Y102.118 E1.8428
G1 X160.953 Y101.771 E1.9002
G1 X160.635 Y101.688 E1.9083
G1 X158.555 Y100.910 E1.9636
G92 E0.0000
G1 E-4.0000 F6000
; feature outer perimeter
G1 Z0.280 F900
G1 X159.895 Y97.835 F3600
G1 X161.021 Y98.256
G1 X172.461 Y85.940
G1 Z0.180 F900
G1 E0.0000 F6000
G92 E0.0000
G1 X173.016 Y87.716 E0.0463 F576
G1 X173.204 Y89.568 E0.0926
G1 X173.016 Y91.419 E0.1389
G1 X172.461 Y93.195 E0.1852
G1 X171.560 Y94.824 E0.2315
G1 X170.350 Y96.238 E0.2778
G1 X168.881 Y97.380 E0.3241
G1 X167.213 Y98.205 E0.3704
G1 X165.413 Y98.677 E0.4167
G1 X163.556 Y98.779 E0.4630
G1 X161.638 Y98.486 E0.5113
G1 X159.895 Y97.835 E0.5576
G1 X158.318 Y96.846 E0.6039
G1 X156.972 Y95.561 E0.6502
G1 X155.912 Y94.032 E0.6965
G1 X155.180 Y92.321 E0.7428
G1 X154.806 Y90.498 E0.7891
G1 X154.806 Y88.637 E0.8354
G1 X155.180 Y86.814 E0.8817
G1 X155.912 Y85.103 E0.9280
G1 X156.972 Y83.574 E0.9744
G1 X158.318 Y82.289 E1.0207
G1 X159.895 Y81.301 E1.0670
G1 X161.638 Y80.649 E1.1133
G1 X163.556 Y80.357 E1.1615
G1 X165.413 Y80.458 E1.2078
G1 X167.213 Y80.931 E1.2541
G1 X168.881 Y81.755 E1.3004
G1 X170.350 Y82.898 E1.3467
G1 X171.560 Y84.312 E1.3930
G1 X172.267 Y85.590 E1.4294
G1 X172.461 Y85.940 F576
G1 X173.016 Y87.716 F576
G1 X173.204 Y89.568
G1 X173.075 Y90.839
; feature inner perimeter
G1 X172.672 Y91.349 F3600
G92 E0.0000
G1 X172.137 Y93.057 E0.0445 F768
G1 X171.271 Y94.623 E0.0891
G1 X170.107 Y95.983 E0.1336
G1 X168.694 Y97.082 E0.1782
G1 X167.090 Y97.875 E0.2227
G1 X165.359 Y98.330 E0.2672
G1 X163.572 Y98.427 E0.3117
G1 X161.726 Y98.146 E0.3582
G1 X160.051 Y97.519 E0.4027
G1 X158.534 Y96.569 E0.4472
G1 X157.240 Y95.333 E0.4918
G1 X156.219 Y93.862 E0.5363
G1 X155.515 Y92.216 E0.5809
G1 X155.156 Y90.463 E0.6254
G1 X155.156 Y88.673 E0.6699
G1 X155.515 Y86.919 E0.7145
G1 X156.219 Y85.274 E0.7590
G1 X157.240 Y83.803 E0.8036
G1 X158.534 Y82.567 E0.8481
G1 X160.051 Y81.616 E0.8926
G1 X161.726 Y80.990 E0.9371
G1 X163.572 Y80.708 E0.9836
G1 X165.359 Y80.806 E1.0281
G1 X167.090 Y81.260 E1.0727
G1 X168.694 Y82.053 E1.1172
G1 X170.107 Y83.152 E1.1617
G1 X171.271 Y84.512 E1.2063
G1 X172.137 Y86.079 E1.2508
G1 X172.672 Y87.787 E1.2953
G1 X172.852 Y89.568 E1.3399
G1 X172.712 Y90.951 E1.3745
G1 X172.672 Y91.349 F768
G1 X172.327 Y91.278 F3600
G92 E0.0000
G1 X171.814 Y92.919 E0.0428 F768
G1 X170.982 Y94.423 E0.0855
G1 X169.864 Y95.729 E0.1283
G1 X168.507 Y96.784 E0.1711
G1 X166.966 Y97.546 E0.2139
G1 X165.304 Y97.982 E0.2566
G1 X163.589 Y98.076 E0.2994
G1 X161.815 Y97.805 E0.3440
G1 X160.207 Y97.204 E0.3867
G1 X158.750 Y96.291 E0.4295
G1 X157.507 Y95.104 E0.4723
G1 X156.527 Y93.692 E0.5151
G1 X155.851 Y92.111 E0.5578
