; G-Code generated by Simplify3D(R) Version 4.1.2
;
;
;
;
; Feb 19, 2023 at 8:03:46 PM
; Settings Summary
;   processName,PLA B01
;   applyToModels,BagClip_85_more_closed
;   profileName,PLA_B02_04_50_OS180_05_S Tevo Tornado
;   profileVersion,2023-02-16 15:33:12
;   baseProfile,Creality CR-10(2)
;   printMaterial,PLA
;   printQuality,High
;   printExtruders,
;   extruderName,Primary Extruder
;   extruderToolheadNumber,0
;   extruderDiameter,0.4
;   extruderAutoWidth,0
;   extruderWidth,0.35
;   extrusionMultiplier,0.95
;   extruderUseRetract,1
;   extruderRetractionDistance,4
;   extruderExtraRestartDistance,0
;   extruderRetractionZLift,0.3
;   extruderRetractionSpeed,3000
;   extruderUseCoasting,1
;   extruderCoastingDistance,0.2
;   extruderUseWipe,0
;   extruderWipeDistance,5
;   primaryExtruder,0
;   layerHeight,0.12
;   topSolidLayers,6
;   bottomSolidLayers,6
;   perimeterOutlines,4
;   printPerimetersInsideOut,1
;   startPointOption,2
;   startPointOriginX,0
;   startPointOriginY,300
;   sequentialIslands,0
;   spiralVaseMode,0
;   firstLayerHeightPercentage,120
;   firstLayerWidthPercentage,100
;   firstLayerUnderspeed,0.25
;   useRaft,0
;   raftExtruder,0
;   raftTopLayers,3
;   raftBaseLayers,2
;   raftOffset,3
;   raftSeparationDistance,0.14
;   raftTopInfill,100
;   aboveRaftSpeedMultiplier,0.3
;   useSkirt,1
;   skirtExtruder,0
;   skirtLayers,2
;   skirtOutlines,2
;   skirtOffset,3
;   usePrimePillar,0
;   primePillarExtruder,999
;   primePillarWidth,12
;   primePillarLocation,7
;   primePillarSpeedMultiplier,1
;   useOozeShield,0
;   oozeShieldExtruder,999
;   oozeShieldOffset,2
;   oozeShieldOutlines,1
;   oozeShieldSidewallShape,1
;   oozeShieldSidewallAngle,30
;   oozeShieldSpeedMultiplier,1
;   infillExtruder,0
;   internalInfillPattern,Full Honeycomb
;   externalInfillPattern,Rectilinear
;   infillPercentage,50
;   outlineOverlapPercentage,15
;   infillExtrusionWidthPercentage,100
;   minInfillLength,5
;   infillLayerInterval,1
;   internalInfillAngles,0,120,-120
;   overlapInternalInfillAngles,0
;   externalInfillAngles,45,-45
;   generateSupport,1
;   supportExtruder,0
;   supportInfillPercentage,40
;   supportExtraInflation,0
;   supportBaseLayers,0
;   denseSupportExtruder,0
;   denseSupportLayers,0
;   denseSupportInfillPercentage,70
;   supportLayerInterval,1
;   supportHorizontalPartOffset,0.4
;   supportUpperSeparationLayers,1
;   supportLowerSeparationLayers,1
;   supportType,0
;   supportGridSpacing,4.5
;   maxOverhangAngle,45
;   supportAngles,0
;   temperatureName,Primary Extruder,Heated Bed
;   temperatureNumber,0,0
;   temperatureSetpointCount,2,2
;   temperatureSetpointLayers,1,2,1,2
;   temperatureSetpointTemperatures,185,180,10,5
;   temperatureStabilizeAtStartup,1,1
;   temperatureHeatedBed,0,1
;   fanLayers,1,2
;   fanSpeeds,0,100
;   blipFanToFullPower,0
;   adjustSpeedForCooling,1
;   minSpeedLayerTime,15
;   minCoolingSpeedSlowdown,20
;   increaseFanForCooling,1
;   minFanLayerTime,25
;   maxCoolingFanSpeed,100
;   increaseFanForBridging,1
;   bridgingFanSpeed,100
;   use5D,1
;   relativeEdistances,0
;   allowEaxisZeroing,1
;   independentExtruderAxes,0
;   includeM10123,0
;   stickySupport,1
;   applyToolheadOffsets,0
;   gcodeXoffset,0
;   gcodeYoffset,0
;   gcodeZoffset,0
;   overrideMachineDefinition,1
;   machineTypeOverride,0
;   strokeXoverride,300
;   strokeYoverride,300
;   strokeZoverride,400
;   originOffsetXoverride,0
;   originOffsetYoverride,0
;   originOffsetZoverride,0
;   homeXdirOverride,-1
;   homeYdirOverride,-1
;   homeZdirOverride,-1
;   flipXoverride,1
;   flipYoverride,-1
;   flipZoverride,1
;   toolheadOffsets,0,0|0,0|0,0|0,0|0,0|0,0
;   overrideFirmwareConfiguration,1
;   firmwareTypeOverride,RepRap (Marlin/Repetier/Sprinter)
;   GPXconfigOverride,r2
;   baudRateOverride,250000
;   overridePrinterModels,1
;   printerModelsOverride
;   startingGcode,;,; -]H.P.B[- MarshMalloW  ,; $VER: StartScript 1.03 (18.12.2022) MarshMalloW,;,; Begin Startcode,;,M117 *Preheat*	; Preheat,;extruder0_temperature,M104 S[extruder0_temperature],M109 S[extruder0_temperature],;M109 R[extruder0_temperature] ,;,M117 *Auto-leveling*     	; Auto-leveling,M107                   	; Turn layer fan off,G21                    	; Set to metric [change to G20 if you want Imperial],G90                    	; Force coordinates to be absolute relative to the origin,G28                    	; Home X/Y/Z axis,G29                    	; Auto-leveling (BL-Touch),;,M117 *Start Clean*     	; Indicate nozzle clean in progress on LCD,G92 E0                 	; Set Extruder to 0 ,G1 X0 Y0 F2000         	; Move X and Y to 0 with speed 2000 (mm/min),G1 Z0.1 F1000          	; Move Z to   0.1 with speed 1000 (mm/min),G1 X8.0 F2000          	; Move X to   8.0 with speed 2000 (mm/min),G1 Y60.0 E4.0 F1000.0  	; Move Y to  60 and Extruder with 4.0 with speed 1000 (mm/min),G1 Y100.0 E8.5 F1000.0 	; Move Y to 100 and Extruder with 8.5 with speed 1000 (mm/min),G92 E0                 	; Set extruder to 0,G1 X16.0 F3000         	; Move X to 16.0 with speed 3000 (mm/min),G1 Y60.0 F3000         	; Move Y to 60.0 with speed 3000 (mm/min),M117 *End Clean*       	; Indicate nozzle clean in progress on LCD,G1 Z5 F3000            	; Move Z to  5.0 with speed 3000 (mm/min),G1 X20.0 F3000         	; Move X to 20.0 with speed 3000 (mm/min),G1 Y20.0 F3000         	; Move Y to 20.0 with speed 3000 (mm/min),; ,M117 *Printing...*     	; Start printing msg on LCD,;,; End Startcode,;,; Begin printing with sliced GCode after here,;
;   layerChangeGcode,
;   retractionGcode,
;   toolChangeGcode,
;   endingGcode,;,; init 181010,;,;M107 			; Fan off,;G1 E-1 F300 			; Retract the filament a bit before lifting the nozzle,;M104 S0 			; Turn off extruder,;M140 S0 			; Turn off bed,;G91			; Relative positioning,;G28 X0 Y0 			; Move X/Y to min endstops so the head is out of teh way,;M84 			; Disable motors,;G90 			; Absolute positioning,;M117 Print ready...,,;,; // From Cura 181010,; // End_gcode,G92 E0			; Zero the extruded length,;G1 E-30 F300		; Retract E -30,M106 S0			; Turn off cooling fan,M104 S0			; Turn off temperature,M140 S0		     	; Turn off bed,G91			; Relative positioning,G1 E-1 F300			; Retract the filament a bit before lifting the nozzle to release some of the pressure,G1 Z+20 E-5 X-20 Y-20 F7200	; Move Z up a bit and retract filament even more,G1 X0 Y150 F10000		; Move right min,M107			; Turn off layer fan,M84			; Disable motors,G90			; Absolute positioning,M117 *The-End* 		; End msg,;,
;   exportFileFormat,gcode
;   celebration,0
;   celebrationSong,Star Wars
;   postProcessing,D:\S3D_Thumbs\S3D_Thumbs.exe f="[output_filepath]" x=600 y=110 w=953 lw=400 lh=300 sw=32 sh=32 d=Y
;   defaultSpeed,4200
;   outlineUnderspeed,0.5
;   solidInfillUnderspeed,0.8
;   supportUnderspeed,0.8
;   rapidXYspeed,6000
;   rapidZspeed,1002
;   minBridgingArea,50
;   bridgingExtraInflation,0.2
;   bridgingExtrusionMultiplier,1
;   bridgingSpeedMultiplier,0.8
;   useFixedBridgingAngle,0
;   fixedBridgingAngle,0
;   applyBridgingToPerimeters,0
;   filamentDiameters,1.75|1.75|1.75|1.75|1.75|1.75
;   filamentPricesPerKg,30|46|46|46|46|46
;   filamentDensities,1.25|1.25|1.25|1.25|1.25|1.25
;   useMinPrintHeight,0
;   minPrintHeight,0
;   useMaxPrintHeight,0
;   maxPrintHeight,50
;   useDiaphragm,0
;   diaphragmLayerInterval,20
;   robustSlicing,1
;   mergeAllIntoSolid,0
;   onlyRetractWhenCrossingOutline,1
;   retractBetweenLayers,1
;   useRetractionMinTravel,0
;   retractionMinTravel,3
;   retractWhileWiping,1
;   onlyWipeOutlines,1
;   avoidCrossingOutline,0
;   maxMovementDetourFactor,3
;   toolChangeRetractionDistance,12
;   toolChangeExtraRestartDistance,-0.5
;   toolChangeRetractionSpeed,600
;   externalThinWallType,1
;   internalThinWallType,1
;   thinWallAllowedOverlapPercentage,10
;   singleExtrusionMinLength,1
;   singleExtrusionMinPrintingWidthPercentage,50
;   singleExtrusionMaxPrintingWidthPercentage,200
;   singleExtrusionEndpointExtension,0.2
;   horizontalSizeCompensation,0
G90
M82
M106 S0
M140 S10
;
; -]H.P.B[- MarshMalloW  
; $VER: StartScript 1.03 (18.12.2022) MarshMalloW
;
; Begin Startcode
;
M117 *Preheat*	; Preheat
;extruder0_temperature
M104 S185
M109 S185
;M109 R185 
;
M117 *Auto-leveling*     	; Auto-leveling
M107                   	; Turn layer fan off
G21                    	; Set to metric [change to G20 if you want Imperial]
G90                    	; Force coordinates to be absolute relative to the origin
G28                    	; Home X/Y/Z axis
G29                    	; Auto-leveling (BL-Touch)
;
M117 *Start Clean*     	; Indicate nozzle clean in progress on LCD
G92 E0                 	; Set Extruder to 0 
G1 X0 Y0 F2000         	; Move X and Y to 0 with speed 2000 (mm/min)
G1 Z0.1 F1000          	; Move Z to   0.1 with speed 1000 (mm/min)
G1 X8.0 F2000          	; Move X to   8.0 with speed 2000 (mm/min)
G1 Y60.0 E4.0 F1000.0  	; Move Y to  60 and Extruder with 4.0 with speed 1000 (mm/min)
G1 Y100.0 E8.5 F1000.0 	; Move Y to 100 and Extruder with 8.5 with speed 1000 (mm/min)
G92 E0                 	; Set extruder to 0
G1 X16.0 F3000         	; Move X to 16.0 with speed 3000 (mm/min)
G1 Y60.0 F3000         	; Move Y to 60.0 with speed 3000 (mm/min)
M117 *End Clean*       	; Indicate nozzle clean in progress on LCD
G1 Z5 F3000            	; Move Z to  5.0 with speed 3000 (mm/min)
G1 X20.0 F3000         	; Move X to 20.0 with speed 3000 (mm/min)
G1 Y20.0 F3000         	; Move Y to 20.0 with speed 3000 (mm/min)
; 
M117 *Printing...*     	; Start printing msg on LCD
;
; End Startcode
;
; Begin printing with sliced GCode after here
;
; process PLA B01
; layer 1, Z = 0.144
T0
G92 E0.0000
G1 E-4.0000 F3000
; feature skirt
; tool H0.144 W0.350
G1 Z0.300 F1002
G1 X103.285 Y46.628 F6000
G1 Z0.144 F1002
G1 E0.0000 F3000
G92 E0.0000
G1 X103.296 Y46.606 E0.0005 F1050
G1 X103.324 Y46.543 E0.0019
G1 X103.362 Y46.473 E0.0035
G1 X103.378 Y46.441 E0.0042
G1 X103.413 Y46.381 E0.0056
G1 X103.468 Y46.282 E0.0078
G1 X103.487 Y46.252 E0.0085
G1 X103.652 Y45.967 E0.0151
G1 X103.699 Y45.886 E0.0169
G1 X103.716 Y45.851 E0.0177
G1 X103.771 Y45.761 E0.0198
G1 X103.867 Y45.595 E0.0236
G1 X103.979 Y45.448 E0.0273
G1 X104.196 Y45.151 E0.0346
G1 X104.312 Y45.007 E0.0383
G1 X104.399 Y44.911 E0.0409
G1 X104.478 Y44.809 E0.0435
G1 X104.600 Y44.669 E0.0471
G1 X104.797 Y44.465 E0.0528
G1 X104.815 Y44.443 E0.0533
G1 X104.906 Y44.352 E0.0559
G1 X104.984 Y44.271 E0.0582
G1 X105.005 Y44.252 E0.0587
G1 X105.037 Y44.221 E0.0596
G1 X105.123 Y44.148 E0.0619
G1 X105.195 Y44.085 E0.0638
G1 X105.230 Y44.059 E0.0646
G1 X105.394 Y43.921 E0.0689
G1 X105.719 Y43.649 E0.0773
G1 X105.866 Y43.537 E0.0810
G1 X106.090 Y43.386 E0.0864
G1 X106.106 Y43.374 E0.0868
G1 X106.226 Y43.295 E0.0896
G1 X106.408 Y43.172 E0.0940
G1 X106.573 Y43.091 E0.0977
G1 X106.890 Y42.922 E0.1048
G1 X107.111 Y42.805 E0.1098
G1 X107.151 Y42.784 E0.1107
G1 X107.282 Y42.719 E0.1136
G1 X107.513 Y42.623 E0.1186
G1 X107.528 Y42.618 E0.1189
G1 X107.810 Y42.504 E0.1250
G1 X107.984 Y42.444 E0.1286
G1 X108.109 Y42.408 E0.1312
G1 X108.231 Y42.364 E0.1338
G1 X108.407 Y42.310 E0.1375
G1 X108.802 Y42.212 E0.1456
G1 X108.922 Y42.181 E0.1480
G1 X108.928 Y42.180 E0.1482
G1 X109.018 Y42.158 E0.1500
G1 X109.140 Y42.143 E0.1524
G1 X109.456 Y42.087 E0.1588
G1 X109.640 Y42.064 E0.1625
G1 X110.433 Y42.009 E0.1784
G1 X110.556 Y42.005 E0.1808
G1 X191.504 Y42.006 E1.7922
G1 X191.749 Y42.023 E1.7971
G1 X192.411 Y42.116 E1.8104
G1 X192.741 Y42.195 E1.8171
G1 X193.343 Y42.402 E1.8298
G1 X193.624 Y42.528 E1.8359
G1 X194.168 Y42.829 E1.8483
G1 X194.423 Y43.001 E1.8544
G1 X194.906 Y43.392 E1.8668
G1 X195.127 Y43.606 E1.8729
G1 X195.535 Y44.075 E1.8853
G1 X195.716 Y44.324 E1.8914
G1 X196.044 Y44.870 E1.9041
G1 X196.190 Y45.176 E1.9108
G1 X196.435 Y45.848 E1.9251
G1 X196.519 Y46.175 E1.9318
G1 X196.617 Y46.789 E1.9442
G1 X196.638 Y47.065 E1.9497
G1 X196.641 Y58.800 E2.1833
G1 X196.588 Y59.229 E2.1919
G1 X196.394 Y60.007 E2.2079
G1 X196.143 Y60.571 E2.2201
G1 X195.643 Y61.312 E2.2379
G1 X195.215 Y61.756 E2.2502
G1 X194.478 Y62.291 E2.2683
G1 X193.894 Y62.570 E2.2812
G1 X193.031 Y62.801 E2.2990
G1 X192.784 Y62.829 E2.3040
G1 X193.110 Y63.294 E2.3153
G1 X191.752 Y70.996 E2.4709
G1 X189.360 Y72.671 E2.5291
G1 X115.985 Y59.733 E4.0122
G1 X107.888 Y59.733 E4.1734
G1 X105.823 Y57.668 E4.2315
G1 X105.823 Y56.690 E4.2510
G1 X105.784 Y56.660 E4.2520
G1 X105.681 Y56.582 E4.2545
G1 X105.592 Y56.504 E4.2569
G1 X105.273 Y56.226 E4.2653
G1 X104.956 Y55.951 E4.2737
G1 X104.891 Y55.894 E4.2754
G1 X104.785 Y55.786 E4.2784
G1 X104.697 Y55.697 E4.2809
G1 X104.364 Y55.299 E4.2912
G1 X104.190 Y55.092 E4.2966
G1 X104.138 Y55.030 E4.2982
G1 X104.113 Y55.000 E4.2990
G1 X104.060 Y54.926 E4.3008
G1 X104.026 Y54.882 E4.3019
G1 X104.004 Y54.849 E4.3027
G1 X103.962 Y54.791 E4.3041
G1 X103.933 Y54.744 E4.3052
G1 X103.759 Y54.486 E4.3114
G1 X103.694 Y54.382 E4.3139
G1 X103.534 Y54.105 E4.3202
G1 X103.515 Y54.074 E4.3210
G1 X103.489 Y54.026 E4.3220
G1 X103.464 Y53.984 E4.3230
G1 X103.444 Y53.945 E4.3239
G1 X103.421 Y53.903 E4.3249
G1 X103.399 Y53.858 E4.3258
G1 X103.378 Y53.818 E4.3267
G1 X103.363 Y53.783 E4.3275
G1 X103.206 Y53.462 E4.3346
G1 X103.134 Y53.293 E4.3383
G1 X103.090 Y53.170 E4.3409
G1 X103.037 Y53.051 E4.3435
G1 X102.971 Y52.879 E4.3471
G1 X102.847 Y52.497 E4.3551
G1 X102.825 Y52.431 E4.3565
G1 X102.811 Y52.380 E4.3576
G1 X102.792 Y52.317 E4.3589
G1 X102.773 Y52.238 E4.3605
G1 X102.683 Y51.879 E4.3679
G1 X102.657 Y51.759 E4.3703
G1 X102.580 Y51.317 E4.3792
G1 X102.577 Y51.300 E4.3796
G1 X102.572 Y51.266 E4.3803
G1 X102.566 Y51.217 E4.3812
G1 X102.562 Y51.186 E4.3819
G1 X102.558 Y51.152 E4.3826
G1 X102.552 Y51.099 E4.3836
G1 X102.495 Y50.283 E4.3999
G1 X102.492 Y50.099 E4.4036
G1 X102.509 Y49.593 E4.4136
G1 X102.525 Y49.409 E4.4173
G1 X102.543 Y49.281 E4.4199
G1 X102.553 Y49.151 E4.4225
G1 X102.575 Y48.968 E4.4261
G1 X102.624 Y48.691 E4.4318
G1 X102.628 Y48.649 E4.4326
G1 X102.654 Y48.520 E4.4352
G1 X102.669 Y48.433 E4.4370
G1 X102.680 Y48.393 E4.4378
G1 X102.696 Y48.309 E4.4395
G1 X102.722 Y48.224 E4.4413
G1 X102.733 Y48.182 E4.4421
G1 X102.760 Y48.101 E4.4438
G1 X102.990 Y47.347 E4.4595
G1 X103.011 Y47.280 E4.4609
G1 X103.012 Y47.274 E4.4610
G1 X103.053 Y47.166 E4.4633
G1 X103.087 Y47.076 E4.4653
G1 X103.089 Y47.069 E4.4654
G1 X103.116 Y47.010 E4.4667
G1 X103.253 Y46.702 E4.4734
G1 X103.285 Y46.628 E4.4750
G92 E0.0000
G1 E-4.0000 F3000
G1 Z0.444 F1002
G1 X103.602 Y46.776 F6000
G1 Z0.144 F1002
G1 E0.0000 F3000
G92 E0.0000
G1 X103.612 Y46.756 E0.0004 F1050
G1 X103.637 Y46.699 E0.0017
G1 X103.672 Y46.636 E0.0031
G1 X103.687 Y46.607 E0.0038
G1 X103.718 Y46.553 E0.0050
G1 X103.767 Y46.464 E0.0070
G1 X103.785 Y46.437 E0.0077
G1 X103.955 Y46.142 E0.0144
G1 X104.007 Y46.052 E0.0165
G1 X104.023 Y46.020 E0.0172
G1 X104.072 Y45.939 E0.0191
G1 X104.159 Y45.790 E0.0225
G1 X104.260 Y45.658 E0.0259
G1 X104.473 Y45.364 E0.0331
G1 X104.578 Y45.235 E0.0364
G1 X104.667 Y45.136 E0.0390
G1 X104.749 Y45.031 E0.0417
G1 X104.858 Y44.906 E0.0450
G1 X105.058 Y44.699 E0.0507
G1 X105.074 Y44.679 E0.0512
G1 X105.156 Y44.597 E0.0535
G1 X105.226 Y44.524 E0.0556
G1 X105.245 Y44.507 E0.0561
G1 X105.273 Y44.479 E0.0569
G1 X105.352 Y44.414 E0.0589
G1 X105.416 Y44.357 E0.0606
G1 X105.448 Y44.333 E0.0614
G1 X105.619 Y44.189 E0.0658
G1 X105.937 Y43.923 E0.0741
G1 X106.070 Y43.822 E0.0774
G1 X106.298 Y43.669 E0.0829
G1 X106.312 Y43.657 E0.0833
G1 X106.420 Y43.586 E0.0858
G1 X106.584 Y43.476 E0.0898
G1 X106.733 Y43.402 E0.0931
G1 X107.054 Y43.231 E0.1003
G1 X107.274 Y43.115 E0.1053
G1 X107.309 Y43.096 E0.1060
G1 X107.428 Y43.037 E0.1087
G1 X107.636 Y42.951 E0.1132
G1 X107.649 Y42.946 E0.1135
G1 X107.932 Y42.832 E0.1195
G1 X108.090 Y42.778 E0.1228
G1 X108.217 Y42.741 E0.1255
G1 X108.342 Y42.696 E0.1281
G1 X108.501 Y42.647 E0.1314
G1 X108.888 Y42.551 E0.1394
G1 X108.995 Y42.524 E0.1416
G1 X109.001 Y42.523 E0.1417
G1 X109.082 Y42.503 E0.1433
G1 X109.192 Y42.489 E0.1456
G1 X109.508 Y42.433 E0.1520
G1 X109.673 Y42.413 E0.1553
G1 X110.452 Y42.359 E0.1708
