; G-Code generated by Simplify3D(R) Version 4.1.2
; Jun 5, 2021 at 11:14:15 AM
; Settings Summary
;   processName,Process1
;   applyToModels,SupportPortableDroit
;   profileName,A10-04-15 Tevo Tornado
;   profileVersion,2020-12-06 16:18:07
;   baseProfile,Creality CR-10(2)
;   printMaterial,PLA
;   printQuality,Medium
;   printExtruders,
;   extruderName,Primary Extruder
;   extruderToolheadNumber,0
;   extruderDiameter,0.4
;   extruderAutoWidth,0
;   extruderWidth,0.35
;   extrusionMultiplier,0.95
;   extruderUseRetract,1
;   extruderRetractionDistance,4
;   extruderExtraRestartDistance,0
;   extruderRetractionZLift,0.1
;   extruderRetractionSpeed,6000
;   extruderUseCoasting,1
;   extruderCoastingDistance,0.4
;   extruderUseWipe,1
;   extruderWipeDistance,5
;   primaryExtruder,0
;   layerHeight,0.15
;   topSolidLayers,5
;   bottomSolidLayers,4
;   perimeterOutlines,3
;   printPerimetersInsideOut,0
;   startPointOption,1
;   startPointOriginX,0
;   startPointOriginY,300
;   sequentialIslands,0
;   spiralVaseMode,0
;   firstLayerHeightPercentage,120
;   firstLayerWidthPercentage,100
;   firstLayerUnderspeed,0.4
;   useRaft,0
;   raftExtruder,0
;   raftTopLayers,3
;   raftBaseLayers,2
;   raftOffset,3
;   raftSeparationDistance,0.14
;   raftTopInfill,100
;   aboveRaftSpeedMultiplier,0.3
;   useSkirt,1
;   skirtExtruder,0
;   skirtLayers,1
;   skirtOutlines,2
;   skirtOffset,3
;   usePrimePillar,0
;   primePillarExtruder,999
;   primePillarWidth,12
;   primePillarLocation,7
;   primePillarSpeedMultiplier,1
;   useOozeShield,0
;   oozeShieldExtruder,999
;   oozeShieldOffset,2
;   oozeShieldOutlines,1
;   oozeShieldSidewallShape,1
;   oozeShieldSidewallAngle,30
;   oozeShieldSpeedMultiplier,1
;   infillExtruder,0
;   internalInfillPattern,Rectilinear
;   externalInfillPattern,Rectilinear
;   infillPercentage,15
;   outlineOverlapPercentage,15
;   infillExtrusionWidthPercentage,100
;   minInfillLength,5
;   infillLayerInterval,1
;   internalInfillAngles,45,-45
;   overlapInternalInfillAngles,0
;   externalInfillAngles,45,-45
;   generateSupport,0
;   supportExtruder,0
;   supportInfillPercentage,30
;   supportExtraInflation,0
;   supportBaseLayers,0
;   denseSupportExtruder,0
;   denseSupportLayers,0
;   denseSupportInfillPercentage,70
;   supportLayerInterval,1
;   supportHorizontalPartOffset,0.4
;   supportUpperSeparationLayers,1
;   supportLowerSeparationLayers,1
;   supportType,0
;   supportGridSpacing,4.5
;   maxOverhangAngle,45
;   supportAngles,0
;   temperatureName,Primary Extruder,Heated Bed
;   temperatureNumber,0,0
;   temperatureSetpointCount,2,2
;   temperatureSetpointLayers,1,2,1,2
;   temperatureSetpointTemperatures,215,210,55,50
;   temperatureStabilizeAtStartup,1,1
;   temperatureHeatedBed,0,1
;   fanLayers,1,2
;   fanSpeeds,0,100
;   blipFanToFullPower,0
;   adjustSpeedForCooling,1
;   minSpeedLayerTime,15
;   minCoolingSpeedSlowdown,20
;   increaseFanForCooling,1
;   minFanLayerTime,25
;   maxCoolingFanSpeed,100
;   increaseFanForBridging,1
;   bridgingFanSpeed,100
;   use5D,1
;   relativeEdistances,0
;   allowEaxisZeroing,1
;   independentExtruderAxes,0
;   includeM10123,0
;   stickySupport,1
;   applyToolheadOffsets,0
;   gcodeXoffset,0
;   gcodeYoffset,0
;   gcodeZoffset,0
;   overrideMachineDefinition,1
;   machineTypeOverride,0
;   strokeXoverride,300
;   strokeYoverride,300
;   strokeZoverride,400
;   originOffsetXoverride,0
;   originOffsetYoverride,0
;   originOffsetZoverride,0
;   homeXdirOverride,-1
;   homeYdirOverride,-1
;   homeZdirOverride,-1
;   flipXoverride,1
;   flipYoverride,-1
;   flipZoverride,1
;   toolheadOffsets,0,0|0,0|0,0|0,0|0,0|0,0
;   overrideFirmwareConfiguration,1
;   firmwareTypeOverride,RepRap (Marlin/Repetier/Sprinter)
;   GPXconfigOverride,r2
;   baudRateOverride,250000
;   overridePrinterModels,1
;   printerModelsOverride
;   startingGcode,;,; -]H.P.B[- MarshMalloW  ,; $VER: StartScript 1.02 (26.12.2019) MarshMalloW,;,; Begin Startcode,;,M117 *Preheat*     	; Preheat,;extruder0_temperature,M104 S[extruder0_temperature]  ,M109 S[extruder0_temperature] ,M109 R[extruder0_temperature] ,;,M117 *Auto-leveling*     	; Auto-leveling,M107                   	; Turn layer fan off,G21                    	; Set to metric [change to G20 if you want Imperial],G90                    	; Force coordinates to be absolute relative to the origin,G28                    	; Home X/Y/Z axis,G29                    	; Auto-leveling (BL-Touch),;,M117 *Start Clean*     	; Indicate nozzle clean in progress on LCD,G92 E0                 	; Set Extruder to 0 ,G1 X0 Y0 F2000         	; Move X and Y to 0 with speed 2000 (mm/min),G1 Z0.1 F1000          	; Move Z to   0.1 with speed 1000 (mm/min),G1 X8.0 F2000          	; Move X to   8.0 with speed 2000 (mm/min),G1 Y60.0 E4.0 F1000.0  	; Move Y to  60 and Extruder with 4.0 with speed 1000 (mm/min),G1 Y100.0 E8.5 F1000.0 	; Move Y to 100 and Extruder with 8.5 with speed 1000 (mm/min),G92 E0                 	; Set extruder to 0,G1 X16.0 F3000         	; Move X to 16.0 with speed 3000 (mm/min),G1 Y60.0 F3000         	; Move Y to 60.0 with speed 3000 (mm/min),M117 *End Clean*       	; Indicate nozzle clean in progress on LCD,G1 Z5 F3000            	; Move Z to  5.0 with speed 3000 (mm/min),G1 X20.0 F3000         	; Move X to 20.0 with speed 3000 (mm/min),G1 Y20.0 F3000         	; Move Y to 20.0 with speed 3000 (mm/min),; ,M117 *Printing...*     	; Start printing msg on LCD,;,; End Startcode,;,; Begin printing with sliced GCode after here,;
;   layerChangeGcode,
;   retractionGcode,
;   toolChangeGcode,
;   endingGcode,;,; init 181010,;,;M107 			; Fan off,;G1 E-1 F300 			; Retract the filament a bit before lifting the nozzle,;M104 S0 			; Turn off extruder,;M140 S0 			; Turn off bed,;G91			; Relative positioning,;G28 X0 Y0 			; Move X/Y to min endstops so the head is out of teh way,;M84 			; Disable motors,;G90 			; Absolute positioning,;M117 Print ready...,,;,; // From Cura 181010,; // End_gcode,G92 E0			; Zero the extruded length,;G1 E-30 F300		; Retract E -30,M106 S0			; Turn off cooling fan,M104 S0			; Turn off temperature,M140 S0		     	; Turn off bed,G91			; Relative positioning,G1 E-1 F300			; Retract the filament a bit before lifting the nozzle to release some of the pressure,G1 Z+20 E-5 X-20 Y-20 F7200	; Move Z up a bit and retract filament even more,G1 X0 Y150 F10000		; Move right min,M107			; Turn off layer fan,M84			; Disable motors,G90			; Absolute positioning,M117 *The-End* 		; End msg,;,
;   exportFileFormat,gcode
;   celebration,0
;   celebrationSong,Star Wars
;   postProcessing,|{REPLACE "; layer " "M117 INDICATOR-Layer"}|{REPLACE ", Z = " "\n; Z="}
;   defaultSpeed,2400
;   outlineUnderspeed,0.6
;   solidInfillUnderspeed,0.8
;   supportUnderspeed,0.8
;   rapidXYspeed,3600
;   rapidZspeed,900
;   minBridgingArea,50
;   bridgingExtraInflation,0.2
;   bridgingExtrusionMultiplier,1
;   bridgingSpeedMultiplier,0.6
;   useFixedBridgingAngle,0
;   fixedBridgingAngle,0
;   applyBridgingToPerimeters,0
;   filamentDiameters,1.75|1.75|1.75|1.75|1.75|1.75
;   filamentPricesPerKg,30|46|46|46|46|46
;   filamentDensities,1.25|1.25|1.25|1.25|1.25|1.25
;   useMinPrintHeight,0
;   minPrintHeight,0
;   useMaxPrintHeight,0
;   maxPrintHeight,50
;   useDiaphragm,0
;   diaphragmLayerInterval,20
;   robustSlicing,1
;   mergeAllIntoSolid,0
;   onlyRetractWhenCrossingOutline,1
;   retractBetweenLayers,1
;   useRetractionMinTravel,0
;   retractionMinTravel,3
;   retractWhileWiping,1
;   onlyWipeOutlines,1
;   avoidCrossingOutline,1
;   maxMovementDetourFactor,3
;   toolChangeRetractionDistance,12
;   toolChangeExtraRestartDistance,-0.5
;   toolChangeRetractionSpeed,600
;   externalThinWallType,1
;   internalThinWallType,1
;   thinWallAllowedOverlapPercentage,20
;   singleExtrusionMinLength,1
;   singleExtrusionMinPrintingWidthPercentage,50
;   singleExtrusionMaxPrintingWidthPercentage,200
;   singleExtrusionEndpointExtension,0.2
;   horizontalSizeCompensation,0
G90
M82
M106 S0
M140 S55
M190 S55
;
; -]H.P.B[- MarshMalloW  
; $VER: StartScript 1.02 (26.12.2019) MarshMalloW
;
; Begin Startcode
;
M117 *Preheat*     	; Preheat
;extruder0_temperature
M104 S215  
M109 S215 
M109 R215 
;
M117 *Auto-leveling*     	; Auto-leveling
M107                   	; Turn layer fan off
G21                    	; Set to metric [change to G20 if you want Imperial]
G90                    	; Force coordinates to be absolute relative to the origin
G28                    	; Home X/Y/Z axis
G29                    	; Auto-leveling (BL-Touch)
;
M117 *Start Clean*     	; Indicate nozzle clean in progress on LCD
G92 E0                 	; Set Extruder to 0 
G1 X0 Y0 F2000         	; Move X and Y to 0 with speed 2000 (mm/min)
G1 Z0.1 F1000          	; Move Z to   0.1 with speed 1000 (mm/min)
G1 X8.0 F2000          	; Move X to   8.0 with speed 2000 (mm/min)
G1 Y60.0 E4.0 F1000.0  	; Move Y to  60 and Extruder with 4.0 with speed 1000 (mm/min)
G1 Y100.0 E8.5 F1000.0 	; Move Y to 100 and Extruder with 8.5 with speed 1000 (mm/min)
G92 E0                 	; Set extruder to 0
G1 X16.0 F3000         	; Move X to 16.0 with speed 3000 (mm/min)
G1 Y60.0 F3000         	; Move Y to 60.0 with speed 3000 (mm/min)
M117 *End Clean*       	; Indicate nozzle clean in progress on LCD
G1 Z5 F3000            	; Move Z to  5.0 with speed 3000 (mm/min)
G1 X20.0 F3000         	; Move X to 20.0 with speed 3000 (mm/min)
G1 Y20.0 F3000         	; Move Y to 20.0 with speed 3000 (mm/min)
; 
M117 *Printing...*     	; Start printing msg on LCD
;
; End Startcode
;
; Begin printing with sliced GCode after here
;
; process Process1
M117 INDICATOR-Layer1
; Z=0.180
T0
G92 E0.0000
G1 E-4.0000 F6000
; feature skirt
; tool H0.180 W0.350
G1 Z0.180 F900
G1 X101.762 Y49.904 F3600
G1 E0.0000 F6000
G92 E0.0000
G1 X101.836 Y49.905 E0.0018 F960
G1 X103.396 Y49.971 E0.0407
G1 X103.574 Y49.988 E0.0452
G1 X104.706 Y50.152 E0.0736
G1 X104.855 Y50.180 E0.0774
G1 X106.259 Y50.509 E0.1133
G1 X106.437 Y50.561 E0.1179
G1 X107.600 Y50.966 E0.1485
G1 X107.707 Y51.007 E0.1514
G1 X108.385 Y51.293 E0.1697
G1 X108.514 Y51.354 E0.1732
G1 X109.547 Y51.894 E0.2022
G1 X109.647 Y51.950 E0.2051
G1 X110.166 Y52.266 E0.2202
G1 X110.237 Y52.311 E0.2223
G1 X110.828 Y52.711 E0.2401
G1 X110.920 Y52.778 E0.2429
G1 X111.880 Y53.522 E0.2731
G1 X112.002 Y53.625 E0.2771
G1 X112.914 Y54.475 E0.3081
G1 X113.037 Y54.602 E0.3125
G1 X113.856 Y55.534 E0.3434
G1 X113.957 Y55.659 E0.3474
G1 X114.725 Y56.714 E0.3799
G1 X114.819 Y56.858 E0.3841
G1 X115.455 Y57.938 E0.4153
G1 X115.529 Y58.077 E0.4192
G1 X116.103 Y59.289 E0.4526
G1 X116.170 Y59.451 E0.4570
G1 X116.578 Y60.591 E0.4871
G1 X116.627 Y60.754 E0.4913
G1 X116.980 Y62.150 E0.5272
G1 X117.013 Y62.316 E0.5314
G1 X117.187 Y63.461 E0.5602
G1 X117.205 Y63.630 E0.5644
G1 X117.280 Y65.016 E0.5990
G1 X117.282 Y65.180 E0.6031
G1 X117.234 Y66.419 E0.6339
G1 X117.219 Y66.586 E0.6381
G1 X117.057 Y67.788 E0.6683
G1 X117.039 Y67.898 E0.6710
G1 X116.898 Y68.605 E0.6889
G1 X116.871 Y68.720 E0.6919
G1 X116.676 Y69.442 E0.7105
G1 X116.641 Y69.556 E0.7135
G1 X116.230 Y70.750 E0.7449
G1 X116.165 Y70.910 E0.7492
G1 X115.628 Y72.083 E0.7813
G1 X115.551 Y72.231 E0.7854
G1 X114.860 Y73.427 E0.8198
G1 X114.761 Y73.581 E0.8244
G1 X113.986 Y74.648 E0.8572
G1 X113.879 Y74.781 E0.8614
G1 X112.957 Y75.823 E0.8961
G1 X112.831 Y75.952 E0.9005
G1 X111.986 Y76.731 E0.9291
G1 X111.862 Y76.835 E0.9332
G1 X110.607 Y77.794 E0.9725
G1 X110.451 Y77.900 E0.9772
G1 X109.472 Y78.495 E1.0057
G1 X109.326 Y78.575 E1.0098
G1 X107.989 Y79.224 E1.0468
G1 X107.820 Y79.295 E1.0513
G1 X106.708 Y79.698 E1.0808
G1 X106.555 Y79.745 E1.0848
G1 X105.124 Y80.121 E1.1216
G1 X104.937 Y80.159 E1.1263
G1 X103.590 Y80.360 E1.1602
G1 X103.422 Y80.377 E1.1644
G1 X102.171 Y80.442 E1.1956
G1 X102.079 Y80.445 E1.1979
G1 X89.069 Y80.446 E1.5216
G1 X88.979 Y80.444 E1.5238
G1 X87.807 Y80.385 E1.5530
G1 X87.686 Y80.374 E1.5561
G1 X87.055 Y80.299 E1.5719
G1 X86.964 Y80.285 E1.5742
G1 X86.209 Y80.154 E1.5932
G1 X86.098 Y80.131 E1.5961
G1 X84.891 Y79.841 E1.6270
G1 X84.753 Y79.802 E1.6305
G1 X84.049 Y79.571 E1.6489
G1 X83.943 Y79.532 E1.6517
G1 X82.805 Y79.076 E1.6823
G1 X82.645 Y79.002 E1.6866
G1 X81.591 Y78.451 E1.7162
G1 X81.451 Y78.370 E1.7203
G1 X80.369 Y77.672 E1.7523
G1 X80.243 Y77.583 E1.7561
G1 X79.227 Y76.793 E1.7882
G1 X79.108 Y76.691 E1.7921
G1 X78.231 Y75.874 E1.8219
G1 X78.106 Y75.746 E1.8264
G1 X77.299 Y74.825 E1.8568
G1 X77.201 Y74.703 E1.8607
G1 X76.428 Y73.645 E1.8933
G1 X76.328 Y73.492 E1.8979
G1 X75.602 Y72.244 E1.9338
G1 X75.527 Y72.102 E1.9378
G1 X75.070 Y71.121 E1.9647
G1 X75.024 Y71.013 E1.9676
G1 X74.777 Y70.377 E1.9846
G1 X74.735 Y70.256 E1.9878
G1 X74.354 Y69.010 E2.0202
G1 X74.318 Y68.874 E2.0237
G1 X74.145 Y68.089 E2.0437
G1 X74.123 Y67.975 E2.0466
G1 X73.975 Y66.998 E2.0712
G1 X73.960 Y66.868 E2.0744
G1 X73.889 Y65.954 E2.0973
G1 X73.884 Y65.831 E2.1003
G1 X73.874 Y64.611 E2.1307
G1 X73.882 Y64.438 E2.1350
G1 X74.000 Y63.132 E2.1676
G1 X74.021 Y62.978 E2.1715
G1 X74.239 Y61.773 E2.2020
G1 X74.282 Y61.591 E2.2066
G1 X74.643 Y60.359 E2.2386
G1 X74.698 Y60.199 E2.2428
G1 X75.228 Y58.876 E2.2782
G1 X75.301 Y58.716 E2.2826
G1 X75.932 Y57.504 E2.3166
G1 X75.998 Y57.390 E2.3199
G1 X76.342 Y56.834 E2.3362
G1 X76.414 Y56.727 E2.3394
G1 X77.137 Y55.733 E2.3699
G1 X77.241 Y55.603 E2.3741
G1 X78.180 Y54.537 E2.4094
G1 X78.277 Y54.436 E2.4129
G1 X78.767 Y53.962 E2.4299
G1 X78.872 Y53.868 E2.4334
G1 X79.820 Y53.088 E2.4639
G1 X79.909 Y53.019 E2.4668
G1 X80.634 Y52.496 E2.4890
G1 X80.754 Y52.416 E2.4926
G1 X81.793 Y51.790 E2.5228
G1 X81.906 Y51.727 E2.5260
G1 X82.571 Y51.389 E2.5445
G1 X82.685 Y51.337 E2.5477
G1 X83.788 Y50.873 E2.5774
G1 X83.955 Y50.813 E2.5818
G1 X85.343 Y50.386 E2.6180
G1 X85.511 Y50.344 E2.6223
G1 X86.744 Y50.094 E2.6536
G1 X86.879 Y50.072 E2.6570
G1 X87.641 Y49.979 E2.6761
G1 X87.764 Y49.969 E2.6792
G1 X88.975 Y49.905 E2.7093
G1 X89.067 Y49.903 E2.7116
G1 X101.762 Y49.904 E3.0275
G92 E0.0000
G1 E-4.0000 F6000
G1 Z0.280 F900
G1 X101.723 Y53.604 F3600
G1 X99.348 Y53.603
G1 X84.810 Y75.893
G1 X84.272 Y75.678
G1 X82.944 Y78.754
G1 Z0.180 F900
G1 E0.0000 F6000
G92 E0.0000
G1 X82.800 Y78.688 E0.0040 F960
G1 X81.760 Y78.145 E0.0331
G1 X81.634 Y78.072 E0.0368
G1 X80.566 Y77.382 E0.0684
G1 X80.452 Y77.302 E0.0719
G1 X79.448 Y76.521 E0.1035
G1 X79.341 Y76.430 E0.1070
G1 X78.476 Y75.624 E0.1364
G1 X78.363 Y75.508 E0.1404
G1 X77.567 Y74.600 E0.1705
G1 X77.480 Y74.491 E0.1740
G1 X76.716 Y73.446 E0.2062
G1 X76.626 Y73.308 E0.2103
G1 X75.908 Y72.075 E0.2458
G1 X75.841 Y71.947 E0.2494
G1 X75.389 Y70.978 E0.2760
G1 X75.348 Y70.881 E0.2786
G1 X75.106 Y70.257 E0.2953
G1 X75.068 Y70.147 E0.2982
G1 X74.690 Y68.915 E0.3302
G1 X74.658 Y68.792 E0.3334
G1 X74.488 Y68.020 E0.3531
G1 X74.469 Y67.916 E0.3557
G1 X74.322 Y66.951 E0.3800
G1 X74.308 Y66.835 E0.3829
G1 X74.238 Y65.933 E0.4054
G1 X74.234 Y65.822 E0.4081
G1 X74.224 Y64.617 E0.4381
G1 X74.231 Y64.461 E0.4420
G1 X74.348 Y63.172 E0.4742
G1 X74.367 Y63.033 E0.4777
G1 X74.582 Y61.844 E0.5078
G1 X74.621 Y61.681 E0.5120
G1 X74.977 Y60.465 E0.5435
G1 X75.026 Y60.322 E0.5473
G1 X75.549 Y59.014 E0.5823
G1 X75.615 Y58.870 E0.5863
G1 X76.240 Y57.672 E0.6199
G1 X76.299 Y57.569 E0.6228
G1 X76.637 Y57.024 E0.6388
G1 X76.701 Y56.928 E0.6417
G1 X77.415 Y55.945 E0.6719
G1 X77.509 Y55.828 E0.6756
G1 X78.438 Y54.774 E0.7106
G1 X78.525 Y54.683 E0.7137
G1 X79.006 Y54.218 E0.7303
G1 X79.100 Y54.134 E0.7335
G1 X80.038 Y53.361 E0.7637
G1 X80.119 Y53.299 E0.7663
G1 X80.833 Y52.784 E0.7882
G1 X80.941 Y52.712 E0.7914
G1 X81.968 Y52.093 E0.8212
G1 X82.070 Y52.036 E0.8242
G1 X82.724 Y51.704 E0.8424
G1 X82.827 Y51.657 E0.8452
G1 X83.916 Y51.199 E0.8746
G1 X84.066 Y51.145 E0.8786
G1 X85.437 Y50.724 E0.9143
G1 X85.589 Y50.685 E0.9182
G1 X86.807 Y50.439 E0.9491
G1 X86.929 Y50.419 E0.9522
G1 X87.678 Y50.327 E0.9709
G1 X87.788 Y50.318 E0.9737
G1 X88.989 Y50.255 E1.0036
G1 X89.072 Y50.253 E1.0057
G1 X101.758 Y50.254 E1.3213
G1 X101.825 Y50.255 E1.3230
G1 X103.372 Y50.320 E1.3615
G1 X103.533 Y50.335 E1.3656
G1 X104.648 Y50.497 E1.3936
