; G-Code generated by Simplify3D(R) Version 4.1.2
; Jun 5, 2021 at 7:04:11 AM
; Settings Summary
;   processName,Process1
;   applyToModels,SupportPortableGauche
;   profileName,A10-04-15 Tevo Tornado
;   profileVersion,2020-12-06 16:18:07
;   baseProfile,Creality CR-10(2)
;   printMaterial,PLA
;   printQuality,Medium
;   printExtruders,
;   extruderName,Primary Extruder
;   extruderToolheadNumber,0
;   extruderDiameter,0.4
;   extruderAutoWidth,0
;   extruderWidth,0.35
;   extrusionMultiplier,0.95
;   extruderUseRetract,1
;   extruderRetractionDistance,4
;   extruderExtraRestartDistance,0
;   extruderRetractionZLift,0.1
;   extruderRetractionSpeed,6000
;   extruderUseCoasting,1
;   extruderCoastingDistance,0.4
;   extruderUseWipe,1
;   extruderWipeDistance,5
;   primaryExtruder,0
;   layerHeight,0.15
;   topSolidLayers,5
;   bottomSolidLayers,4
;   perimeterOutlines,3
;   printPerimetersInsideOut,0
;   startPointOption,1
;   startPointOriginX,0
;   startPointOriginY,300
;   sequentialIslands,0
;   spiralVaseMode,0
;   firstLayerHeightPercentage,120
;   firstLayerWidthPercentage,100
;   firstLayerUnderspeed,0.4
;   useRaft,0
;   raftExtruder,0
;   raftTopLayers,3
;   raftBaseLayers,2
;   raftOffset,3
;   raftSeparationDistance,0.14
;   raftTopInfill,100
;   aboveRaftSpeedMultiplier,0.3
;   useSkirt,1
;   skirtExtruder,0
;   skirtLayers,1
;   skirtOutlines,2
;   skirtOffset,3
;   usePrimePillar,0
;   primePillarExtruder,999
;   primePillarWidth,12
;   primePillarLocation,7
;   primePillarSpeedMultiplier,1
;   useOozeShield,0
;   oozeShieldExtruder,999
;   oozeShieldOffset,2
;   oozeShieldOutlines,1
;   oozeShieldSidewallShape,1
;   oozeShieldSidewallAngle,30
;   oozeShieldSpeedMultiplier,1
;   infillExtruder,0
;   internalInfillPattern,Rectilinear
;   externalInfillPattern,Rectilinear
;   infillPercentage,15
;   outlineOverlapPercentage,15
;   infillExtrusionWidthPercentage,100
;   minInfillLength,5
;   infillLayerInterval,1
;   internalInfillAngles,45,-45
;   overlapInternalInfillAngles,0
;   externalInfillAngles,45,-45
;   generateSupport,0
;   supportExtruder,0
;   supportInfillPercentage,30
;   supportExtraInflation,0
;   supportBaseLayers,0
;   denseSupportExtruder,0
;   denseSupportLayers,0
;   denseSupportInfillPercentage,70
;   supportLayerInterval,1
;   supportHorizontalPartOffset,0.4
;   supportUpperSeparationLayers,1
;   supportLowerSeparationLayers,1
;   supportType,0
;   supportGridSpacing,4.5
;   maxOverhangAngle,45
;   supportAngles,0
;   temperatureName,Primary Extruder,Heated Bed
;   temperatureNumber,0,0
;   temperatureSetpointCount,2,2
;   temperatureSetpointLayers,1,2,1,2
;   temperatureSetpointTemperatures,215,210,55,50
;   temperatureStabilizeAtStartup,1,1
;   temperatureHeatedBed,0,1
;   fanLayers,1,2
;   fanSpeeds,0,100
;   blipFanToFullPower,0
;   adjustSpeedForCooling,1
;   minSpeedLayerTime,15
;   minCoolingSpeedSlowdown,20
;   increaseFanForCooling,1
;   minFanLayerTime,25
;   maxCoolingFanSpeed,100
;   increaseFanForBridging,1
;   bridgingFanSpeed,100
;   use5D,1
;   relativeEdistances,0
;   allowEaxisZeroing,1
;   independentExtruderAxes,0
;   includeM10123,0
;   stickySupport,1
;   applyToolheadOffsets,0
;   gcodeXoffset,0
;   gcodeYoffset,0
;   gcodeZoffset,0
;   overrideMachineDefinition,1
;   machineTypeOverride,0
;   strokeXoverride,300
;   strokeYoverride,300
;   strokeZoverride,400
;   originOffsetXoverride,0
;   originOffsetYoverride,0
;   originOffsetZoverride,0
;   homeXdirOverride,-1
;   homeYdirOverride,-1
;   homeZdirOverride,-1
;   flipXoverride,1
;   flipYoverride,-1
;   flipZoverride,1
;   toolheadOffsets,0,0|0,0|0,0|0,0|0,0|0,0
;   overrideFirmwareConfiguration,1
;   firmwareTypeOverride,RepRap (Marlin/Repetier/Sprinter)
;   GPXconfigOverride,r2
;   baudRateOverride,250000
;   overridePrinterModels,1
;   printerModelsOverride
;   startingGcode,;,; -]H.P.B[- MarshMalloW  ,; $VER: StartScript 1.02 (26.12.2019) MarshMalloW,;,; Begin Startcode,;,M117 *Preheat*     	; Preheat,;extruder0_temperature,M104 S[extruder0_temperature]  ,M109 S[extruder0_temperature] ,M109 R[extruder0_temperature] ,;,M117 *Auto-leveling*     	; Auto-leveling,M107                   	; Turn layer fan off,G21                    	; Set to metric [change to G20 if you want Imperial],G90                    	; Force coordinates to be absolute relative to the origin,G28                    	; Home X/Y/Z axis,G29                    	; Auto-leveling (BL-Touch),;,M117 *Start Clean*     	; Indicate nozzle clean in progress on LCD,G92 E0                 	; Set Extruder to 0 ,G1 X0 Y0 F2000         	; Move X and Y to 0 with speed 2000 (mm/min),G1 Z0.1 F1000          	; Move Z to   0.1 with speed 1000 (mm/min),G1 X8.0 F2000          	; Move X to   8.0 with speed 2000 (mm/min),G1 Y60.0 E4.0 F1000.0  	; Move Y to  60 and Extruder with 4.0 with speed 1000 (mm/min),G1 Y100.0 E8.5 F1000.0 	; Move Y to 100 and Extruder with 8.5 with speed 1000 (mm/min),G92 E0                 	; Set extruder to 0,G1 X16.0 F3000         	; Move X to 16.0 with speed 3000 (mm/min),G1 Y60.0 F3000         	; Move Y to 60.0 with speed 3000 (mm/min),M117 *End Clean*       	; Indicate nozzle clean in progress on LCD,G1 Z5 F3000            	; Move Z to  5.0 with speed 3000 (mm/min),G1 X20.0 F3000         	; Move X to 20.0 with speed 3000 (mm/min),G1 Y20.0 F3000         	; Move Y to 20.0 with speed 3000 (mm/min),; ,M117 *Printing...*     	; Start printing msg on LCD,;,; End Startcode,;,; Begin printing with sliced GCode after here,;
;   layerChangeGcode,
;   retractionGcode,
;   toolChangeGcode,
;   endingGcode,;,; init 181010,;,;M107 			; Fan off,;G1 E-1 F300 			; Retract the filament a bit before lifting the nozzle,;M104 S0 			; Turn off extruder,;M140 S0 			; Turn off bed,;G91			; Relative positioning,;G28 X0 Y0 			; Move X/Y to min endstops so the head is out of teh way,;M84 			; Disable motors,;G90 			; Absolute positioning,;M117 Print ready...,,;,; // From Cura 181010,; // End_gcode,G92 E0			; Zero the extruded length,;G1 E-30 F300		; Retract E -30,M106 S0			; Turn off cooling fan,M104 S0			; Turn off temperature,M140 S0		     	; Turn off bed,G91			; Relative positioning,G1 E-1 F300			; Retract the filament a bit before lifting the nozzle to release some of the pressure,G1 Z+20 E-5 X-20 Y-20 F7200	; Move Z up a bit and retract filament even more,G1 X0 Y150 F10000		; Move right min,M107			; Turn off layer fan,M84			; Disable motors,G90			; Absolute positioning,M117 *The-End* 		; End msg,;,
;   exportFileFormat,gcode
;   celebration,0
;   celebrationSong,Star Wars
;   postProcessing,|{REPLACE "; layer " "M117 INDICATOR-Layer"}|{REPLACE ", Z = " "\n; Z="}
;   defaultSpeed,2400
;   outlineUnderspeed,0.6
;   solidInfillUnderspeed,0.8
;   supportUnderspeed,0.8
;   rapidXYspeed,3600
;   rapidZspeed,900
;   minBridgingArea,50
;   bridgingExtraInflation,0.2
;   bridgingExtrusionMultiplier,1
;   bridgingSpeedMultiplier,0.6
;   useFixedBridgingAngle,0
;   fixedBridgingAngle,0
;   applyBridgingToPerimeters,0
;   filamentDiameters,1.75|1.75|1.75|1.75|1.75|1.75
;   filamentPricesPerKg,30|46|46|46|46|46
;   filamentDensities,1.25|1.25|1.25|1.25|1.25|1.25
;   useMinPrintHeight,0
;   minPrintHeight,0
;   useMaxPrintHeight,0
;   maxPrintHeight,50
;   useDiaphragm,0
;   diaphragmLayerInterval,20
;   robustSlicing,1
;   mergeAllIntoSolid,0
;   onlyRetractWhenCrossingOutline,1
;   retractBetweenLayers,1
;   useRetractionMinTravel,0
;   retractionMinTravel,3
;   retractWhileWiping,1
;   onlyWipeOutlines,1
;   avoidCrossingOutline,1
;   maxMovementDetourFactor,3
;   toolChangeRetractionDistance,12
;   toolChangeExtraRestartDistance,-0.5
;   toolChangeRetractionSpeed,600
;   externalThinWallType,1
;   internalThinWallType,1
;   thinWallAllowedOverlapPercentage,20
;   singleExtrusionMinLength,1
;   singleExtrusionMinPrintingWidthPercentage,50
;   singleExtrusionMaxPrintingWidthPercentage,200
;   singleExtrusionEndpointExtension,0.2
;   horizontalSizeCompensation,0
G90
M82
M106 S0
M140 S55
M190 S55
;
; -]H.P.B[- MarshMalloW  
; $VER: StartScript 1.02 (26.12.2019) MarshMalloW
;
; Begin Startcode
;
M117 *Preheat*     	; Preheat
;extruder0_temperature
M104 S215  
M109 S215 
M109 R215 
;
M117 *Auto-leveling*     	; Auto-leveling
M107                   	; Turn layer fan off
G21                    	; Set to metric [change to G20 if you want Imperial]
G90                    	; Force coordinates to be absolute relative to the origin
G28                    	; Home X/Y/Z axis
G29                    	; Auto-leveling (BL-Touch)
;
M117 *Start Clean*     	; Indicate nozzle clean in progress on LCD
G92 E0                 	; Set Extruder to 0 
G1 X0 Y0 F2000         	; Move X and Y to 0 with speed 2000 (mm/min)
G1 Z0.1 F1000          	; Move Z to   0.1 with speed 1000 (mm/min)
G1 X8.0 F2000          	; Move X to   8.0 with speed 2000 (mm/min)
G1 Y60.0 E4.0 F1000.0  	; Move Y to  60 and Extruder with 4.0 with speed 1000 (mm/min)
G1 Y100.0 E8.5 F1000.0 	; Move Y to 100 and Extruder with 8.5 with speed 1000 (mm/min)
G92 E0                 	; Set extruder to 0
G1 X16.0 F3000         	; Move X to 16.0 with speed 3000 (mm/min)
G1 Y60.0 F3000         	; Move Y to 60.0 with speed 3000 (mm/min)
M117 *End Clean*       	; Indicate nozzle clean in progress on LCD
G1 Z5 F3000            	; Move Z to  5.0 with speed 3000 (mm/min)
G1 X20.0 F3000         	; Move X to 20.0 with speed 3000 (mm/min)
G1 Y20.0 F3000         	; Move Y to 20.0 with speed 3000 (mm/min)
; 
M117 *Printing...*     	; Start printing msg on LCD
;
; End Startcode
;
; Begin printing with sliced GCode after here
;
; process Process1
M117 INDICATOR-Layer1
; Z=0.180
T0
G92 E0.0000
G1 E-4.0000 F6000
; feature skirt
; tool H0.180 W0.350
G1 Z0.180 F900
G1 X107.737 Y45.581 F3600
G1 E0.0000 F6000
G92 E0.0000
G1 X108.460 Y45.607 E0.0180 F960
G1 X108.576 Y45.614 E0.0209
G1 X109.803 Y45.740 E0.0516
G1 X109.932 Y45.758 E0.0548
G1 X110.600 Y45.876 E0.0717
G1 X110.729 Y45.904 E0.0750
G1 X111.987 Y46.225 E0.1073
G1 X112.105 Y46.260 E0.1103
G1 X112.856 Y46.508 E0.1300
G1 X112.986 Y46.557 E0.1335
G1 X114.071 Y47.013 E0.1628
G1 X114.185 Y47.066 E0.1659
G1 X114.850 Y47.403 E0.1845
G1 X114.964 Y47.466 E0.1877
G1 X116.002 Y48.093 E0.2179
G1 X116.122 Y48.173 E0.2214
G1 X116.831 Y48.684 E0.2432
G1 X116.891 Y48.729 E0.2451
G1 X117.478 Y49.191 E0.2636
G1 X117.584 Y49.281 E0.2671
G1 X118.435 Y50.068 E0.2960
G1 X118.557 Y50.192 E0.3003
G1 X119.445 Y51.193 E0.3336
G1 X119.525 Y51.289 E0.3367
G1 X119.946 Y51.838 E0.3539
G1 X120.019 Y51.940 E0.3570
G1 X120.711 Y52.989 E0.3883
G1 X120.788 Y53.117 E0.3920
G1 X121.196 Y53.865 E0.4132
G1 X121.250 Y53.972 E0.4162
G1 X121.767 Y55.097 E0.4470
G1 X121.821 Y55.229 E0.4505
G1 X122.085 Y55.952 E0.4697
G1 X122.121 Y56.061 E0.4726
G1 X122.474 Y57.268 E0.5039
G1 X122.517 Y57.450 E0.5085
G1 X122.735 Y58.655 E0.5390
G1 X122.756 Y58.809 E0.5428
G1 X122.875 Y60.115 E0.5755
G1 X122.882 Y60.288 E0.5798
G1 X122.873 Y61.508 E0.6101
G1 X122.867 Y61.631 E0.6132
G1 X122.797 Y62.545 E0.6360
G1 X122.782 Y62.674 E0.6393
G1 X122.633 Y63.652 E0.6638
G1 X122.612 Y63.766 E0.6667
G1 X122.442 Y64.535 E0.6863
G1 X122.416 Y64.640 E0.6890
G1 X122.202 Y65.386 E0.7083
G1 X122.168 Y65.494 E0.7112
G1 X121.812 Y66.492 E0.7375
G1 X121.769 Y66.602 E0.7405
G1 X121.471 Y67.288 E0.7591
G1 X121.410 Y67.415 E0.7626
G1 X120.784 Y68.590 E0.7957
G1 X120.704 Y68.724 E0.7996
G1 X120.048 Y69.730 E0.8295
G1 X119.968 Y69.843 E0.8329
G1 X119.513 Y70.433 E0.8514
G1 X119.443 Y70.519 E0.8542
G1 X118.651 Y71.423 E0.8841
G1 X118.526 Y71.551 E0.8886
G1 X117.649 Y72.368 E0.9184
G1 X117.530 Y72.469 E0.9223
G1 X116.529 Y73.248 E0.9538
G1 X116.435 Y73.316 E0.9567
G1 X115.792 Y73.751 E0.9760
G1 X115.667 Y73.828 E0.9797
G1 X114.457 Y74.507 E1.0142
G1 X114.331 Y74.571 E1.0178
G1 X113.712 Y74.856 E1.0347
G1 X113.577 Y74.911 E1.0383
G1 X112.083 Y75.454 E1.0779
G1 X111.893 Y75.511 E1.0828
G1 X110.659 Y75.808 E1.1144
G1 X110.548 Y75.831 E1.1172
G1 X109.792 Y75.962 E1.1363
G1 X109.701 Y75.975 E1.1386
G1 X109.070 Y76.051 E1.1544
G1 X108.949 Y76.061 E1.1574
G1 X107.777 Y76.121 E1.1866
G1 X107.688 Y76.123 E1.1888
G1 X94.693 Y76.122 E1.5122
G1 X94.632 Y76.121 E1.5137
G1 X93.918 Y76.096 E1.5315
G1 X93.801 Y76.088 E1.5344
G1 X92.540 Y75.959 E1.5660
G1 X92.367 Y75.933 E1.5703
G1 X91.098 Y75.675 E1.6025
G1 X90.931 Y75.633 E1.6068
G1 X89.573 Y75.216 E1.6422
G1 X89.402 Y75.154 E1.6467
G1 X88.195 Y74.642 E1.6793
G1 X88.044 Y74.569 E1.6835
G1 X86.863 Y73.931 E1.7169
G1 X86.701 Y73.831 E1.7216
G1 X85.589 Y73.065 E1.7552
G1 X85.461 Y72.968 E1.7592
G1 X84.404 Y72.086 E1.7935
G1 X84.269 Y71.961 E1.7980
G1 X83.377 Y71.045 E1.8299
G1 X83.266 Y70.919 E1.8340
G1 X82.406 Y69.847 E1.8682
G1 X82.305 Y69.708 E1.8725
G1 X81.640 Y68.688 E1.9028
G1 X81.553 Y68.541 E1.9071
G1 X80.884 Y67.260 E1.9430
G1 X80.808 Y67.093 E1.9476
G1 X80.306 Y65.827 E1.9815
G1 X80.252 Y65.668 E1.9857
G1 X79.893 Y64.428 E2.0178
G1 X79.852 Y64.254 E2.0222
G1 X79.629 Y63.031 E2.0532
G1 X79.607 Y62.873 E2.0571
G1 X79.490 Y61.572 E2.0896
G1 X79.483 Y61.398 E2.0940
G1 X79.495 Y60.105 E2.1261
G1 X79.504 Y59.947 E2.1301
G1 X79.634 Y58.635 E2.1629
G1 X79.661 Y58.459 E2.1673
G1 X79.916 Y57.200 E2.1993
G1 X79.958 Y57.036 E2.2035
G1 X80.342 Y55.775 E2.2363
G1 X80.397 Y55.620 E2.2404
G1 X80.855 Y54.504 E2.2704
G1 X80.928 Y54.349 E2.2746
G1 X81.566 Y53.141 E2.3087
G1 X81.649 Y53.000 E2.3127
G1 X82.318 Y51.975 E2.3432
G1 X82.395 Y51.866 E2.3465
G1 X82.840 Y51.286 E2.3647
G1 X82.914 Y51.195 E2.3676
G1 X83.718 Y50.280 E2.3979
G1 X83.838 Y50.155 E2.4022
G1 X84.715 Y49.335 E2.4321
G1 X84.837 Y49.231 E2.4361
G1 X85.832 Y48.457 E2.4675
G1 X85.927 Y48.388 E2.4704
G1 X86.542 Y47.973 E2.4888
G1 X86.662 Y47.899 E2.4923
G1 X87.856 Y47.223 E2.5265
G1 X87.987 Y47.156 E2.5302
G1 X88.708 Y46.825 E2.5499
G1 X88.846 Y46.768 E2.5536
G1 X90.263 Y46.257 E2.5911
G1 X90.401 Y46.213 E2.5947
G1 X90.994 Y46.053 E2.6100
G1 X91.114 Y46.025 E2.6131
G1 X92.527 Y45.747 E2.6489
G1 X92.713 Y45.721 E2.6536
G1 X94.134 Y45.597 E2.6890
G1 X94.264 Y45.590 E2.6923
G1 X94.997 Y45.581 E2.7105
G1 X95.020 Y45.580 E2.7111
G1 X107.675 Y45.580 E3.0260
G1 X107.737 Y45.581 E3.0275
G92 E0.0000
G1 E-4.0000 F6000
G1 Z0.280 F900
G1 X107.640 Y49.280 F3600
G1 X105.871 Y49.280
G1 X94.203 Y72.403
G1 X94.109 Y72.400
G1 X93.620 Y72.364
G1 X93.009 Y72.288
G1 X92.584 Y75.612
G1 Z0.180 F900
G1 E0.0000 F6000
G92 E0.0000
G1 X92.428 Y75.588 E0.0039 F960
G1 X91.176 Y75.334 E0.0357
G1 X91.026 Y75.296 E0.0396
G1 X89.684 Y74.884 E0.0745
G1 X89.530 Y74.828 E0.0786
G1 X88.339 Y74.323 E0.1108
G1 X88.203 Y74.258 E0.1145
G1 X87.038 Y73.627 E0.1475
G1 X86.892 Y73.538 E0.1517
G1 X85.795 Y72.781 E0.1849
G1 X85.679 Y72.694 E0.1885
G1 X84.635 Y71.823 E0.2223
G1 X84.513 Y71.711 E0.2265
G1 X83.634 Y70.807 E0.2578
G1 X83.534 Y70.693 E0.2616
G1 X82.685 Y69.635 E0.2954
G1 X82.594 Y69.509 E0.2992
G1 X81.937 Y68.504 E0.3291
G1 X81.860 Y68.371 E0.3329
G1 X81.199 Y67.106 E0.3684
G1 X81.130 Y66.956 E0.3726
G1 X80.635 Y65.706 E0.4060
G1 X80.586 Y65.563 E0.4098
G1 X80.232 Y64.340 E0.4415
G1 X80.195 Y64.182 E0.4455
G1 X79.975 Y62.976 E0.4760
G1 X79.955 Y62.833 E0.4796
G1 X79.840 Y61.550 E0.5116
G1 X79.833 Y61.393 E0.5155
G1 X79.845 Y60.116 E0.5473
G1 X79.853 Y59.974 E0.5509
G1 X79.982 Y58.679 E0.5832
G1 X80.006 Y58.520 E0.5872
G1 X80.257 Y57.278 E0.6188
G1 X80.295 Y57.130 E0.6226
G1 X80.675 Y55.885 E0.6550
G1 X80.724 Y55.745 E0.6586
G1 X81.176 Y54.645 E0.6883
G1 X81.241 Y54.505 E0.6921
G1 X81.872 Y53.311 E0.7257
G1 X81.946 Y53.185 E0.7293
G1 X82.607 Y52.172 E0.7594
G1 X82.677 Y52.074 E0.7624
G1 X83.114 Y51.504 E0.7803
G1 X83.181 Y51.422 E0.7829
G1 X83.975 Y50.517 E0.8129
G1 X84.084 Y50.405 E0.8168
G1 X84.948 Y49.596 E0.8462
G1 X85.058 Y49.503 E0.8498
G1 X86.043 Y48.737 E0.8808
G1 X86.128 Y48.675 E0.8835
G1 X86.732 Y48.267 E0.9016
G1 X86.840 Y48.200 E0.9048
G1 X88.022 Y47.531 E0.9386
G1 X88.140 Y47.471 E0.9419
G1 X88.847 Y47.146 E0.9612
G1 X88.972 Y47.095 E0.9646
G1 X90.375 Y46.588 E1.0017
G1 X90.500 Y46.549 E1.0050
G1 X91.080 Y46.392 E1.0199
G1 X91.188 Y46.367 E1.0227
G1 X92.585 Y46.093 E1.0581
