; G-Code generated by Simplify3D(R) Version 4.1.2
; Jun 3, 2021 at 3:55:24 PM
; Settings Summary
;   processName,Process1
;   applyToModels,SupportPortable Etude-PartAdditiveLoft002
;   profileName,A10-04-15 Tevo Tornado
;   profileVersion,2020-12-06 16:18:07
;   baseProfile,Creality CR-10(2)
;   printMaterial,PLA
;   printQuality,Medium
;   printExtruders,
;   extruderName,Primary Extruder
;   extruderToolheadNumber,0
;   extruderDiameter,0.4
;   extruderAutoWidth,0
;   extruderWidth,0.35
;   extrusionMultiplier,0.95
;   extruderUseRetract,1
;   extruderRetractionDistance,4
;   extruderExtraRestartDistance,0
;   extruderRetractionZLift,0.1
;   extruderRetractionSpeed,6000
;   extruderUseCoasting,1
;   extruderCoastingDistance,0.4
;   extruderUseWipe,1
;   extruderWipeDistance,5
;   primaryExtruder,0
;   layerHeight,0.15
;   topSolidLayers,5
;   bottomSolidLayers,4
;   perimeterOutlines,3
;   printPerimetersInsideOut,0
;   startPointOption,1
;   startPointOriginX,0
;   startPointOriginY,300
;   sequentialIslands,0
;   spiralVaseMode,0
;   firstLayerHeightPercentage,120
;   firstLayerWidthPercentage,100
;   firstLayerUnderspeed,0.4
;   useRaft,0
;   raftExtruder,0
;   raftTopLayers,3
;   raftBaseLayers,2
;   raftOffset,3
;   raftSeparationDistance,0.14
;   raftTopInfill,100
;   aboveRaftSpeedMultiplier,0.3
;   useSkirt,1
;   skirtExtruder,0
;   skirtLayers,1
;   skirtOutlines,2
;   skirtOffset,3
;   usePrimePillar,0
;   primePillarExtruder,999
;   primePillarWidth,12
;   primePillarLocation,7
;   primePillarSpeedMultiplier,1
;   useOozeShield,0
;   oozeShieldExtruder,999
;   oozeShieldOffset,2
;   oozeShieldOutlines,1
;   oozeShieldSidewallShape,1
;   oozeShieldSidewallAngle,30
;   oozeShieldSpeedMultiplier,1
;   infillExtruder,0
;   internalInfillPattern,Rectilinear
;   externalInfillPattern,Rectilinear
;   infillPercentage,15
;   outlineOverlapPercentage,15
;   infillExtrusionWidthPercentage,100
;   minInfillLength,5
;   infillLayerInterval,1
;   internalInfillAngles,45,-45
;   overlapInternalInfillAngles,0
;   externalInfillAngles,45,-45
;   generateSupport,0
;   supportExtruder,0
;   supportInfillPercentage,30
;   supportExtraInflation,0
;   supportBaseLayers,0
;   denseSupportExtruder,0
;   denseSupportLayers,0
;   denseSupportInfillPercentage,70
;   supportLayerInterval,1
;   supportHorizontalPartOffset,0.4
;   supportUpperSeparationLayers,1
;   supportLowerSeparationLayers,1
;   supportType,0
;   supportGridSpacing,4.5
;   maxOverhangAngle,45
;   supportAngles,0
;   temperatureName,Primary Extruder,Heated Bed
;   temperatureNumber,0,0
;   temperatureSetpointCount,2,2
;   temperatureSetpointLayers,1,2,1,2
;   temperatureSetpointTemperatures,215,210,55,50
;   temperatureStabilizeAtStartup,1,1
;   temperatureHeatedBed,0,1
;   fanLayers,1,2
;   fanSpeeds,0,100
;   blipFanToFullPower,0
;   adjustSpeedForCooling,1
;   minSpeedLayerTime,15
;   minCoolingSpeedSlowdown,20
;   increaseFanForCooling,1
;   minFanLayerTime,25
;   maxCoolingFanSpeed,100
;   increaseFanForBridging,1
;   bridgingFanSpeed,100
;   use5D,1
;   relativeEdistances,0
;   allowEaxisZeroing,1
;   independentExtruderAxes,0
;   includeM10123,0
;   stickySupport,1
;   applyToolheadOffsets,0
;   gcodeXoffset,0
;   gcodeYoffset,0
;   gcodeZoffset,0
;   overrideMachineDefinition,1
;   machineTypeOverride,0
;   strokeXoverride,300
;   strokeYoverride,300
;   strokeZoverride,400
;   originOffsetXoverride,0
;   originOffsetYoverride,0
;   originOffsetZoverride,0
;   homeXdirOverride,-1
;   homeYdirOverride,-1
;   homeZdirOverride,-1
;   flipXoverride,1
;   flipYoverride,-1
;   flipZoverride,1
;   toolheadOffsets,0,0|0,0|0,0|0,0|0,0|0,0
;   overrideFirmwareConfiguration,1
;   firmwareTypeOverride,RepRap (Marlin/Repetier/Sprinter)
;   GPXconfigOverride,r2
;   baudRateOverride,250000
;   overridePrinterModels,1
;   printerModelsOverride
;   startingGcode,;,; -]H.P.B[- MarshMalloW  ,; $VER: StartScript 1.02 (26.12.2019) MarshMalloW,;,; Begin Startcode,;,M117 *Preheat*     	; Preheat,;extruder0_temperature,M104 S[extruder0_temperature]  ,M109 S[extruder0_temperature] ,M109 R[extruder0_temperature] ,;,M117 *Auto-leveling*     	; Auto-leveling,M107                   	; Turn layer fan off,G21                    	; Set to metric [change to G20 if you want Imperial],G90                    	; Force coordinates to be absolute relative to the origin,G28                    	; Home X/Y/Z axis,G29                    	; Auto-leveling (BL-Touch),;,M117 *Start Clean*     	; Indicate nozzle clean in progress on LCD,G92 E0                 	; Set Extruder to 0 ,G1 X0 Y0 F2000         	; Move X and Y to 0 with speed 2000 (mm/min),G1 Z0.1 F1000          	; Move Z to   0.1 with speed 1000 (mm/min),G1 X8.0 F2000          	; Move X to   8.0 with speed 2000 (mm/min),G1 Y60.0 E4.0 F1000.0  	; Move Y to  60 and Extruder with 4.0 with speed 1000 (mm/min),G1 Y100.0 E8.5 F1000.0 	; Move Y to 100 and Extruder with 8.5 with speed 1000 (mm/min),G92 E0                 	; Set extruder to 0,G1 X16.0 F3000         	; Move X to 16.0 with speed 3000 (mm/min),G1 Y60.0 F3000         	; Move Y to 60.0 with speed 3000 (mm/min),M117 *End Clean*       	; Indicate nozzle clean in progress on LCD,G1 Z5 F3000            	; Move Z to  5.0 with speed 3000 (mm/min),G1 X20.0 F3000         	; Move X to 20.0 with speed 3000 (mm/min),G1 Y20.0 F3000         	; Move Y to 20.0 with speed 3000 (mm/min),; ,M117 *Printing...*     	; Start printing msg on LCD,;,; End Startcode,;,; Begin printing with sliced GCode after here,;
;   layerChangeGcode,
;   retractionGcode,
;   toolChangeGcode,
;   endingGcode,;,; init 181010,;,;M107 			; Fan off,;G1 E-1 F300 			; Retract the filament a bit before lifting the nozzle,;M104 S0 			; Turn off extruder,;M140 S0 			; Turn off bed,;G91			; Relative positioning,;G28 X0 Y0 			; Move X/Y to min endstops so the head is out of teh way,;M84 			; Disable motors,;G90 			; Absolute positioning,;M117 Print ready...,,;,; // From Cura 181010,; // End_gcode,G92 E0			; Zero the extruded length,;G1 E-30 F300		; Retract E -30,M106 S0			; Turn off cooling fan,M104 S0			; Turn off temperature,M140 S0		     	; Turn off bed,G91			; Relative positioning,G1 E-1 F300			; Retract the filament a bit before lifting the nozzle to release some of the pressure,G1 Z+20 E-5 X-20 Y-20 F7200	; Move Z up a bit and retract filament even more,G1 X0 Y150 F10000		; Move right min,M107			; Turn off layer fan,M84			; Disable motors,G90			; Absolute positioning,M117 *The-End* 		; End msg,;,
;   exportFileFormat,gcode
;   celebration,0
;   celebrationSong,Star Wars
;   postProcessing,|{REPLACE "; layer " "M117 INDICATOR-Layer"}|{REPLACE ", Z = " "\n; Z="}
;   defaultSpeed,2400
;   outlineUnderspeed,0.6
;   solidInfillUnderspeed,0.8
;   supportUnderspeed,0.8
;   rapidXYspeed,3600
;   rapidZspeed,900
;   minBridgingArea,50
;   bridgingExtraInflation,0.2
;   bridgingExtrusionMultiplier,1
;   bridgingSpeedMultiplier,0.6
;   useFixedBridgingAngle,0
;   fixedBridgingAngle,0
;   applyBridgingToPerimeters,0
;   filamentDiameters,1.75|1.75|1.75|1.75|1.75|1.75
;   filamentPricesPerKg,30|46|46|46|46|46
;   filamentDensities,1.25|1.25|1.25|1.25|1.25|1.25
;   useMinPrintHeight,0
;   minPrintHeight,0
;   useMaxPrintHeight,0
;   maxPrintHeight,50
;   useDiaphragm,0
;   diaphragmLayerInterval,20
;   robustSlicing,1
;   mergeAllIntoSolid,0
;   onlyRetractWhenCrossingOutline,1
;   retractBetweenLayers,1
;   useRetractionMinTravel,0
;   retractionMinTravel,3
;   retractWhileWiping,1
;   onlyWipeOutlines,1
;   avoidCrossingOutline,1
;   maxMovementDetourFactor,3
;   toolChangeRetractionDistance,12
;   toolChangeExtraRestartDistance,-0.5
;   toolChangeRetractionSpeed,600
;   externalThinWallType,1
;   internalThinWallType,1
;   thinWallAllowedOverlapPercentage,20
;   singleExtrusionMinLength,1
;   singleExtrusionMinPrintingWidthPercentage,50
;   singleExtrusionMaxPrintingWidthPercentage,200
;   singleExtrusionEndpointExtension,0.2
;   horizontalSizeCompensation,0
G90
M82
M106 S0
M140 S55
M190 S55
;
; -]H.P.B[- MarshMalloW  
; $VER: StartScript 1.02 (26.12.2019) MarshMalloW
;
; Begin Startcode
;
M117 *Preheat*     	; Preheat
;extruder0_temperature
M104 S215  
M109 S215 
M109 R215 
;
M117 *Auto-leveling*     	; Auto-leveling
M107                   	; Turn layer fan off
G21                    	; Set to metric [change to G20 if you want Imperial]
G90                    	; Force coordinates to be absolute relative to the origin
G28                    	; Home X/Y/Z axis
G29                    	; Auto-leveling (BL-Touch)
;
M117 *Start Clean*     	; Indicate nozzle clean in progress on LCD
G92 E0                 	; Set Extruder to 0 
G1 X0 Y0 F2000         	; Move X and Y to 0 with speed 2000 (mm/min)
G1 Z0.1 F1000          	; Move Z to   0.1 with speed 1000 (mm/min)
G1 X8.0 F2000          	; Move X to   8.0 with speed 2000 (mm/min)
G1 Y60.0 E4.0 F1000.0  	; Move Y to  60 and Extruder with 4.0 with speed 1000 (mm/min)
G1 Y100.0 E8.5 F1000.0 	; Move Y to 100 and Extruder with 8.5 with speed 1000 (mm/min)
G92 E0                 	; Set extruder to 0
G1 X16.0 F3000         	; Move X to 16.0 with speed 3000 (mm/min)
G1 Y60.0 F3000         	; Move Y to 60.0 with speed 3000 (mm/min)
M117 *End Clean*       	; Indicate nozzle clean in progress on LCD
G1 Z5 F3000            	; Move Z to  5.0 with speed 3000 (mm/min)
G1 X20.0 F3000         	; Move X to 20.0 with speed 3000 (mm/min)
G1 Y20.0 F3000         	; Move Y to 20.0 with speed 3000 (mm/min)
; 
M117 *Printing...*     	; Start printing msg on LCD
;
; End Startcode
;
; Begin printing with sliced GCode after here
;
; process Process1
M117 INDICATOR-Layer1
; Z=0.180
T0
G92 E0.0000
G1 E-4.0000 F6000
; feature skirt
; tool H0.180 W0.350
G1 Z0.180 F900
G1 X107.972 Y45.281 F3600
G1 E0.0000 F6000
G92 E0.0000
G1 X108.682 Y45.305 E0.0177 F960
G1 X108.792 Y45.312 E0.0204
G1 X109.891 Y45.419 E0.0479
G1 X110.051 Y45.442 E0.0519
G1 X111.371 Y45.694 E0.0853
G1 X111.508 Y45.726 E0.0888
G1 X112.222 Y45.922 E0.1073
G1 X112.341 Y45.960 E0.1104
G1 X113.619 Y46.411 E0.1441
G1 X113.782 Y46.478 E0.1485
G1 X114.890 Y47.000 E0.1790
G1 X114.999 Y47.056 E0.1820
G1 X115.613 Y47.399 E0.1995
G1 X115.736 Y47.474 E0.2031
G1 X116.869 Y48.234 E0.2370
G1 X116.961 Y48.300 E0.2399
G1 X117.565 Y48.764 E0.2588
G1 X117.676 Y48.856 E0.2624
G1 X118.513 Y49.615 E0.2905
G1 X118.596 Y49.696 E0.2934
G1 X119.061 Y50.177 E0.3101
G1 X119.116 Y50.237 E0.3121
G1 X119.550 Y50.729 E0.3284
G1 X119.630 Y50.827 E0.3315
G1 X120.317 Y51.730 E0.3598
G1 X120.391 Y51.833 E0.3629
G1 X120.900 Y52.614 E0.3861
G1 X120.971 Y52.731 E0.3895
G1 X121.555 Y53.797 E0.4198
G1 X121.616 Y53.918 E0.4232
G1 X121.902 Y54.552 E0.4404
G1 X121.945 Y54.656 E0.4433
G1 X122.402 Y55.869 E0.4755
G1 X122.460 Y56.053 E0.4803
G1 X122.783 Y57.313 E0.5127
G1 X122.808 Y57.428 E0.5156
G1 X122.932 Y58.093 E0.5324
G1 X122.946 Y58.181 E0.5347
G1 X123.032 Y58.816 E0.5506
G1 X123.044 Y58.943 E0.5538
G1 X123.118 Y60.160 E0.5841
G1 X123.122 Y60.272 E0.5869
G1 X123.119 Y61.125 E0.6081
G1 X123.112 Y61.278 E0.6119
G1 X122.999 Y62.533 E0.6433
G1 X122.977 Y62.694 E0.6473
G1 X122.752 Y63.918 E0.6783
G1 X122.721 Y64.055 E0.6818
G1 X122.505 Y64.863 E0.7026
G1 X122.470 Y64.978 E0.7056
G1 X122.126 Y65.985 E0.7321
G1 X122.084 Y66.095 E0.7350
G1 X121.769 Y66.848 E0.7553
G1 X121.727 Y66.940 E0.7578
G1 X121.427 Y67.556 E0.7749
G1 X121.370 Y67.663 E0.7779
G1 X120.759 Y68.724 E0.8084
G1 X120.661 Y68.875 E0.8128
G1 X119.865 Y69.979 E0.8467
G1 X119.790 Y70.075 E0.8498
G1 X119.318 Y70.643 E0.8681
G1 X119.232 Y70.738 E0.8713
G1 X118.451 Y71.549 E0.8993
G1 X118.360 Y71.637 E0.9025
G1 X117.736 Y72.199 E0.9234
G1 X117.637 Y72.281 E0.9266
G1 X116.660 Y73.039 E0.9573
G1 X116.509 Y73.143 E0.9619
G1 X115.464 Y73.792 E0.9925
G1 X115.363 Y73.850 E0.9954
G1 X114.811 Y74.144 E1.0110
G1 X114.729 Y74.185 E1.0132
G1 X114.013 Y74.519 E1.0329
G1 X113.908 Y74.564 E1.0358
G1 X112.760 Y75.013 E1.0664
G1 X112.626 Y75.059 E1.0700
G1 X111.904 Y75.276 E1.0887
G1 X111.788 Y75.307 E1.0917
G1 X110.603 Y75.577 E1.1219
G1 X110.428 Y75.608 E1.1264
G1 X109.444 Y75.730 E1.1510
G1 X109.351 Y75.739 E1.1534
G1 X108.297 Y75.814 E1.1797
G1 X108.173 Y75.819 E1.1828
G1 X94.915 Y75.824 E1.5126
G1 X94.820 Y75.821 E1.5150
G1 X93.591 Y75.756 E1.5456
G1 X93.431 Y75.740 E1.5496
G1 X92.123 Y75.550 E1.5825
G1 X91.952 Y75.516 E1.5869
G1 X90.712 Y75.208 E1.6186
G1 X90.555 Y75.161 E1.6227
G1 X89.270 Y74.712 E1.6566
G1 X89.102 Y74.643 E1.6611
G1 X87.889 Y74.073 E1.6945
G1 X87.741 Y73.994 E1.6986
G1 X86.706 Y73.381 E1.7286
G1 X86.563 Y73.287 E1.7328
G1 X85.353 Y72.402 E1.7701
G1 X85.218 Y72.293 E1.7745
G1 X84.410 Y71.570 E1.8014
G1 X84.322 Y71.485 E1.8045
G1 X83.764 Y70.912 E1.8244
G1 X83.676 Y70.815 E1.8276
G1 X82.862 Y69.843 E1.8592
G1 X82.754 Y69.700 E1.8636
G1 X81.968 Y68.538 E1.8985
G1 X81.881 Y68.397 E1.9027
G1 X81.274 Y67.288 E1.9341
G1 X81.199 Y67.133 E1.9384
G1 X80.713 Y65.994 E1.9692
G1 X80.671 Y65.887 E1.9721
G1 X80.428 Y65.196 E1.9903
G1 X80.393 Y65.083 E1.9932
G1 X80.195 Y64.375 E2.0115
G1 X80.168 Y64.264 E2.0144
G1 X79.913 Y63.048 E2.0453
G1 X79.886 Y62.878 E2.0496
G1 X79.748 Y61.617 E2.0811
G1 X79.738 Y61.450 E2.0853
G1 X79.718 Y60.042 E2.1204
G1 X79.725 Y59.859 E2.1249
G1 X79.844 Y58.539 E2.1579
G1 X79.866 Y58.378 E2.1619
G1 X80.098 Y57.123 E2.1937
G1 X80.137 Y56.954 E2.1980
G1 X80.439 Y55.907 E2.2251
G1 X80.485 Y55.769 E2.2287
G1 X81.021 Y54.357 E2.2663
G1 X81.105 Y54.170 E2.2714
G1 X81.747 Y52.933 E2.3061
G1 X81.831 Y52.789 E2.3102
G1 X82.479 Y51.785 E2.3400
G1 X82.578 Y51.647 E2.3442
G1 X83.464 Y50.527 E2.3797
G1 X83.578 Y50.397 E2.3840
G1 X84.460 Y49.482 E2.4157
G1 X84.585 Y49.364 E2.4199
G1 X85.533 Y48.557 E2.4509
G1 X85.622 Y48.486 E2.4537
G1 X86.219 Y48.040 E2.4723
G1 X86.340 Y47.957 E2.4760
G1 X87.373 Y47.312 E2.5062
G1 X87.482 Y47.249 E2.5094
G1 X88.052 Y46.948 E2.5254
G1 X88.129 Y46.909 E2.5276
G1 X88.813 Y46.589 E2.5464
G1 X88.921 Y46.543 E2.5493
G1 X90.079 Y46.091 E2.5802
G1 X90.211 Y46.045 E2.5837
G1 X90.920 Y45.832 E2.6021
G1 X91.036 Y45.801 E2.6051
G1 X92.237 Y45.527 E2.6357
G1 X92.405 Y45.497 E2.6400
G1 X93.337 Y45.378 E2.6634
G1 X93.430 Y45.369 E2.6657
G1 X94.487 Y45.291 E2.6921
G1 X94.617 Y45.286 E2.6953
G1 X107.910 Y45.279 E3.0261
G1 X107.972 Y45.281 E3.0276
G92 E0.0000
G1 E-4.0000 F6000
G1 Z0.280 F900
G1 X107.878 Y48.979 F3600
G1 X105.999 Y48.980
G1 X93.697 Y72.044
G1 X93.279 Y71.994
G1 X92.751 Y71.902
G1 X92.028 Y75.174
G1 Z0.180 F900
G1 E0.0000 F6000
G92 E0.0000
G1 X90.804 Y74.870 E0.0314 F960
G1 X90.663 Y74.828 E0.0350
G1 X89.394 Y74.384 E0.0685
G1 X89.243 Y74.322 E0.0725
G1 X88.045 Y73.759 E0.1055
G1 X87.912 Y73.689 E0.1092
G1 X86.891 Y73.084 E0.1387
G1 X86.763 Y73.000 E0.1426
G1 X85.566 Y72.125 E0.1795
G1 X85.445 Y72.026 E0.1834
G1 X84.647 Y71.313 E0.2100
G1 X84.568 Y71.237 E0.2127
G1 X84.019 Y70.673 E0.2323
G1 X83.940 Y70.585 E0.2352
G1 X83.136 Y69.626 E0.2664
G1 X83.039 Y69.496 E0.2704
G1 X82.262 Y68.349 E0.3049
G1 X82.184 Y68.221 E0.3086
G1 X81.585 Y67.127 E0.3396
G1 X81.518 Y66.988 E0.3435
G1 X81.037 Y65.862 E0.3740
G1 X81.000 Y65.766 E0.3765
G1 X80.760 Y65.085 E0.3945
G1 X80.728 Y64.984 E0.3971
G1 X80.534 Y64.287 E0.4151
G1 X80.510 Y64.187 E0.4177
G1 X80.258 Y62.985 E0.4482
G1 X80.233 Y62.832 E0.4521
G1 X80.097 Y61.588 E0.4832
G1 X80.088 Y61.437 E0.4870
G1 X80.068 Y60.046 E0.5216
G1 X80.075 Y59.881 E0.5257
G1 X80.192 Y58.579 E0.5583
G1 X80.212 Y58.433 E0.5619
G1 X80.440 Y57.194 E0.5932
G1 X80.476 Y57.043 E0.5971
G1 X80.774 Y56.010 E0.6239
G1 X80.815 Y55.886 E0.6271
G1 X81.345 Y54.491 E0.6643
G1 X81.420 Y54.322 E0.6688
G1 X82.054 Y53.102 E0.7031
G1 X82.129 Y52.972 E0.7068
G1 X82.768 Y51.982 E0.7361
G1 X82.857 Y51.857 E0.7399
G1 X83.733 Y50.751 E0.7751
G1 X83.835 Y50.634 E0.7789
G1 X84.706 Y49.731 E0.8101
G1 X84.819 Y49.625 E0.8140
G1 X85.756 Y48.827 E0.8446
G1 X85.835 Y48.763 E0.8471
G1 X86.423 Y48.324 E0.8654
G1 X86.532 Y48.250 E0.8687
G1 X87.553 Y47.612 E0.8986
G1 X87.651 Y47.556 E0.9014
G1 X88.212 Y47.259 E0.9172
G1 X88.281 Y47.224 E0.9192
G1 X88.957 Y46.908 E0.9377
G1 X89.053 Y46.867 E0.9403
