; G-Code generated by Simplify3D(R) Version 4.1.2
; Jun 5, 2021 at 1:49:03 PM
; Settings Summary
;   processName,Process1
;   applyToModels,SupportPortableGauche
;   profileName,A10b-04-50 Tevo Tornado
;   profileVersion,2020-12-06 16:18:07
;   baseProfile,Creality CR-10(2)
;   printMaterial,PLA
;   printQuality,Medium
;   printExtruders,
;   extruderName,Primary Extruder
;   extruderToolheadNumber,0
;   extruderDiameter,0.4
;   extruderAutoWidth,0
;   extruderWidth,0.35
;   extrusionMultiplier,0.95
;   extruderUseRetract,1
;   extruderRetractionDistance,4
;   extruderExtraRestartDistance,0
;   extruderRetractionZLift,0.1
;   extruderRetractionSpeed,6000
;   extruderUseCoasting,1
;   extruderCoastingDistance,0.4
;   extruderUseWipe,1
;   extruderWipeDistance,5
;   primaryExtruder,0
;   layerHeight,0.15
;   topSolidLayers,5
;   bottomSolidLayers,4
;   perimeterOutlines,3
;   printPerimetersInsideOut,0
;   startPointOption,1
;   startPointOriginX,0
;   startPointOriginY,300
;   sequentialIslands,0
;   spiralVaseMode,0
;   firstLayerHeightPercentage,120
;   firstLayerWidthPercentage,100
;   firstLayerUnderspeed,0.4
;   useRaft,0
;   raftExtruder,0
;   raftTopLayers,3
;   raftBaseLayers,2
;   raftOffset,3
;   raftSeparationDistance,0.14
;   raftTopInfill,100
;   aboveRaftSpeedMultiplier,0.3
;   useSkirt,1
;   skirtExtruder,0
;   skirtLayers,1
;   skirtOutlines,2
;   skirtOffset,3
;   usePrimePillar,0
;   primePillarExtruder,999
;   primePillarWidth,12
;   primePillarLocation,7
;   primePillarSpeedMultiplier,1
;   useOozeShield,0
;   oozeShieldExtruder,999
;   oozeShieldOffset,2
;   oozeShieldOutlines,1
;   oozeShieldSidewallShape,1
;   oozeShieldSidewallAngle,30
;   oozeShieldSpeedMultiplier,1
;   infillExtruder,0
;   internalInfillPattern,Full Honeycomb
;   externalInfillPattern,Rectilinear
;   infillPercentage,50
;   outlineOverlapPercentage,15
;   infillExtrusionWidthPercentage,100
;   minInfillLength,5
;   infillLayerInterval,1
;   internalInfillAngles,0,120,-120
;   overlapInternalInfillAngles,0
;   externalInfillAngles,45,-45
;   generateSupport,0
;   supportExtruder,0
;   supportInfillPercentage,30
;   supportExtraInflation,0
;   supportBaseLayers,0
;   denseSupportExtruder,0
;   denseSupportLayers,0
;   denseSupportInfillPercentage,70
;   supportLayerInterval,1
;   supportHorizontalPartOffset,0.4
;   supportUpperSeparationLayers,1
;   supportLowerSeparationLayers,1
;   supportType,0
;   supportGridSpacing,4.5
;   maxOverhangAngle,45
;   supportAngles,0
;   temperatureName,Primary Extruder,Heated Bed
;   temperatureNumber,0,0
;   temperatureSetpointCount,2,2
;   temperatureSetpointLayers,1,2,1,2
;   temperatureSetpointTemperatures,215,210,55,50
;   temperatureStabilizeAtStartup,1,1
;   temperatureHeatedBed,0,1
;   fanLayers,1,2
;   fanSpeeds,0,100
;   blipFanToFullPower,0
;   adjustSpeedForCooling,1
;   minSpeedLayerTime,15
;   minCoolingSpeedSlowdown,20
;   increaseFanForCooling,1
;   minFanLayerTime,25
;   maxCoolingFanSpeed,100
;   increaseFanForBridging,1
;   bridgingFanSpeed,100
;   use5D,1
;   relativeEdistances,0
;   allowEaxisZeroing,1
;   independentExtruderAxes,0
;   includeM10123,0
;   stickySupport,1
;   applyToolheadOffsets,0
;   gcodeXoffset,0
;   gcodeYoffset,0
;   gcodeZoffset,0
;   overrideMachineDefinition,1
;   machineTypeOverride,0
;   strokeXoverride,300
;   strokeYoverride,300
;   strokeZoverride,400
;   originOffsetXoverride,0
;   originOffsetYoverride,0
;   originOffsetZoverride,0
;   homeXdirOverride,-1
;   homeYdirOverride,-1
;   homeZdirOverride,-1
;   flipXoverride,1
;   flipYoverride,-1
;   flipZoverride,1
;   toolheadOffsets,0,0|0,0|0,0|0,0|0,0|0,0
;   overrideFirmwareConfiguration,1
;   firmwareTypeOverride,RepRap (Marlin/Repetier/Sprinter)
;   GPXconfigOverride,r2
;   baudRateOverride,250000
;   overridePrinterModels,1
;   printerModelsOverride
;   startingGcode,;,; -]H.P.B[- MarshMalloW  ,; $VER: StartScript 1.02 (26.12.2019) MarshMalloW,;,; Begin Startcode,;,M117 *Preheat*     	; Preheat,;extruder0_temperature,M104 S[extruder0_temperature]  ,M109 S[extruder0_temperature] ,M109 R[extruder0_temperature] ,;,M117 *Auto-leveling*     	; Auto-leveling,M107                   	; Turn layer fan off,G21                    	; Set to metric [change to G20 if you want Imperial],G90                    	; Force coordinates to be absolute relative to the origin,G28                    	; Home X/Y/Z axis,G29                    	; Auto-leveling (BL-Touch),;,M117 *Start Clean*     	; Indicate nozzle clean in progress on LCD,G92 E0                 	; Set Extruder to 0 ,G1 X0 Y0 F2000         	; Move X and Y to 0 with speed 2000 (mm/min),G1 Z0.1 F1000          	; Move Z to   0.1 with speed 1000 (mm/min),G1 X8.0 F2000          	; Move X to   8.0 with speed 2000 (mm/min),G1 Y60.0 E4.0 F1000.0  	; Move Y to  60 and Extruder with 4.0 with speed 1000 (mm/min),G1 Y100.0 E8.5 F1000.0 	; Move Y to 100 and Extruder with 8.5 with speed 1000 (mm/min),G92 E0                 	; Set extruder to 0,G1 X16.0 F3000         	; Move X to 16.0 with speed 3000 (mm/min),G1 Y60.0 F3000         	; Move Y to 60.0 with speed 3000 (mm/min),M117 *End Clean*       	; Indicate nozzle clean in progress on LCD,G1 Z5 F3000            	; Move Z to  5.0 with speed 3000 (mm/min),G1 X20.0 F3000         	; Move X to 20.0 with speed 3000 (mm/min),G1 Y20.0 F3000         	; Move Y to 20.0 with speed 3000 (mm/min),; ,M117 *Printing...*     	; Start printing msg on LCD,;,; End Startcode,;,; Begin printing with sliced GCode after here,;
;   layerChangeGcode,
;   retractionGcode,
;   toolChangeGcode,
;   endingGcode,;,; init 181010,;,;M107 			; Fan off,;G1 E-1 F300 			; Retract the filament a bit before lifting the nozzle,;M104 S0 			; Turn off extruder,;M140 S0 			; Turn off bed,;G91			; Relative positioning,;G28 X0 Y0 			; Move X/Y to min endstops so the head is out of teh way,;M84 			; Disable motors,;G90 			; Absolute positioning,;M117 Print ready...,,;,; // From Cura 181010,; // End_gcode,G92 E0			; Zero the extruded length,;G1 E-30 F300		; Retract E -30,M106 S0			; Turn off cooling fan,M104 S0			; Turn off temperature,M140 S0		     	; Turn off bed,G91			; Relative positioning,G1 E-1 F300			; Retract the filament a bit before lifting the nozzle to release some of the pressure,G1 Z+20 E-5 X-20 Y-20 F7200	; Move Z up a bit and retract filament even more,G1 X0 Y150 F10000		; Move right min,M107			; Turn off layer fan,M84			; Disable motors,G90			; Absolute positioning,M117 *The-End* 		; End msg,;,
;   exportFileFormat,gcode
;   celebration,0
;   celebrationSong,Star Wars
;   postProcessing,|{REPLACE "; layer " "M117 INDICATOR-Layer"}|{REPLACE ", Z = " "\n; Z="}
;   defaultSpeed,2400
;   outlineUnderspeed,0.6
;   solidInfillUnderspeed,0.8
;   supportUnderspeed,0.8
;   rapidXYspeed,3600
;   rapidZspeed,900
;   minBridgingArea,50
;   bridgingExtraInflation,0.2
;   bridgingExtrusionMultiplier,1
;   bridgingSpeedMultiplier,0.6
;   useFixedBridgingAngle,0
;   fixedBridgingAngle,0
;   applyBridgingToPerimeters,0
;   filamentDiameters,1.75|1.75|1.75|1.75|1.75|1.75
;   filamentPricesPerKg,30|46|46|46|46|46
;   filamentDensities,1.25|1.25|1.25|1.25|1.25|1.25
;   useMinPrintHeight,0
;   minPrintHeight,0
;   useMaxPrintHeight,0
;   maxPrintHeight,50
;   useDiaphragm,0
;   diaphragmLayerInterval,20
;   robustSlicing,1
;   mergeAllIntoSolid,0
;   onlyRetractWhenCrossingOutline,1
;   retractBetweenLayers,1
;   useRetractionMinTravel,0
;   retractionMinTravel,3
;   retractWhileWiping,1
;   onlyWipeOutlines,1
;   avoidCrossingOutline,1
;   maxMovementDetourFactor,3
;   toolChangeRetractionDistance,12
;   toolChangeExtraRestartDistance,-0.5
;   toolChangeRetractionSpeed,600
;   externalThinWallType,1
;   internalThinWallType,1
;   thinWallAllowedOverlapPercentage,20
;   singleExtrusionMinLength,1
;   singleExtrusionMinPrintingWidthPercentage,50
;   singleExtrusionMaxPrintingWidthPercentage,200
;   singleExtrusionEndpointExtension,0.2
;   horizontalSizeCompensation,0
G90
M82
M106 S0
M140 S55
M190 S55
;
; -]H.P.B[- MarshMalloW  
; $VER: StartScript 1.02 (26.12.2019) MarshMalloW
;
; Begin Startcode
;
M117 *Preheat*     	; Preheat
;extruder0_temperature
M104 S215  
M109 S215 
M109 R215 
;
M117 *Auto-leveling*     	; Auto-leveling
M107                   	; Turn layer fan off
G21                    	; Set to metric [change to G20 if you want Imperial]
G90                    	; Force coordinates to be absolute relative to the origin
G28                    	; Home X/Y/Z axis
G29                    	; Auto-leveling (BL-Touch)
;
M117 *Start Clean*     	; Indicate nozzle clean in progress on LCD
G92 E0                 	; Set Extruder to 0 
G1 X0 Y0 F2000         	; Move X and Y to 0 with speed 2000 (mm/min)
G1 Z0.1 F1000          	; Move Z to   0.1 with speed 1000 (mm/min)
G1 X8.0 F2000          	; Move X to   8.0 with speed 2000 (mm/min)
G1 Y60.0 E4.0 F1000.0  	; Move Y to  60 and Extruder with 4.0 with speed 1000 (mm/min)
G1 Y100.0 E8.5 F1000.0 	; Move Y to 100 and Extruder with 8.5 with speed 1000 (mm/min)
G92 E0                 	; Set extruder to 0
G1 X16.0 F3000         	; Move X to 16.0 with speed 3000 (mm/min)
G1 Y60.0 F3000         	; Move Y to 60.0 with speed 3000 (mm/min)
M117 *End Clean*       	; Indicate nozzle clean in progress on LCD
G1 Z5 F3000            	; Move Z to  5.0 with speed 3000 (mm/min)
G1 X20.0 F3000         	; Move X to 20.0 with speed 3000 (mm/min)
G1 Y20.0 F3000         	; Move Y to 20.0 with speed 3000 (mm/min)
; 
M117 *Printing...*     	; Start printing msg on LCD
;
; End Startcode
;
; Begin printing with sliced GCode after here
;
; process Process1
M117 INDICATOR-Layer1
; Z=0.180
T0
G92 E0.0000
G1 E-4.0000 F6000
; feature skirt
; tool H0.180 W0.350
G1 Z0.180 F900
G1 X103.517 Y58.449 F3600
G1 E0.0000 F6000
G92 E0.0000
G1 X104.239 Y58.475 E0.0180 F960
G1 X104.356 Y58.483 E0.0209
G1 X105.583 Y58.608 E0.0516
G1 X105.711 Y58.626 E0.0548
G1 X106.379 Y58.744 E0.0717
G1 X106.508 Y58.772 E0.0750
G1 X107.767 Y59.093 E0.1073
G1 X107.884 Y59.128 E0.1103
G1 X108.636 Y59.377 E0.1300
G1 X108.765 Y59.425 E0.1335
G1 X109.851 Y59.882 E0.1628
G1 X109.965 Y59.934 E0.1659
G1 X110.630 Y60.271 E0.1845
G1 X110.744 Y60.335 E0.1877
G1 X111.782 Y60.961 E0.2179
G1 X111.902 Y61.041 E0.2214
G1 X112.611 Y61.552 E0.2432
G1 X112.670 Y61.597 E0.2451
G1 X113.257 Y62.059 E0.2636
G1 X113.363 Y62.149 E0.2671
G1 X114.215 Y62.937 E0.2960
G1 X114.336 Y63.061 E0.3003
G1 X115.224 Y64.061 E0.3336
G1 X115.304 Y64.157 E0.3367
G1 X115.725 Y64.706 E0.3539
G1 X115.798 Y64.808 E0.3570
G1 X116.491 Y65.857 E0.3883
G1 X116.568 Y65.985 E0.3920
G1 X116.976 Y66.733 E0.4132
G1 X117.029 Y66.840 E0.4162
G1 X117.546 Y67.965 E0.4470
G1 X117.601 Y68.097 E0.4505
G1 X117.865 Y68.820 E0.4697
G1 X117.901 Y68.930 E0.4726
G1 X118.254 Y70.136 E0.5039
G1 X118.297 Y70.318 E0.5085
G1 X118.515 Y71.523 E0.5390
G1 X118.536 Y71.677 E0.5428
G1 X118.654 Y72.983 E0.5755
G1 X118.662 Y73.156 E0.5798
G1 X118.652 Y74.376 E0.6101
G1 X118.647 Y74.499 E0.6132
G1 X118.576 Y75.413 E0.6360
G1 X118.561 Y75.543 E0.6393
G1 X118.413 Y76.520 E0.6638
G1 X118.391 Y76.634 E0.6667
G1 X118.222 Y77.403 E0.6863
G1 X118.195 Y77.508 E0.6890
G1 X117.982 Y78.254 E0.7083
G1 X117.947 Y78.362 E0.7112
G1 X117.591 Y79.360 E0.7375
G1 X117.548 Y79.470 E0.7405
G1 X117.251 Y80.156 E0.7591
G1 X117.189 Y80.283 E0.7626
G1 X116.563 Y81.458 E0.7957
G1 X116.484 Y81.592 E0.7996
G1 X115.827 Y82.598 E0.8295
G1 X115.747 Y82.711 E0.8329
G1 X115.293 Y83.301 E0.8514
G1 X115.222 Y83.387 E0.8542
G1 X114.430 Y84.291 E0.8841
G1 X114.305 Y84.419 E0.8886
G1 X113.428 Y85.236 E0.9184
G1 X113.309 Y85.337 E0.9223
G1 X112.308 Y86.116 E0.9538
G1 X112.215 Y86.184 E0.9567
G1 X111.572 Y86.619 E0.9760
G1 X111.446 Y86.697 E0.9797
G1 X110.236 Y87.375 E1.0142
G1 X110.110 Y87.439 E1.0178
G1 X109.491 Y87.724 E1.0347
G1 X109.357 Y87.779 E1.0383
G1 X107.862 Y88.322 E1.0779
G1 X107.672 Y88.379 E1.0828
G1 X106.438 Y88.676 E1.1144
G1 X106.327 Y88.699 E1.1172
G1 X105.572 Y88.830 E1.1363
G1 X105.481 Y88.843 E1.1386
G1 X104.850 Y88.919 E1.1544
G1 X104.729 Y88.930 E1.1574
G1 X103.557 Y88.989 E1.1866
G1 X103.468 Y88.991 E1.1888
G1 X90.473 Y88.990 E1.5122
G1 X90.411 Y88.989 E1.5137
G1 X89.697 Y88.964 E1.5315
G1 X89.580 Y88.956 E1.5344
G1 X88.319 Y88.827 E1.5660
G1 X88.147 Y88.801 E1.5703
G1 X86.877 Y88.543 E1.6025
G1 X86.711 Y88.501 E1.6068
G1 X85.352 Y88.084 E1.6422
G1 X85.182 Y88.022 E1.6467
G1 X83.974 Y87.510 E1.6793
G1 X83.823 Y87.437 E1.6835
G1 X82.642 Y86.799 E1.7169
G1 X82.481 Y86.700 E1.7216
G1 X81.369 Y85.933 E1.7552
G1 X81.241 Y85.836 E1.7592
G1 X80.183 Y84.955 E1.7935
G1 X80.048 Y84.829 E1.7980
G1 X79.157 Y83.913 E1.8299
G1 X79.046 Y83.787 E1.8340
G1 X78.186 Y82.716 E1.8682
G1 X78.085 Y82.576 E1.8725
G1 X77.419 Y81.556 E1.9028
G1 X77.333 Y81.409 E1.9071
G1 X76.664 Y80.128 E1.9430
G1 X76.588 Y79.961 E1.9476
G1 X76.086 Y78.695 E1.9815
G1 X76.032 Y78.536 E1.9857
G1 X75.672 Y77.296 E2.0178
G1 X75.631 Y77.122 E2.0222
G1 X75.408 Y75.899 E2.0532
G1 X75.387 Y75.741 E2.0571
G1 X75.270 Y74.440 E2.0896
G1 X75.263 Y74.266 E2.0940
G1 X75.275 Y72.973 E2.1261
G1 X75.284 Y72.815 E2.1301
G1 X75.414 Y71.503 E2.1629
G1 X75.440 Y71.327 E2.1673
G1 X75.695 Y70.068 E2.1993
G1 X75.737 Y69.904 E2.2035
G1 X76.122 Y68.643 E2.2363
G1 X76.177 Y68.488 E2.2404
G1 X76.635 Y67.372 E2.2704
G1 X76.707 Y67.218 E2.2746
G1 X77.346 Y66.009 E2.3087
G1 X77.428 Y65.869 E2.3127
G1 X78.097 Y64.843 E2.3432
G1 X78.174 Y64.734 E2.3465
G1 X78.619 Y64.154 E2.3647
G1 X78.694 Y64.063 E2.3676
G1 X79.498 Y63.148 E2.3979
G1 X79.618 Y63.023 E2.4022
G1 X80.495 Y62.204 E2.4321
G1 X80.617 Y62.099 E2.4361
G1 X81.612 Y61.325 E2.4675
G1 X81.707 Y61.256 E2.4704
G1 X82.322 Y60.841 E2.4888
G1 X82.441 Y60.767 E2.4923
G1 X83.635 Y60.091 E2.5265
G1 X83.767 Y60.024 E2.5302
G1 X84.487 Y59.693 E2.5499
G1 X84.626 Y59.636 E2.5536
G1 X86.042 Y59.125 E2.5911
G1 X86.181 Y59.081 E2.5947
G1 X86.774 Y58.921 E2.6100
G1 X86.894 Y58.893 E2.6131
G1 X88.307 Y58.615 E2.6489
G1 X88.493 Y58.589 E2.6536
G1 X89.913 Y58.465 E2.6890
G1 X90.043 Y58.458 E2.6923
G1 X90.777 Y58.449 E2.7105
G1 X90.800 Y58.448 E2.7111
G1 X103.454 Y58.448 E3.0260
G1 X103.517 Y58.449 E3.0275
G92 E0.0000
G1 E-4.0000 F6000
G1 Z0.280 F900
G1 X103.420 Y62.148 F3600
G1 X101.650 Y62.148
G1 X89.982 Y85.271
G1 X89.889 Y85.268
G1 X89.400 Y85.232
G1 X88.789 Y85.156
G1 X88.363 Y88.480
G1 Z0.180 F900
G1 E0.0000 F6000
G92 E0.0000
G1 X88.208 Y88.456 E0.0039 F960
G1 X86.955 Y88.202 E0.0357
G1 X86.805 Y88.164 E0.0396
G1 X85.463 Y87.752 E0.0745
G1 X85.310 Y87.696 E0.0786
G1 X84.118 Y87.191 E0.1108
G1 X83.983 Y87.126 E0.1145
G1 X82.817 Y86.495 E0.1475
G1 X82.671 Y86.406 E0.1517
G1 X81.574 Y85.650 E0.1849
G1 X81.459 Y85.562 E0.1885
G1 X80.414 Y84.692 E0.2223
G1 X80.293 Y84.579 E0.2265
G1 X79.414 Y83.675 E0.2578
G1 X79.313 Y83.561 E0.2616
G1 X78.464 Y82.503 E0.2954
G1 X78.373 Y82.377 E0.2992
G1 X77.717 Y81.372 E0.3291
G1 X77.639 Y81.239 E0.3329
G1 X76.978 Y79.974 E0.3684
G1 X76.910 Y79.824 E0.3726
G1 X76.414 Y78.574 E0.4060
G1 X76.366 Y78.431 E0.4098
G1 X76.011 Y77.208 E0.4415
G1 X75.974 Y77.051 E0.4455
G1 X75.754 Y75.844 E0.4760
G1 X75.735 Y75.701 E0.4796
G1 X75.619 Y74.418 E0.5116
G1 X75.613 Y74.261 E0.5155
G1 X75.625 Y72.984 E0.5473
G1 X75.633 Y72.842 E0.5509
G1 X75.761 Y71.547 E0.5832
G1 X75.785 Y71.388 E0.5872
G1 X76.037 Y70.146 E0.6188
G1 X76.074 Y69.998 E0.6226
G1 X76.454 Y68.753 E0.6550
G1 X76.504 Y68.613 E0.6586
G1 X76.955 Y67.513 E0.6883
G1 X77.021 Y67.374 E0.6921
G1 X77.651 Y66.179 E0.7257
G1 X77.726 Y66.053 E0.7293
G1 X78.387 Y65.040 E0.7594
G1 X78.456 Y64.942 E0.7624
G1 X78.893 Y64.372 E0.7803
G1 X78.961 Y64.290 E0.7829
G1 X79.755 Y63.385 E0.8129
G1 X79.863 Y63.273 E0.8168
G1 X80.728 Y62.465 E0.8462
G1 X80.838 Y62.371 E0.8498
G1 X81.822 Y61.605 E0.8808
G1 X81.908 Y61.543 E0.8835
G1 X82.512 Y61.135 E0.9016
G1 X82.620 Y61.068 E0.9048
G1 X83.801 Y60.400 E0.9386
G1 X83.920 Y60.339 E0.9419
G1 X84.627 Y60.014 E0.9612
G1 X84.751 Y59.963 E0.9646
G1 X86.155 Y59.456 E1.0017
G1 X86.279 Y59.417 E1.0050
G1 X86.859 Y59.260 E1.0199
G1 X86.968 Y59.235 E1.0227
G1 X88.365 Y58.961 E1.0581
