; G-Code generated by Simplify3D(R) Version 4.1.2
; Feb 2, 2021 at 5:11:39 PM
; Settings Summary
;   processName,Process1
;   applyToModels,SupportRoseSableJRe_Gabarit
;   profileName,A10-04-10 Tevo Tornado
;   profileVersion,2020-12-06 16:18:07
;   baseProfile,Creality CR-10(2)
;   printMaterial,PLA
;   printQuality,Medium
;   printExtruders,
;   extruderName,Primary Extruder
;   extruderToolheadNumber,0
;   extruderDiameter,0.4
;   extruderAutoWidth,0
;   extruderWidth,0.35
;   extrusionMultiplier,0.95
;   extruderUseRetract,1
;   extruderRetractionDistance,4
;   extruderExtraRestartDistance,0
;   extruderRetractionZLift,0.1
;   extruderRetractionSpeed,6000
;   extruderUseCoasting,1
;   extruderCoastingDistance,0.4
;   extruderUseWipe,1
;   extruderWipeDistance,5
;   primaryExtruder,0
;   layerHeight,0.15
;   topSolidLayers,5
;   bottomSolidLayers,4
;   perimeterOutlines,3
;   printPerimetersInsideOut,0
;   startPointOption,1
;   startPointOriginX,0
;   startPointOriginY,300
;   sequentialIslands,0
;   spiralVaseMode,0
;   firstLayerHeightPercentage,120
;   firstLayerWidthPercentage,100
;   firstLayerUnderspeed,0.4
;   useRaft,0
;   raftExtruder,0
;   raftTopLayers,3
;   raftBaseLayers,2
;   raftOffset,3
;   raftSeparationDistance,0.14
;   raftTopInfill,100
;   aboveRaftSpeedMultiplier,0.3
;   useSkirt,1
;   skirtExtruder,0
;   skirtLayers,1
;   skirtOutlines,2
;   skirtOffset,3
;   usePrimePillar,0
;   primePillarExtruder,999
;   primePillarWidth,12
;   primePillarLocation,7
;   primePillarSpeedMultiplier,1
;   useOozeShield,0
;   oozeShieldExtruder,999
;   oozeShieldOffset,2
;   oozeShieldOutlines,1
;   oozeShieldSidewallShape,1
;   oozeShieldSidewallAngle,30
;   oozeShieldSpeedMultiplier,1
;   infillExtruder,0
;   internalInfillPattern,Rectilinear
;   externalInfillPattern,Rectilinear
;   infillPercentage,10
;   outlineOverlapPercentage,15
;   infillExtrusionWidthPercentage,100
;   minInfillLength,5
;   infillLayerInterval,1
;   internalInfillAngles,45,-45
;   overlapInternalInfillAngles,0
;   externalInfillAngles,45,-45
;   generateSupport,0
;   supportExtruder,0
;   supportInfillPercentage,30
;   supportExtraInflation,0
;   supportBaseLayers,0
;   denseSupportExtruder,0
;   denseSupportLayers,0
;   denseSupportInfillPercentage,70
;   supportLayerInterval,1
;   supportHorizontalPartOffset,0.4
;   supportUpperSeparationLayers,1
;   supportLowerSeparationLayers,1
;   supportType,0
;   supportGridSpacing,4.5
;   maxOverhangAngle,45
;   supportAngles,0
;   temperatureName,Primary Extruder,Heated Bed
;   temperatureNumber,0,0
;   temperatureSetpointCount,2,2
;   temperatureSetpointLayers,1,2,1,2
;   temperatureSetpointTemperatures,215,210,55,50
;   temperatureStabilizeAtStartup,1,1
;   temperatureHeatedBed,0,1
;   fanLayers,1,2
;   fanSpeeds,0,100
;   blipFanToFullPower,0
;   adjustSpeedForCooling,1
;   minSpeedLayerTime,15
;   minCoolingSpeedSlowdown,20
;   increaseFanForCooling,1
;   minFanLayerTime,25
;   maxCoolingFanSpeed,100
;   increaseFanForBridging,1
;   bridgingFanSpeed,100
;   use5D,1
;   relativeEdistances,0
;   allowEaxisZeroing,1
;   independentExtruderAxes,0
;   includeM10123,0
;   stickySupport,1
;   applyToolheadOffsets,0
;   gcodeXoffset,0
;   gcodeYoffset,0
;   gcodeZoffset,0
;   overrideMachineDefinition,1
;   machineTypeOverride,0
;   strokeXoverride,300
;   strokeYoverride,300
;   strokeZoverride,400
;   originOffsetXoverride,0
;   originOffsetYoverride,0
;   originOffsetZoverride,0
;   homeXdirOverride,-1
;   homeYdirOverride,-1
;   homeZdirOverride,-1
;   flipXoverride,1
;   flipYoverride,-1
;   flipZoverride,1
;   toolheadOffsets,0,0|0,0|0,0|0,0|0,0|0,0
;   overrideFirmwareConfiguration,1
;   firmwareTypeOverride,RepRap (Marlin/Repetier/Sprinter)
;   GPXconfigOverride,r2
;   baudRateOverride,250000
;   overridePrinterModels,1
;   printerModelsOverride
;   startingGcode,;,; -]H.P.B[- MarshMalloW  ,; $VER: StartScript 1.02 (26.12.2019) MarshMalloW,;,; Begin Startcode,;,M117 *Preheat*     	; Preheat,;extruder0_temperature,M104 S[extruder0_temperature]  ,M109 S[extruder0_temperature] ,M109 R[extruder0_temperature] ,;,M117 *Auto-leveling*     	; Auto-leveling,M107                   	; Turn layer fan off,G21                    	; Set to metric [change to G20 if you want Imperial],G90                    	; Force coordinates to be absolute relative to the origin,G28                    	; Home X/Y/Z axis,G29                    	; Auto-leveling (BL-Touch),;,M117 *Start Clean*     	; Indicate nozzle clean in progress on LCD,G92 E0                 	; Set Extruder to 0 ,G1 X0 Y0 F2000         	; Move X and Y to 0 with speed 2000 (mm/min),G1 Z0.1 F1000          	; Move Z to   0.1 with speed 1000 (mm/min),G1 X8.0 F2000          	; Move X to   8.0 with speed 2000 (mm/min),G1 Y60.0 E4.0 F1000.0  	; Move Y to  60 and Extruder with 4.0 with speed 1000 (mm/min),G1 Y100.0 E8.5 F1000.0 	; Move Y to 100 and Extruder with 8.5 with speed 1000 (mm/min),G92 E0                 	; Set extruder to 0,G1 X16.0 F3000         	; Move X to 16.0 with speed 3000 (mm/min),G1 Y60.0 F3000         	; Move Y to 60.0 with speed 3000 (mm/min),M117 *End Clean*       	; Indicate nozzle clean in progress on LCD,G1 Z5 F3000            	; Move Z to  5.0 with speed 3000 (mm/min),G1 X20.0 F3000         	; Move X to 20.0 with speed 3000 (mm/min),G1 Y20.0 F3000         	; Move Y to 20.0 with speed 3000 (mm/min),; ,M117 *Printing...*     	; Start printing msg on LCD,;,; End Startcode,;,; Begin printing with sliced GCode after here,;
;   layerChangeGcode,
;   retractionGcode,
;   toolChangeGcode,
;   endingGcode,;,; init 181010,;,;M107 			; Fan off,;G1 E-1 F300 			; Retract the filament a bit before lifting the nozzle,;M104 S0 			; Turn off extruder,;M140 S0 			; Turn off bed,;G91			; Relative positioning,;G28 X0 Y0 			; Move X/Y to min endstops so the head is out of teh way,;M84 			; Disable motors,;G90 			; Absolute positioning,;M117 Print ready...,,;,; // From Cura 181010,; // End_gcode,G92 E0			; Zero the extruded length,;G1 E-30 F300		; Retract E -30,M106 S0			; Turn off cooling fan,M104 S0			; Turn off temperature,M140 S0		     	; Turn off bed,G91			; Relative positioning,G1 E-1 F300			; Retract the filament a bit before lifting the nozzle to release some of the pressure,G1 Z+20 E-5 X-20 Y-20 F7200	; Move Z up a bit and retract filament even more,G1 X0 Y150 F10000		; Move right min,M107			; Turn off layer fan,M84			; Disable motors,G90			; Absolute positioning,M117 *The-End* 		; End msg,;,
;   exportFileFormat,gcode
;   celebration,0
;   celebrationSong,Star Wars
;   postProcessing,|{REPLACE "; layer " "M117 INDICATOR-Layer"}|{REPLACE ", Z = " "\n; Z="}
;   defaultSpeed,2400
;   outlineUnderspeed,0.6
;   solidInfillUnderspeed,0.8
;   supportUnderspeed,0.8
;   rapidXYspeed,3600
;   rapidZspeed,900
;   minBridgingArea,50
;   bridgingExtraInflation,0.2
;   bridgingExtrusionMultiplier,1
;   bridgingSpeedMultiplier,0.6
;   useFixedBridgingAngle,0
;   fixedBridgingAngle,0
;   applyBridgingToPerimeters,0
;   filamentDiameters,1.75|1.75|1.75|1.75|1.75|1.75
;   filamentPricesPerKg,30|46|46|46|46|46
;   filamentDensities,1.25|1.25|1.25|1.25|1.25|1.25
;   useMinPrintHeight,0
;   minPrintHeight,0
;   useMaxPrintHeight,0
;   maxPrintHeight,50
;   useDiaphragm,0
;   diaphragmLayerInterval,20
;   robustSlicing,1
;   mergeAllIntoSolid,0
;   onlyRetractWhenCrossingOutline,1
;   retractBetweenLayers,1
;   useRetractionMinTravel,0
;   retractionMinTravel,3
;   retractWhileWiping,1
;   onlyWipeOutlines,1
;   avoidCrossingOutline,1
;   maxMovementDetourFactor,3
;   toolChangeRetractionDistance,12
;   toolChangeExtraRestartDistance,-0.5
;   toolChangeRetractionSpeed,600
;   externalThinWallType,1
;   internalThinWallType,1
;   thinWallAllowedOverlapPercentage,20
;   singleExtrusionMinLength,1
;   singleExtrusionMinPrintingWidthPercentage,50
;   singleExtrusionMaxPrintingWidthPercentage,200
;   singleExtrusionEndpointExtension,0.2
;   horizontalSizeCompensation,0
G90
M82
M106 S0
M140 S55
M190 S55
;
; -]H.P.B[- MarshMalloW  
; $VER: StartScript 1.02 (26.12.2019) MarshMalloW
;
; Begin Startcode
;
M117 *Preheat*     	; Preheat
;extruder0_temperature
M104 S215  
M109 S215 
M109 R215 
;
M117 *Auto-leveling*     	; Auto-leveling
M107                   	; Turn layer fan off
G21                    	; Set to metric [change to G20 if you want Imperial]
G90                    	; Force coordinates to be absolute relative to the origin
G28                    	; Home X/Y/Z axis
G29                    	; Auto-leveling (BL-Touch)
;
M117 *Start Clean*     	; Indicate nozzle clean in progress on LCD
G92 E0                 	; Set Extruder to 0 
G1 X0 Y0 F2000         	; Move X and Y to 0 with speed 2000 (mm/min)
G1 Z0.1 F1000          	; Move Z to   0.1 with speed 1000 (mm/min)
G1 X8.0 F2000          	; Move X to   8.0 with speed 2000 (mm/min)
G1 Y60.0 E4.0 F1000.0  	; Move Y to  60 and Extruder with 4.0 with speed 1000 (mm/min)
G1 Y100.0 E8.5 F1000.0 	; Move Y to 100 and Extruder with 8.5 with speed 1000 (mm/min)
G92 E0                 	; Set extruder to 0
G1 X16.0 F3000         	; Move X to 16.0 with speed 3000 (mm/min)
G1 Y60.0 F3000         	; Move Y to 60.0 with speed 3000 (mm/min)
M117 *End Clean*       	; Indicate nozzle clean in progress on LCD
G1 Z5 F3000            	; Move Z to  5.0 with speed 3000 (mm/min)
G1 X20.0 F3000         	; Move X to 20.0 with speed 3000 (mm/min)
G1 Y20.0 F3000         	; Move Y to 20.0 with speed 3000 (mm/min)
; 
M117 *Printing...*     	; Start printing msg on LCD
;
; End Startcode
;
; Begin printing with sliced GCode after here
;
; process Process1
M117 INDICATOR-Layer1
; Z=0.180
T0
G92 E0.0000
G1 E-4.0000 F6000
; feature skirt
; tool H0.180 W0.350
G1 Z0.180 F900
G1 X153.624 Y80.521 F3600
G1 E0.0000 F6000
G92 E0.0000
G1 X153.682 Y80.523 E0.0014 F960
G1 X158.305 Y80.717 E0.1166
G1 X158.363 Y80.720 E0.1180
G1 X162.967 Y81.065 E0.2329
G1 X163.025 Y81.070 E0.2344
G1 X167.601 Y81.566 E0.3489
G1 X167.659 Y81.573 E0.3503
G1 X172.197 Y82.218 E0.4644
G1 X172.255 Y82.228 E0.4659
G1 X176.743 Y83.021 E0.5793
G1 X176.802 Y83.032 E0.5808
G1 X181.232 Y83.971 E0.6934
G1 X181.291 Y83.985 E0.6949
G1 X185.652 Y85.069 E0.8068
G1 X185.712 Y85.085 E0.8083
G1 X189.995 Y86.310 E0.9191
G1 X190.055 Y86.329 E0.9207
G1 X194.250 Y87.694 E1.0305
G1 X194.311 Y87.715 E1.0321
G1 X198.408 Y89.217 E1.1407
G1 X198.470 Y89.241 E1.1423
G1 X202.460 Y90.876 E1.2496
G1 X202.523 Y90.903 E1.2513
G1 X206.398 Y92.668 E1.3573
G1 X206.461 Y92.698 E1.3590
G1 X210.212 Y94.589 E1.4635
G1 X210.276 Y94.623 E1.4653
G1 X213.895 Y96.636 E1.5684
G1 X213.959 Y96.673 E1.5702
G1 X217.437 Y98.805 E1.6717
G1 X217.502 Y98.846 E1.6736
G1 X220.832 Y101.091 E1.7736
G1 X220.896 Y101.137 E1.7755
G1 X224.070 Y103.491 E1.8739
G1 X224.135 Y103.542 E1.8759
G1 X227.145 Y106.000 E1.9726
G1 X227.210 Y106.055 E1.9747
G1 X230.049 Y108.610 E2.0698
G1 X230.109 Y108.668 E2.0718
G1 X232.515 Y111.049 E2.1561
G1 X232.569 Y111.105 E2.1580
G1 X234.608 Y113.311 E2.2328
G1 X234.659 Y113.368 E2.2346
G1 X236.574 Y115.627 E2.3083
G1 X236.623 Y115.688 E2.3103
G1 X238.412 Y117.999 E2.3830
G1 X238.460 Y118.064 E2.3850
G1 X240.120 Y120.424 E2.4568
G1 X240.166 Y120.492 E2.4589
G1 X241.694 Y122.897 E2.5298
G1 X241.738 Y122.970 E2.5319
G1 X243.130 Y125.415 E2.6019
G1 X243.169 Y125.487 E2.6039
G1 X244.307 Y127.722 E2.6663
G1 X244.340 Y127.791 E2.6682
G1 X245.268 Y129.827 E2.7239
G1 X245.297 Y129.895 E2.7258
G1 X246.132 Y131.951 E2.7810
G1 X246.159 Y132.021 E2.7828
G1 X246.900 Y134.095 E2.8376
G1 X246.924 Y134.167 E2.8395
G1 X247.572 Y136.258 E2.8940
G1 X247.593 Y136.332 E2.8959
G1 X248.146 Y138.437 E2.9501
G1 X248.164 Y138.512 E2.9520
G1 X248.621 Y140.630 E3.0059
G1 X248.636 Y140.707 E3.0078
G1 X248.996 Y142.834 E3.0615
G1 X249.008 Y142.912 E3.0635
G1 X249.272 Y145.047 E3.1170
G1 X249.280 Y145.126 E3.1190
G1 X249.446 Y147.258 E3.1722
G1 X249.450 Y147.322 E3.1738
G1 X249.504 Y148.628 E3.2063
G1 X249.505 Y148.677 E3.2075
G1 X249.523 Y149.984 E3.2401
G1 X249.523 Y150.050 E3.2417
G1 X249.471 Y152.254 E3.2966
G1 X249.467 Y152.336 E3.2986
G1 X249.311 Y154.546 E3.3538
G1 X249.304 Y154.628 E3.3558
G1 X249.044 Y156.833 E3.4110
G1 X249.033 Y156.914 E3.4131
G1 X248.670 Y159.111 E3.4685
G1 X248.655 Y159.191 E3.4705
G1 X248.190 Y161.378 E3.5261
G1 X248.172 Y161.456 E3.5281
G1 X247.604 Y163.630 E3.5840
G1 X247.583 Y163.706 E3.5860
G1 X246.914 Y165.865 E3.6422
G1 X246.889 Y165.939 E3.6442
G1 X246.120 Y168.080 E3.7008
G1 X246.093 Y168.152 E3.7027
G1 X245.224 Y170.273 E3.7598
G1 X245.194 Y170.343 E3.7616
G1 X244.227 Y172.442 E3.8191
G1 X244.195 Y172.509 E3.8210
G1 X243.131 Y174.583 E3.8790
G1 X243.097 Y174.647 E3.8808
G1 X241.938 Y176.695 E3.9394
G1 X241.901 Y176.757 E3.9411
G1 X240.648 Y178.776 E4.0003
G1 X240.610 Y178.834 E4.0020
G1 X239.263 Y180.822 E4.0618
G1 X239.224 Y180.878 E4.0635
G1 X237.786 Y182.833 E4.1238
G1 X237.746 Y182.886 E4.1255
G1 X236.219 Y184.807 E4.1866
G1 X236.177 Y184.857 E4.1882
G1 X234.563 Y186.741 E4.2499
G1 X234.520 Y186.788 E4.2515
G1 X232.819 Y188.634 E4.3139
G1 X232.777 Y188.679 E4.3155
G1 X230.992 Y190.484 E4.3786
G1 X230.949 Y190.526 E4.3802
G1 X229.081 Y192.289 E4.4440
G1 X229.038 Y192.328 E4.4455
G1 X227.091 Y194.048 E4.5101
G1 X227.047 Y194.085 E4.5116
G1 X225.022 Y195.759 E4.5770
G1 X224.978 Y195.794 E4.5784
G1 X222.877 Y197.420 E4.6445
G1 X222.833 Y197.453 E4.6458
G1 X220.658 Y199.031 E4.7127
G1 X220.614 Y199.062 E4.7140
G1 X218.368 Y200.590 E4.7816
G1 X218.324 Y200.619 E4.7829
G1 X216.009 Y202.095 E4.8512
G1 X215.965 Y202.122 E4.8525
G1 X213.584 Y203.545 E4.9216
G1 X213.540 Y203.570 E4.9228
G1 X211.094 Y204.939 E4.9926
G1 X211.051 Y204.962 E4.9938
G1 X208.540 Y206.277 E5.0643
G1 X208.490 Y206.303 E5.0657
G1 X205.057 Y207.964 E5.1606
G1 X204.997 Y207.991 E5.1622
G1 X201.017 Y209.736 E5.2704
G1 X200.954 Y209.762 E5.2721
G1 X196.856 Y211.372 E5.3816
G1 X196.794 Y211.395 E5.3833
G1 X192.590 Y212.866 E5.4941
G1 X192.528 Y212.886 E5.4957
G1 X188.228 Y214.215 E5.6077
G1 X188.167 Y214.233 E5.6093
G1 X183.780 Y215.416 E5.7224
G1 X183.719 Y215.432 E5.7239
G1 X179.256 Y216.467 E5.8379
G1 X179.196 Y216.480 E5.8395
G1 X174.666 Y217.366 E5.9543
G1 X174.606 Y217.377 E5.9558
G1 X170.020 Y218.110 E6.0714
G1 X169.961 Y218.119 E6.0729
G1 X165.330 Y218.699 E6.1890
G1 X165.271 Y218.706 E6.1905
G1 X160.605 Y219.131 E6.3071
G1 X160.546 Y219.135 E6.3085
G1 X155.856 Y219.405 E6.4254
G1 X155.798 Y219.408 E6.4269
G1 X151.095 Y219.521 E6.5439
G1 X151.036 Y219.521 E6.5454
G1 X146.331 Y219.478 E6.6625
G1 X146.272 Y219.477 E6.6639
G1 X141.575 Y219.277 E6.7809
G1 X141.516 Y219.273 E6.7824
G1 X136.838 Y218.918 E6.8991
G1 X136.779 Y218.912 E6.9006
G1 X132.131 Y218.401 E7.0169
G1 X132.072 Y218.393 E7.0184
G1 X127.465 Y217.728 E7.1343
G1 X127.405 Y217.719 E7.1358
G1 X122.849 Y216.901 E7.2509
G1 X122.789 Y216.889 E7.2525
G1 X118.295 Y215.920 E7.3669
G1 X118.234 Y215.906 E7.3684
G1 X113.812 Y214.788 E7.4819
G1 X113.751 Y214.772 E7.4835
G1 X109.410 Y213.508 E7.5960
G1 X109.349 Y213.489 E7.5976
G1 X105.101 Y212.081 E7.7089
G1 X105.038 Y212.059 E7.7106
G1 X100.892 Y210.511 E7.8207
G1 X100.829 Y210.486 E7.8224
G1 X96.795 Y208.801 E7.9312
G1 X96.731 Y208.773 E7.9329
G1 X92.817 Y206.955 E8.0403
G1 X92.753 Y206.923 E8.0421
G1 X88.969 Y204.975 E8.1480
G1 X88.904 Y204.940 E8.1498
G1 X85.258 Y202.867 E8.2542
G1 X85.193 Y202.828 E8.2561
G1 X81.695 Y200.634 E8.3588
G1 X81.629 Y200.591 E8.3608
G1 X78.286 Y198.280 E8.4619
G1 X78.220 Y198.233 E8.4639
G1 X75.040 Y195.811 E8.5634
G1 X74.974 Y195.759 E8.5655
G1 X71.967 Y193.233 E8.6632
G1 X71.904 Y193.178 E8.6653
G1 X69.348 Y190.817 E8.7518
G1 X69.292 Y190.764 E8.7538
G1 X67.117 Y188.572 E8.8306
G1 X67.065 Y188.517 E8.8325
G1 X65.016 Y186.267 E8.9082
G1 X64.965 Y186.209 E8.9101
G1 X63.044 Y183.902 E8.9848
G1 X62.994 Y183.840 E8.9868
G1 X61.203 Y181.481 E9.0605
G1 X61.155 Y181.414 E9.0626
G1 X59.498 Y179.006 E9.1353
G1 X59.452 Y178.935 E9.1374
G1 X57.932 Y176.481 E9.2092
G1 X57.888 Y176.406 E9.2114
G1 X56.509 Y173.912 E9.2823
G1 X56.469 Y173.837 E9.2844
G1 X55.348 Y171.557 E9.3476
