; G-Code generated by Simplify3D(R) Version 4.1.2
; Mar 29, 2020 at 4:52:06 PM
; Settings Summary
;   processName,Process1
;   applyToModels,SupportCouteaux
;   profileName,A03-04-15 Tevo Tornado (experimental)
;   profileVersion,2020-02-20 19:28:40
;   baseProfile,Creality CR-10(2)
;   printMaterial,PLA
;   printQuality,Medium
;   printExtruders,
;   extruderName,Primary Extruder
;   extruderToolheadNumber,0
;   extruderDiameter,0.4
;   extruderAutoWidth,0
;   extruderWidth,0.35
;   extrusionMultiplier,0.95
;   extruderUseRetract,1
;   extruderRetractionDistance,4
;   extruderExtraRestartDistance,0
;   extruderRetractionZLift,0.3
;   extruderRetractionSpeed,3000
;   extruderUseCoasting,0
;   extruderCoastingDistance,0.2
;   extruderUseWipe,0
;   extruderWipeDistance,4
;   primaryExtruder,0
;   layerHeight,0.15
;   topSolidLayers,4
;   bottomSolidLayers,3
;   perimeterOutlines,3
;   printPerimetersInsideOut,0
;   startPointOption,1
;   startPointOriginX,0
;   startPointOriginY,300
;   sequentialIslands,0
;   spiralVaseMode,0
;   firstLayerHeightPercentage,120
;   firstLayerWidthPercentage,100
;   firstLayerUnderspeed,0.5
;   useRaft,0
;   raftExtruder,0
;   raftTopLayers,3
;   raftBaseLayers,2
;   raftOffset,3
;   raftSeparationDistance,0.14
;   raftTopInfill,100
;   aboveRaftSpeedMultiplier,0.3
;   useSkirt,1
;   skirtExtruder,0
;   skirtLayers,1
;   skirtOutlines,3
;   skirtOffset,2
;   usePrimePillar,0
;   primePillarExtruder,999
;   primePillarWidth,12
;   primePillarLocation,7
;   primePillarSpeedMultiplier,1
;   useOozeShield,0
;   oozeShieldExtruder,999
;   oozeShieldOffset,2
;   oozeShieldOutlines,1
;   oozeShieldSidewallShape,1
;   oozeShieldSidewallAngle,30
;   oozeShieldSpeedMultiplier,1
;   infillExtruder,0
;   internalInfillPattern,Rectilinear
;   externalInfillPattern,Rectilinear
;   infillPercentage,15
;   outlineOverlapPercentage,15
;   infillExtrusionWidthPercentage,100
;   minInfillLength,5
;   infillLayerInterval,1
;   internalInfillAngles,45,-45
;   overlapInternalInfillAngles,0
;   externalInfillAngles,45,-45
;   generateSupport,0
;   supportExtruder,0
;   supportInfillPercentage,30
;   supportExtraInflation,0
;   supportBaseLayers,0
;   denseSupportExtruder,0
;   denseSupportLayers,0
;   denseSupportInfillPercentage,70
;   supportLayerInterval,1
;   supportHorizontalPartOffset,0.4
;   supportUpperSeparationLayers,1
;   supportLowerSeparationLayers,1
;   supportType,0
;   supportGridSpacing,4.5
;   maxOverhangAngle,45
;   supportAngles,0
;   temperatureName,Primary Extruder,Heated Bed
;   temperatureNumber,0,0
;   temperatureSetpointCount,1,1
;   temperatureSetpointLayers,1,1
;   temperatureSetpointTemperatures,215,55
;   temperatureStabilizeAtStartup,1,1
;   temperatureHeatedBed,0,1
;   fanLayers,1,2
;   fanSpeeds,0,100
;   blipFanToFullPower,0
;   adjustSpeedForCooling,1
;   minSpeedLayerTime,15
;   minCoolingSpeedSlowdown,50
;   increaseFanForCooling,1
;   minFanLayerTime,25
;   maxCoolingFanSpeed,100
;   increaseFanForBridging,1
;   bridgingFanSpeed,100
;   use5D,1
;   relativeEdistances,0
;   allowEaxisZeroing,1
;   independentExtruderAxes,0
;   includeM10123,0
;   stickySupport,1
;   applyToolheadOffsets,0
;   gcodeXoffset,0
;   gcodeYoffset,0
;   gcodeZoffset,0
;   overrideMachineDefinition,1
;   machineTypeOverride,0
;   strokeXoverride,300
;   strokeYoverride,300
;   strokeZoverride,400
;   originOffsetXoverride,0
;   originOffsetYoverride,0
;   originOffsetZoverride,0
;   homeXdirOverride,-1
;   homeYdirOverride,-1
;   homeZdirOverride,-1
;   flipXoverride,1
;   flipYoverride,-1
;   flipZoverride,1
;   toolheadOffsets,0,0|0,0|0,0|0,0|0,0|0,0
;   overrideFirmwareConfiguration,1
;   firmwareTypeOverride,RepRap (Marlin/Repetier/Sprinter)
;   GPXconfigOverride,r2
;   baudRateOverride,250000
;   overridePrinterModels,1
;   printerModelsOverride
;   startingGcode,;,; -]H.P.B[- MarshMalloW  ,; $VER: StartScript 1.02 (26.12.2019) MarshMalloW,;,; Begin Startcode,;,M117 *Preheat*     	; Preheat,;extruder0_temperature,M104 S[extruder0_temperature]  ,M109 S[extruder0_temperature] ,M109 R[extruder0_temperature] ,;,M117 *Auto-leveling*     	; Auto-leveling,M107                   	; Turn layer fan off,G21                    	; Set to metric [change to G20 if you want Imperial],G90                    	; Force coordinates to be absolute relative to the origin,G28                    	; Home X/Y/Z axis,G29                    	; Auto-leveling (BL-Touch),;,M117 *Start Clean*     	; Indicate nozzle clean in progress on LCD,G92 E0                 	; Set Extruder to 0 ,G1 X0 Y0 F2000         	; Move X and Y to 0 with speed 2000 (mm/min),G1 Z0.1 F1000          	; Move Z to   0.1 with speed 1000 (mm/min),G1 X8.0 F2000          	; Move X to   8.0 with speed 2000 (mm/min),G1 Y60.0 E4.0 F1000.0  	; Move Y to  60 and Extruder with 4.0 with speed 1000 (mm/min),G1 Y100.0 E8.5 F1000.0 	; Move Y to 100 and Extruder with 8.5 with speed 1000 (mm/min),G92 E0                 	; Set extruder to 0,G1 X16.0 F3000         	; Move X to 16.0 with speed 3000 (mm/min),G1 Y60.0 F3000         	; Move Y to 60.0 with speed 3000 (mm/min),M117 *End Clean*       	; Indicate nozzle clean in progress on LCD,G1 Z5 F3000            	; Move Z to  5.0 with speed 3000 (mm/min),G1 X20.0 F3000         	; Move X to 20.0 with speed 3000 (mm/min),; ,M117 *Printing...*     	; Start printing msg on LCD,;,; End Startcode,;,; Begin printing with sliced GCode after here,;
;   layerChangeGcode,
;   retractionGcode,
;   toolChangeGcode,
;   endingGcode,;,; init 181010,;,;M107 			; Fan off,;G1 E-1 F300 			; Retract the filament a bit before lifting the nozzle,;M104 S0 			; Turn off extruder,;M140 S0 			; Turn off bed,;G91			; Relative positioning,;G28 X0 Y0 			; Move X/Y to min endstops so the head is out of teh way,;M84 			; Disable motors,;G90 			; Absolute positioning,;M117 Print ready...,,;,; // From Cura 181010,; // End_gcode,G92 E0			; Zero the extruded length,;G1 E-30 F300		; Retract E -30,M106 S0			; Turn off cooling fan,M104 S0			; Turn off temperature,M140 S0		     	; Turn off bed,G91			; Relative positioning,G1 E-1 F300			; Retract the filament a bit before lifting the nozzle to release some of the pressure,G1 Z+20 E-5 X-20 Y-20 F7200	; Move Z up a bit and retract filament even more,G1 X0 Y150 F10000		; Move right min,M107			; Turn off layer fan,M84			; Disable motors,G90			; Absolute positioning,M117 *The-End* 		; End msg,;,
;   exportFileFormat,gcode
;   celebration,0
;   celebrationSong,Star Wars
;   postProcessing,
;   defaultSpeed,1800
;   outlineUnderspeed,0.5
;   solidInfillUnderspeed,0.8
;   supportUnderspeed,0.8
;   rapidXYspeed,6000
;   rapidZspeed,1002
;   minBridgingArea,50
;   bridgingExtraInflation,0.2
;   bridgingExtrusionMultiplier,1
;   bridgingSpeedMultiplier,0.6
;   useFixedBridgingAngle,0
;   fixedBridgingAngle,0
;   applyBridgingToPerimeters,0
;   filamentDiameters,1.75|1.75|1.75|1.75|1.75|1.75
;   filamentPricesPerKg,30|46|46|46|46|46
;   filamentDensities,1.25|1.25|1.25|1.25|1.25|1.25
;   useMinPrintHeight,0
;   minPrintHeight,0
;   useMaxPrintHeight,0
;   maxPrintHeight,9
;   useDiaphragm,0
;   diaphragmLayerInterval,20
;   robustSlicing,1
;   mergeAllIntoSolid,0
;   onlyRetractWhenCrossingOutline,1
;   retractBetweenLayers,1
;   useRetractionMinTravel,0
;   retractionMinTravel,3
;   retractWhileWiping,0
;   onlyWipeOutlines,1
;   avoidCrossingOutline,0
;   maxMovementDetourFactor,3
;   toolChangeRetractionDistance,12
;   toolChangeExtraRestartDistance,-0.5
;   toolChangeRetractionSpeed,600
;   externalThinWallType,1
;   internalThinWallType,1
;   thinWallAllowedOverlapPercentage,10
;   singleExtrusionMinLength,1
;   singleExtrusionMinPrintingWidthPercentage,50
;   singleExtrusionMaxPrintingWidthPercentage,200
;   singleExtrusionEndpointExtension,0.2
;   horizontalSizeCompensation,0
G90
M82
M106 S0
M140 S55
M190 S55
;
; -]H.P.B[- MarshMalloW  
; $VER: StartScript 1.02 (26.12.2019) MarshMalloW
;
; Begin Startcode
;
M117 *Preheat*     	; Preheat
;extruder0_temperature
M104 S215  
M109 S215 
M109 R215 
;
M117 *Auto-leveling*     	; Auto-leveling
M107                   	; Turn layer fan off
G21                    	; Set to metric [change to G20 if you want Imperial]
G90                    	; Force coordinates to be absolute relative to the origin
G28                    	; Home X/Y/Z axis
G29                    	; Auto-leveling (BL-Touch)
;
M117 *Start Clean*     	; Indicate nozzle clean in progress on LCD
G92 E0                 	; Set Extruder to 0 
G1 X0 Y0 F2000         	; Move X and Y to 0 with speed 2000 (mm/min)
G1 Z0.1 F1000          	; Move Z to   0.1 with speed 1000 (mm/min)
G1 X8.0 F2000          	; Move X to   8.0 with speed 2000 (mm/min)
G1 Y60.0 E4.0 F1000.0  	; Move Y to  60 and Extruder with 4.0 with speed 1000 (mm/min)
G1 Y100.0 E8.5 F1000.0 	; Move Y to 100 and Extruder with 8.5 with speed 1000 (mm/min)
G92 E0                 	; Set extruder to 0
G1 X16.0 F3000         	; Move X to 16.0 with speed 3000 (mm/min)
G1 Y60.0 F3000         	; Move Y to 60.0 with speed 3000 (mm/min)
M117 *End Clean*       	; Indicate nozzle clean in progress on LCD
G1 Z5 F3000            	; Move Z to  5.0 with speed 3000 (mm/min)
G1 X20.0 F3000         	; Move X to 20.0 with speed 3000 (mm/min)
; 
M117 *Printing...*     	; Start printing msg on LCD
;
; End Startcode
;
; Begin printing with sliced GCode after here
;
; process Process1
; layer 1, Z = 0.180
T0
G92 E0.0000
G1 E-4.0000 F3000
; feature skirt
; tool H0.180 W0.350
G1 Z0.300 F1002
G1 X227.568 Y47.951 F6000
G1 Z0.180 F1002
G1 E0.0000 F3000
G92 E0.0000
G1 X230.319 Y48.131 E0.0686 F900
G1 X230.506 Y48.156 E0.0733
G1 X233.256 Y48.703 E0.1431
G1 X233.438 Y48.752 E0.1478
G1 X236.094 Y49.653 E0.2175
G1 X236.268 Y49.725 E0.2222
G1 X238.783 Y50.966 E0.2920
G1 X238.946 Y51.060 E0.2967
G1 X241.278 Y52.618 E0.3665
G1 X241.427 Y52.732 E0.3711
G1 X243.535 Y54.581 E0.4409
G1 X243.669 Y54.715 E0.4456
G1 X245.518 Y56.823 E0.5154
G1 X245.632 Y56.972 E0.5201
G1 X247.190 Y59.304 E0.5899
G1 X247.284 Y59.467 E0.5945
G1 X248.525 Y61.982 E0.6643
G1 X248.597 Y62.156 E0.6690
G1 X249.498 Y64.812 E0.7388
G1 X249.547 Y64.993 E0.7435
G1 X250.094 Y67.744 E0.8132
G1 X250.119 Y67.931 E0.8179
G1 X250.299 Y70.682 E0.8865
G1 X250.302 Y70.776 E0.8889
G1 X250.302 Y112.014 E1.9150
G1 X248.618 Y113.698 E1.9743
G1 X85.536 Y113.698 E6.0322
G1 X83.852 Y112.014 E6.0914
G1 X83.852 Y91.574 E6.6000
G1 X83.734 Y90.375 E6.6300
G1 X83.425 Y89.358 E6.6565
G1 X82.924 Y88.421 E6.6829
G1 X82.250 Y87.600 E6.7093
G1 X81.429 Y86.926 E6.7358
G1 X80.492 Y86.425 E6.7622
G1 X79.474 Y86.116 E6.7887
G1 X78.276 Y85.998 E6.8186
G1 X70.878 Y85.998 E7.0027
G1 X69.679 Y86.116 E7.0327
G1 X68.662 Y86.425 E7.0591
G1 X67.725 Y86.926 E7.0856
G1 X66.904 Y87.600 E7.1120
G1 X66.229 Y88.421 E7.1385
G1 X65.728 Y89.358 E7.1649
G1 X65.420 Y90.375 E7.1914
G1 X65.302 Y91.574 E7.2213
G1 X65.302 Y112.014 E7.7299
G1 X63.618 Y113.698 E7.7892
G1 X51.236 Y113.698 E8.0973
G1 X49.552 Y112.014 E8.1565
G1 X49.552 Y49.632 E9.7088
G1 X51.236 Y47.948 E9.7680
G1 X227.474 Y47.948 E14.1533
G1 X227.568 Y47.951 E14.1557
G92 E0.0000
G1 E-4.0000 F3000
G1 Z0.480 F1002
G1 X84.079 Y90.307 F6000
G1 Z0.180 F1002
G1 E0.0000 F3000
G92 E0.0000
G1 X83.750 Y89.224 E0.0282 F900
G1 X83.217 Y88.226 E0.0563
G1 X82.499 Y87.351 E0.0845
G1 X81.624 Y86.633 E0.1126
G1 X80.626 Y86.100 E0.1408
G1 X79.543 Y85.771 E0.1690
G1 X78.293 Y85.648 E0.2002
G1 X70.861 Y85.648 E0.3851
G1 X69.611 Y85.771 E0.4164
G1 X68.528 Y86.100 E0.4446
G1 X67.530 Y86.633 E0.4727
G1 X66.655 Y87.351 E0.5009
G1 X65.937 Y88.226 E0.5290
G1 X65.404 Y89.224 E0.5572
G1 X65.075 Y90.307 E0.5854
G1 X64.952 Y91.557 E0.6166
G1 X64.952 Y111.869 E1.1220
G1 X63.473 Y113.348 E1.1741
G1 X51.381 Y113.348 E1.4750
G1 X49.902 Y111.869 E1.5270
G1 X49.902 Y49.777 E3.0720
G1 X51.381 Y48.298 E3.1241
G1 X227.468 Y48.298 E7.5056
G1 X227.551 Y48.301 E7.5077
G1 X230.285 Y48.480 E7.5758
G1 X230.449 Y48.502 E7.5799
G1 X233.177 Y49.044 E7.6492
G1 X233.337 Y49.087 E7.6533
G1 X235.970 Y49.981 E7.7225
G1 X236.123 Y50.044 E7.7266
G1 X238.618 Y51.274 E7.7958
G1 X238.761 Y51.357 E7.7999
G1 X241.074 Y52.902 E7.8691
G1 X241.205 Y53.003 E7.8732
G1 X243.296 Y54.837 E7.9425
G1 X243.413 Y54.954 E7.9466
G1 X245.247 Y57.045 E8.0158
G1 X245.348 Y57.176 E8.0199
G1 X246.893 Y59.489 E8.0891
G1 X246.975 Y59.632 E8.0932
G1 X248.206 Y62.127 E8.1624
G1 X248.269 Y62.279 E8.1665
G1 X249.163 Y64.913 E8.2357
G1 X249.206 Y65.073 E8.2399
G1 X249.748 Y67.801 E8.3091
G1 X249.770 Y67.965 E8.3132
G1 X249.949 Y70.699 E8.3814
G1 X249.952 Y70.782 E8.3834
G1 X249.952 Y111.869 E9.4058
G1 X248.473 Y113.348 E9.4578
G1 X85.681 Y113.348 E13.5085
G1 X84.202 Y111.869 E13.5606
G1 X84.202 Y91.557 E14.0660
G1 X84.079 Y90.307 E14.0973
G92 E0.0000
G1 E-4.0000 F3000
G1 Z0.480 F1002
G1 X240.983 Y53.274 F6000
G1 Z0.180 F1002
G1 E0.0000 F3000
G92 E0.0000
G1 X243.057 Y55.093 E0.0686 F900
G1 X243.157 Y55.193 E0.0722
G1 X244.976 Y57.267 E0.1408
G1 X245.063 Y57.380 E0.1444
G1 X246.595 Y59.674 E0.2130
G1 X246.667 Y59.797 E0.2165
G1 X247.887 Y62.271 E0.2852
G1 X247.941 Y62.403 E0.2887
G1 X248.828 Y65.015 E0.3574
G1 X248.865 Y65.153 E0.3609
G1 X249.403 Y67.858 E0.4296
G1 X249.422 Y67.999 E0.4331
G1 X249.600 Y70.716 E0.5009
G1 X249.602 Y70.787 E0.5026
G1 X249.602 Y111.724 E1.5212
G1 X248.328 Y112.998 E1.5661
G1 X85.826 Y112.998 E5.6096
G1 X84.552 Y111.724 E5.6544
G1 X84.552 Y91.540 E6.1566
G1 X84.424 Y90.238 E6.1892
G1 X84.075 Y89.089 E6.2191
G1 X83.509 Y88.030 E6.2489
G1 X82.748 Y87.102 E6.2788
G1 X81.819 Y86.341 E6.3087
G1 X80.761 Y85.775 E6.3385
G1 X79.612 Y85.426 E6.3684
G1 X78.310 Y85.298 E6.4010
G1 X70.844 Y85.298 E6.5868
G1 X69.542 Y85.426 E6.6193
G1 X68.393 Y85.775 E6.6492
G1 X67.334 Y86.341 E6.6790
G1 X66.406 Y87.102 E6.7089
G1 X65.645 Y88.030 E6.7388
G1 X65.079 Y89.089 E6.7687
G1 X64.730 Y90.238 E6.7985
G1 X64.602 Y91.540 E6.8311
G1 X64.602 Y111.724 E7.3333
G1 X63.328 Y112.998 E7.3782
G1 X51.526 Y112.998 E7.6718
G1 X50.252 Y111.724 E7.7167
G1 X50.252 Y49.922 E9.2545
G1 X51.526 Y48.648 E9.2993
G1 X227.463 Y48.648 E13.6771
G1 X227.534 Y48.650 E13.6788
G1 X230.251 Y48.828 E13.7466
G1 X230.392 Y48.847 E13.7501
G1 X233.097 Y49.385 E13.8188
G1 X233.235 Y49.422 E13.8223
G1 X235.847 Y50.309 E13.8910
G1 X235.979 Y50.363 E13.8945
G1 X238.453 Y51.583 E13.9631
G1 X238.576 Y51.655 E13.9667
G1 X240.870 Y53.187 E14.0353
G1 X240.983 Y53.274 E14.0389
G92 E0.0000
G1 E-4.0000 F3000
; feature outer perimeter
G1 Z0.480 F1002
G1 X62.897 Y88.186 F6000
G1 Z0.180 F1002
G1 E0.0000 F3000
G92 E0.0000
G1 X62.414 Y89.778 E0.0414 F450
G1 X62.252 Y91.424 E0.0826
G1 X62.252 Y110.648 E0.5609
G1 X52.602 Y110.648 E0.8010
G1 X52.602 Y50.998 E2.2853
G1 X227.421 Y50.998 E6.6353
G1 X230.015 Y51.168 E6.6999
G1 X232.558 Y51.674 E6.7645
G1 X235.013 Y52.507 E6.8290
G1 X237.339 Y53.654 E6.8935
G1 X239.495 Y55.095 E6.9580
G1 X241.445 Y56.805 E7.0226
G1 X243.155 Y58.755 E7.0871
G1 X244.596 Y60.911 E7.1516
G1 X245.742 Y63.237 E7.2161
G1 X246.576 Y65.692 E7.2807
G1 X247.082 Y68.235 E7.3452
G1 X247.252 Y70.829 E7.4099
G1 X247.252 Y110.648 E8.4007
G1 X86.902 Y110.648 E12.3906
G1 X86.902 Y91.424 E12.8690
G1 X86.740 Y89.778 E12.9101
G1 X86.257 Y88.186 E12.9515
G1 X85.473 Y86.719 E12.9929
G1 X84.417 Y85.433 E13.0343
G1 X83.131 Y84.377 E13.0757
G1 X81.664 Y83.593 E13.1171
G1 X80.072 Y83.110 E13.1585
G1 X78.426 Y82.948 E13.1997
G1 X70.728 Y82.948 E13.3912
G1 X69.081 Y83.110 E13.4324
G1 X67.490 Y83.593 E13.4738
G1 X66.022 Y84.377 E13.5152
G1 X64.737 Y85.433 E13.5565
G1 X63.681 Y86.719 E13.5979
G1 X62.897 Y88.186 E13.6393
; feature inner perimeter
G1 X62.572 Y88.051 F6000
G92 E0.0000
G1 X62.069 Y89.709 E0.0431 F675
G1 X61.902 Y91.407 E0.0856
G1 X61.902 Y110.298 E0.5556
G1 X52.952 Y110.298 E0.7783
G1 X52.952 Y51.348 E2.2452
G1 X227.410 Y51.348 E6.5862
G1 X229.969 Y51.516 E6.6500
G1 X232.467 Y52.013 E6.7134
G1 X234.879 Y52.832 E6.7767
G1 X237.164 Y53.958 E6.8401
G1 X239.282 Y55.373 E6.9035
G1 X241.197 Y57.053 E6.9669
G1 X242.877 Y58.968 E7.0303
G1 X244.292 Y61.086 E7.0937
G1 X245.418 Y63.371 E7.1570
G1 X246.237 Y65.783 E7.2204
