; G-Code generated by Simplify3D(R) Version 4.1.2
; Apr 4, 2020 at 1:35:48 AM
; Settings Summary
;   processName,Process1
;   applyToModels,Support_Couteaux_2c_part2
;   profileName,A03-04-15 Tevo Tornado (experimental)
;   profileVersion,2020-04-01 17:30:42
;   baseProfile,Creality CR-10(2)
;   printMaterial,PLA
;   printQuality,Medium
;   printExtruders,
;   extruderName,Primary Extruder
;   extruderToolheadNumber,0
;   extruderDiameter,0.4
;   extruderAutoWidth,0
;   extruderWidth,0.35
;   extrusionMultiplier,0.95
;   extruderUseRetract,1
;   extruderRetractionDistance,4
;   extruderExtraRestartDistance,0
;   extruderRetractionZLift,0.3
;   extruderRetractionSpeed,3000
;   extruderUseCoasting,0
;   extruderCoastingDistance,0.2
;   extruderUseWipe,0
;   extruderWipeDistance,4
;   primaryExtruder,0
;   layerHeight,0.15
;   topSolidLayers,4
;   bottomSolidLayers,3
;   perimeterOutlines,3
;   printPerimetersInsideOut,0
;   startPointOption,1
;   startPointOriginX,0
;   startPointOriginY,300
;   sequentialIslands,0
;   spiralVaseMode,0
;   firstLayerHeightPercentage,120
;   firstLayerWidthPercentage,100
;   firstLayerUnderspeed,0.5
;   useRaft,0
;   raftExtruder,0
;   raftTopLayers,3
;   raftBaseLayers,2
;   raftOffset,3
;   raftSeparationDistance,0.14
;   raftTopInfill,100
;   aboveRaftSpeedMultiplier,0.3
;   useSkirt,1
;   skirtExtruder,0
;   skirtLayers,1
;   skirtOutlines,3
;   skirtOffset,2
;   usePrimePillar,0
;   primePillarExtruder,999
;   primePillarWidth,12
;   primePillarLocation,7
;   primePillarSpeedMultiplier,1
;   useOozeShield,0
;   oozeShieldExtruder,999
;   oozeShieldOffset,2
;   oozeShieldOutlines,1
;   oozeShieldSidewallShape,1
;   oozeShieldSidewallAngle,30
;   oozeShieldSpeedMultiplier,1
;   infillExtruder,0
;   internalInfillPattern,Rectilinear
;   externalInfillPattern,Rectilinear
;   infillPercentage,15
;   outlineOverlapPercentage,15
;   infillExtrusionWidthPercentage,100
;   minInfillLength,5
;   infillLayerInterval,1
;   internalInfillAngles,45,-45
;   overlapInternalInfillAngles,0
;   externalInfillAngles,45,-45
;   generateSupport,0
;   supportExtruder,0
;   supportInfillPercentage,30
;   supportExtraInflation,0
;   supportBaseLayers,0
;   denseSupportExtruder,0
;   denseSupportLayers,0
;   denseSupportInfillPercentage,70
;   supportLayerInterval,1
;   supportHorizontalPartOffset,0.4
;   supportUpperSeparationLayers,1
;   supportLowerSeparationLayers,1
;   supportType,0
;   supportGridSpacing,4.5
;   maxOverhangAngle,45
;   supportAngles,0
;   temperatureName,Primary Extruder,Heated Bed
;   temperatureNumber,0,0
;   temperatureSetpointCount,1,1
;   temperatureSetpointLayers,1,1
;   temperatureSetpointTemperatures,215,55
;   temperatureStabilizeAtStartup,1,1
;   temperatureHeatedBed,0,1
;   fanLayers,1,2
;   fanSpeeds,0,100
;   blipFanToFullPower,0
;   adjustSpeedForCooling,1
;   minSpeedLayerTime,15
;   minCoolingSpeedSlowdown,50
;   increaseFanForCooling,1
;   minFanLayerTime,25
;   maxCoolingFanSpeed,100
;   increaseFanForBridging,1
;   bridgingFanSpeed,100
;   use5D,1
;   relativeEdistances,0
;   allowEaxisZeroing,1
;   independentExtruderAxes,0
;   includeM10123,0
;   stickySupport,1
;   applyToolheadOffsets,0
;   gcodeXoffset,0
;   gcodeYoffset,0
;   gcodeZoffset,0
;   overrideMachineDefinition,1
;   machineTypeOverride,0
;   strokeXoverride,300
;   strokeYoverride,300
;   strokeZoverride,400
;   originOffsetXoverride,0
;   originOffsetYoverride,0
;   originOffsetZoverride,0
;   homeXdirOverride,-1
;   homeYdirOverride,-1
;   homeZdirOverride,-1
;   flipXoverride,1
;   flipYoverride,-1
;   flipZoverride,1
;   toolheadOffsets,0,0|0,0|0,0|0,0|0,0|0,0
;   overrideFirmwareConfiguration,1
;   firmwareTypeOverride,RepRap (Marlin/Repetier/Sprinter)
;   GPXconfigOverride,r2
;   baudRateOverride,250000
;   overridePrinterModels,1
;   printerModelsOverride
;   startingGcode,;,; -]H.P.B[- MarshMalloW  ,; $VER: StartScript 1.02 (26.12.2019) MarshMalloW,;,; Begin Startcode,;,M117 *Preheat*     	; Preheat,;extruder0_temperature,M104 S[extruder0_temperature]  ,M109 S[extruder0_temperature] ,M109 R[extruder0_temperature] ,;,M117 *Auto-leveling*     	; Auto-leveling,M107                   	; Turn layer fan off,G21                    	; Set to metric [change to G20 if you want Imperial],G90                    	; Force coordinates to be absolute relative to the origin,G28                    	; Home X/Y/Z axis,G29                    	; Auto-leveling (BL-Touch),;,M117 *Start Clean*     	; Indicate nozzle clean in progress on LCD,G92 E0                 	; Set Extruder to 0 ,G1 X0 Y0 F2000         	; Move X and Y to 0 with speed 2000 (mm/min),G1 Z0.1 F1000          	; Move Z to   0.1 with speed 1000 (mm/min),G1 X8.0 F2000          	; Move X to   8.0 with speed 2000 (mm/min),G1 Y60.0 E4.0 F1000.0  	; Move Y to  60 and Extruder with 4.0 with speed 1000 (mm/min),G1 Y100.0 E8.5 F1000.0 	; Move Y to 100 and Extruder with 8.5 with speed 1000 (mm/min),G92 E0                 	; Set extruder to 0,G1 X16.0 F3000         	; Move X to 16.0 with speed 3000 (mm/min),G1 Y60.0 F3000         	; Move Y to 60.0 with speed 3000 (mm/min),M117 *End Clean*       	; Indicate nozzle clean in progress on LCD,G1 Z5 F3000            	; Move Z to  5.0 with speed 3000 (mm/min),G1 X20.0 F3000         	; Move X to 20.0 with speed 3000 (mm/min),G1 Y20.0 F3000         	; Move Y to 20.0 with speed 3000 (mm/min),; ,M117 *Printing...*     	; Start printing msg on LCD,;,; End Startcode,;,; Begin printing with sliced GCode after here,;
;   layerChangeGcode,
;   retractionGcode,
;   toolChangeGcode,
;   endingGcode,;,; init 181010,;,;M107 			; Fan off,;G1 E-1 F300 			; Retract the filament a bit before lifting the nozzle,;M104 S0 			; Turn off extruder,;M140 S0 			; Turn off bed,;G91			; Relative positioning,;G28 X0 Y0 			; Move X/Y to min endstops so the head is out of teh way,;M84 			; Disable motors,;G90 			; Absolute positioning,;M117 Print ready...,,;,; // From Cura 181010,; // End_gcode,G92 E0			; Zero the extruded length,;G1 E-30 F300		; Retract E -30,M106 S0			; Turn off cooling fan,M104 S0			; Turn off temperature,M140 S0		     	; Turn off bed,G91			; Relative positioning,G1 E-1 F300			; Retract the filament a bit before lifting the nozzle to release some of the pressure,G1 Z+20 E-5 X-20 Y-20 F7200	; Move Z up a bit and retract filament even more,G1 X0 Y150 F10000		; Move right min,M107			; Turn off layer fan,M84			; Disable motors,G90			; Absolute positioning,M117 *The-End* 		; End msg,;,
;   exportFileFormat,gcode
;   celebration,0
;   celebrationSong,Star Wars
;   postProcessing,
;   defaultSpeed,1800
;   outlineUnderspeed,0.5
;   solidInfillUnderspeed,0.8
;   supportUnderspeed,0.8
;   rapidXYspeed,6000
;   rapidZspeed,1002
;   minBridgingArea,50
;   bridgingExtraInflation,0.2
;   bridgingExtrusionMultiplier,1
;   bridgingSpeedMultiplier,0.6
;   useFixedBridgingAngle,0
;   fixedBridgingAngle,0
;   applyBridgingToPerimeters,0
;   filamentDiameters,1.75|1.75|1.75|1.75|1.75|1.75
;   filamentPricesPerKg,30|46|46|46|46|46
;   filamentDensities,1.25|1.25|1.25|1.25|1.25|1.25
;   useMinPrintHeight,0
;   minPrintHeight,0
;   useMaxPrintHeight,0
;   maxPrintHeight,9
;   useDiaphragm,0
;   diaphragmLayerInterval,20
;   robustSlicing,1
;   mergeAllIntoSolid,0
;   onlyRetractWhenCrossingOutline,1
;   retractBetweenLayers,1
;   useRetractionMinTravel,0
;   retractionMinTravel,3
;   retractWhileWiping,0
;   onlyWipeOutlines,1
;   avoidCrossingOutline,0
;   maxMovementDetourFactor,3
;   toolChangeRetractionDistance,12
;   toolChangeExtraRestartDistance,-0.5
;   toolChangeRetractionSpeed,600
;   externalThinWallType,1
;   internalThinWallType,1
;   thinWallAllowedOverlapPercentage,10
;   singleExtrusionMinLength,1
;   singleExtrusionMinPrintingWidthPercentage,50
;   singleExtrusionMaxPrintingWidthPercentage,200
;   singleExtrusionEndpointExtension,0.2
;   horizontalSizeCompensation,0
G90
M82
M106 S0
M140 S55
M190 S55
;
; -]H.P.B[- MarshMalloW  
; $VER: StartScript 1.02 (26.12.2019) MarshMalloW
;
; Begin Startcode
;
M117 *Preheat*     	; Preheat
;extruder0_temperature
M104 S215  
M109 S215 
M109 R215 
;
M117 *Auto-leveling*     	; Auto-leveling
M107                   	; Turn layer fan off
G21                    	; Set to metric [change to G20 if you want Imperial]
G90                    	; Force coordinates to be absolute relative to the origin
G28                    	; Home X/Y/Z axis
G29                    	; Auto-leveling (BL-Touch)
;
M117 *Start Clean*     	; Indicate nozzle clean in progress on LCD
G92 E0                 	; Set Extruder to 0 
G1 X0 Y0 F2000         	; Move X and Y to 0 with speed 2000 (mm/min)
G1 Z0.1 F1000          	; Move Z to   0.1 with speed 1000 (mm/min)
G1 X8.0 F2000          	; Move X to   8.0 with speed 2000 (mm/min)
G1 Y60.0 E4.0 F1000.0  	; Move Y to  60 and Extruder with 4.0 with speed 1000 (mm/min)
G1 Y100.0 E8.5 F1000.0 	; Move Y to 100 and Extruder with 8.5 with speed 1000 (mm/min)
G92 E0                 	; Set extruder to 0
G1 X16.0 F3000         	; Move X to 16.0 with speed 3000 (mm/min)
G1 Y60.0 F3000         	; Move Y to 60.0 with speed 3000 (mm/min)
M117 *End Clean*       	; Indicate nozzle clean in progress on LCD
G1 Z5 F3000            	; Move Z to  5.0 with speed 3000 (mm/min)
G1 X20.0 F3000         	; Move X to 20.0 with speed 3000 (mm/min)
G1 Y20.0 F3000         	; Move Y to 20.0 with speed 3000 (mm/min)
; 
M117 *Printing...*     	; Start printing msg on LCD
;
; End Startcode
;
; Begin printing with sliced GCode after here
;
; process Process1
; layer 1, Z = 0.180
T0
G92 E0.0000
G1 E-4.0000 F3000
; feature skirt
; tool H0.180 W0.350
G1 Z0.300 F1002
G1 X178.118 Y57.567 F6000
G1 Z0.180 F1002
G1 E0.0000 F3000
G92 E0.0000
G1 X178.118 Y119.949 E1.5522 F900
G1 X176.434 Y121.633 E1.6115
G1 X168.633 Y121.633 E1.8056
G1 X168.474 Y121.624 E1.8096
G1 X166.891 Y121.448 E1.8492
G1 X166.580 Y121.378 E1.8571
G1 X165.000 Y120.832 E1.8987
G1 X164.712 Y120.695 E1.9067
G1 X163.290 Y119.815 E1.9483
G1 X163.039 Y119.618 E1.9562
G1 X161.846 Y118.446 E1.9978
G1 X161.645 Y118.199 E2.0058
G1 X161.352 Y117.745 E2.0192
G1 X161.059 Y118.199 E2.0326
G1 X160.858 Y118.446 E2.0406
G1 X159.665 Y119.618 E2.0822
G1 X159.414 Y119.815 E2.0901
G1 X157.992 Y120.695 E2.1317
G1 X157.704 Y120.832 E2.1397
G1 X156.124 Y121.378 E2.1813
G1 X155.812 Y121.448 E2.1892
G1 X154.230 Y121.624 E2.2288
G1 X154.071 Y121.633 E2.2328
G1 X141.550 Y121.633 E2.5444
G1 X140.022 Y120.496 E2.5917
G1 X121.333 Y58.201 E4.2101
G1 X123.058 Y55.883 E4.2820
G1 X176.434 Y55.883 E5.6101
G1 X178.118 Y57.567 E5.6694
G92 E0.0000
G1 E-4.0000 F3000
G1 Z0.480 F1002
G1 X159.433 Y119.354 F6000
G1 Z0.180 F1002
G1 E0.0000 F3000
G92 E0.0000
G1 X159.213 Y119.527 E0.0070 F900
G1 X157.824 Y120.387 E0.0476
G1 X157.571 Y120.507 E0.0546
G1 X156.028 Y121.041 E0.0952
G1 X155.754 Y121.102 E0.1022
G1 X154.201 Y121.275 E0.1411
G1 X154.061 Y121.283 E0.1446
G1 X141.666 Y121.283 E0.4530
G1 X140.324 Y120.285 E0.4946
G1 X121.719 Y58.269 E2.1057
G1 X123.233 Y56.233 E2.1688
G1 X176.289 Y56.233 E3.4890
G1 X177.768 Y57.712 E3.5411
G1 X177.768 Y119.804 E5.0861
G1 X176.289 Y121.283 E5.1381
G1 X168.643 Y121.283 E5.3284
G1 X168.503 Y121.275 E5.3319
G1 X166.950 Y121.102 E5.3708
G1 X166.676 Y121.041 E5.3777
G1 X165.133 Y120.507 E5.4184
G1 X164.879 Y120.387 E5.4253
G1 X163.491 Y119.527 E5.4660
G1 X163.271 Y119.354 E5.4730
G1 X162.105 Y118.210 E5.5136
G1 X161.928 Y117.993 E5.5206
G1 X161.352 Y117.099 E5.5470
G1 X160.776 Y117.993 E5.5735
G1 X160.598 Y118.210 E5.5805
G1 X159.433 Y119.354 E5.6211
G92 E0.0000
G1 E-4.0000 F3000
G1 Z0.480 F1002
G1 X167.008 Y120.757 F6000
G1 Z0.180 F1002
G1 E0.0000 F3000
G92 E0.0000
G1 X166.772 Y120.703 E0.0060 F900
G1 X165.265 Y120.183 E0.0457
G1 X165.047 Y120.079 E0.0517
G1 X163.692 Y119.240 E0.0913
G1 X163.502 Y119.091 E0.0974
G1 X162.364 Y117.974 E0.1370
G1 X162.212 Y117.787 E0.1430
G1 X161.352 Y116.453 E0.1825
G1 X160.492 Y117.787 E0.2220
G1 X160.339 Y117.974 E0.2280
G1 X159.202 Y119.091 E0.2677
G1 X159.012 Y119.240 E0.2737
G1 X157.657 Y120.079 E0.3134
G1 X157.439 Y120.183 E0.3194
G1 X155.932 Y120.703 E0.3590
G1 X155.696 Y120.757 E0.3650
G1 X154.172 Y120.926 E0.4032
G1 X154.051 Y120.933 E0.4062
G1 X141.782 Y120.933 E0.7115
G1 X140.626 Y120.073 E0.7474
G1 X122.105 Y58.336 E2.3512
G1 X123.409 Y56.583 E2.4056
G1 X176.144 Y56.583 E3.7178
G1 X177.418 Y57.857 E3.7626
G1 X177.418 Y119.659 E5.3004
G1 X176.144 Y120.933 E5.3452
G1 X168.652 Y120.933 E5.5316
G1 X168.532 Y120.926 E5.5346
G1 X167.008 Y120.757 E5.5728
G92 E0.0000
G1 E-4.0000 F3000
; feature outer perimeter
G1 Z0.480 F1002
G1 X155.297 Y118.437 F6000
G1 Z0.180 F1002
G1 E0.0000 F3000
G92 E0.0000
G1 X153.981 Y118.583 E0.0329 F450
G1 X142.632 Y118.583 E0.3153
G1 X124.737 Y58.933 E1.8649
G1 X175.068 Y58.933 E3.1173
G1 X175.068 Y118.583 E4.6016
G1 X168.722 Y118.583 E4.7595
G1 X167.407 Y118.437 E4.7924
G1 X166.165 Y118.008 E4.8251
G1 X165.048 Y117.316 E4.8578
G1 X164.111 Y116.395 E4.8905
G1 X163.399 Y115.291 E4.9232
G1 X162.947 Y114.058 E4.9559
G1 X162.777 Y112.745 E4.9888
G1 X162.026 Y71.735 E6.0094
G1 X161.489 Y69.583 E6.0646
G1 X161.215 Y69.583 E6.0714
G1 X160.677 Y71.735 E6.1266
G1 X159.927 Y112.745 E7.1472
G1 X159.757 Y114.058 E7.1802
G1 X159.305 Y115.291 E7.2128
G1 X158.593 Y116.395 E7.2455
G1 X157.656 Y117.316 E7.2782
G1 X156.539 Y118.008 E7.3109
G1 X155.297 Y118.437 E7.3436
; feature inner perimeter
G1 X155.219 Y118.093 F6000
G92 E0.0000
G1 X153.962 Y118.233 E0.0315 F675
G1 X142.893 Y118.233 E0.3069
G1 X125.208 Y59.283 E1.8383
G1 X174.718 Y59.283 E3.0703
G1 X174.718 Y118.233 E4.5371
G1 X168.742 Y118.233 E4.6859
G1 X167.484 Y118.093 E4.7173
G1 X166.316 Y117.689 E4.7481
G1 X165.266 Y117.039 E4.7788
G1 X164.384 Y116.173 E4.8096
G1 X163.714 Y115.134 E4.8403
G1 X163.289 Y113.974 E4.8711
G1 X163.126 Y112.719 E4.9026
G1 X162.376 Y71.689 E5.9237
G1 X161.762 Y69.233 E5.9867
G1 X160.942 Y69.233 E6.0071
G1 X160.328 Y71.689 E6.0701
G1 X159.578 Y112.719 E7.0912
G1 X159.415 Y113.974 E7.1227
G1 X158.990 Y115.134 E7.1534
G1 X158.320 Y116.173 E7.1842
G1 X157.438 Y117.039 E7.2149
G1 X156.387 Y117.689 E7.2457
G1 X155.219 Y118.093 E7.2764
G1 X155.142 Y117.749 F6000
G92 E0.0000
G1 X153.943 Y117.883 E0.0300 F675
G1 X143.153 Y117.883 E0.2985
G1 X125.678 Y59.633 E1.8117
G1 X174.368 Y59.633 E3.0233
G1 X174.368 Y117.883 E4.4727
G1 X168.761 Y117.883 E4.6122
G1 X167.562 Y117.749 E4.6423
G1 X166.467 Y117.371 E4.6711
G1 X165.483 Y116.762 E4.6999
G1 X164.657 Y115.951 E4.7287
G1 X164.029 Y114.977 E4.7575
G1 X163.631 Y113.890 E4.7863
G1 X163.476 Y112.693 E4.8163
G1 X162.725 Y71.642 E5.8380
G1 X162.035 Y68.883 E5.9088
G1 X160.669 Y68.883 E5.9428
G1 X159.979 Y71.642 E6.0135
G1 X159.228 Y112.693 E7.0352
G1 X159.072 Y113.890 E7.0652
G1 X158.674 Y114.977 E7.0940
G1 X158.047 Y115.951 E7.1228
G1 X157.221 Y116.762 E7.1516
G1 X156.236 Y117.371 E7.1804
G1 X155.142 Y117.749 E7.2092
; feature outer perimeter
G1 X145.306 Y100.249 F6000
G92 E0.0000
G1 X146.059 Y99.582 E0.0251 F450
G1 X146.631 Y98.753 E0.0501
G1 X146.988 Y97.812 E0.0752
G1 X147.109 Y96.812 E0.1002
G1 X146.988 Y95.813 E0.1253
G1 X146.631 Y94.871 E0.1503
G1 X146.059 Y94.043 E0.1754
G1 X145.306 Y93.375 E0.2004
G1 X144.414 Y92.907 E0.2255
G1 X143.436 Y92.666 E0.2505
G1 X142.430 Y92.666 E0.2756
G1 X141.452 Y92.907 E0.3006
G1 X140.561 Y93.375 E0.3257
G1 X139.807 Y94.043 E0.3507
G1 X139.235 Y94.871 E0.3758
G1 X138.878 Y95.813 E0.4008
G1 X138.757 Y96.812 E0.4259
G1 X138.878 Y97.812 E0.4509
G1 X139.235 Y98.753 E0.4760
G1 X139.807 Y99.582 E0.5010
G1 X140.561 Y100.249 E0.5261
G1 X141.452 Y100.717 E0.5511
G1 X142.430 Y100.958 E0.5762
G1 X143.436 Y100.958 E0.6012
G1 X144.414 Y100.717 E0.6263
G1 X145.306 Y100.249 E0.6513
; feature inner perimeter
G1 X145.506 Y100.539 F6000
G92 E0.0000
G1 X146.323 Y99.815 E0.0272 F675
G1 X146.943 Y98.917 E0.0543
G1 X147.330 Y97.896 E0.0815
G1 X147.462 Y96.812 E0.1087
G1 X147.330 Y95.728 E0.1358
G1 X146.943 Y94.708 E0.1630
G1 X146.323 Y93.809 E0.1902
G1 X145.506 Y93.085 E0.2173
G1 X144.539 Y92.578 E0.2445
G1 X143.479 Y92.316 E0.2717
G1 X142.387 Y92.316 E0.2988
