; G-Code generated by Simplify3D(R) Version 4.1.2
; Dec 12, 2020 at 1:32:55 AM
; Settings Summary
;   processName,Process1
;   applyToModels,SupportBobine8mm(2)
;   profileName,A10-04-15s Tevo Tornado
;   profileVersion,2020-12-06 16:24:03
;   baseProfile,Creality CR-10(2)
;   printMaterial,PLA
;   printQuality,Medium
;   printExtruders,
;   extruderName,Primary Extruder
;   extruderToolheadNumber,0
;   extruderDiameter,0.4
;   extruderAutoWidth,0
;   extruderWidth,0.35
;   extrusionMultiplier,0.95
;   extruderUseRetract,1
;   extruderRetractionDistance,4
;   extruderExtraRestartDistance,0
;   extruderRetractionZLift,0.1
;   extruderRetractionSpeed,6000
;   extruderUseCoasting,1
;   extruderCoastingDistance,0.4
;   extruderUseWipe,1
;   extruderWipeDistance,5
;   primaryExtruder,0
;   layerHeight,0.15
;   topSolidLayers,5
;   bottomSolidLayers,4
;   perimeterOutlines,3
;   printPerimetersInsideOut,0
;   startPointOption,1
;   startPointOriginX,0
;   startPointOriginY,300
;   sequentialIslands,0
;   spiralVaseMode,0
;   firstLayerHeightPercentage,120
;   firstLayerWidthPercentage,100
;   firstLayerUnderspeed,0.4
;   useRaft,0
;   raftExtruder,0
;   raftTopLayers,3
;   raftBaseLayers,2
;   raftOffset,3
;   raftSeparationDistance,0.14
;   raftTopInfill,100
;   aboveRaftSpeedMultiplier,0.3
;   useSkirt,1
;   skirtExtruder,0
;   skirtLayers,1
;   skirtOutlines,2
;   skirtOffset,3
;   usePrimePillar,0
;   primePillarExtruder,999
;   primePillarWidth,12
;   primePillarLocation,7
;   primePillarSpeedMultiplier,1
;   useOozeShield,0
;   oozeShieldExtruder,999
;   oozeShieldOffset,2
;   oozeShieldOutlines,1
;   oozeShieldSidewallShape,1
;   oozeShieldSidewallAngle,30
;   oozeShieldSpeedMultiplier,1
;   infillExtruder,0
;   internalInfillPattern,Rectilinear
;   externalInfillPattern,Rectilinear
;   infillPercentage,15
;   outlineOverlapPercentage,15
;   infillExtrusionWidthPercentage,100
;   minInfillLength,5
;   infillLayerInterval,1
;   internalInfillAngles,45,-45
;   overlapInternalInfillAngles,0
;   externalInfillAngles,45,-45
;   generateSupport,1
;   supportExtruder,0
;   supportInfillPercentage,30
;   supportExtraInflation,0
;   supportBaseLayers,0
;   denseSupportExtruder,0
;   denseSupportLayers,0
;   denseSupportInfillPercentage,70
;   supportLayerInterval,1
;   supportHorizontalPartOffset,0.4
;   supportUpperSeparationLayers,1
;   supportLowerSeparationLayers,1
;   supportType,0
;   supportGridSpacing,4.5
;   maxOverhangAngle,45
;   supportAngles,0
;   temperatureName,Primary Extruder,Heated Bed
;   temperatureNumber,0,0
;   temperatureSetpointCount,2,2
;   temperatureSetpointLayers,1,2,1,2
;   temperatureSetpointTemperatures,215,210,55,50
;   temperatureStabilizeAtStartup,1,1
;   temperatureHeatedBed,0,1
;   fanLayers,1,2
;   fanSpeeds,0,100
;   blipFanToFullPower,0
;   adjustSpeedForCooling,1
;   minSpeedLayerTime,15
;   minCoolingSpeedSlowdown,20
;   increaseFanForCooling,1
;   minFanLayerTime,25
;   maxCoolingFanSpeed,100
;   increaseFanForBridging,1
;   bridgingFanSpeed,100
;   use5D,1
;   relativeEdistances,0
;   allowEaxisZeroing,1
;   independentExtruderAxes,0
;   includeM10123,0
;   stickySupport,1
;   applyToolheadOffsets,0
;   gcodeXoffset,0
;   gcodeYoffset,0
;   gcodeZoffset,0
;   overrideMachineDefinition,1
;   machineTypeOverride,0
;   strokeXoverride,300
;   strokeYoverride,300
;   strokeZoverride,400
;   originOffsetXoverride,0
;   originOffsetYoverride,0
;   originOffsetZoverride,0
;   homeXdirOverride,-1
;   homeYdirOverride,-1
;   homeZdirOverride,-1
;   flipXoverride,1
;   flipYoverride,-1
;   flipZoverride,1
;   toolheadOffsets,0,0|0,0|0,0|0,0|0,0|0,0
;   overrideFirmwareConfiguration,1
;   firmwareTypeOverride,RepRap (Marlin/Repetier/Sprinter)
;   GPXconfigOverride,r2
;   baudRateOverride,250000
;   overridePrinterModels,1
;   printerModelsOverride
;   startingGcode,;,; -]H.P.B[- MarshMalloW  ,; $VER: StartScript 1.02 (26.12.2019) MarshMalloW,;,; Begin Startcode,;,M117 *Preheat*     	; Preheat,;extruder0_temperature,M104 S[extruder0_temperature]  ,M109 S[extruder0_temperature] ,M109 R[extruder0_temperature] ,;,M117 *Auto-leveling*     	; Auto-leveling,M107                   	; Turn layer fan off,G21                    	; Set to metric [change to G20 if you want Imperial],G90                    	; Force coordinates to be absolute relative to the origin,G28                    	; Home X/Y/Z axis,G29                    	; Auto-leveling (BL-Touch),;,M117 *Start Clean*     	; Indicate nozzle clean in progress on LCD,G92 E0                 	; Set Extruder to 0 ,G1 X0 Y0 F2000         	; Move X and Y to 0 with speed 2000 (mm/min),G1 Z0.1 F1000          	; Move Z to   0.1 with speed 1000 (mm/min),G1 X8.0 F2000          	; Move X to   8.0 with speed 2000 (mm/min),G1 Y60.0 E4.0 F1000.0  	; Move Y to  60 and Extruder with 4.0 with speed 1000 (mm/min),G1 Y100.0 E8.5 F1000.0 	; Move Y to 100 and Extruder with 8.5 with speed 1000 (mm/min),G92 E0                 	; Set extruder to 0,G1 X16.0 F3000         	; Move X to 16.0 with speed 3000 (mm/min),G1 Y60.0 F3000         	; Move Y to 60.0 with speed 3000 (mm/min),M117 *End Clean*       	; Indicate nozzle clean in progress on LCD,G1 Z5 F3000            	; Move Z to  5.0 with speed 3000 (mm/min),G1 X20.0 F3000         	; Move X to 20.0 with speed 3000 (mm/min),G1 Y20.0 F3000         	; Move Y to 20.0 with speed 3000 (mm/min),; ,M117 *Printing...*     	; Start printing msg on LCD,;,; End Startcode,;,; Begin printing with sliced GCode after here,;
;   layerChangeGcode,
;   retractionGcode,
;   toolChangeGcode,
;   endingGcode,;,; init 181010,;,;M107 			; Fan off,;G1 E-1 F300 			; Retract the filament a bit before lifting the nozzle,;M104 S0 			; Turn off extruder,;M140 S0 			; Turn off bed,;G91			; Relative positioning,;G28 X0 Y0 			; Move X/Y to min endstops so the head is out of teh way,;M84 			; Disable motors,;G90 			; Absolute positioning,;M117 Print ready...,,;,; // From Cura 181010,; // End_gcode,G92 E0			; Zero the extruded length,;G1 E-30 F300		; Retract E -30,M106 S0			; Turn off cooling fan,M104 S0			; Turn off temperature,M140 S0		     	; Turn off bed,G91			; Relative positioning,G1 E-1 F300			; Retract the filament a bit before lifting the nozzle to release some of the pressure,G1 Z+20 E-5 X-20 Y-20 F7200	; Move Z up a bit and retract filament even more,G1 X0 Y150 F10000		; Move right min,M107			; Turn off layer fan,M84			; Disable motors,G90			; Absolute positioning,M117 *The-End* 		; End msg,;,
;   exportFileFormat,gcode
;   celebration,0
;   celebrationSong,Star Wars
;   postProcessing,|{REPLACE "; layer " "M117 INDICATOR-Layer"}|{REPLACE ", Z = " "\n; Z="}
;   defaultSpeed,2400
;   outlineUnderspeed,0.6
;   solidInfillUnderspeed,0.8
;   supportUnderspeed,0.8
;   rapidXYspeed,3600
;   rapidZspeed,900
;   minBridgingArea,50
;   bridgingExtraInflation,0.2
;   bridgingExtrusionMultiplier,1
;   bridgingSpeedMultiplier,0.6
;   useFixedBridgingAngle,0
;   fixedBridgingAngle,0
;   applyBridgingToPerimeters,0
;   filamentDiameters,1.75|1.75|1.75|1.75|1.75|1.75
;   filamentPricesPerKg,30|46|46|46|46|46
;   filamentDensities,1.25|1.25|1.25|1.25|1.25|1.25
;   useMinPrintHeight,0
;   minPrintHeight,0
;   useMaxPrintHeight,0
;   maxPrintHeight,50
;   useDiaphragm,0
;   diaphragmLayerInterval,20
;   robustSlicing,1
;   mergeAllIntoSolid,0
;   onlyRetractWhenCrossingOutline,1
;   retractBetweenLayers,1
;   useRetractionMinTravel,0
;   retractionMinTravel,3
;   retractWhileWiping,1
;   onlyWipeOutlines,1
;   avoidCrossingOutline,1
;   maxMovementDetourFactor,3
;   toolChangeRetractionDistance,12
;   toolChangeExtraRestartDistance,-0.5
;   toolChangeRetractionSpeed,600
;   externalThinWallType,1
;   internalThinWallType,1
;   thinWallAllowedOverlapPercentage,20
;   singleExtrusionMinLength,1
;   singleExtrusionMinPrintingWidthPercentage,50
;   singleExtrusionMaxPrintingWidthPercentage,200
;   singleExtrusionEndpointExtension,0.2
;   horizontalSizeCompensation,0
G90
M82
M106 S0
M140 S55
M190 S55
;
; -]H.P.B[- MarshMalloW  
; $VER: StartScript 1.02 (26.12.2019) MarshMalloW
;
; Begin Startcode
;
M117 *Preheat*     	; Preheat
;extruder0_temperature
M104 S215  
M109 S215 
M109 R215 
;
M117 *Auto-leveling*     	; Auto-leveling
M107                   	; Turn layer fan off
G21                    	; Set to metric [change to G20 if you want Imperial]
G90                    	; Force coordinates to be absolute relative to the origin
G28                    	; Home X/Y/Z axis
G29                    	; Auto-leveling (BL-Touch)
;
M117 *Start Clean*     	; Indicate nozzle clean in progress on LCD
G92 E0                 	; Set Extruder to 0 
G1 X0 Y0 F2000         	; Move X and Y to 0 with speed 2000 (mm/min)
G1 Z0.1 F1000          	; Move Z to   0.1 with speed 1000 (mm/min)
G1 X8.0 F2000          	; Move X to   8.0 with speed 2000 (mm/min)
G1 Y60.0 E4.0 F1000.0  	; Move Y to  60 and Extruder with 4.0 with speed 1000 (mm/min)
G1 Y100.0 E8.5 F1000.0 	; Move Y to 100 and Extruder with 8.5 with speed 1000 (mm/min)
G92 E0                 	; Set extruder to 0
G1 X16.0 F3000         	; Move X to 16.0 with speed 3000 (mm/min)
G1 Y60.0 F3000         	; Move Y to 60.0 with speed 3000 (mm/min)
M117 *End Clean*       	; Indicate nozzle clean in progress on LCD
G1 Z5 F3000            	; Move Z to  5.0 with speed 3000 (mm/min)
G1 X20.0 F3000         	; Move X to 20.0 with speed 3000 (mm/min)
G1 Y20.0 F3000         	; Move Y to 20.0 with speed 3000 (mm/min)
; 
M117 *Printing...*     	; Start printing msg on LCD
;
; End Startcode
;
; Begin printing with sliced GCode after here
;
; process Process1
M117 INDICATOR-Layer1
; Z=0.180
T0
G92 E0.0000
G1 E-4.0000 F6000
; feature skirt
; tool H0.180 W0.350
G1 Z0.180 F900
G1 X159.398 Y83.298 F3600
G1 E0.0000 F6000
G92 E0.0000
G1 X159.398 Y104.658 E0.5315 F960
G1 X157.333 Y106.723 E0.6042
G1 X135.973 Y106.723 E1.1357
G1 X133.908 Y104.658 E1.2083
G1 X133.908 Y83.298 E1.7398
G1 X135.973 Y81.233 E1.8125
G1 X157.333 Y81.233 E2.3440
G1 X159.398 Y83.298 E2.4167
G92 E0.0000
G1 E-4.0000 F6000
G1 Z0.280 F900
G1 X142.076 Y97.915 F3600
G1 X142.016 Y97.851
G1 X134.258 Y104.513
G1 Z0.180 F900
G1 E0.0000 F6000
G92 E0.0000
G1 X134.258 Y83.443 E0.5243 F960
G1 X136.118 Y81.583 E0.5897
G1 X157.188 Y81.583 E1.1140
G1 X159.048 Y83.443 E1.1795
G1 X159.048 Y104.513 E1.7038
G1 X157.188 Y106.373 E1.7692
G1 X136.118 Y106.373 E2.2935
G1 X134.258 Y104.513 E2.3589
G92 E0.0000
G1 E-4.0000 F6000
; feature outer perimeter
G1 Z0.280 F900
G1 X142.016 Y97.851 F3600
G1 X142.424 Y98.291
G1 X142.875 Y98.688
G1 X142.974 Y98.760
G1 X152.470 Y92.491
G1 Z0.180 F900
G1 E0.0000 F6000
G92 E0.0000
G1 X152.589 Y93.080 E0.0149 F576
G1 X152.648 Y93.678 E0.0299
G1 X152.648 Y94.278 E0.0448
G1 X152.589 Y94.876 E0.0598
G1 X152.470 Y95.465 E0.0747
G1 X152.292 Y96.041 E0.0897
G1 X152.184 Y96.316 E0.0971
G1 X151.922 Y96.859 E0.1121
G1 X151.609 Y97.372 E0.1270
G1 X151.246 Y97.851 E0.1420
G1 X150.838 Y98.291 E0.1569
G1 X150.388 Y98.688 E0.1719
G1 X149.900 Y99.039 E0.1868
G1 X149.380 Y99.339 E0.2018
G1 X148.832 Y99.586 E0.2167
G1 X148.263 Y99.778 E0.2317
G1 X147.677 Y99.911 E0.2466
G1 X147.081 Y99.986 E0.2615
G1 X146.481 Y100.001 E0.2765
G1 X145.882 Y99.956 E0.2914
G1 X145.288 Y99.851 E0.3064
G1 X145.002 Y99.778 E0.3138
G1 X144.430 Y99.586 E0.3288
G1 X143.883 Y99.339 E0.3437
G1 X143.362 Y99.039 E0.3587
G1 X142.875 Y98.688 E0.3736
G1 X142.424 Y98.291 E0.3886
G1 X142.016 Y97.851 E0.4035
G1 X141.653 Y97.372 E0.4185
G1 X141.340 Y96.859 E0.4334
G1 X141.079 Y96.318 E0.4484
G1 X140.874 Y95.754 E0.4633
G1 X140.726 Y95.172 E0.4782
G1 X140.636 Y94.578 E0.4932
G1 X140.606 Y93.978 E0.5081
G1 X140.636 Y93.378 E0.5231
G1 X140.726 Y92.784 E0.5380
G1 X140.874 Y92.202 E0.5530
G1 X141.079 Y91.638 E0.5679
G1 X141.340 Y91.097 E0.5829
G1 X141.653 Y90.584 E0.5978
G1 X142.016 Y90.105 E0.6128
G1 X142.424 Y89.665 E0.6277
G1 X142.875 Y89.268 E0.6426
G1 X143.362 Y88.917 E0.6576
G1 X143.883 Y88.617 E0.6725
G1 X144.430 Y88.370 E0.6875
G1 X144.999 Y88.178 E0.7024
G1 X145.585 Y88.045 E0.7174
G1 X146.181 Y87.970 E0.7323
G1 X146.781 Y87.955 E0.7473
G1 X147.380 Y88.000 E0.7622
G1 X147.972 Y88.104 E0.7771
G1 X148.550 Y88.267 E0.7921
G1 X149.109 Y88.486 E0.8070
G1 X149.644 Y88.760 E0.8220
G1 X150.148 Y89.086 E0.8369
G1 X150.618 Y89.461 E0.8519
G1 X151.048 Y89.880 E0.8668
G1 X151.434 Y90.340 E0.8818
G1 X151.772 Y90.836 E0.8967
G1 X152.059 Y91.364 E0.9117
G1 X152.293 Y91.917 E0.9266
G1 X152.352 Y92.109 E0.9316
G1 X152.470 Y92.491 F576
G1 X152.589 Y93.080 F576
G1 X152.648 Y93.678
G1 X152.648 Y94.278
G1 X152.589 Y94.876
G1 X152.470 Y95.465
G1 X152.292 Y96.041
G1 X152.184 Y96.316
G1 X151.922 Y96.859
G1 X151.664 Y97.282
; feature inner perimeter
G1 X151.320 Y97.174 F3600
G92 E0.0000
G1 X150.978 Y97.625 E0.0141 F768
G1 X150.593 Y98.040 E0.0282
G1 X150.169 Y98.414 E0.0422
G1 X149.710 Y98.745 E0.0563
G1 X149.220 Y99.027 E0.0704
G1 X148.704 Y99.260 E0.0845
G1 X148.168 Y99.440 E0.0985
G1 X147.616 Y99.566 E0.1126
G1 X147.055 Y99.636 E0.1267
G1 X146.490 Y99.651 E0.1408
G1 X145.925 Y99.608 E0.1548
G1 X145.362 Y99.509 E0.1691
G1 X145.101 Y99.442 E0.1758
G1 X144.558 Y99.260 E0.1900
G1 X144.042 Y99.027 E0.2041
G1 X143.553 Y98.745 E0.2182
G1 X143.093 Y98.414 E0.2323
G1 X142.669 Y98.040 E0.2463
G1 X142.284 Y97.625 E0.2604
G1 X141.943 Y97.174 E0.2745
G1 X141.648 Y96.692 E0.2886
G1 X141.402 Y96.182 E0.3026
G1 X141.209 Y95.651 E0.3167
G1 X141.069 Y95.102 E0.3308
G1 X140.985 Y94.543 E0.3449
G1 X140.957 Y93.978 E0.3589
G1 X140.985 Y93.413 E0.3730
G1 X141.069 Y92.854 E0.3871
G1 X141.209 Y92.305 E0.4012
G1 X141.402 Y91.774 E0.4152
G1 X141.648 Y91.264 E0.4293
G1 X141.943 Y90.781 E0.4434
G1 X142.284 Y90.331 E0.4575
G1 X142.669 Y89.916 E0.4715
G1 X143.093 Y89.542 E0.4856
G1 X143.553 Y89.211 E0.4997
G1 X144.042 Y88.928 E0.5138
G1 X144.558 Y88.696 E0.5278
G1 X145.094 Y88.516 E0.5419
G1 X145.646 Y88.390 E0.5560
G1 X146.207 Y88.319 E0.5701
G1 X146.773 Y88.305 E0.5841
G1 X147.337 Y88.348 E0.5982
G1 X147.894 Y88.446 E0.6123
G1 X148.438 Y88.599 E0.6264
G1 X148.965 Y88.806 E0.6405
G1 X149.468 Y89.064 E0.6545
G1 X149.944 Y89.371 E0.6686
G1 X150.386 Y89.723 E0.6827
G1 X150.791 Y90.118 E0.6968
G1 X151.154 Y90.552 E0.7108
G1 X151.473 Y91.019 E0.7249
G1 X151.744 Y91.516 E0.7390
G1 X151.963 Y92.037 E0.7531
G1 X152.130 Y92.578 E0.7671
G1 X152.242 Y93.132 E0.7812
G1 X152.298 Y93.695 E0.7953
G1 X152.298 Y94.261 E0.8094
G1 X152.242 Y94.824 E0.8234
G1 X152.130 Y95.378 E0.8375
G1 X151.961 Y95.925 E0.8518
G1 X151.863 Y96.176 E0.8585
G1 X151.614 Y96.692 E0.8727
G1 X151.528 Y96.833 E0.8768
G1 X151.320 Y97.174 F768
G1 X151.030 Y96.977 F3600
G92 E0.0000
G1 X150.709 Y97.400 E0.0132 F768
G1 X150.349 Y97.789 E0.0264
G1 X149.951 Y98.140 E0.0396
G1 X149.520 Y98.450 E0.0528
G1 X149.060 Y98.716 E0.0660
G1 X148.576 Y98.934 E0.0792
G1 X148.073 Y99.103 E0.0924
G1 X147.556 Y99.221 E0.1057
G1 X147.029 Y99.287 E0.1189
G1 X146.498 Y99.300 E0.1321
G1 X145.969 Y99.261 E0.1453
G1 X145.436 Y99.166 E0.1587
G1 X145.200 Y99.106 E0.1648
G1 X144.686 Y98.934 E0.1783
G1 X144.202 Y98.716 E0.1915
G1 X143.743 Y98.450 E0.2047
G1 X143.312 Y98.140 E0.2179
G1 X142.914 Y97.789 E0.2311
G1 X142.553 Y97.400 E0.2443
G1 X142.232 Y96.977 E0.2575
G1 X141.956 Y96.524 E0.2707
G1 X141.725 Y96.046 E0.2839
G1 X141.544 Y95.547 E0.2971
G1 X141.413 Y95.033 E0.3104
G1 X141.334 Y94.508 E0.3236
G1 X141.307 Y93.978 E0.3368
G1 X141.334 Y93.448 E0.3500
G1 X141.413 Y92.923 E0.3632
G1 X141.544 Y92.409 E0.3764
G1 X141.725 Y91.910 E0.3896
G1 X141.956 Y91.432 E0.4028
G1 X142.232 Y90.979 E0.4160
G1 X142.553 Y90.556 E0.4292
G1 X142.914 Y90.167 E0.4424
G1 X143.312 Y89.816 E0.4556
G1 X143.743 Y89.506 E0.4688
G1 X144.202 Y89.240 E0.4820
G1 X144.686 Y89.022 E0.4952
G1 X145.189 Y88.853 E0.5085
G1 X145.707 Y88.735 E0.5217
G1 X146.233 Y88.669 E0.5349
G1 X146.764 Y88.656 E0.5481
G1 X147.293 Y88.695 E0.5613
G1 X147.816 Y88.787 E0.5745
G1 X148.327 Y88.931 E0.5877
G1 X148.821 Y89.125 E0.6009
G1 X149.293 Y89.367 E0.6141
G1 X149.739 Y89.655 E0.6273
G1 X150.154 Y89.986 E0.6405
G1 X150.534 Y90.357 E0.6537
G1 X150.875 Y90.763 E0.6669
