; G-Code generated by Simplify3D(R) Version 4.0.1
; Dec 14, 2018 at 3:09:31 PM
; Settings Summary
;   processName,Tevo Tornado 01
;   applyToModels,Capac_Extruder_SENZOR_Filament_Tevo_Tornado_v5_with_cable_management
;   profileName,007 Tevo Tornado (experimental) 06-03
;   profileVersion,2018-12-12 22:23:31
;   baseProfile,Creality CR-10(2)
;   printMaterial,PLA
;   printQuality,Medium
;   printExtruders,
;   extruderName,Primary Extruder
;   extruderToolheadNumber,0
;   extruderDiameter,0.4
;   extruderAutoWidth,0
;   extruderWidth,0.4
;   extrusionMultiplier,1
;   extruderUseRetract,1
;   extruderRetractionDistance,6.5
;   extruderExtraRestartDistance,0
;   extruderRetractionZLift,0
;   extruderRetractionSpeed,1800
;   extruderUseCoasting,0
;   extruderCoastingDistance,0.2
;   extruderUseWipe,0
;   extruderWipeDistance,4
;   primaryExtruder,0
;   layerHeight,0.2
;   topSolidLayers,5
;   bottomSolidLayers,4
;   perimeterOutlines,3
;   printPerimetersInsideOut,1
;   startPointOption,2
;   startPointOriginX,0
;   startPointOriginY,500
;   sequentialIslands,0
;   spiralVaseMode,0
;   firstLayerHeightPercentage,90
;   firstLayerWidthPercentage,110
;   firstLayerUnderspeed,0.25
;   useRaft,0
;   raftExtruder,0
;   raftTopLayers,3
;   raftBaseLayers,2
;   raftOffset,3
;   raftSeparationDistance,0.14
;   raftTopInfill,100
;   aboveRaftSpeedMultiplier,0.3
;   useSkirt,1
;   skirtExtruder,0
;   skirtLayers,1
;   skirtOutlines,3
;   skirtOffset,0
;   usePrimePillar,0
;   primePillarExtruder,999
;   primePillarWidth,12
;   primePillarLocation,7
;   primePillarSpeedMultiplier,1
;   useOozeShield,0
;   oozeShieldExtruder,999
;   oozeShieldOffset,2
;   oozeShieldOutlines,1
;   oozeShieldSidewallShape,1
;   oozeShieldSidewallAngle,30
;   oozeShieldSpeedMultiplier,1
;   infillExtruder,0
;   internalInfillPattern,Rectilinear
;   externalInfillPattern,Rectilinear
;   infillPercentage,50
;   outlineOverlapPercentage,30
;   infillExtrusionWidthPercentage,125
;   minInfillLength,5
;   infillLayerInterval,1
;   internalInfillAngles,45,-45
;   overlapInternalInfillAngles,0
;   externalInfillAngles,45,-45
;   generateSupport,0
;   supportExtruder,0
;   supportInfillPercentage,30
;   supportExtraInflation,0
;   supportBaseLayers,0
;   denseSupportExtruder,0
;   denseSupportLayers,0
;   denseSupportInfillPercentage,70
;   supportLayerInterval,1
;   supportHorizontalPartOffset,0.4
;   supportUpperSeparationLayers,1
;   supportLowerSeparationLayers,1
;   supportType,0
;   supportGridSpacing,4.5
;   maxOverhangAngle,45
;   supportAngles,0
;   temperatureName,Primary Extruder,Heated Bed
;   temperatureNumber,0,0
;   temperatureSetpointCount,3,2
;   temperatureSetpointLayers,1,2,3,1,2
;   temperatureSetpointTemperatures,210,200,190,65,60
;   temperatureStabilizeAtStartup,1,1
;   temperatureHeatedBed,0,1
;   temperatureRelayBetweenLayers,0,0
;   temperatureRelayBetweenLoops,0,0
;   fanLayers,1,2
;   fanSpeeds,0,100
;   blipFanToFullPower,1
;   adjustSpeedForCooling,1
;   minSpeedLayerTime,15
;   minCoolingSpeedSlowdown,50
;   increaseFanForCooling,0
;   minFanLayerTime,45
;   maxCoolingFanSpeed,100
;   increaseFanForBridging,1
;   bridgingFanSpeed,100
;   use5D,1
;   relativeEdistances,0
;   allowEaxisZeroing,1
;   independentExtruderAxes,0
;   includeM10123,0
;   stickySupport,1
;   applyToolheadOffsets,0
;   gcodeXoffset,0
;   gcodeYoffset,0
;   gcodeZoffset,0
;   overrideMachineDefinition,1
;   machineTypeOverride,0
;   strokeXoverride,300
;   strokeYoverride,300
;   strokeZoverride,400
;   originOffsetXoverride,0
;   originOffsetYoverride,0
;   originOffsetZoverride,0
;   homeXdirOverride,-1
;   homeYdirOverride,-1
;   homeZdirOverride,-1
;   flipXoverride,1
;   flipYoverride,-1
;   flipZoverride,1
;   toolheadOffsets,0,0|0,0|0,0|0,0|0,0|0,0
;   overrideFirmwareConfiguration,0
;   firmwareTypeOverride,RepRap (Marlin/Repetier/Sprinter)
;   GPXconfigOverride,r2
;   baudRateOverride,250000
;   overridePrinterModels,1
;   printerModelsOverride
;   startingGcode,;Init 181010,;G28 ; home all axes,;G1 Z5 F3000 ; lift,;G92 E0 ; reset extrusion distance,,;From Cura 181010,; start_gcode,M117 Start Clean	; Indicate nozzle clean in progress on LCD,;,M104 S[extruder0_temperature] ,M109 S[extruder0_temperature] ,M109 R[extruder0_temperature] ,;,M107		; Turn layer fan off,G21		; Set to metric [change to G20 if you want Imperial],G90	 	; Force coordinates to be absolute relative to the origin,G28		; Home X/Y/Z axis,;,G1 X3 Y1 Z15 F9000	; Move safe Z height to shear strings,G0 X1 Y1 Z0.2 F9000	; Move in 1mm from edge and up [z] 0.2mm,G92 E0		; Set extruder to [0] zero,G1 X100 E12 F500	; Extrude 30mm filiment along X axis 100mm long to prime and clean the nozzle,G92 E0		; Reset extruder to [0] zero end of cleaning run,G1 E-1 F500		; Retract filiment by 1 mm to reduce string effect,G1 X180 F4000		; quick wipe away from the filament line / purge,M117 End Clean		; Indicate nozzle clean in progress on LCD,;,M117 PRINTING...	; Start msg,; Begin printing with sliced GCode after here,;
;   layerChangeGcode,
;   retractionGcode,
;   toolChangeGcode,
;   endingGcode,;,; init 181010,;,;M107 ; Fan off,;G1 E-1 F300 ; Retract the filament a bit before lifting the nozzle,;M104 S0 ; turn off extruder,;M140 S0 ; turn off bed,;G91 ; Relative positioning,;G28 X0 Y0 ; Move X/Y to min endstops so the head is out of teh way,;M84 ; disable motors,;G90 ; Absolute positioning,;M117 Print ready...,,;,;From Cura 181010,;,; end_gcode,G92 E0		; zero the extruded length,G1 E-5 F9000		; retract,M104 S0		; turn off temperature,M140 S0		; turn off bed,G91		; relative positioning,G1 E-1 F300		; retract the filament a bit before lifting the nozzle to release some of the pressure,G1 Z+20 E-5 X-20 Y-20 F7200	; move Z up a bit and retract filament even more,G1 X320 Y150 F10000	; move right mid,M107		; turn off layer fan,M84		; disable motors,G90		; absolute positioning,M117 IMPRESSION TERMINEE	; end msg,;,;EOF
;   exportFileFormat,gcode
;   celebration,0
;   celebrationSong,Star Wars
;   postProcessing,
;   defaultSpeed,4200
;   outlineUnderspeed,0.5
;   solidInfillUnderspeed,0.8
;   supportUnderspeed,0.8
;   rapidXYspeed,6000
;   rapidZspeed,1002
;   minBridgingArea,50
;   bridgingExtraInflation,0
;   bridgingExtrusionMultiplier,0.85
;   bridgingSpeedMultiplier,1.05
;   useFixedBridgingAngle,0
;   fixedBridgingAngle,0
;   applyBridgingToPerimeters,0
;   filamentDiameters,1.75|1.75|1.75|1.75|1.75|1.75
;   filamentPricesPerKg,30|46|46|46|46|46
;   filamentDensities,1.25|1.25|1.25|1.25|1.25|1.25
;   useMinPrintHeight,0
;   minPrintHeight,0
;   useMaxPrintHeight,0
;   maxPrintHeight,9
;   useDiaphragm,0
;   diaphragmLayerInterval,20
;   robustSlicing,1
;   mergeAllIntoSolid,0
;   onlyRetractWhenCrossingOutline,1
;   retractBetweenLayers,1
;   useRetractionMinTravel,1
;   retractionMinTravel,3
;   retractWhileWiping,1
;   onlyWipeOutlines,1
;   avoidCrossingOutline,1
;   maxMovementDetourFactor,3
;   toolChangeRetractionDistance,12
;   toolChangeExtraRestartDistance,-0.5
;   toolChangeRetractionSpeed,600
;   externalThinWallType,0
;   internalThinWallType,2
;   thinWallAllowedOverlapPercentage,15
;   singleExtrusionMinLength,1
;   singleExtrusionMinPrintingWidthPercentage,50
;   singleExtrusionMaxPrintingWidthPercentage,200
;   singleExtrusionEndpointExtension,0.2
;   horizontalSizeCompensation,0
G90
M82
M106 S255
G4 P500
M106 S0
M140 S65
M190 S65
;Init 181010
;G28 ; home all axes
;G1 Z5 F3000 ; lift
;G92 E0 ; reset extrusion distance
;From Cura 181010
; start_gcode
M117 Start Clean	; Indicate nozzle clean in progress on LCD
;
M104 S210 
M109 S210 
M109 R210 
;
M107		; Turn layer fan off
G21		; Set to metric [change to G20 if you want Imperial]
G90	 	; Force coordinates to be absolute relative to the origin
G28		; Home X/Y/Z axis
;
G1 X3 Y1 Z15 F9000	; Move safe Z height to shear strings
G0 X1 Y1 Z0.2 F9000	; Move in 1mm from edge and up [z] 0.2mm
G92 E0		; Set extruder to [0] zero
G1 X100 E12 F500	; Extrude 30mm filiment along X axis 100mm long to prime and clean the nozzle
G92 E0		; Reset extruder to [0] zero end of cleaning run
G1 E-1 F500		; Retract filiment by 1 mm to reduce string effect
G1 X180 F4000		; quick wipe away from the filament line / purge
M117 End Clean		; Indicate nozzle clean in progress on LCD
;
M117 PRINTING...	; Start msg
; Begin printing with sliced GCode after here
;
G92 E0
G1 E-6.5000 F1800
G1 Z0.180 F1002
; process Tevo Tornado 01
; layer 1, Z = 0.180
T0
; tool H0.200 W0.440
; skirt
G1 X56.093 Y60.667 F6000
G1 E0.0000 F540
G92 E0
G1 X57.557 Y59.543 E0.0675 F1050
G1 X57.671 Y59.478 E0.0723
G1 X59.377 Y58.771 E0.1399
G1 X59.503 Y58.737 E0.1447
G1 X61.301 Y58.501 E0.2110
G1 X61.367 Y58.496 E0.2134
G1 X75.334 Y58.496 E0.7244
G1 X76.802 Y58.303 E0.7786
G1 X78.110 Y57.761 E0.8304
G1 X79.261 Y56.878 E0.8835
G1 X80.283 Y55.722 E0.9399
G1 X80.353 Y55.657 E0.9435
G1 X81.804 Y54.543 E1.0104
G1 X81.918 Y54.478 E1.0152
G1 X83.624 Y53.771 E1.0827
G1 X83.750 Y53.737 E1.0875
G1 X85.548 Y53.501 E1.1539
G1 X85.614 Y53.496 E1.1563
G1 X90.432 Y53.496 E1.3326
G1 X90.497 Y53.501 E1.3349
G1 X92.295 Y53.737 E1.4013
G1 X92.422 Y53.771 E1.4061
G1 X94.128 Y54.478 E1.4736
G1 X94.241 Y54.543 E1.4784
G1 X95.706 Y55.667 E1.5460
G1 X95.799 Y55.760 E1.5508
G1 X96.923 Y57.225 E1.6183
G1 X96.988 Y57.338 E1.6231
G1 X97.687 Y59.025 E1.6899
G1 X97.713 Y59.110 E1.6932
G1 X97.945 Y60.172 E1.7329
G1 X98.403 Y61.277 E1.7767
G1 X99.105 Y62.193 E1.8189
G1 X100.021 Y62.895 E1.8612
G1 X101.087 Y63.337 E1.9034
G1 X102.297 Y63.496 E1.9480
G1 X107.347 Y63.496 E2.1328
G1 X108.276 Y63.399 E2.1670
G1 X108.330 Y63.396 E2.1689
G1 X111.526 Y63.404 E2.2859
G1 X111.726 Y63.393 E2.2932
G1 X111.737 Y63.193 E2.3005
G1 X111.729 Y59.997 E2.4174
G1 X111.731 Y59.943 E2.4194
G1 X111.825 Y59.053 E2.4522
G1 X111.757 Y58.164 E2.4848
G1 X111.755 Y58.126 E2.4862
G1 X111.751 Y54.465 E2.6201
G1 X111.835 Y54.183 E2.6309
G1 X112.108 Y53.771 E2.6489
G1 X112.353 Y53.575 E2.6604
G1 X112.718 Y53.436 E2.6747
G1 X112.897 Y53.403 E2.6814
G1 X115.901 Y53.403 E2.7913
G1 X116.081 Y53.436 E2.7980
G1 X116.398 Y53.557 E2.8104
G1 X116.576 Y53.672 E2.8181
G1 X116.794 Y53.890 E2.8294
G1 X116.909 Y54.068 E2.8372
G1 X117.029 Y54.385 E2.8496
G1 X117.062 Y54.564 E2.8562
G1 X117.065 Y57.258 E2.9548
G1 X117.065 Y57.267 E2.9551
G1 X116.966 Y62.803 E3.1577
G1 X117.070 Y63.402 E3.1800
G1 X117.831 Y63.502 E3.2080
G1 X117.835 Y63.514 E3.2085
G1 X136.057 Y63.514 E3.8752
G1 X136.735 Y63.396 E3.9004
G1 X136.830 Y62.671 E3.9271
G1 X136.733 Y57.637 E4.1113
G1 X136.733 Y57.625 E4.1118
G1 X136.747 Y55.239 E4.1990
G1 X136.751 Y55.179 E4.2013
G1 X136.780 Y54.950 E4.2097
G1 X136.809 Y54.836 E4.2140
G1 X136.962 Y54.435 E4.2297
G1 X137.147 Y54.197 E4.2408
G1 X137.578 Y53.897 E4.2600
G1 X137.671 Y53.846 E4.2638
G1 X138.032 Y53.695 E4.2782
G1 X138.156 Y53.661 E4.2829
G1 X139.295 Y53.501 E4.3249
G1 X139.365 Y53.496 E4.3275
G1 X141.843 Y53.498 E4.4182
G1 X142.012 Y53.528 E4.4244
G1 X142.304 Y53.632 E4.4358
G1 X142.491 Y53.751 E4.4439
G1 X142.715 Y53.974 E4.4554
G1 X142.834 Y54.162 E4.4636
G1 X142.938 Y54.455 E4.4750
G1 X142.968 Y54.624 E4.4812
G1 X142.970 Y66.200 E4.9048
G1 X142.965 Y66.266 E4.9072
G1 X142.729 Y68.064 E4.9735
G1 X142.695 Y68.190 E4.9783
G1 X141.988 Y69.896 E5.0459
G1 X141.923 Y70.010 E5.0507
G1 X140.799 Y71.474 E5.1182
G1 X140.706 Y71.567 E5.1230
G1 X139.249 Y72.685 E5.1902
G1 X139.154 Y72.742 E5.1943
G1 X137.696 Y73.415 E5.2530
G1 X135.864 Y74.578 E5.3324
G1 X134.417 Y76.118 E5.4097
G1 X133.377 Y77.993 E5.4882
G1 X132.966 Y78.835 E5.5225
G1 X132.913 Y78.921 E5.5261
G1 X131.799 Y80.373 E5.5931
G1 X131.706 Y80.466 E5.5979
G1 X130.241 Y81.590 E5.6655
G1 X130.128 Y81.656 E5.6703
G1 X128.422 Y82.362 E5.7378
G1 X128.295 Y82.396 E5.7426
G1 X126.497 Y82.633 E5.8090
G1 X126.432 Y82.637 E5.8113
G1 X63.367 Y82.637 E8.1187
G1 X63.301 Y82.633 E8.1211
G1 X60.986 Y82.328 E8.2065
G1 X60.859 Y82.294 E8.2113
G1 X58.671 Y81.388 E8.2980
G1 X58.557 Y81.322 E8.3028
G1 X56.678 Y79.880 E8.3894
G1 X56.586 Y79.788 E8.3942
G1 X55.144 Y77.909 E8.4809
G1 X55.078 Y77.795 E8.4856
G1 X54.172 Y75.607 E8.5723
G1 X54.138 Y75.480 E8.5771
G1 X53.833 Y73.165 E8.6625
G1 X53.829 Y73.099 E8.6649
G1 X53.829 Y66.034 E8.9234
G1 X53.833 Y65.969 E8.9258
G1 X54.070 Y64.171 E8.9922
G1 X54.104 Y64.044 E8.9970
G1 X54.810 Y62.338 E9.0645
G1 X54.876 Y62.225 E9.0693
G1 X56.000 Y60.760 E9.1369
G1 X56.093 Y60.667 E9.1417
G1 X56.357 Y60.969 F6000
G92 E0
G1 X57.780 Y59.877 E0.0656 F1050
G1 X57.848 Y59.837 E0.0685
G1 X59.506 Y59.151 E0.1341
G1 X59.581 Y59.130 E0.1370
G1 X61.340 Y58.899 E0.2019
G1 X61.380 Y58.896 E0.2034
G1 X75.360 Y58.896 E0.7148
G1 X76.907 Y58.693 E0.7719
G1 X78.312 Y58.111 E0.8276
G1 X79.535 Y57.172 E0.8840
G1 X80.570 Y56.002 E0.9411
G1 X80.612 Y55.962 E0.9433
G1 X82.027 Y54.877 E1.0085
G1 X82.095 Y54.837 E1.0114
G1 X83.752 Y54.151 E1.0770
G1 X83.828 Y54.130 E1.0799
G1 X85.587 Y53.899 E1.1448
G1 X85.627 Y53.896 E1.1462
G1 X90.419 Y53.896 E1.3216
G1 X90.458 Y53.899 E1.3230
G1 X92.217 Y54.130 E1.3879
G1 X92.293 Y54.151 E1.3908
G1 X93.950 Y54.837 E1.4564
G1 X94.019 Y54.877 E1.4593
G1 X95.442 Y55.969 E1.5249
G1 X95.497 Y56.024 E1.5278
G1 X96.589 Y57.447 E1.5934
G1 X96.629 Y57.515 E1.5963
G1 X97.310 Y59.161 E1.6615
G1 X97.326 Y59.212 E1.6634
G1 X97.562 Y60.292 E1.7039
G1 X98.053 Y61.479 E1.7509
G1 X98.820 Y62.478 E1.7970
G1 X99.819 Y63.245 E1.8430
G1 X100.983 Y63.727 E1.8891
G1 X102.271 Y63.896 E1.9366
G1 X107.368 Y63.896 E2.1231
G1 X108.307 Y63.798 E2.1577
G1 X108.339 Y63.796 E2.1588
G1 X111.537 Y63.804 E2.2758
G1 X111.933 Y63.781 E2.2904
G1 X112.058 Y63.752 E2.2951
G1 X112.095 Y63.709 E2.2971
G1 X112.102 Y63.694 E2.2977
G1 X112.113 Y63.624 E2.3003
G1 X112.137 Y63.204 E2.3157
G1 X112.129 Y60.007 E2.4327
G1 X112.130 Y59.974 E2.4339
G1 X112.227 Y59.058 E2.4676
G1 X112.156 Y58.141 E2.5012
G1 X112.155 Y58.118 E2.5021
G1 X112.151 Y54.524 E2.6336
G1 X112.202 Y54.354 E2.6400
G1 X112.407 Y54.044 E2.6536
G1 X112.554 Y53.927 E2.6605
G1 X112.826 Y53.823 E2.6712
G1 X112.934 Y53.803 E2.6752
G1 X115.865 Y53.803 E2.7824
G1 X115.973 Y53.823 E2.7864
G1 X116.216 Y53.916 E2.7960
G1 X116.323 Y53.985 E2.8006
G1 X116.481 Y54.143 E2.8088
G1 X116.550 Y54.250 E2.8135
G1 X116.643 Y54.493 E2.8230
G1 X116.662 Y54.600 E2.8270
G1 X116.665 Y57.256 E2.9241
G1 X116.665 Y57.262 E2.9244
G1 X116.563 Y62.932 E3.1318
G1 X116.583 Y62.937 E3.1326
G1 X116.723 Y63.738 E3.1623
G1 X116.781 Y63.768 E3.1647
G1 X117.515 Y63.864 E3.1918
G1 X117.529 Y63.914 E3.1937
G1 X136.262 Y63.914 E3.8791
G1 X136.270 Y63.883 E3.8803
G1 X137.071 Y63.743 E3.9100
G1 X137.101 Y63.685 E3.9124
G1 X137.196 Y62.951 E3.9395
G1 X137.235 Y62.940 E3.9410
G1 X137.133 Y57.632 E4.1352
G1 X137.133 Y57.625 E4.1355
G1 X137.147 Y55.254 E4.2222
G1 X137.149 Y55.217 E4.2236
G1 X137.174 Y55.025 E4.2307
G1 X137.191 Y54.956 E4.2333
G1 X137.314 Y54.633 E4.2459
G1 X137.425 Y54.491 E4.2525
G1 X137.789 Y54.238 E4.2687
G1 X137.845 Y54.207 E4.2711
G1 X138.163 Y54.074 E4.2837
G1 X138.237 Y54.054 E4.2865
G1 X139.337 Y53.899 E4.3271
G1 X139.379 Y53.896 E4.3286
G1 X141.808 Y53.898 E4.4175
G1 X141.910 Y53.916 E4.4213
G1 X142.128 Y53.994 E4.4298
G1 X142.240 Y54.065 E4.4346
G1 X142.401 Y54.225 E4.4429
G1 X142.472 Y54.338 E4.4478
G1 X142.550 Y54.557 E4.4563
G1 X142.568 Y54.658 E4.4601
G1 X142.570 Y66.187 E4.8819
G1 X142.567 Y66.226 E4.8833
G1 X142.336 Y67.985 E4.9482
G1 X142.315 Y68.061 E4.9511
G1 X141.629 Y69.719 E5.0167
G1 X141.589 Y69.787 E5.0196
G1 X140.497 Y71.210 E5.0852
G1 X140.442 Y71.266 E5.0881
G1 X139.023 Y72.354 E5.1535
G1 X138.966 Y72.389 E5.1560
G1 X137.504 Y73.063 E5.2149
G1 X135.607 Y74.267 E5.2971
G1 X134.092 Y75.880 E5.3781
G1 X133.023 Y77.808 E5.4587
G1 X132.615 Y78.642 E5.4927
G1 X132.584 Y78.693 E5.4949
G1 X131.497 Y80.109 E5.5602
G1 X131.442 Y80.165 E5.5630
G1 X130.019 Y81.257 E5.6287
G1 X129.950 Y81.296 E5.6316
G1 X128.293 Y81.983 E5.6972
G1 X128.217 Y82.003 E5.7001
G1 X126.458 Y82.234 E5.7650
G1 X126.419 Y82.237 E5.7664
G1 X63.380 Y82.237 E8.0728
G1 X63.340 Y82.234 E8.0742
G1 X61.064 Y81.935 E8.1582
G1 X60.988 Y81.914 E8.1611
G1 X58.848 Y81.028 E8.2458
