; G-Code generated by Simplify3D(R) Version 4.1.2
; Oct 30, 2020 at 10:07:48 PM
; Settings Summary
;   processName,Process1
;   applyToModels,CoinProfileLHautGauche
;   profileName,A04-04-25s Tevo Tornado
;   profileVersion,2020-07-06 22:44:24
;   baseProfile,Creality CR-10(2)
;   printMaterial,PLA
;   printQuality,Medium
;   printExtruders,
;   extruderName,Primary Extruder
;   extruderToolheadNumber,0
;   extruderDiameter,0.4
;   extruderAutoWidth,0
;   extruderWidth,0.35
;   extrusionMultiplier,0.95
;   extruderUseRetract,1
;   extruderRetractionDistance,4
;   extruderExtraRestartDistance,0
;   extruderRetractionZLift,0.3
;   extruderRetractionSpeed,3000
;   extruderUseCoasting,1
;   extruderCoastingDistance,0.8
;   extruderUseWipe,0
;   extruderWipeDistance,4
;   primaryExtruder,0
;   layerHeight,0.15
;   topSolidLayers,4
;   bottomSolidLayers,3
;   perimeterOutlines,3
;   printPerimetersInsideOut,0
;   startPointOption,1
;   startPointOriginX,0
;   startPointOriginY,300
;   sequentialIslands,0
;   spiralVaseMode,0
;   firstLayerHeightPercentage,120
;   firstLayerWidthPercentage,100
;   firstLayerUnderspeed,0.35
;   useRaft,0
;   raftExtruder,0
;   raftTopLayers,3
;   raftBaseLayers,2
;   raftOffset,3
;   raftSeparationDistance,0.14
;   raftTopInfill,100
;   aboveRaftSpeedMultiplier,0.3
;   useSkirt,1
;   skirtExtruder,0
;   skirtLayers,1
;   skirtOutlines,3
;   skirtOffset,2
;   usePrimePillar,0
;   primePillarExtruder,999
;   primePillarWidth,12
;   primePillarLocation,7
;   primePillarSpeedMultiplier,1
;   useOozeShield,0
;   oozeShieldExtruder,999
;   oozeShieldOffset,2
;   oozeShieldOutlines,1
;   oozeShieldSidewallShape,1
;   oozeShieldSidewallAngle,30
;   oozeShieldSpeedMultiplier,1
;   infillExtruder,0
;   internalInfillPattern,Rectilinear
;   externalInfillPattern,Rectilinear
;   infillPercentage,25
;   outlineOverlapPercentage,15
;   infillExtrusionWidthPercentage,100
;   minInfillLength,5
;   infillLayerInterval,1
;   internalInfillAngles,45,-45
;   overlapInternalInfillAngles,0
;   externalInfillAngles,45,-45
;   generateSupport,1
;   supportExtruder,0
;   supportInfillPercentage,30
;   supportExtraInflation,0
;   supportBaseLayers,0
;   denseSupportExtruder,0
;   denseSupportLayers,0
;   denseSupportInfillPercentage,70
;   supportLayerInterval,1
;   supportHorizontalPartOffset,0.4
;   supportUpperSeparationLayers,1
;   supportLowerSeparationLayers,1
;   supportType,0
;   supportGridSpacing,4.5
;   maxOverhangAngle,45
;   supportAngles,0
;   temperatureName,Primary Extruder,Heated Bed
;   temperatureNumber,0,0
;   temperatureSetpointCount,1,1
;   temperatureSetpointLayers,1,1
;   temperatureSetpointTemperatures,215,55
;   temperatureStabilizeAtStartup,1,1
;   temperatureHeatedBed,0,1
;   fanLayers,1,2
;   fanSpeeds,0,100
;   blipFanToFullPower,0
;   adjustSpeedForCooling,1
;   minSpeedLayerTime,15
;   minCoolingSpeedSlowdown,50
;   increaseFanForCooling,1
;   minFanLayerTime,25
;   maxCoolingFanSpeed,100
;   increaseFanForBridging,1
;   bridgingFanSpeed,100
;   use5D,1
;   relativeEdistances,0
;   allowEaxisZeroing,1
;   independentExtruderAxes,0
;   includeM10123,0
;   stickySupport,1
;   applyToolheadOffsets,0
;   gcodeXoffset,0
;   gcodeYoffset,0
;   gcodeZoffset,0
;   overrideMachineDefinition,1
;   machineTypeOverride,0
;   strokeXoverride,300
;   strokeYoverride,300
;   strokeZoverride,400
;   originOffsetXoverride,0
;   originOffsetYoverride,0
;   originOffsetZoverride,0
;   homeXdirOverride,-1
;   homeYdirOverride,-1
;   homeZdirOverride,-1
;   flipXoverride,1
;   flipYoverride,-1
;   flipZoverride,1
;   toolheadOffsets,0,0|0,0|0,0|0,0|0,0|0,0
;   overrideFirmwareConfiguration,1
;   firmwareTypeOverride,RepRap (Marlin/Repetier/Sprinter)
;   GPXconfigOverride,r2
;   baudRateOverride,250000
;   overridePrinterModels,1
;   printerModelsOverride
;   startingGcode,;,; -]H.P.B[- MarshMalloW  ,; $VER: StartScript 1.02 (26.12.2019) MarshMalloW,;,; Begin Startcode,;,M117 *Preheat*     	; Preheat,;extruder0_temperature,M104 S[extruder0_temperature]  ,M109 S[extruder0_temperature] ,M109 R[extruder0_temperature] ,;,M117 *Auto-leveling*     	; Auto-leveling,M107                   	; Turn layer fan off,G21                    	; Set to metric [change to G20 if you want Imperial],G90                    	; Force coordinates to be absolute relative to the origin,G28                    	; Home X/Y/Z axis,G29                    	; Auto-leveling (BL-Touch),;,M117 *Start Clean*     	; Indicate nozzle clean in progress on LCD,G92 E0                 	; Set Extruder to 0 ,G1 X0 Y0 F2000         	; Move X and Y to 0 with speed 2000 (mm/min),G1 Z0.1 F1000          	; Move Z to   0.1 with speed 1000 (mm/min),G1 X8.0 F2000          	; Move X to   8.0 with speed 2000 (mm/min),G1 Y60.0 E4.0 F1000.0  	; Move Y to  60 and Extruder with 4.0 with speed 1000 (mm/min),G1 Y100.0 E8.5 F1000.0 	; Move Y to 100 and Extruder with 8.5 with speed 1000 (mm/min),G92 E0                 	; Set extruder to 0,G1 X16.0 F3000         	; Move X to 16.0 with speed 3000 (mm/min),G1 Y60.0 F3000         	; Move Y to 60.0 with speed 3000 (mm/min),M117 *End Clean*       	; Indicate nozzle clean in progress on LCD,G1 Z5 F3000            	; Move Z to  5.0 with speed 3000 (mm/min),G1 X20.0 F3000         	; Move X to 20.0 with speed 3000 (mm/min),G1 Y20.0 F3000         	; Move Y to 20.0 with speed 3000 (mm/min),; ,M117 *Printing...*     	; Start printing msg on LCD,;,; End Startcode,;,; Begin printing with sliced GCode after here,;
;   layerChangeGcode,
;   retractionGcode,
;   toolChangeGcode,
;   endingGcode,;,; init 181010,;,;M107 			; Fan off,;G1 E-1 F300 			; Retract the filament a bit before lifting the nozzle,;M104 S0 			; Turn off extruder,;M140 S0 			; Turn off bed,;G91			; Relative positioning,;G28 X0 Y0 			; Move X/Y to min endstops so the head is out of teh way,;M84 			; Disable motors,;G90 			; Absolute positioning,;M117 Print ready...,,;,; // From Cura 181010,; // End_gcode,G92 E0			; Zero the extruded length,;G1 E-30 F300		; Retract E -30,M106 S0			; Turn off cooling fan,M104 S0			; Turn off temperature,M140 S0		     	; Turn off bed,G91			; Relative positioning,G1 E-1 F300			; Retract the filament a bit before lifting the nozzle to release some of the pressure,G1 Z+20 E-5 X-20 Y-20 F7200	; Move Z up a bit and retract filament even more,G1 X0 Y150 F10000		; Move right min,M107			; Turn off layer fan,M84			; Disable motors,G90			; Absolute positioning,M117 *The-End* 		; End msg,;,
;   exportFileFormat,gcode
;   celebration,0
;   celebrationSong,Star Wars
;   postProcessing,|{REPLACE "; layer " "M117 INDICATOR-Layer"}|{REPLACE ", Z = " "\n; Z="}
;   defaultSpeed,1800
;   outlineUnderspeed,0.5
;   solidInfillUnderspeed,0.8
;   supportUnderspeed,0.8
;   rapidXYspeed,6000
;   rapidZspeed,1002
;   minBridgingArea,50
;   bridgingExtraInflation,0.2
;   bridgingExtrusionMultiplier,1
;   bridgingSpeedMultiplier,0.6
;   useFixedBridgingAngle,0
;   fixedBridgingAngle,0
;   applyBridgingToPerimeters,0
;   filamentDiameters,1.75|1.75|1.75|1.75|1.75|1.75
;   filamentPricesPerKg,30|46|46|46|46|46
;   filamentDensities,1.25|1.25|1.25|1.25|1.25|1.25
;   useMinPrintHeight,0
;   minPrintHeight,0
;   useMaxPrintHeight,0
;   maxPrintHeight,9
;   useDiaphragm,0
;   diaphragmLayerInterval,20
;   robustSlicing,1
;   mergeAllIntoSolid,0
;   onlyRetractWhenCrossingOutline,1
;   retractBetweenLayers,0
;   useRetractionMinTravel,0
;   retractionMinTravel,3
;   retractWhileWiping,0
;   onlyWipeOutlines,1
;   avoidCrossingOutline,1
;   maxMovementDetourFactor,3
;   toolChangeRetractionDistance,12
;   toolChangeExtraRestartDistance,-0.5
;   toolChangeRetractionSpeed,600
;   externalThinWallType,1
;   internalThinWallType,1
;   thinWallAllowedOverlapPercentage,10
;   singleExtrusionMinLength,1
;   singleExtrusionMinPrintingWidthPercentage,50
;   singleExtrusionMaxPrintingWidthPercentage,200
;   singleExtrusionEndpointExtension,0.2
;   horizontalSizeCompensation,0
G90
M82
M106 S0
M140 S55
M190 S55
;
; -]H.P.B[- MarshMalloW  
; $VER: StartScript 1.02 (26.12.2019) MarshMalloW
;
; Begin Startcode
;
M117 *Preheat*     	; Preheat
;extruder0_temperature
M104 S215  
M109 S215 
M109 R215 
;
M117 *Auto-leveling*     	; Auto-leveling
M107                   	; Turn layer fan off
G21                    	; Set to metric [change to G20 if you want Imperial]
G90                    	; Force coordinates to be absolute relative to the origin
G28                    	; Home X/Y/Z axis
G29                    	; Auto-leveling (BL-Touch)
;
M117 *Start Clean*     	; Indicate nozzle clean in progress on LCD
G92 E0                 	; Set Extruder to 0 
G1 X0 Y0 F2000         	; Move X and Y to 0 with speed 2000 (mm/min)
G1 Z0.1 F1000          	; Move Z to   0.1 with speed 1000 (mm/min)
G1 X8.0 F2000          	; Move X to   8.0 with speed 2000 (mm/min)
G1 Y60.0 E4.0 F1000.0  	; Move Y to  60 and Extruder with 4.0 with speed 1000 (mm/min)
G1 Y100.0 E8.5 F1000.0 	; Move Y to 100 and Extruder with 8.5 with speed 1000 (mm/min)
G92 E0                 	; Set extruder to 0
G1 X16.0 F3000         	; Move X to 16.0 with speed 3000 (mm/min)
G1 Y60.0 F3000         	; Move Y to 60.0 with speed 3000 (mm/min)
M117 *End Clean*       	; Indicate nozzle clean in progress on LCD
G1 Z5 F3000            	; Move Z to  5.0 with speed 3000 (mm/min)
G1 X20.0 F3000         	; Move X to 20.0 with speed 3000 (mm/min)
G1 Y20.0 F3000         	; Move Y to 20.0 with speed 3000 (mm/min)
; 
M117 *Printing...*     	; Start printing msg on LCD
;
; End Startcode
;
; Begin printing with sliced GCode after here
;
; process Process1
M117 INDICATOR-Layer1
; Z=0.180
T0
G92 E0.0000
G1 E-4.0000 F3000
; feature skirt
; tool H0.180 W0.350
G1 Z0.300 F1002
G1 X152.084 Y63.120 F6000
G1 Z0.180 F1002
G1 E0.0000 F3000
G92 E0.0000
G1 X155.361 Y63.304 E0.0817 F630
G1 X155.521 Y63.322 E0.0857
G1 X158.797 Y63.879 E0.1684
G1 X158.954 Y63.914 E0.1724
G1 X162.147 Y64.834 E0.2550
G1 X162.299 Y64.888 E0.2591
G1 X165.369 Y66.159 E0.3417
G1 X165.514 Y66.229 E0.3458
G1 X168.422 Y67.836 E0.4284
G1 X168.559 Y67.922 E0.4324
G1 X171.269 Y69.845 E0.5151
G1 X171.395 Y69.945 E0.5191
G1 X173.872 Y72.159 E0.6018
G1 X173.986 Y72.273 E0.6058
G1 X176.200 Y74.751 E0.6885
G1 X176.301 Y74.877 E0.6925
G1 X178.224 Y77.587 E0.7752
G1 X178.310 Y77.723 E0.7792
G1 X179.917 Y80.631 E0.8619
G1 X179.987 Y80.777 E0.8659
G1 X181.258 Y83.846 E0.9486
G1 X181.312 Y83.999 E0.9526
G1 X182.231 Y87.191 E1.0353
G1 X182.267 Y87.349 E1.0393
G1 X182.824 Y90.624 E1.1219
G1 X182.842 Y90.785 E1.1260
G1 X183.026 Y94.062 E1.2076
G1 X183.028 Y94.142 E1.2096
G1 X183.028 Y137.088 E2.2782
G1 X183.374 Y137.088 E2.2868
G1 X185.058 Y138.772 E2.3461
G1 X185.058 Y142.594 E2.4412
G1 X180.374 Y147.278 E2.6060
G1 X176.552 Y147.278 E2.7011
G1 X174.868 Y145.594 E2.7604
G1 X174.868 Y145.248 E2.7690
G1 X150.772 Y145.248 E3.3686
G1 X149.088 Y143.564 E3.4278
G1 X149.088 Y97.058 E4.5850
G1 X117.582 Y97.058 E5.3690
G1 X115.898 Y95.374 E5.4282
G1 X115.898 Y64.802 E6.1889
G1 X117.582 Y63.118 E6.2482
G1 X152.003 Y63.118 E7.1047
G1 X152.084 Y63.120 E7.1067
G92 E0.0000
G1 E-4.0000 F3000
G1 Z0.480 F1002
G1 X151.958 Y66.168 F6000
G1 X155.100 Y66.344
G1 X155.765 Y66.457
G1 X179.206 Y87.708
G1 X179.275 Y87.949
G1 X179.802 Y91.046
G1 X182.477 Y90.673
G1 Z0.180 F1002
G1 E0.0000 F3000
G92 E0.0000
G1 X182.493 Y90.814 E0.0035 F630
G1 X182.676 Y94.076 E0.0848
G1 X182.678 Y94.147 E0.0866
G1 X182.678 Y137.438 E1.1638
G1 X183.229 Y137.438 E1.1775
G1 X184.708 Y138.917 E1.2295
G1 X184.708 Y142.449 E1.3174
G1 X180.229 Y146.928 E1.4750
G1 X176.697 Y146.928 E1.5629
G1 X175.218 Y145.449 E1.6150
G1 X175.218 Y144.898 E1.6287
G1 X150.917 Y144.898 E2.2333
G1 X149.438 Y143.419 E2.2854
G1 X149.438 Y96.708 E3.4477
G1 X117.727 Y96.708 E4.2367
G1 X116.248 Y95.229 E4.2888
G1 X116.248 Y64.947 E5.0423
G1 X117.727 Y63.468 E5.0943
G1 X151.999 Y63.468 E5.9471
G1 X152.069 Y63.470 E5.9489
G1 X155.332 Y63.653 E6.0302
G1 X155.473 Y63.669 E6.0337
G1 X158.729 Y64.222 E6.1159
G1 X158.867 Y64.254 E6.1194
G1 X162.041 Y65.168 E6.2016
G1 X162.175 Y65.215 E6.2051
G1 X165.226 Y66.479 E6.2873
G1 X165.354 Y66.540 E6.2908
G1 X168.245 Y68.138 E6.3730
G1 X168.365 Y68.213 E6.3765
G1 X171.058 Y70.125 E6.4587
G1 X171.169 Y70.213 E6.4622
G1 X173.632 Y72.414 E6.5444
G1 X173.732 Y72.514 E6.5480
G1 X175.933 Y74.977 E6.6301
G1 X176.021 Y75.088 E6.6337
G1 X177.933 Y77.781 E6.7159
G1 X178.008 Y77.901 E6.7194
G1 X179.606 Y80.792 E6.8016
G1 X179.667 Y80.920 E6.8051
G1 X180.931 Y83.971 E6.8873
G1 X180.978 Y84.105 E6.8908
G1 X181.892 Y87.279 E6.9730
G1 X181.924 Y87.417 E6.9765
G1 X182.477 Y90.673 E7.0587
G92 E0.0000
G1 E-4.0000 F3000
G1 Z0.480 F1002
G1 X179.802 Y91.046 F6000
G1 X179.545 Y89.535
G1 X119.369 Y66.168
G1 X118.948 Y66.168
G1 X116.598 Y65.092
G1 Z0.180 F1002
G1 E0.0000 F3000
G92 E0.0000
G1 X117.872 Y63.818 E0.0448 F630
G1 X151.994 Y63.818 E0.8939
G1 X152.055 Y63.819 E0.8954
G1 X155.302 Y64.002 E0.9763
G1 X155.424 Y64.015 E0.9794
G1 X158.661 Y64.565 E1.0611
G1 X158.780 Y64.593 E1.0641
G1 X161.934 Y65.502 E1.1458
G1 X162.050 Y65.542 E1.1488
G1 X165.083 Y66.798 E1.2305
G1 X165.193 Y66.851 E1.2336
G1 X168.067 Y68.439 E1.3153
G1 X168.170 Y68.504 E1.3183
G1 X170.848 Y70.404 E1.4000
G1 X170.943 Y70.480 E1.4030
G1 X173.391 Y72.668 E1.4847
G1 X173.478 Y72.755 E1.4878
G1 X175.665 Y75.203 E1.5695
G1 X175.742 Y75.298 E1.5725
G1 X177.641 Y77.976 E1.6542
G1 X177.706 Y78.079 E1.6572
G1 X179.295 Y80.953 E1.7389
G1 X179.348 Y81.063 E1.7420
G1 X180.604 Y84.096 E1.8237
G1 X180.644 Y84.211 E1.8267
G1 X181.553 Y87.366 E1.9084
G1 X181.580 Y87.485 E1.9114
G1 X182.130 Y90.722 E1.9931
G1 X182.144 Y90.844 E1.9962
G1 X182.326 Y94.091 E2.0771
G1 X182.328 Y94.152 E2.0786
G1 X182.328 Y137.788 E3.1644
G1 X183.084 Y137.788 E3.1832
G1 X184.358 Y139.062 E3.2280
G1 X184.358 Y142.304 E3.3087
G1 X180.084 Y146.578 E3.4591
G1 X176.842 Y146.578 E3.5398
G1 X175.568 Y145.304 E3.5846
G1 X175.568 Y144.548 E3.6034
G1 X151.062 Y144.548 E4.2132
G1 X149.788 Y143.274 E4.2580
G1 X149.788 Y96.358 E5.4254
G1 X117.872 Y96.358 E6.2196
G1 X116.598 Y95.084 E6.2644
G1 X116.598 Y65.092 E7.0107
G92 E0.0000
G1 E-4.0000 F3000
; feature outer perimeter
G1 Z0.480 F1002
G1 X118.948 Y66.168 F6000
G1 X118.948 Y68.094
G1 X122.565 Y72.714
G1 X122.672 Y72.919
G1 X123.020 Y73.312
G1 X123.047 Y73.330
G1 X139.232 Y94.008
G1 X152.138 Y94.008
G1 X152.138 Y110.495
G1 X176.954 Y142.198
G1 Z0.180 F1002
G1 E0.0000 F3000
G92 E0.0000
G1 X152.138 Y142.198 E0.6175 F315
G1 X152.138 Y94.008 E1.8166
G1 X118.948 Y94.008 E2.6424
G1 X118.948 Y66.168 E3.3352
G1 X151.958 Y66.168 E4.1565
G1 X155.100 Y66.344 E4.2348
G1 X158.197 Y66.870 E4.3130
G1 X161.216 Y67.740 E4.3912
G1 X161.354 Y67.797 E4.3949
G1 X164.118 Y68.942 E4.4694
G1 X166.868 Y70.462 E4.5475
G1 X169.430 Y72.280 E4.6257
G1 X171.773 Y74.373 E4.7039
G1 X173.866 Y76.716 E4.7820
G1 X175.684 Y79.278 E4.8602
G1 X177.204 Y82.028 E4.9384
G1 X178.406 Y84.930 E5.0166
G1 X179.276 Y87.949 E5.0947
G1 X179.802 Y91.046 E5.1729
G1 X179.978 Y94.188 E5.2512
G1 X179.978 Y139.173 E6.3706
G1 X179.905 Y139.836 E6.3871
G1 X179.687 Y140.471 E6.4039
G1 X179.291 Y141.094 E6.4222
G1 X178.874 Y141.511 E6.4369
G1 X178.251 Y141.907 E6.4553
G1 X177.742 Y142.081 E6.4687
G1 X177.616 Y142.125 F315
G1 X176.954 Y142.198
; feature inner perimeter
G1 X176.934 Y141.848 F6000
G92 E0.0000
G1 X152.488 Y141.848 E0.6083 F472
G1 X152.488 Y93.658 E1.8074
G1 X119.298 Y93.658 E2.6332
G1 X119.298 Y66.518 E3.3086
G1 X151.948 Y66.518 E4.1210
G1 X155.061 Y66.692 E4.1986
G1 X158.119 Y67.212 E4.2757
G1 X161.100 Y68.071 E4.3529
G1 X161.220 Y68.121 E4.3562
G1 X163.966 Y69.258 E4.4301
G1 X166.681 Y70.759 E4.5073
G1 X169.212 Y72.554 E4.5845
G1 X171.525 Y74.621 E4.6617
G1 X173.592 Y76.934 E4.7389
G1 X175.387 Y79.465 E4.8161
G1 X176.888 Y82.180 E4.8933
G1 X178.075 Y85.046 E4.9705
G1 X178.934 Y88.027 E5.0477
G1 X179.453 Y91.085 E5.1249
G1 X179.628 Y94.198 E5.2024
G1 X179.628 Y139.154 E6.3211
G1 X179.562 Y139.759 E6.3362
G1 X179.370 Y140.318 E6.3509
G1 X179.016 Y140.873 E6.3673
G1 X178.654 Y141.236 E6.3801
G1 X178.098 Y141.589 E6.3964
