; G-Code generated by Simplify3D(R) Version 4.1.2
; Oct 27, 2020 at 9:13:38 PM
; Settings Summary
;   processName,Process1
;   applyToModels,BodyCoinProfileLBas
;   profileName,A04-04-25s Tevo Tornado
;   profileVersion,2020-07-06 22:44:24
;   baseProfile,Creality CR-10(2)
;   printMaterial,PLA
;   printQuality,Medium
;   printExtruders,
;   extruderName,Primary Extruder
;   extruderToolheadNumber,0
;   extruderDiameter,0.4
;   extruderAutoWidth,0
;   extruderWidth,0.35
;   extrusionMultiplier,0.95
;   extruderUseRetract,1
;   extruderRetractionDistance,4
;   extruderExtraRestartDistance,0
;   extruderRetractionZLift,0.3
;   extruderRetractionSpeed,3000
;   extruderUseCoasting,1
;   extruderCoastingDistance,0.8
;   extruderUseWipe,0
;   extruderWipeDistance,4
;   primaryExtruder,0
;   layerHeight,0.15
;   topSolidLayers,4
;   bottomSolidLayers,3
;   perimeterOutlines,3
;   printPerimetersInsideOut,0
;   startPointOption,1
;   startPointOriginX,0
;   startPointOriginY,300
;   sequentialIslands,0
;   spiralVaseMode,0
;   firstLayerHeightPercentage,120
;   firstLayerWidthPercentage,100
;   firstLayerUnderspeed,0.35
;   useRaft,0
;   raftExtruder,0
;   raftTopLayers,3
;   raftBaseLayers,2
;   raftOffset,3
;   raftSeparationDistance,0.14
;   raftTopInfill,100
;   aboveRaftSpeedMultiplier,0.3
;   useSkirt,1
;   skirtExtruder,0
;   skirtLayers,1
;   skirtOutlines,3
;   skirtOffset,2
;   usePrimePillar,0
;   primePillarExtruder,999
;   primePillarWidth,12
;   primePillarLocation,7
;   primePillarSpeedMultiplier,1
;   useOozeShield,0
;   oozeShieldExtruder,999
;   oozeShieldOffset,2
;   oozeShieldOutlines,1
;   oozeShieldSidewallShape,1
;   oozeShieldSidewallAngle,30
;   oozeShieldSpeedMultiplier,1
;   infillExtruder,0
;   internalInfillPattern,Rectilinear
;   externalInfillPattern,Rectilinear
;   infillPercentage,25
;   outlineOverlapPercentage,15
;   infillExtrusionWidthPercentage,100
;   minInfillLength,5
;   infillLayerInterval,1
;   internalInfillAngles,45,-45
;   overlapInternalInfillAngles,0
;   externalInfillAngles,45,-45
;   generateSupport,1
;   supportExtruder,0
;   supportInfillPercentage,30
;   supportExtraInflation,0
;   supportBaseLayers,0
;   denseSupportExtruder,0
;   denseSupportLayers,0
;   denseSupportInfillPercentage,70
;   supportLayerInterval,1
;   supportHorizontalPartOffset,0.4
;   supportUpperSeparationLayers,1
;   supportLowerSeparationLayers,1
;   supportType,0
;   supportGridSpacing,4.5
;   maxOverhangAngle,45
;   supportAngles,0
;   temperatureName,Primary Extruder,Heated Bed
;   temperatureNumber,0,0
;   temperatureSetpointCount,1,1
;   temperatureSetpointLayers,1,1
;   temperatureSetpointTemperatures,215,55
;   temperatureStabilizeAtStartup,1,1
;   temperatureHeatedBed,0,1
;   fanLayers,1,2
;   fanSpeeds,0,100
;   blipFanToFullPower,0
;   adjustSpeedForCooling,1
;   minSpeedLayerTime,15
;   minCoolingSpeedSlowdown,50
;   increaseFanForCooling,1
;   minFanLayerTime,25
;   maxCoolingFanSpeed,100
;   increaseFanForBridging,1
;   bridgingFanSpeed,100
;   use5D,1
;   relativeEdistances,0
;   allowEaxisZeroing,1
;   independentExtruderAxes,0
;   includeM10123,0
;   stickySupport,1
;   applyToolheadOffsets,0
;   gcodeXoffset,0
;   gcodeYoffset,0
;   gcodeZoffset,0
;   overrideMachineDefinition,1
;   machineTypeOverride,0
;   strokeXoverride,300
;   strokeYoverride,300
;   strokeZoverride,400
;   originOffsetXoverride,0
;   originOffsetYoverride,0
;   originOffsetZoverride,0
;   homeXdirOverride,-1
;   homeYdirOverride,-1
;   homeZdirOverride,-1
;   flipXoverride,1
;   flipYoverride,-1
;   flipZoverride,1
;   toolheadOffsets,0,0|0,0|0,0|0,0|0,0|0,0
;   overrideFirmwareConfiguration,1
;   firmwareTypeOverride,RepRap (Marlin/Repetier/Sprinter)
;   GPXconfigOverride,r2
;   baudRateOverride,250000
;   overridePrinterModels,1
;   printerModelsOverride
;   startingGcode,;,; -]H.P.B[- MarshMalloW  ,; $VER: StartScript 1.02 (26.12.2019) MarshMalloW,;,; Begin Startcode,;,M117 *Preheat*     	; Preheat,;extruder0_temperature,M104 S[extruder0_temperature]  ,M109 S[extruder0_temperature] ,M109 R[extruder0_temperature] ,;,M117 *Auto-leveling*     	; Auto-leveling,M107                   	; Turn layer fan off,G21                    	; Set to metric [change to G20 if you want Imperial],G90                    	; Force coordinates to be absolute relative to the origin,G28                    	; Home X/Y/Z axis,G29                    	; Auto-leveling (BL-Touch),;,M117 *Start Clean*     	; Indicate nozzle clean in progress on LCD,G92 E0                 	; Set Extruder to 0 ,G1 X0 Y0 F2000         	; Move X and Y to 0 with speed 2000 (mm/min),G1 Z0.1 F1000          	; Move Z to   0.1 with speed 1000 (mm/min),G1 X8.0 F2000          	; Move X to   8.0 with speed 2000 (mm/min),G1 Y60.0 E4.0 F1000.0  	; Move Y to  60 and Extruder with 4.0 with speed 1000 (mm/min),G1 Y100.0 E8.5 F1000.0 	; Move Y to 100 and Extruder with 8.5 with speed 1000 (mm/min),G92 E0                 	; Set extruder to 0,G1 X16.0 F3000         	; Move X to 16.0 with speed 3000 (mm/min),G1 Y60.0 F3000         	; Move Y to 60.0 with speed 3000 (mm/min),M117 *End Clean*       	; Indicate nozzle clean in progress on LCD,G1 Z5 F3000            	; Move Z to  5.0 with speed 3000 (mm/min),G1 X20.0 F3000         	; Move X to 20.0 with speed 3000 (mm/min),G1 Y20.0 F3000         	; Move Y to 20.0 with speed 3000 (mm/min),; ,M117 *Printing...*     	; Start printing msg on LCD,;,; End Startcode,;,; Begin printing with sliced GCode after here,;
;   layerChangeGcode,
;   retractionGcode,
;   toolChangeGcode,
;   endingGcode,;,; init 181010,;,;M107 			; Fan off,;G1 E-1 F300 			; Retract the filament a bit before lifting the nozzle,;M104 S0 			; Turn off extruder,;M140 S0 			; Turn off bed,;G91			; Relative positioning,;G28 X0 Y0 			; Move X/Y to min endstops so the head is out of teh way,;M84 			; Disable motors,;G90 			; Absolute positioning,;M117 Print ready...,,;,; // From Cura 181010,; // End_gcode,G92 E0			; Zero the extruded length,;G1 E-30 F300		; Retract E -30,M106 S0			; Turn off cooling fan,M104 S0			; Turn off temperature,M140 S0		     	; Turn off bed,G91			; Relative positioning,G1 E-1 F300			; Retract the filament a bit before lifting the nozzle to release some of the pressure,G1 Z+20 E-5 X-20 Y-20 F7200	; Move Z up a bit and retract filament even more,G1 X0 Y150 F10000		; Move right min,M107			; Turn off layer fan,M84			; Disable motors,G90			; Absolute positioning,M117 *The-End* 		; End msg,;,
;   exportFileFormat,gcode
;   celebration,0
;   celebrationSong,Star Wars
;   postProcessing,|{REPLACE "; layer " "M117 INDICATOR-Layer"}|{REPLACE ", Z = " "\n; Z="}
;   defaultSpeed,1800
;   outlineUnderspeed,0.5
;   solidInfillUnderspeed,0.8
;   supportUnderspeed,0.8
;   rapidXYspeed,6000
;   rapidZspeed,1002
;   minBridgingArea,50
;   bridgingExtraInflation,0.2
;   bridgingExtrusionMultiplier,1
;   bridgingSpeedMultiplier,0.6
;   useFixedBridgingAngle,0
;   fixedBridgingAngle,0
;   applyBridgingToPerimeters,0
;   filamentDiameters,1.75|1.75|1.75|1.75|1.75|1.75
;   filamentPricesPerKg,30|46|46|46|46|46
;   filamentDensities,1.25|1.25|1.25|1.25|1.25|1.25
;   useMinPrintHeight,0
;   minPrintHeight,0
;   useMaxPrintHeight,0
;   maxPrintHeight,9
;   useDiaphragm,0
;   diaphragmLayerInterval,20
;   robustSlicing,1
;   mergeAllIntoSolid,0
;   onlyRetractWhenCrossingOutline,1
;   retractBetweenLayers,0
;   useRetractionMinTravel,0
;   retractionMinTravel,3
;   retractWhileWiping,0
;   onlyWipeOutlines,1
;   avoidCrossingOutline,1
;   maxMovementDetourFactor,3
;   toolChangeRetractionDistance,12
;   toolChangeExtraRestartDistance,-0.5
;   toolChangeRetractionSpeed,600
;   externalThinWallType,1
;   internalThinWallType,1
;   thinWallAllowedOverlapPercentage,10
;   singleExtrusionMinLength,1
;   singleExtrusionMinPrintingWidthPercentage,50
;   singleExtrusionMaxPrintingWidthPercentage,200
;   singleExtrusionEndpointExtension,0.2
;   horizontalSizeCompensation,0
G90
M82
M106 S0
M140 S55
M190 S55
;
; -]H.P.B[- MarshMalloW  
; $VER: StartScript 1.02 (26.12.2019) MarshMalloW
;
; Begin Startcode
;
M117 *Preheat*     	; Preheat
;extruder0_temperature
M104 S215  
M109 S215 
M109 R215 
;
M117 *Auto-leveling*     	; Auto-leveling
M107                   	; Turn layer fan off
G21                    	; Set to metric [change to G20 if you want Imperial]
G90                    	; Force coordinates to be absolute relative to the origin
G28                    	; Home X/Y/Z axis
G29                    	; Auto-leveling (BL-Touch)
;
M117 *Start Clean*     	; Indicate nozzle clean in progress on LCD
G92 E0                 	; Set Extruder to 0 
G1 X0 Y0 F2000         	; Move X and Y to 0 with speed 2000 (mm/min)
G1 Z0.1 F1000          	; Move Z to   0.1 with speed 1000 (mm/min)
G1 X8.0 F2000          	; Move X to   8.0 with speed 2000 (mm/min)
G1 Y60.0 E4.0 F1000.0  	; Move Y to  60 and Extruder with 4.0 with speed 1000 (mm/min)
G1 Y100.0 E8.5 F1000.0 	; Move Y to 100 and Extruder with 8.5 with speed 1000 (mm/min)
G92 E0                 	; Set extruder to 0
G1 X16.0 F3000         	; Move X to 16.0 with speed 3000 (mm/min)
G1 Y60.0 F3000         	; Move Y to 60.0 with speed 3000 (mm/min)
M117 *End Clean*       	; Indicate nozzle clean in progress on LCD
G1 Z5 F3000            	; Move Z to  5.0 with speed 3000 (mm/min)
G1 X20.0 F3000         	; Move X to 20.0 with speed 3000 (mm/min)
G1 Y20.0 F3000         	; Move Y to 20.0 with speed 3000 (mm/min)
; 
M117 *Printing...*     	; Start printing msg on LCD
;
; End Startcode
;
; Begin printing with sliced GCode after here
;
; process Process1
M117 INDICATOR-Layer1
; Z=0.180
T0
G92 E0.0000
G1 E-4.0000 F3000
; feature skirt
; tool H0.180 W0.350
G1 Z0.300 F1002
G1 X135.424 Y77.483 F6000
G1 Z0.180 F1002
G1 E0.0000 F3000
G92 E0.0000
G1 X135.585 Y77.501 E0.0040 F630
G1 X139.060 Y78.091 E0.0917
G1 X139.218 Y78.127 E0.0958
G1 X142.606 Y79.103 E0.1835
G1 X142.758 Y79.157 E0.1875
G1 X146.015 Y80.506 E0.2752
G1 X146.160 Y80.576 E0.2792
G1 X149.246 Y82.281 E0.3670
G1 X149.383 Y82.367 E0.3710
G1 X152.258 Y84.407 E0.4587
G1 X152.384 Y84.508 E0.4627
G1 X154.983 Y86.830 E0.5494
G1 X155.041 Y86.885 E0.5514
G1 X180.661 Y112.505 E1.4530
G1 X180.661 Y114.886 E1.5122
G1 X159.919 Y135.628 E2.2421
G1 X159.919 Y135.945 E2.2500
G1 X158.235 Y137.629 E2.3093
G1 X153.413 Y137.629 E2.4293
G1 X151.729 Y135.945 E2.4885
G1 X151.729 Y135.629 E2.4964
G1 X151.413 Y135.629 E2.5042
G1 X149.729 Y133.945 E2.5635
G1 X149.729 Y133.629 E2.5714
G1 X149.413 Y133.629 E2.5792
G1 X147.729 Y131.945 E2.6385
G1 X147.729 Y131.629 E2.6464
G1 X147.413 Y131.629 E2.6542
G1 X145.729 Y129.945 E2.7135
G1 X145.729 Y129.629 E2.7213
G1 X145.413 Y129.629 E2.7292
G1 X143.729 Y127.945 E2.7885
G1 X143.729 Y127.629 E2.7963
G1 X143.413 Y127.629 E2.8042
G1 X141.729 Y125.945 E2.8634
G1 X141.729 Y125.629 E2.8713
G1 X141.413 Y125.629 E2.8792
G1 X139.729 Y123.945 E2.9384
G1 X139.729 Y123.629 E2.9463
G1 X139.413 Y123.629 E2.9541
G1 X137.729 Y121.945 E3.0134
G1 X137.729 Y121.629 E3.0213
G1 X137.413 Y121.629 E3.0291
G1 X135.729 Y119.945 E3.0884
G1 X135.729 Y119.629 E3.0962
G1 X135.413 Y119.629 E3.1041
G1 X133.729 Y117.945 E3.1634
G1 X133.729 Y117.629 E3.1712
G1 X133.413 Y117.629 E3.1791
G1 X131.824 Y116.040 E3.2350
G1 X130.235 Y117.629 E3.2909
G1 X129.919 Y117.629 E3.2988
G1 X129.919 Y117.945 E3.3067
G1 X128.235 Y119.629 E3.3659
G1 X127.919 Y119.629 E3.3738
G1 X127.919 Y119.945 E3.3816
G1 X126.235 Y121.629 E3.4409
G1 X125.919 Y121.629 E3.4488
G1 X125.919 Y121.945 E3.4566
G1 X124.235 Y123.629 E3.5159
G1 X123.919 Y123.629 E3.5237
G1 X123.919 Y123.945 E3.5316
G1 X122.235 Y125.629 E3.5909
G1 X121.919 Y125.629 E3.5987
G1 X121.919 Y125.945 E3.6066
G1 X120.235 Y127.629 E3.6658
G1 X119.919 Y127.629 E3.6737
G1 X119.919 Y127.945 E3.6816
G1 X118.235 Y129.629 E3.7408
G1 X117.919 Y129.629 E3.7487
G1 X117.919 Y129.945 E3.7565
G1 X116.235 Y131.629 E3.8158
G1 X115.919 Y131.629 E3.8237
G1 X115.919 Y131.945 E3.8315
G1 X114.235 Y133.629 E3.8908
G1 X113.919 Y133.629 E3.8987
G1 X113.919 Y133.945 E3.9065
G1 X112.235 Y135.629 E3.9658
G1 X111.919 Y135.629 E3.9736
G1 X111.919 Y135.945 E3.9815
G1 X110.235 Y137.629 E4.0408
G1 X105.413 Y137.629 E4.1607
G1 X103.729 Y135.945 E4.2200
G1 X103.729 Y135.628 E4.2279
G1 X82.987 Y114.886 E4.9578
G1 X82.987 Y112.505 E5.0171
G1 X108.606 Y86.885 E5.9186
G1 X108.665 Y86.830 E5.9206
G1 X111.264 Y84.508 E6.0073
G1 X111.390 Y84.407 E6.0113
G1 X114.265 Y82.367 E6.0991
G1 X114.402 Y82.281 E6.1031
G1 X117.487 Y80.576 E6.1908
G1 X117.633 Y80.506 E6.1948
G1 X120.890 Y79.157 E6.2825
G1 X121.042 Y79.103 E6.2865
G1 X124.430 Y78.127 E6.3743
G1 X124.587 Y78.091 E6.3783
G1 X128.063 Y77.501 E6.4660
G1 X128.223 Y77.483 E6.4700
G1 X131.743 Y77.285 E6.5577
G1 X131.904 Y77.285 E6.5618
G1 X135.424 Y77.483 E6.6495
G92 E0.0000
G1 E-4.0000 F3000
G1 Z0.480 F1002
G1 X135.163 Y80.523 F6000
G1 X134.863 Y80.506
G1 X128.853 Y112.884
G1 X128.288 Y113.448
G1 X127.569 Y119.800
G1 Z0.180 F1002
G1 E0.0000 F3000
G92 E0.0000
G1 X126.090 Y121.279 E0.0520 F630
G1 X125.569 Y121.279 E0.0650
G1 X125.569 Y121.800 E0.0780
G1 X124.090 Y123.279 E0.1300
G1 X123.569 Y123.279 E0.1430
G1 X123.569 Y123.800 E0.1559
G1 X122.090 Y125.279 E0.2080
G1 X121.569 Y125.279 E0.2210
G1 X121.569 Y125.800 E0.2339
G1 X120.090 Y127.279 E0.2860
G1 X119.569 Y127.279 E0.2989
G1 X119.569 Y127.800 E0.3119
G1 X118.090 Y129.279 E0.3639
G1 X117.569 Y129.279 E0.3769
G1 X117.569 Y129.800 E0.3899
G1 X116.090 Y131.279 E0.4419
G1 X115.569 Y131.279 E0.4549
G1 X115.569 Y131.800 E0.4678
G1 X114.090 Y133.279 E0.5199
G1 X113.569 Y133.279 E0.5328
G1 X113.569 Y133.800 E0.5458
G1 X112.090 Y135.279 E0.5978
G1 X111.569 Y135.279 E0.6108
G1 X111.569 Y135.800 E0.6238
G1 X110.090 Y137.279 E0.6758
G1 X105.558 Y137.279 E0.7886
G1 X104.079 Y135.800 E0.8406
G1 X104.079 Y135.483 E0.8485
G1 X83.337 Y114.742 E1.5784
G1 X83.337 Y112.650 E1.6305
G1 X108.850 Y87.136 E2.5283
G1 X108.902 Y87.088 E2.5300
G1 X111.489 Y84.775 E2.6164
G1 X111.600 Y84.687 E2.6199
G1 X114.460 Y82.658 E2.7071
G1 X114.579 Y82.583 E2.7107
G1 X117.648 Y80.887 E2.7979
G1 X117.776 Y80.825 E2.8014
G1 X121.015 Y79.484 E2.8887
G1 X121.148 Y79.437 E2.8922
G1 X124.517 Y78.466 E2.9794
G1 X124.655 Y78.435 E2.9830
G1 X128.112 Y77.848 E3.0702
G1 X128.253 Y77.832 E3.0737
G1 X131.753 Y77.635 E3.1610
G1 X131.895 Y77.635 E3.1645
G1 X135.395 Y77.832 E3.2517
G1 X135.536 Y77.848 E3.2552
G1 X138.992 Y78.435 E3.3425
G1 X139.130 Y78.466 E3.3460
G1 X142.499 Y79.437 E3.4332
G1 X142.633 Y79.484 E3.4368
G1 X145.872 Y80.825 E3.5240
G1 X146.000 Y80.887 E3.5275
G1 X149.068 Y82.583 E3.6148
G1 X149.188 Y82.658 E3.6183
G1 X152.047 Y84.687 E3.7055
G1 X152.158 Y84.775 E3.7091
G1 X154.746 Y87.088 E3.7954
G1 X154.797 Y87.136 E3.7972
G1 X180.311 Y112.650 E4.6950
G1 X180.311 Y114.742 E4.7470
G1 X159.569 Y135.483 E5.4769
G1 X159.569 Y135.800 E5.4848
G1 X158.090 Y137.279 E5.5369
G1 X153.558 Y137.279 E5.6496
G1 X152.079 Y135.800 E5.7017
G1 X152.079 Y135.279 E5.7146
G1 X151.558 Y135.279 E5.7276
G1 X150.079 Y133.800 E5.7796
G1 X150.079 Y133.279 E5.7926
G1 X149.558 Y133.279 E5.8056
G1 X148.079 Y131.800 E5.8576
G1 X148.079 Y131.279 E5.8706
G1 X147.558 Y131.279 E5.8835
G1 X146.079 Y129.800 E5.9356
G1 X146.079 Y129.279 E5.9485
G1 X145.558 Y129.279 E5.9615
G1 X144.079 Y127.800 E6.0136
G1 X144.079 Y127.279 E6.0265
G1 X143.558 Y127.279 E6.0395
G1 X142.079 Y125.800 E6.0915
G1 X142.079 Y125.279 E6.1045
G1 X141.558 Y125.279 E6.1175
G1 X140.079 Y123.800 E6.1695
G1 X140.079 Y123.279 E6.1825
G1 X139.558 Y123.279 E6.1954
G1 X138.079 Y121.800 E6.2475
G1 X138.079 Y121.279 E6.2604
G1 X137.558 Y121.279 E6.2734
G1 X136.079 Y119.800 E6.3254
G1 X136.079 Y119.279 E6.3384
G1 X135.558 Y119.279 E6.3514
G1 X134.079 Y117.800 E6.4034
G1 X134.079 Y117.279 E6.4164
G1 X133.558 Y117.279 E6.4293
G1 X132.079 Y115.800 E6.4814
G1 X132.079 Y113.986 E6.5265
G1 X131.824 Y113.731 E6.5355
G1 X131.569 Y113.986 E6.5445
G1 X131.569 Y115.800 E6.5896
G1 X130.090 Y117.279 E6.6417
G1 X129.569 Y117.279 E6.6546
G1 X129.569 Y117.800 E6.6676
G1 X128.090 Y119.279 E6.7196
G1 X127.569 Y119.279 E6.7326
