; G-Code generated by Simplify3D(R) Version 4.1.2
; Oct 26, 2020 at 10:32:24 PM
; Settings Summary
;   processName,Process1
;   applyToModels,BodyCoinProfileLBas(2)
;   profileName,A04-04-15s Tevo Tornado
;   profileVersion,2020-04-29 16:00:54
;   baseProfile,Creality CR-10(2)
;   printMaterial,PLA
;   printQuality,Medium
;   printExtruders,
;   extruderName,Primary Extruder
;   extruderToolheadNumber,0
;   extruderDiameter,0.4
;   extruderAutoWidth,0
;   extruderWidth,0.35
;   extrusionMultiplier,0.95
;   extruderUseRetract,1
;   extruderRetractionDistance,4
;   extruderExtraRestartDistance,0
;   extruderRetractionZLift,0.3
;   extruderRetractionSpeed,3000
;   extruderUseCoasting,1
;   extruderCoastingDistance,0.8
;   extruderUseWipe,0
;   extruderWipeDistance,4
;   primaryExtruder,0
;   layerHeight,0.15
;   topSolidLayers,4
;   bottomSolidLayers,3
;   perimeterOutlines,3
;   printPerimetersInsideOut,0
;   startPointOption,1
;   startPointOriginX,0
;   startPointOriginY,300
;   sequentialIslands,0
;   spiralVaseMode,0
;   firstLayerHeightPercentage,120
;   firstLayerWidthPercentage,100
;   firstLayerUnderspeed,0.35
;   useRaft,0
;   raftExtruder,0
;   raftTopLayers,3
;   raftBaseLayers,2
;   raftOffset,3
;   raftSeparationDistance,0.14
;   raftTopInfill,100
;   aboveRaftSpeedMultiplier,0.3
;   useSkirt,1
;   skirtExtruder,0
;   skirtLayers,1
;   skirtOutlines,3
;   skirtOffset,2
;   usePrimePillar,0
;   primePillarExtruder,999
;   primePillarWidth,12
;   primePillarLocation,7
;   primePillarSpeedMultiplier,1
;   useOozeShield,0
;   oozeShieldExtruder,999
;   oozeShieldOffset,2
;   oozeShieldOutlines,1
;   oozeShieldSidewallShape,1
;   oozeShieldSidewallAngle,30
;   oozeShieldSpeedMultiplier,1
;   infillExtruder,0
;   internalInfillPattern,Rectilinear
;   externalInfillPattern,Rectilinear
;   infillPercentage,15
;   outlineOverlapPercentage,15
;   infillExtrusionWidthPercentage,100
;   minInfillLength,5
;   infillLayerInterval,1
;   internalInfillAngles,45,-45
;   overlapInternalInfillAngles,0
;   externalInfillAngles,45,-45
;   generateSupport,1
;   supportExtruder,0
;   supportInfillPercentage,30
;   supportExtraInflation,0
;   supportBaseLayers,0
;   denseSupportExtruder,0
;   denseSupportLayers,0
;   denseSupportInfillPercentage,70
;   supportLayerInterval,1
;   supportHorizontalPartOffset,0.4
;   supportUpperSeparationLayers,1
;   supportLowerSeparationLayers,1
;   supportType,0
;   supportGridSpacing,4.5
;   maxOverhangAngle,45
;   supportAngles,0
;   temperatureName,Primary Extruder,Heated Bed
;   temperatureNumber,0,0
;   temperatureSetpointCount,1,1
;   temperatureSetpointLayers,1,1
;   temperatureSetpointTemperatures,215,55
;   temperatureStabilizeAtStartup,1,1
;   temperatureHeatedBed,0,1
;   fanLayers,1,2
;   fanSpeeds,0,100
;   blipFanToFullPower,0
;   adjustSpeedForCooling,1
;   minSpeedLayerTime,15
;   minCoolingSpeedSlowdown,50
;   increaseFanForCooling,1
;   minFanLayerTime,25
;   maxCoolingFanSpeed,100
;   increaseFanForBridging,1
;   bridgingFanSpeed,100
;   use5D,1
;   relativeEdistances,0
;   allowEaxisZeroing,1
;   independentExtruderAxes,0
;   includeM10123,0
;   stickySupport,1
;   applyToolheadOffsets,0
;   gcodeXoffset,0
;   gcodeYoffset,0
;   gcodeZoffset,0
;   overrideMachineDefinition,1
;   machineTypeOverride,0
;   strokeXoverride,300
;   strokeYoverride,300
;   strokeZoverride,400
;   originOffsetXoverride,0
;   originOffsetYoverride,0
;   originOffsetZoverride,0
;   homeXdirOverride,-1
;   homeYdirOverride,-1
;   homeZdirOverride,-1
;   flipXoverride,1
;   flipYoverride,-1
;   flipZoverride,1
;   toolheadOffsets,0,0|0,0|0,0|0,0|0,0|0,0
;   overrideFirmwareConfiguration,1
;   firmwareTypeOverride,RepRap (Marlin/Repetier/Sprinter)
;   GPXconfigOverride,r2
;   baudRateOverride,250000
;   overridePrinterModels,1
;   printerModelsOverride
;   startingGcode,;,; -]H.P.B[- MarshMalloW  ,; $VER: StartScript 1.02 (26.12.2019) MarshMalloW,;,; Begin Startcode,;,M117 *Preheat*     	; Preheat,;extruder0_temperature,M104 S[extruder0_temperature]  ,M109 S[extruder0_temperature] ,M109 R[extruder0_temperature] ,;,M117 *Auto-leveling*     	; Auto-leveling,M107                   	; Turn layer fan off,G21                    	; Set to metric [change to G20 if you want Imperial],G90                    	; Force coordinates to be absolute relative to the origin,G28                    	; Home X/Y/Z axis,G29                    	; Auto-leveling (BL-Touch),;,M117 *Start Clean*     	; Indicate nozzle clean in progress on LCD,G92 E0                 	; Set Extruder to 0 ,G1 X0 Y0 F2000         	; Move X and Y to 0 with speed 2000 (mm/min),G1 Z0.1 F1000          	; Move Z to   0.1 with speed 1000 (mm/min),G1 X8.0 F2000          	; Move X to   8.0 with speed 2000 (mm/min),G1 Y60.0 E4.0 F1000.0  	; Move Y to  60 and Extruder with 4.0 with speed 1000 (mm/min),G1 Y100.0 E8.5 F1000.0 	; Move Y to 100 and Extruder with 8.5 with speed 1000 (mm/min),G92 E0                 	; Set extruder to 0,G1 X16.0 F3000         	; Move X to 16.0 with speed 3000 (mm/min),G1 Y60.0 F3000         	; Move Y to 60.0 with speed 3000 (mm/min),M117 *End Clean*       	; Indicate nozzle clean in progress on LCD,G1 Z5 F3000            	; Move Z to  5.0 with speed 3000 (mm/min),G1 X20.0 F3000         	; Move X to 20.0 with speed 3000 (mm/min),G1 Y20.0 F3000         	; Move Y to 20.0 with speed 3000 (mm/min),; ,M117 *Printing...*     	; Start printing msg on LCD,;,; End Startcode,;,; Begin printing with sliced GCode after here,;
;   layerChangeGcode,
;   retractionGcode,
;   toolChangeGcode,
;   endingGcode,;,; init 181010,;,;M107 			; Fan off,;G1 E-1 F300 			; Retract the filament a bit before lifting the nozzle,;M104 S0 			; Turn off extruder,;M140 S0 			; Turn off bed,;G91			; Relative positioning,;G28 X0 Y0 			; Move X/Y to min endstops so the head is out of teh way,;M84 			; Disable motors,;G90 			; Absolute positioning,;M117 Print ready...,,;,; // From Cura 181010,; // End_gcode,G92 E0			; Zero the extruded length,;G1 E-30 F300		; Retract E -30,M106 S0			; Turn off cooling fan,M104 S0			; Turn off temperature,M140 S0		     	; Turn off bed,G91			; Relative positioning,G1 E-1 F300			; Retract the filament a bit before lifting the nozzle to release some of the pressure,G1 Z+20 E-5 X-20 Y-20 F7200	; Move Z up a bit and retract filament even more,G1 X0 Y150 F10000		; Move right min,M107			; Turn off layer fan,M84			; Disable motors,G90			; Absolute positioning,M117 *The-End* 		; End msg,;,
;   exportFileFormat,gcode
;   celebration,0
;   celebrationSong,Star Wars
;   postProcessing,|{REPLACE "; layer " "M117 INDICATOR-Layer"}|{REPLACE ", Z = " "\n; Z="}
;   defaultSpeed,1800
;   outlineUnderspeed,0.5
;   solidInfillUnderspeed,0.8
;   supportUnderspeed,0.8
;   rapidXYspeed,6000
;   rapidZspeed,1002
;   minBridgingArea,50
;   bridgingExtraInflation,0.2
;   bridgingExtrusionMultiplier,1
;   bridgingSpeedMultiplier,0.6
;   useFixedBridgingAngle,0
;   fixedBridgingAngle,0
;   applyBridgingToPerimeters,0
;   filamentDiameters,1.75|1.75|1.75|1.75|1.75|1.75
;   filamentPricesPerKg,30|46|46|46|46|46
;   filamentDensities,1.25|1.25|1.25|1.25|1.25|1.25
;   useMinPrintHeight,0
;   minPrintHeight,0
;   useMaxPrintHeight,0
;   maxPrintHeight,9
;   useDiaphragm,0
;   diaphragmLayerInterval,20
;   robustSlicing,1
;   mergeAllIntoSolid,0
;   onlyRetractWhenCrossingOutline,1
;   retractBetweenLayers,0
;   useRetractionMinTravel,0
;   retractionMinTravel,3
;   retractWhileWiping,0
;   onlyWipeOutlines,1
;   avoidCrossingOutline,1
;   maxMovementDetourFactor,3
;   toolChangeRetractionDistance,12
;   toolChangeExtraRestartDistance,-0.5
;   toolChangeRetractionSpeed,600
;   externalThinWallType,1
;   internalThinWallType,1
;   thinWallAllowedOverlapPercentage,10
;   singleExtrusionMinLength,1
;   singleExtrusionMinPrintingWidthPercentage,50
;   singleExtrusionMaxPrintingWidthPercentage,200
;   singleExtrusionEndpointExtension,0.2
;   horizontalSizeCompensation,0
G90
M82
M106 S0
M140 S55
M190 S55
;
; -]H.P.B[- MarshMalloW  
; $VER: StartScript 1.02 (26.12.2019) MarshMalloW
;
; Begin Startcode
;
M117 *Preheat*     	; Preheat
;extruder0_temperature
M104 S215  
M109 S215 
M109 R215 
;
M117 *Auto-leveling*     	; Auto-leveling
M107                   	; Turn layer fan off
G21                    	; Set to metric [change to G20 if you want Imperial]
G90                    	; Force coordinates to be absolute relative to the origin
G28                    	; Home X/Y/Z axis
G29                    	; Auto-leveling (BL-Touch)
;
M117 *Start Clean*     	; Indicate nozzle clean in progress on LCD
G92 E0                 	; Set Extruder to 0 
G1 X0 Y0 F2000         	; Move X and Y to 0 with speed 2000 (mm/min)
G1 Z0.1 F1000          	; Move Z to   0.1 with speed 1000 (mm/min)
G1 X8.0 F2000          	; Move X to   8.0 with speed 2000 (mm/min)
G1 Y60.0 E4.0 F1000.0  	; Move Y to  60 and Extruder with 4.0 with speed 1000 (mm/min)
G1 Y100.0 E8.5 F1000.0 	; Move Y to 100 and Extruder with 8.5 with speed 1000 (mm/min)
G92 E0                 	; Set extruder to 0
G1 X16.0 F3000         	; Move X to 16.0 with speed 3000 (mm/min)
G1 Y60.0 F3000         	; Move Y to 60.0 with speed 3000 (mm/min)
M117 *End Clean*       	; Indicate nozzle clean in progress on LCD
G1 Z5 F3000            	; Move Z to  5.0 with speed 3000 (mm/min)
G1 X20.0 F3000         	; Move X to 20.0 with speed 3000 (mm/min)
G1 Y20.0 F3000         	; Move Y to 20.0 with speed 3000 (mm/min)
; 
M117 *Printing...*     	; Start printing msg on LCD
;
; End Startcode
;
; Begin printing with sliced GCode after here
;
; process Process1
M117 INDICATOR-Layer1
; Z=0.180
T0
G92 E0.0000
G1 E-4.0000 F3000
; feature skirt
; tool H0.180 W0.350
G1 Z0.300 F1002
G1 X113.968 Y132.696 F6000
G1 Z0.180 F1002
G1 E0.0000 F3000
G92 E0.0000
G1 X112.284 Y131.012 E0.0593 F630
G1 X112.284 Y130.945 E0.0609
G1 X91.292 Y109.953 E0.7996
G1 X91.292 Y107.572 E0.8589
G1 X116.911 Y81.952 E1.7604
G1 X116.970 Y81.897 E1.7624
G1 X119.569 Y79.575 E1.8491
G1 X119.695 Y79.474 E1.8532
G1 X122.570 Y77.434 E1.9409
G1 X122.707 Y77.348 E1.9449
G1 X125.792 Y75.643 E2.0326
G1 X125.938 Y75.573 E2.0366
G1 X129.195 Y74.223 E2.1244
G1 X129.347 Y74.170 E2.1284
G1 X132.735 Y73.194 E2.2161
G1 X132.892 Y73.158 E2.2201
G1 X136.368 Y72.568 E2.3078
G1 X136.528 Y72.550 E2.3119
G1 X140.048 Y72.352 E2.3996
G1 X140.209 Y72.352 E2.4036
G1 X143.729 Y72.550 E2.4913
G1 X143.890 Y72.568 E2.4953
G1 X147.366 Y73.158 E2.5831
G1 X147.523 Y73.194 E2.5871
G1 X150.911 Y74.170 E2.6748
G1 X151.063 Y74.223 E2.6788
G1 X154.320 Y75.573 E2.7665
G1 X154.465 Y75.643 E2.7706
G1 X157.551 Y77.348 E2.8583
G1 X157.688 Y77.434 E2.8623
G1 X160.563 Y79.474 E2.9500
G1 X160.689 Y79.575 E2.9540
G1 X163.288 Y81.897 E3.0408
G1 X163.346 Y81.952 E3.0428
G1 X188.966 Y107.572 E3.9443
G1 X188.966 Y109.953 E4.0036
G1 X167.974 Y130.945 E4.7423
G1 X167.974 Y131.012 E4.7439
G1 X166.290 Y132.696 E4.8032
G1 X161.968 Y132.696 E4.9107
G1 X160.284 Y131.012 E4.9700
G1 X158.784 Y129.512 E5.0228
G1 X157.284 Y128.012 E5.0756
G1 X155.784 Y126.512 E5.1283
G1 X154.284 Y125.012 E5.1811
G1 X152.784 Y123.512 E5.2339
G1 X151.284 Y122.012 E5.2867
G1 X149.784 Y120.512 E5.3395
G1 X148.284 Y119.012 E5.3923
G1 X146.784 Y117.512 E5.4451
G1 X145.284 Y116.012 E5.4978
G1 X143.784 Y114.512 E5.5506
G1 X142.284 Y113.012 E5.6034
G1 X140.784 Y111.512 E5.6562
G1 X140.784 Y109.948 E5.6951
G1 X140.129 Y109.293 E5.7182
G1 X139.472 Y109.950 E5.7413
G1 X139.480 Y111.501 E5.7799
G1 X137.790 Y113.196 E5.8395
G1 X118.290 Y132.696 E6.5257
G1 X113.968 Y132.696 E6.6332
G92 E0.0000
G1 E-4.0000 F3000
G1 Z0.480 F1002
G1 X134.645 Y115.846 F6000
G1 Z0.180 F1002
G1 E0.0000 F3000
G92 E0.0000
G1 X134.624 Y115.846 E0.0005 F630
G1 X134.624 Y115.867 E0.0010
G1 X133.145 Y117.346 E0.0531
G1 X133.124 Y117.346 E0.0536
G1 X133.124 Y117.367 E0.0541
G1 X131.645 Y118.846 E0.1062
G1 X131.624 Y118.846 E0.1067
G1 X131.624 Y118.867 E0.1072
G1 X130.145 Y120.346 E0.1593
G1 X130.124 Y120.346 E0.1598
G1 X130.124 Y120.367 E0.1603
G1 X128.645 Y121.846 E0.2124
G1 X128.624 Y121.846 E0.2129
G1 X128.624 Y121.867 E0.2134
G1 X127.145 Y123.346 E0.2654
G1 X127.124 Y123.346 E0.2660
G1 X127.124 Y123.367 E0.2665
G1 X125.645 Y124.846 E0.3185
G1 X125.624 Y124.846 E0.3191
G1 X125.624 Y124.867 E0.3196
G1 X124.145 Y126.346 E0.3716
G1 X124.124 Y126.346 E0.3721
G1 X124.124 Y126.367 E0.3727
G1 X122.645 Y127.846 E0.4247
G1 X122.624 Y127.846 E0.4252
G1 X122.624 Y127.867 E0.4257
G1 X121.145 Y129.346 E0.4778
G1 X121.124 Y129.346 E0.4783
G1 X121.124 Y129.367 E0.4788
G1 X119.645 Y130.846 E0.5309
G1 X119.624 Y130.846 E0.5314
G1 X119.624 Y130.867 E0.5319
G1 X118.145 Y132.346 E0.5840
G1 X114.113 Y132.346 E0.6843
G1 X112.634 Y130.867 E0.7363
G1 X112.634 Y130.800 E0.7380
G1 X91.642 Y109.808 E1.4767
G1 X91.642 Y107.717 E1.5288
G1 X117.155 Y82.203 E2.4266
G1 X117.207 Y82.155 E2.4283
G1 X119.794 Y79.842 E2.5147
G1 X119.905 Y79.754 E2.5182
G1 X122.764 Y77.725 E2.6054
G1 X122.884 Y77.650 E2.6090
G1 X125.953 Y75.954 E2.6962
G1 X126.081 Y75.892 E2.6997
G1 X129.320 Y74.551 E2.7870
G1 X129.453 Y74.504 E2.7905
G1 X132.822 Y73.533 E2.8777
G1 X132.960 Y73.502 E2.8813
G1 X136.417 Y72.914 E2.9685
G1 X136.558 Y72.899 E2.9720
G1 X140.058 Y72.702 E3.0592
G1 X140.200 Y72.702 E3.0628
G1 X143.700 Y72.899 E3.1500
G1 X143.841 Y72.914 E3.1535
G1 X147.297 Y73.502 E3.2408
G1 X147.435 Y73.533 E3.2443
G1 X150.804 Y74.504 E3.3315
G1 X150.938 Y74.551 E3.3351
G1 X154.177 Y75.892 E3.4223
G1 X154.305 Y75.954 E3.4258
G1 X157.373 Y77.650 E3.5131
G1 X157.493 Y77.725 E3.5166
G1 X160.352 Y79.754 E3.6038
G1 X160.463 Y79.842 E3.6073
G1 X163.051 Y82.155 E3.6937
G1 X163.102 Y82.203 E3.6955
G1 X188.616 Y107.717 E4.5933
G1 X188.616 Y109.808 E4.6453
G1 X167.624 Y130.800 E5.3840
G1 X167.624 Y130.867 E5.3857
G1 X166.145 Y132.346 E5.4377
G1 X162.113 Y132.346 E5.5380
G1 X160.634 Y130.867 E5.5901
G1 X160.634 Y130.846 E5.5906
G1 X160.613 Y130.846 E5.5911
G1 X159.134 Y129.367 E5.6432
G1 X159.134 Y129.346 E5.6437
G1 X159.113 Y129.346 E5.6442
G1 X157.634 Y127.867 E5.6963
G1 X157.634 Y127.846 E5.6968
G1 X157.613 Y127.846 E5.6973
G1 X156.134 Y126.367 E5.7494
G1 X156.134 Y126.346 E5.7499
G1 X156.113 Y126.346 E5.7504
G1 X154.634 Y124.867 E5.8025
G1 X154.634 Y124.846 E5.8030
G1 X154.613 Y124.846 E5.8035
G1 X153.134 Y123.367 E5.8555
G1 X153.134 Y123.346 E5.8561
G1 X153.113 Y123.346 E5.8566
G1 X151.634 Y121.867 E5.9086
G1 X151.634 Y121.846 E5.9092
G1 X151.613 Y121.846 E5.9097
G1 X150.134 Y120.367 E5.9617
G1 X150.134 Y120.346 E5.9622
G1 X150.113 Y120.346 E5.9628
G1 X148.634 Y118.867 E6.0148
G1 X148.634 Y118.846 E6.0153
G1 X148.613 Y118.846 E6.0158
G1 X147.134 Y117.367 E6.0679
G1 X147.134 Y117.346 E6.0684
G1 X147.113 Y117.346 E6.0689
G1 X145.634 Y115.867 E6.1210
G1 X145.634 Y115.846 E6.1215
G1 X145.613 Y115.846 E6.1220
G1 X144.134 Y114.367 E6.1741
G1 X144.134 Y114.346 E6.1746
G1 X144.113 Y114.346 E6.1751
G1 X142.634 Y112.867 E6.2272
G1 X142.634 Y112.846 E6.2277
G1 X142.613 Y112.846 E6.2282
G1 X141.134 Y111.367 E6.2803
G1 X141.134 Y109.803 E6.3192
G1 X140.129 Y108.798 E6.3545
G1 X139.121 Y109.806 E6.3900
G1 X139.130 Y111.357 E6.4286
G1 X137.649 Y112.846 E6.4809
G1 X137.624 Y112.846 E6.4815
G1 X137.624 Y112.867 E6.4820
G1 X136.145 Y114.346 E6.5341
G1 X136.124 Y114.346 E6.5346
G1 X136.124 Y114.367 E6.5351
G1 X134.645 Y115.846 E6.5871
G92 E0.0000
G1 E-4.0000 F3000
G1 Z0.480 F1002
G1 X159.484 Y128.996 F6000
G1 Z0.180 F1002
G1 E0.0000 F3000
G92 E0.0000
G1 X159.258 Y128.996 E0.0056 F630
G1 X157.984 Y127.722 E0.0505
G1 X157.984 Y127.496 E0.0561
G1 X157.758 Y127.496 E0.0617
G1 X156.484 Y126.222 E0.1065
G1 X156.484 Y125.996 E0.1122
G1 X156.258 Y125.996 E0.1178
G1 X154.984 Y124.722 E0.1626
G1 X154.984 Y124.496 E0.1682
G1 X154.758 Y124.496 E0.1739
G1 X153.484 Y123.222 E0.2187
G1 X153.484 Y122.996 E0.2243
G1 X153.258 Y122.996 E0.2299
G1 X151.984 Y121.722 E0.2748
G1 X151.984 Y121.496 E0.2804
G1 X151.758 Y121.496 E0.2860
G1 X150.484 Y120.222 E0.3308
G1 X150.484 Y119.996 E0.3365
G1 X150.258 Y119.996 E0.3421
G1 X148.984 Y118.722 E0.3869
G1 X148.984 Y118.496 E0.3925
