; G-Code generated by Simplify3D(R) Version 4.1.2
; Oct 31, 2020 at 2:51:28 PM
; Settings Summary
;   processName,Process1
;   applyToModels,Tourillion,Tourillion(2),Tourillion(3),Tourillion(4),Tourillion(5)
;   profileName,A04-04-25s Tevo Tornado
;   profileVersion,2020-07-06 22:44:24
;   baseProfile,Creality CR-10(2)
;   printMaterial,PLA
;   printQuality,Medium
;   printExtruders,
;   extruderName,Primary Extruder
;   extruderToolheadNumber,0
;   extruderDiameter,0.4
;   extruderAutoWidth,0
;   extruderWidth,0.35
;   extrusionMultiplier,0.95
;   extruderUseRetract,1
;   extruderRetractionDistance,4
;   extruderExtraRestartDistance,0
;   extruderRetractionZLift,0.3
;   extruderRetractionSpeed,3000
;   extruderUseCoasting,1
;   extruderCoastingDistance,0.8
;   extruderUseWipe,0
;   extruderWipeDistance,4
;   primaryExtruder,0
;   layerHeight,0.15
;   topSolidLayers,4
;   bottomSolidLayers,3
;   perimeterOutlines,3
;   printPerimetersInsideOut,0
;   startPointOption,1
;   startPointOriginX,0
;   startPointOriginY,300
;   sequentialIslands,0
;   spiralVaseMode,0
;   firstLayerHeightPercentage,120
;   firstLayerWidthPercentage,100
;   firstLayerUnderspeed,0.35
;   useRaft,0
;   raftExtruder,0
;   raftTopLayers,3
;   raftBaseLayers,2
;   raftOffset,3
;   raftSeparationDistance,0.14
;   raftTopInfill,100
;   aboveRaftSpeedMultiplier,0.3
;   useSkirt,1
;   skirtExtruder,0
;   skirtLayers,1
;   skirtOutlines,3
;   skirtOffset,2
;   usePrimePillar,0
;   primePillarExtruder,999
;   primePillarWidth,12
;   primePillarLocation,7
;   primePillarSpeedMultiplier,1
;   useOozeShield,0
;   oozeShieldExtruder,999
;   oozeShieldOffset,2
;   oozeShieldOutlines,1
;   oozeShieldSidewallShape,1
;   oozeShieldSidewallAngle,30
;   oozeShieldSpeedMultiplier,1
;   infillExtruder,0
;   internalInfillPattern,Rectilinear
;   externalInfillPattern,Rectilinear
;   infillPercentage,25
;   outlineOverlapPercentage,15
;   infillExtrusionWidthPercentage,100
;   minInfillLength,5
;   infillLayerInterval,1
;   internalInfillAngles,45,-45
;   overlapInternalInfillAngles,0
;   externalInfillAngles,45,-45
;   generateSupport,1
;   supportExtruder,0
;   supportInfillPercentage,30
;   supportExtraInflation,0
;   supportBaseLayers,0
;   denseSupportExtruder,0
;   denseSupportLayers,0
;   denseSupportInfillPercentage,70
;   supportLayerInterval,1
;   supportHorizontalPartOffset,0.4
;   supportUpperSeparationLayers,1
;   supportLowerSeparationLayers,1
;   supportType,0
;   supportGridSpacing,4.5
;   maxOverhangAngle,45
;   supportAngles,0
;   temperatureName,Primary Extruder,Heated Bed
;   temperatureNumber,0,0
;   temperatureSetpointCount,1,1
;   temperatureSetpointLayers,1,1
;   temperatureSetpointTemperatures,215,55
;   temperatureStabilizeAtStartup,1,1
;   temperatureHeatedBed,0,1
;   fanLayers,1,2
;   fanSpeeds,0,100
;   blipFanToFullPower,0
;   adjustSpeedForCooling,1
;   minSpeedLayerTime,15
;   minCoolingSpeedSlowdown,50
;   increaseFanForCooling,1
;   minFanLayerTime,25
;   maxCoolingFanSpeed,100
;   increaseFanForBridging,1
;   bridgingFanSpeed,100
;   use5D,1
;   relativeEdistances,0
;   allowEaxisZeroing,1
;   independentExtruderAxes,0
;   includeM10123,0
;   stickySupport,1
;   applyToolheadOffsets,0
;   gcodeXoffset,0
;   gcodeYoffset,0
;   gcodeZoffset,0
;   overrideMachineDefinition,1
;   machineTypeOverride,0
;   strokeXoverride,300
;   strokeYoverride,300
;   strokeZoverride,400
;   originOffsetXoverride,0
;   originOffsetYoverride,0
;   originOffsetZoverride,0
;   homeXdirOverride,-1
;   homeYdirOverride,-1
;   homeZdirOverride,-1
;   flipXoverride,1
;   flipYoverride,-1
;   flipZoverride,1
;   toolheadOffsets,0,0|0,0|0,0|0,0|0,0|0,0
;   overrideFirmwareConfiguration,1
;   firmwareTypeOverride,RepRap (Marlin/Repetier/Sprinter)
;   GPXconfigOverride,r2
;   baudRateOverride,250000
;   overridePrinterModels,1
;   printerModelsOverride
;   startingGcode,;,; -]H.P.B[- MarshMalloW  ,; $VER: StartScript 1.02 (26.12.2019) MarshMalloW,;,; Begin Startcode,;,M117 *Preheat*     	; Preheat,;extruder0_temperature,M104 S[extruder0_temperature]  ,M109 S[extruder0_temperature] ,M109 R[extruder0_temperature] ,;,M117 *Auto-leveling*     	; Auto-leveling,M107                   	; Turn layer fan off,G21                    	; Set to metric [change to G20 if you want Imperial],G90                    	; Force coordinates to be absolute relative to the origin,G28                    	; Home X/Y/Z axis,G29                    	; Auto-leveling (BL-Touch),;,M117 *Start Clean*     	; Indicate nozzle clean in progress on LCD,G92 E0                 	; Set Extruder to 0 ,G1 X0 Y0 F2000         	; Move X and Y to 0 with speed 2000 (mm/min),G1 Z0.1 F1000          	; Move Z to   0.1 with speed 1000 (mm/min),G1 X8.0 F2000          	; Move X to   8.0 with speed 2000 (mm/min),G1 Y60.0 E4.0 F1000.0  	; Move Y to  60 and Extruder with 4.0 with speed 1000 (mm/min),G1 Y100.0 E8.5 F1000.0 	; Move Y to 100 and Extruder with 8.5 with speed 1000 (mm/min),G92 E0                 	; Set extruder to 0,G1 X16.0 F3000         	; Move X to 16.0 with speed 3000 (mm/min),G1 Y60.0 F3000         	; Move Y to 60.0 with speed 3000 (mm/min),M117 *End Clean*       	; Indicate nozzle clean in progress on LCD,G1 Z5 F3000            	; Move Z to  5.0 with speed 3000 (mm/min),G1 X20.0 F3000         	; Move X to 20.0 with speed 3000 (mm/min),G1 Y20.0 F3000         	; Move Y to 20.0 with speed 3000 (mm/min),; ,M117 *Printing...*     	; Start printing msg on LCD,;,; End Startcode,;,; Begin printing with sliced GCode after here,;
;   layerChangeGcode,
;   retractionGcode,
;   toolChangeGcode,
;   endingGcode,;,; init 181010,;,;M107 			; Fan off,;G1 E-1 F300 			; Retract the filament a bit before lifting the nozzle,;M104 S0 			; Turn off extruder,;M140 S0 			; Turn off bed,;G91			; Relative positioning,;G28 X0 Y0 			; Move X/Y to min endstops so the head is out of teh way,;M84 			; Disable motors,;G90 			; Absolute positioning,;M117 Print ready...,,;,; // From Cura 181010,; // End_gcode,G92 E0			; Zero the extruded length,;G1 E-30 F300		; Retract E -30,M106 S0			; Turn off cooling fan,M104 S0			; Turn off temperature,M140 S0		     	; Turn off bed,G91			; Relative positioning,G1 E-1 F300			; Retract the filament a bit before lifting the nozzle to release some of the pressure,G1 Z+20 E-5 X-20 Y-20 F7200	; Move Z up a bit and retract filament even more,G1 X0 Y150 F10000		; Move right min,M107			; Turn off layer fan,M84			; Disable motors,G90			; Absolute positioning,M117 *The-End* 		; End msg,;,
;   exportFileFormat,gcode
;   celebration,0
;   celebrationSong,Star Wars
;   postProcessing,|{REPLACE "; layer " "M117 INDICATOR-Layer"}|{REPLACE ", Z = " "\n; Z="}
;   defaultSpeed,1800
;   outlineUnderspeed,0.5
;   solidInfillUnderspeed,0.8
;   supportUnderspeed,0.8
;   rapidXYspeed,6000
;   rapidZspeed,1002
;   minBridgingArea,50
;   bridgingExtraInflation,0.2
;   bridgingExtrusionMultiplier,1
;   bridgingSpeedMultiplier,0.6
;   useFixedBridgingAngle,0
;   fixedBridgingAngle,0
;   applyBridgingToPerimeters,0
;   filamentDiameters,1.75|1.75|1.75|1.75|1.75|1.75
;   filamentPricesPerKg,30|46|46|46|46|46
;   filamentDensities,1.25|1.25|1.25|1.25|1.25|1.25
;   useMinPrintHeight,0
;   minPrintHeight,0
;   useMaxPrintHeight,0
;   maxPrintHeight,9
;   useDiaphragm,0
;   diaphragmLayerInterval,20
;   robustSlicing,1
;   mergeAllIntoSolid,0
;   onlyRetractWhenCrossingOutline,1
;   retractBetweenLayers,0
;   useRetractionMinTravel,0
;   retractionMinTravel,3
;   retractWhileWiping,0
;   onlyWipeOutlines,1
;   avoidCrossingOutline,1
;   maxMovementDetourFactor,3
;   toolChangeRetractionDistance,12
;   toolChangeExtraRestartDistance,-0.5
;   toolChangeRetractionSpeed,600
;   externalThinWallType,1
;   internalThinWallType,1
;   thinWallAllowedOverlapPercentage,10
;   singleExtrusionMinLength,1
;   singleExtrusionMinPrintingWidthPercentage,50
;   singleExtrusionMaxPrintingWidthPercentage,200
;   singleExtrusionEndpointExtension,0.2
;   horizontalSizeCompensation,0
G90
M82
M106 S0
M140 S55
M190 S55
;
; -]H.P.B[- MarshMalloW  
; $VER: StartScript 1.02 (26.12.2019) MarshMalloW
;
; Begin Startcode
;
M117 *Preheat*     	; Preheat
;extruder0_temperature
M104 S215  
M109 S215 
M109 R215 
;
M117 *Auto-leveling*     	; Auto-leveling
M107                   	; Turn layer fan off
G21                    	; Set to metric [change to G20 if you want Imperial]
G90                    	; Force coordinates to be absolute relative to the origin
G28                    	; Home X/Y/Z axis
G29                    	; Auto-leveling (BL-Touch)
;
M117 *Start Clean*     	; Indicate nozzle clean in progress on LCD
G92 E0                 	; Set Extruder to 0 
G1 X0 Y0 F2000         	; Move X and Y to 0 with speed 2000 (mm/min)
G1 Z0.1 F1000          	; Move Z to   0.1 with speed 1000 (mm/min)
G1 X8.0 F2000          	; Move X to   8.0 with speed 2000 (mm/min)
G1 Y60.0 E4.0 F1000.0  	; Move Y to  60 and Extruder with 4.0 with speed 1000 (mm/min)
G1 Y100.0 E8.5 F1000.0 	; Move Y to 100 and Extruder with 8.5 with speed 1000 (mm/min)
G92 E0                 	; Set extruder to 0
G1 X16.0 F3000         	; Move X to 16.0 with speed 3000 (mm/min)
G1 Y60.0 F3000         	; Move Y to 60.0 with speed 3000 (mm/min)
M117 *End Clean*       	; Indicate nozzle clean in progress on LCD
G1 Z5 F3000            	; Move Z to  5.0 with speed 3000 (mm/min)
G1 X20.0 F3000         	; Move X to 20.0 with speed 3000 (mm/min)
G1 Y20.0 F3000         	; Move Y to 20.0 with speed 3000 (mm/min)
; 
M117 *Printing...*     	; Start printing msg on LCD
;
; End Startcode
;
; Begin printing with sliced GCode after here
;
; process Process1
M117 INDICATOR-Layer1
; Z=0.180
T0
G92 E0.0000
G1 E-4.0000 F3000
; feature skirt
; tool H0.180 W0.350
G1 Z0.300 F1002
G1 X133.178 Y82.207 F6000
G1 Z0.180 F1002
G1 E0.0000 F3000
G92 E0.0000
G1 X130.493 Y79.523 E0.0945 F630
G1 X130.493 Y74.460 E0.2204
G1 X129.547 Y74.460 E0.2440
G1 X126.863 Y71.776 E0.3384
G1 X126.863 Y64.954 E0.5082
G1 X129.547 Y62.270 E0.6026
G1 X136.369 Y62.270 E0.7724
G1 X137.538 Y63.439 E0.8135
G1 X138.376 Y62.601 E0.8430
G1 X145.198 Y62.601 E1.0127
G1 X145.809 Y63.212 E1.0343
G1 X146.440 Y62.581 E1.0565
G1 X153.262 Y62.581 E1.2262
G1 X155.946 Y65.265 E1.3207
G1 X155.946 Y72.087 E1.4904
G1 X153.262 Y74.771 E1.5849
G1 X152.097 Y74.771 E1.6139
G1 X152.097 Y79.626 E1.7347
G1 X149.413 Y82.310 E1.8291
G1 X142.591 Y82.310 E1.9989
G1 X141.243 Y80.963 E2.0463
G1 X139.999 Y82.207 E2.0901
G1 X133.178 Y82.207 E2.2598
G92 E0.0000
G1 E-4.0000 F3000
G1 Z0.480 F1002
G1 X141.243 Y80.468 F6000
G1 Z0.180 F1002
G1 E0.0000 F3000
G92 E0.0000
G1 X140.957 Y80.754 E0.0101 F630
G1 X139.854 Y81.857 E0.0489
G1 X133.323 Y81.857 E0.2114
G1 X130.843 Y79.378 E0.2986
G1 X130.843 Y74.110 E0.4297
G1 X129.692 Y74.110 E0.4584
G1 X127.213 Y71.631 E0.5456
G1 X127.213 Y65.099 E0.7081
G1 X129.692 Y62.620 E0.7954
G1 X136.224 Y62.620 E0.9579
G1 X137.538 Y63.934 E1.0041
G1 X138.521 Y62.951 E1.0387
G1 X145.053 Y62.951 E1.2013
G1 X145.809 Y63.707 E1.2279
G1 X146.585 Y62.931 E1.2552
G1 X153.117 Y62.931 E1.4177
G1 X155.596 Y65.410 E1.5050
G1 X155.596 Y71.942 E1.6675
G1 X153.117 Y74.421 E1.7547
G1 X151.747 Y74.421 E1.7888
G1 X151.747 Y79.481 E1.9147
G1 X149.268 Y81.960 E2.0020
G1 X142.736 Y81.960 E2.1645
G1 X141.243 Y80.468 E2.2170
G92 E0.0000
G1 E-4.0000 F3000
G1 Z0.480 F1002
G1 X144.628 Y77.425 F6000
G1 X144.378 Y77.063
G1 X144.222 Y76.652
G1 X144.169 Y76.215
G1 X144.174 Y76.173
G1 X145.288 Y74.541
G1 X145.340 Y74.514
G1 X145.773 Y74.405
G1 X146.213 Y74.405
G1 X146.640 Y74.510
G1 X148.806 Y70.177
G1 X148.477 Y69.885
G1 X148.471 Y69.877
G1 X150.459 Y66.964
G1 X150.489 Y66.971
G1 X150.878 Y67.175
G1 X152.972 Y63.281
G1 Z0.180 F1002
G1 E0.0000 F3000
G92 E0.0000
G1 X155.246 Y65.555 E0.0800 F630
G1 X155.246 Y71.797 E0.2353
G1 X152.972 Y74.071 E0.3154
G1 X151.397 Y74.071 E0.3546
G1 X151.397 Y79.336 E0.4856
G1 X149.123 Y81.610 E0.5656
G1 X142.881 Y81.610 E0.7209
G1 X141.243 Y79.973 E0.7785
G1 X140.709 Y80.507 E0.7973
G1 X139.709 Y81.507 E0.8325
G1 X133.467 Y81.507 E0.9878
G1 X131.193 Y79.233 E1.0679
G1 X131.193 Y73.760 E1.2040
G1 X129.837 Y73.760 E1.2378
G1 X127.563 Y71.486 E1.3178
G1 X127.563 Y65.244 E1.4731
G1 X129.837 Y62.970 E1.5531
G1 X136.079 Y62.970 E1.7085
G1 X137.538 Y64.429 E1.7598
G1 X138.666 Y63.301 E1.7995
G1 X144.908 Y63.301 E1.9548
G1 X145.809 Y64.202 E1.9865
G1 X146.730 Y63.281 E2.0189
G1 X152.972 Y63.281 E2.1743
G92 E0.0000
G1 E-4.0000 F3000
; feature outer perimeter
G1 Z0.480 F1002
G1 X134.719 Y67.929 F6000
G1 X134.563 Y67.518
G1 X134.314 Y67.156
G1 X133.985 Y66.864
G1 X133.782 Y66.758
G1 X131.584 Y67.156
G1 Z0.180 F1002
G1 E0.0000 F3000
G92 E0.0000
G1 X131.913 Y66.864 E0.0109 F315
G1 X132.296 Y66.663 E0.0217
G1 X132.729 Y66.555 E0.0328
G1 X133.169 Y66.555 E0.0438
G1 X133.595 Y66.660 E0.0547
G1 X133.985 Y66.864 E0.0656
G1 X134.314 Y67.156 E0.0766
G1 X134.564 Y67.518 E0.0875
G1 X134.719 Y67.929 E0.0985
G1 X134.772 Y68.365 E0.1094
G1 X134.719 Y68.802 E0.1203
G1 X134.564 Y69.213 E0.1313
G1 X134.314 Y69.575 E0.1422
G1 X133.985 Y69.866 E0.1531
G1 X133.595 Y70.070 E0.1641
G1 X133.169 Y70.176 E0.1750
G1 X132.729 Y70.176 E0.1860
G1 X132.302 Y70.070 E0.1969
G1 X131.913 Y69.866 E0.2078
G1 X131.584 Y69.575 E0.2188
G1 X131.334 Y69.213 E0.2297
G1 X131.178 Y68.802 E0.2407
G1 X131.125 Y68.365 E0.2516
G1 X131.178 Y67.929 E0.2625
G1 X131.206 Y67.855 E0.2645
G1 X131.334 Y67.518 F315
G1 X131.584 Y67.156
; feature inner perimeter
G1 X131.847 Y67.390 F6000
G92 E0.0000
G1 X132.113 Y67.154 E0.0088 F472
G1 X132.421 Y66.993 E0.0175
G1 X132.772 Y66.905 E0.0265
G1 X133.126 Y66.905 E0.0353
G1 X133.470 Y66.990 E0.0441
G1 X133.784 Y67.154 E0.0529
G1 X134.050 Y67.390 E0.0618
G1 X134.251 Y67.682 E0.0706
G1 X134.377 Y68.013 E0.0794
G1 X134.420 Y68.365 E0.0882
G1 X134.377 Y68.717 E0.0971
G1 X134.251 Y69.049 E0.1059
G1 X134.050 Y69.341 E0.1147
G1 X133.784 Y69.576 E0.1235
G1 X133.470 Y69.741 E0.1324
G1 X133.126 Y69.826 E0.1412
G1 X132.771 Y69.826 E0.1500
G1 X132.427 Y69.741 E0.1588
G1 X132.113 Y69.576 E0.1677
G1 X131.848 Y69.341 E0.1765
G1 X131.646 Y69.049 E0.1853
G1 X131.520 Y68.717 E0.1941
G1 X131.478 Y68.365 E0.2030
G1 X131.509 Y68.103 E0.2095
G1 X131.520 Y68.013 F472
G1 X131.646 Y67.682
G1 X131.847 Y67.390
G1 X132.111 Y67.624 F6000
G92 E0.0000
G1 X132.313 Y67.445 E0.0067 F472
G1 X132.547 Y67.322 E0.0133
G1 X132.816 Y67.255 E0.0202
G1 X133.083 Y67.255 E0.0268
G1 X133.345 Y67.319 E0.0335
G1 X133.584 Y67.445 E0.0403
G1 X133.786 Y67.623 E0.0470
G1 X133.939 Y67.845 E0.0537
G1 X134.035 Y68.097 E0.0604
G1 X134.067 Y68.365 E0.0671
G1 X134.035 Y68.633 E0.0738
G1 X133.939 Y68.885 E0.0805
G1 X133.786 Y69.107 E0.0872
G1 X133.584 Y69.286 E0.0939
G1 X133.345 Y69.411 E0.1006
G1 X133.083 Y69.476 E0.1074
G1 X132.814 Y69.476 E0.1141
G1 X132.552 Y69.411 E0.1208
G1 X132.313 Y69.286 E0.1275
G1 X132.111 Y69.107 E0.1342
G1 X131.958 Y68.885 E0.1409
G1 X131.863 Y68.633 E0.1476
G1 X131.830 Y68.365 E0.1543
G1 X131.831 Y68.356 E0.1545
G1 X131.863 Y68.098 F472
G1 X131.958 Y67.845
G1 X132.111 Y67.624
; feature solid layer
G1 X133.260 Y67.610 F6000
G92 E0.0000
G1 X133.698 Y68.049 E0.0154 F504
G1 X133.744 Y68.169 E0.0186
G1 X133.768 Y68.365 E0.0235
G1 X133.744 Y68.561 E0.0285
G1 X133.736 Y68.582 E0.0290
G1 X132.736 Y67.581 E0.0642
G1 X132.654 Y67.602 E0.0663
G1 X132.484 Y67.691 E0.0711
G1 X132.413 Y67.754 E0.0734
G1 X133.562 Y68.908 E0.1140
G1 X133.414 Y69.039 E0.1190
G1 X133.276 Y69.112 E0.1228
G1 X132.203 Y68.039 E0.1606
G1 X132.154 Y68.169 E0.1641
G1 X132.130 Y68.365 E0.1690
G1 X132.143 Y68.474 E0.1717
G1 X132.281 Y68.612 E0.1765
G1 X132.847 Y69.177 F504
G92 E0.0000
G1 E-4.0000 F3000
; feature outer perimeter
G1 Z0.480 F1002
G1 X133.137 Y70.176 F6000
G1 X133.169 Y70.176
G1 X135.543 Y74.611
G1 X135.214 Y74.902
G1 X134.965 Y75.264
G1 X134.809 Y75.675
G1 X134.787 Y75.852
G1 X135.214 Y77.321
G1 Z0.180 F1002
G1 E0.0000 F3000
G92 E0.0000
G1 X134.965 Y76.959 E0.0109 F315
G1 X134.809 Y76.548 E0.0219
G1 X134.756 Y76.112 E0.0328
G1 X134.809 Y75.675 E0.0438
G1 X134.965 Y75.264 E0.0547
G1 X135.214 Y74.902 E0.0656
