; G-Code generated by Simplify3D(R) Version 4.1.2
; Oct 28, 2020 at 10:19:29 PM
; Settings Summary
;   processName,Process1
;   applyToModels,Tourillion(2),Tourillion(2)(2),Tourillion(2)(3),Tourillion(2)(4),Tourillion(2)(5),Tourillion(2)(6),Tourillion(2)(7),Tourillion(2)(8)
;   profileName,A04-04-35s Tevo Tornado
;   profileVersion,2020-07-14 00:02:25
;   baseProfile,Creality CR-10(2)
;   printMaterial,PLA
;   printQuality,Medium
;   printExtruders,
;   extruderName,Primary Extruder
;   extruderToolheadNumber,0
;   extruderDiameter,0.4
;   extruderAutoWidth,0
;   extruderWidth,0.35
;   extrusionMultiplier,0.95
;   extruderUseRetract,1
;   extruderRetractionDistance,4
;   extruderExtraRestartDistance,0
;   extruderRetractionZLift,0.3
;   extruderRetractionSpeed,3000
;   extruderUseCoasting,1
;   extruderCoastingDistance,0.8
;   extruderUseWipe,0
;   extruderWipeDistance,4
;   primaryExtruder,0
;   layerHeight,0.15
;   topSolidLayers,4
;   bottomSolidLayers,3
;   perimeterOutlines,3
;   printPerimetersInsideOut,0
;   startPointOption,1
;   startPointOriginX,0
;   startPointOriginY,300
;   sequentialIslands,0
;   spiralVaseMode,0
;   firstLayerHeightPercentage,120
;   firstLayerWidthPercentage,100
;   firstLayerUnderspeed,0.35
;   useRaft,0
;   raftExtruder,0
;   raftTopLayers,3
;   raftBaseLayers,2
;   raftOffset,3
;   raftSeparationDistance,0.14
;   raftTopInfill,100
;   aboveRaftSpeedMultiplier,0.3
;   useSkirt,1
;   skirtExtruder,0
;   skirtLayers,1
;   skirtOutlines,3
;   skirtOffset,2
;   usePrimePillar,0
;   primePillarExtruder,999
;   primePillarWidth,12
;   primePillarLocation,7
;   primePillarSpeedMultiplier,1
;   useOozeShield,0
;   oozeShieldExtruder,999
;   oozeShieldOffset,2
;   oozeShieldOutlines,1
;   oozeShieldSidewallShape,1
;   oozeShieldSidewallAngle,30
;   oozeShieldSpeedMultiplier,1
;   infillExtruder,0
;   internalInfillPattern,Rectilinear
;   externalInfillPattern,Rectilinear
;   infillPercentage,35
;   outlineOverlapPercentage,15
;   infillExtrusionWidthPercentage,100
;   minInfillLength,5
;   infillLayerInterval,1
;   internalInfillAngles,45,-45
;   overlapInternalInfillAngles,0
;   externalInfillAngles,45,-45
;   generateSupport,1
;   supportExtruder,0
;   supportInfillPercentage,30
;   supportExtraInflation,0
;   supportBaseLayers,0
;   denseSupportExtruder,0
;   denseSupportLayers,0
;   denseSupportInfillPercentage,70
;   supportLayerInterval,1
;   supportHorizontalPartOffset,0.4
;   supportUpperSeparationLayers,1
;   supportLowerSeparationLayers,1
;   supportType,1
;   supportGridSpacing,4.5
;   maxOverhangAngle,45
;   supportAngles,0
;   temperatureName,Primary Extruder,Heated Bed
;   temperatureNumber,0,0
;   temperatureSetpointCount,1,1
;   temperatureSetpointLayers,1,1
;   temperatureSetpointTemperatures,215,55
;   temperatureStabilizeAtStartup,1,1
;   temperatureHeatedBed,0,1
;   fanLayers,1,2
;   fanSpeeds,0,100
;   blipFanToFullPower,0
;   adjustSpeedForCooling,1
;   minSpeedLayerTime,15
;   minCoolingSpeedSlowdown,50
;   increaseFanForCooling,1
;   minFanLayerTime,25
;   maxCoolingFanSpeed,100
;   increaseFanForBridging,1
;   bridgingFanSpeed,100
;   use5D,1
;   relativeEdistances,0
;   allowEaxisZeroing,1
;   independentExtruderAxes,0
;   includeM10123,0
;   stickySupport,1
;   applyToolheadOffsets,0
;   gcodeXoffset,0
;   gcodeYoffset,0
;   gcodeZoffset,0
;   overrideMachineDefinition,1
;   machineTypeOverride,0
;   strokeXoverride,300
;   strokeYoverride,300
;   strokeZoverride,400
;   originOffsetXoverride,0
;   originOffsetYoverride,0
;   originOffsetZoverride,0
;   homeXdirOverride,-1
;   homeYdirOverride,-1
;   homeZdirOverride,-1
;   flipXoverride,1
;   flipYoverride,-1
;   flipZoverride,1
;   toolheadOffsets,0,0|0,0|0,0|0,0|0,0|0,0
;   overrideFirmwareConfiguration,1
;   firmwareTypeOverride,RepRap (Marlin/Repetier/Sprinter)
;   GPXconfigOverride,r2
;   baudRateOverride,250000
;   overridePrinterModels,1
;   printerModelsOverride
;   startingGcode,;,; -]H.P.B[- MarshMalloW  ,; $VER: StartScript 1.02 (26.12.2019) MarshMalloW,;,; Begin Startcode,;,M117 *Preheat*     	; Preheat,;extruder0_temperature,M104 S[extruder0_temperature]  ,M109 S[extruder0_temperature] ,M109 R[extruder0_temperature] ,;,M117 *Auto-leveling*     	; Auto-leveling,M107                   	; Turn layer fan off,G21                    	; Set to metric [change to G20 if you want Imperial],G90                    	; Force coordinates to be absolute relative to the origin,G28                    	; Home X/Y/Z axis,G29                    	; Auto-leveling (BL-Touch),;,M117 *Start Clean*     	; Indicate nozzle clean in progress on LCD,G92 E0                 	; Set Extruder to 0 ,G1 X0 Y0 F2000         	; Move X and Y to 0 with speed 2000 (mm/min),G1 Z0.1 F1000          	; Move Z to   0.1 with speed 1000 (mm/min),G1 X8.0 F2000          	; Move X to   8.0 with speed 2000 (mm/min),G1 Y60.0 E4.0 F1000.0  	; Move Y to  60 and Extruder with 4.0 with speed 1000 (mm/min),G1 Y100.0 E8.5 F1000.0 	; Move Y to 100 and Extruder with 8.5 with speed 1000 (mm/min),G92 E0                 	; Set extruder to 0,G1 X16.0 F3000         	; Move X to 16.0 with speed 3000 (mm/min),G1 Y60.0 F3000         	; Move Y to 60.0 with speed 3000 (mm/min),M117 *End Clean*       	; Indicate nozzle clean in progress on LCD,G1 Z5 F3000            	; Move Z to  5.0 with speed 3000 (mm/min),G1 X20.0 F3000         	; Move X to 20.0 with speed 3000 (mm/min),G1 Y20.0 F3000         	; Move Y to 20.0 with speed 3000 (mm/min),; ,M117 *Printing...*     	; Start printing msg on LCD,;,; End Startcode,;,; Begin printing with sliced GCode after here,;
;   layerChangeGcode,
;   retractionGcode,
;   toolChangeGcode,
;   endingGcode,;,; init 181010,;,;M107 			; Fan off,;G1 E-1 F300 			; Retract the filament a bit before lifting the nozzle,;M104 S0 			; Turn off extruder,;M140 S0 			; Turn off bed,;G91			; Relative positioning,;G28 X0 Y0 			; Move X/Y to min endstops so the head is out of teh way,;M84 			; Disable motors,;G90 			; Absolute positioning,;M117 Print ready...,,;,; // From Cura 181010,; // End_gcode,G92 E0			; Zero the extruded length,;G1 E-30 F300		; Retract E -30,M106 S0			; Turn off cooling fan,M104 S0			; Turn off temperature,M140 S0		     	; Turn off bed,G91			; Relative positioning,G1 E-1 F300			; Retract the filament a bit before lifting the nozzle to release some of the pressure,G1 Z+20 E-5 X-20 Y-20 F7200	; Move Z up a bit and retract filament even more,G1 X0 Y150 F10000		; Move right min,M107			; Turn off layer fan,M84			; Disable motors,G90			; Absolute positioning,M117 *The-End* 		; End msg,;,
;   exportFileFormat,gcode
;   celebration,0
;   celebrationSong,Star Wars
;   postProcessing,|{REPLACE "; layer " "M117 INDICATOR-Layer"}|{REPLACE ", Z = " "\n; Z="}
;   defaultSpeed,1800
;   outlineUnderspeed,0.5
;   solidInfillUnderspeed,0.8
;   supportUnderspeed,0.8
;   rapidXYspeed,6000
;   rapidZspeed,1002
;   minBridgingArea,50
;   bridgingExtraInflation,0.2
;   bridgingExtrusionMultiplier,1
;   bridgingSpeedMultiplier,0.6
;   useFixedBridgingAngle,0
;   fixedBridgingAngle,0
;   applyBridgingToPerimeters,0
;   filamentDiameters,1.75|1.75|1.75|1.75|1.75|1.75
;   filamentPricesPerKg,30|46|46|46|46|46
;   filamentDensities,1.25|1.25|1.25|1.25|1.25|1.25
;   useMinPrintHeight,0
;   minPrintHeight,0
;   useMaxPrintHeight,0
;   maxPrintHeight,9
;   useDiaphragm,0
;   diaphragmLayerInterval,20
;   robustSlicing,1
;   mergeAllIntoSolid,0
;   onlyRetractWhenCrossingOutline,1
;   retractBetweenLayers,0
;   useRetractionMinTravel,0
;   retractionMinTravel,3
;   retractWhileWiping,0
;   onlyWipeOutlines,1
;   avoidCrossingOutline,1
;   maxMovementDetourFactor,3
;   toolChangeRetractionDistance,12
;   toolChangeExtraRestartDistance,-0.5
;   toolChangeRetractionSpeed,600
;   externalThinWallType,1
;   internalThinWallType,1
;   thinWallAllowedOverlapPercentage,10
;   singleExtrusionMinLength,1
;   singleExtrusionMinPrintingWidthPercentage,50
;   singleExtrusionMaxPrintingWidthPercentage,200
;   singleExtrusionEndpointExtension,0.2
;   horizontalSizeCompensation,0
G90
M82
M106 S0
M140 S55
M190 S55
;
; -]H.P.B[- MarshMalloW  
; $VER: StartScript 1.02 (26.12.2019) MarshMalloW
;
; Begin Startcode
;
M117 *Preheat*     	; Preheat
;extruder0_temperature
M104 S215  
M109 S215 
M109 R215 
;
M117 *Auto-leveling*     	; Auto-leveling
M107                   	; Turn layer fan off
G21                    	; Set to metric [change to G20 if you want Imperial]
G90                    	; Force coordinates to be absolute relative to the origin
G28                    	; Home X/Y/Z axis
G29                    	; Auto-leveling (BL-Touch)
;
M117 *Start Clean*     	; Indicate nozzle clean in progress on LCD
G92 E0                 	; Set Extruder to 0 
G1 X0 Y0 F2000         	; Move X and Y to 0 with speed 2000 (mm/min)
G1 Z0.1 F1000          	; Move Z to   0.1 with speed 1000 (mm/min)
G1 X8.0 F2000          	; Move X to   8.0 with speed 2000 (mm/min)
G1 Y60.0 E4.0 F1000.0  	; Move Y to  60 and Extruder with 4.0 with speed 1000 (mm/min)
G1 Y100.0 E8.5 F1000.0 	; Move Y to 100 and Extruder with 8.5 with speed 1000 (mm/min)
G92 E0                 	; Set extruder to 0
G1 X16.0 F3000         	; Move X to 16.0 with speed 3000 (mm/min)
G1 Y60.0 F3000         	; Move Y to 60.0 with speed 3000 (mm/min)
M117 *End Clean*       	; Indicate nozzle clean in progress on LCD
G1 Z5 F3000            	; Move Z to  5.0 with speed 3000 (mm/min)
G1 X20.0 F3000         	; Move X to 20.0 with speed 3000 (mm/min)
G1 Y20.0 F3000         	; Move Y to 20.0 with speed 3000 (mm/min)
; 
M117 *Printing...*     	; Start printing msg on LCD
;
; End Startcode
;
; Begin printing with sliced GCode after here
;
; process Process1
M117 INDICATOR-Layer1
; Z=0.180
T0
G92 E0.0000
G1 E-4.0000 F3000
; feature skirt
; tool H0.180 W0.350
G1 Z0.300 F1002
G1 X144.196 Y71.227 F6000
G1 Z0.180 F1002
G1 E0.0000 F3000
G92 E0.0000
G1 X144.196 Y77.986 E0.1682 F630
G1 X146.709 Y77.986 E0.2307
G1 X148.393 Y79.670 E0.2900
G1 X148.393 Y88.492 E0.5095
G1 X146.709 Y90.176 E0.5688
G1 X144.439 Y90.176 E0.6252
G1 X144.439 Y97.088 E0.7972
G1 X142.755 Y98.772 E0.8565
G1 X139.371 Y98.772 E0.9407
G1 X139.371 Y105.278 E1.1026
G1 X137.686 Y106.962 E1.1619
G1 X128.865 Y106.962 E1.3814
G1 X127.181 Y105.278 E1.4406
G1 X127.181 Y99.138 E1.5934
G1 X123.682 Y99.138 E1.6805
G1 X121.998 Y97.453 E1.7397
G1 X121.998 Y90.035 E1.9243
G1 X120.133 Y90.035 E1.9707
G1 X118.449 Y88.351 E2.0300
G1 X118.449 Y79.529 E2.2495
G1 X120.133 Y77.845 E2.3088
G1 X122.110 Y77.845 E2.3580
G1 X122.110 Y71.272 E2.5215
G1 X123.794 Y69.587 E2.5808
G1 X132.616 Y69.587 E2.8003
G1 X133.131 Y70.102 E2.8184
G1 X133.690 Y69.543 E2.8381
G1 X142.512 Y69.543 E3.0576
G1 X144.196 Y71.227 E3.1169
G92 E0.0000
G1 E-4.0000 F3000
G1 Z0.480 F1002
G1 X134.167 Y82.337 F6000
G1 X134.496 Y82.628
G1 X134.564 Y82.726
G1 X132.290 Y85.440
G1 X132.095 Y85.338
G1 X128.731 Y91.337
G1 X128.304 Y91.232
G1 X127.865 Y91.232
G1 X127.431 Y91.341
G1 X127.281 Y91.419
G1 X126.335 Y92.549
G1 X126.313 Y92.606
G1 X126.260 Y93.043
G1 X126.313 Y93.479
G1 X126.469 Y93.890
G1 X126.719 Y94.252
G1 X122.348 Y97.308
G1 Z0.180 F1002
G1 E0.0000 F3000
G92 E0.0000
G1 X122.348 Y89.685 E0.1897 F630
G1 X120.278 Y89.685 E0.2412
G1 X118.799 Y88.206 E0.2933
G1 X118.799 Y79.674 E0.5055
G1 X120.278 Y78.195 E0.5576
G1 X122.460 Y78.195 E0.6119
G1 X122.460 Y71.416 E0.7805
G1 X123.939 Y69.937 E0.8326
G1 X132.471 Y69.937 E1.0449
G1 X133.131 Y70.597 E1.0681
G1 X133.835 Y69.893 E1.0929
G1 X142.367 Y69.893 E1.3052
G1 X143.846 Y71.372 E1.3572
G1 X143.846 Y78.336 E1.5305
G1 X146.564 Y78.336 E1.5982
G1 X148.043 Y79.815 E1.6502
G1 X148.043 Y88.347 E1.8625
G1 X146.564 Y89.826 E1.9146
G1 X144.089 Y89.826 E1.9761
G1 X144.089 Y96.943 E2.1532
G1 X142.610 Y98.422 E2.2053
G1 X139.021 Y98.422 E2.2946
G1 X139.021 Y105.133 E2.4616
G1 X137.541 Y106.612 E2.5136
G1 X129.010 Y106.612 E2.7259
G1 X127.531 Y105.133 E2.7780
G1 X127.531 Y98.788 E2.9359
G1 X123.827 Y98.788 E3.0280
G1 X122.348 Y97.308 E3.0801
G92 E0.0000
G1 E-4.0000 F3000
G1 Z0.480 F1002
G1 X119.149 Y79.819 F6000
G1 Z0.180 F1002
G1 E0.0000 F3000
G92 E0.0000
G1 X120.423 Y78.545 E0.0448 F630
G1 X122.810 Y78.545 E0.1042
G1 X122.810 Y71.561 E0.2780
G1 X124.084 Y70.287 E0.3228
G1 X132.326 Y70.287 E0.5279
G1 X133.131 Y71.092 E0.5562
G1 X133.980 Y70.243 E0.5861
G1 X142.222 Y70.243 E0.7912
G1 X143.496 Y71.517 E0.8360
G1 X143.496 Y78.686 E1.0144
G1 X146.419 Y78.686 E1.0872
G1 X147.693 Y79.960 E1.1320
G1 X147.693 Y88.202 E1.3371
G1 X146.419 Y89.476 E1.3819
G1 X143.739 Y89.476 E1.4486
G1 X143.739 Y96.798 E1.6308
G1 X142.465 Y98.072 E1.6756
G1 X138.671 Y98.072 E1.7700
G1 X138.671 Y104.988 E1.9421
G1 X137.397 Y106.262 E1.9870
G1 X129.155 Y106.262 E2.1920
G1 X127.881 Y104.988 E2.2369
G1 X127.881 Y98.438 E2.3999
G1 X123.972 Y98.438 E2.4971
G1 X122.698 Y97.163 E2.5420
G1 X122.698 Y89.335 E2.7368
G1 X120.423 Y89.335 E2.7934
G1 X119.149 Y88.061 E2.8382
G1 X119.149 Y79.819 E3.0433
G92 E0.0000
G1 E-4.0000 F3000
; feature outer perimeter
G1 Z0.480 F1002
G1 X126.581 Y76.530 F6000
G1 X126.425 Y76.119
G1 X126.372 Y75.682
G1 X126.425 Y75.246
G1 X126.581 Y74.835
G1 X126.831 Y74.473
G1 Z0.180 F1002
G1 E0.0000 F3000
G92 E0.0000
G1 X127.160 Y74.181 E0.0109 F315
G1 X127.543 Y73.981 E0.0217
G1 X127.976 Y73.872 E0.0328
G1 X128.416 Y73.872 E0.0438
G1 X128.842 Y73.977 E0.0547
G1 X129.232 Y74.181 E0.0656
G1 X129.561 Y74.473 E0.0766
G1 X129.811 Y74.835 E0.0875
G1 X129.966 Y75.246 E0.0985
G1 X130.019 Y75.682 E0.1094
G1 X129.966 Y76.119 E0.1203
G1 X129.811 Y76.530 E0.1313
G1 X129.561 Y76.892 E0.1422
G1 X129.232 Y77.183 E0.1531
G1 X128.842 Y77.388 E0.1641
G1 X128.416 Y77.493 E0.1750
G1 X127.976 Y77.493 E0.1860
G1 X127.549 Y77.388 E0.1969
G1 X127.160 Y77.183 E0.2078
G1 X126.831 Y76.892 E0.2188
G1 X126.581 Y76.530 E0.2297
G1 X126.425 Y76.119 E0.2407
G1 X126.372 Y75.682 E0.2516
G1 X126.425 Y75.246 E0.2625
G1 X126.453 Y75.172 E0.2645
G1 X126.581 Y74.835 F315
G1 X126.831 Y74.473
; feature inner perimeter
G1 X127.095 Y74.707 F6000
G92 E0.0000
G1 X127.360 Y74.472 E0.0088 F472
G1 X127.668 Y74.310 E0.0175
G1 X128.019 Y74.222 E0.0265
G1 X128.373 Y74.222 E0.0353
G1 X128.717 Y74.307 E0.0441
G1 X129.031 Y74.472 E0.0529
G1 X129.297 Y74.707 E0.0618
G1 X129.498 Y74.999 E0.0706
G1 X129.624 Y75.330 E0.0794
G1 X129.667 Y75.682 E0.0882
G1 X129.624 Y76.034 E0.0971
G1 X129.498 Y76.366 E0.1059
G1 X129.297 Y76.658 E0.1147
G1 X129.031 Y76.893 E0.1235
G1 X128.717 Y77.058 E0.1324
G1 X128.373 Y77.143 E0.1412
G1 X128.018 Y77.143 E0.1500
G1 X127.674 Y77.058 E0.1588
G1 X127.360 Y76.893 E0.1677
G1 X127.095 Y76.658 E0.1765
G1 X126.893 Y76.366 E0.1853
G1 X126.767 Y76.034 E0.1941
G1 X126.725 Y75.682 E0.2030
G1 X126.756 Y75.420 E0.2095
G1 X126.767 Y75.330 F472
G1 X126.893 Y74.999
G1 X127.095 Y74.707
G1 X127.359 Y74.941 F6000
G92 E0.0000
G1 X127.560 Y74.762 E0.0067 F472
G1 X127.794 Y74.639 E0.0133
G1 X128.063 Y74.572 E0.0202
G1 X128.331 Y74.572 E0.0268
G1 X128.592 Y74.636 E0.0335
G1 X128.831 Y74.762 E0.0403
G1 X129.033 Y74.941 E0.0470
G1 X129.186 Y75.163 E0.0537
G1 X129.282 Y75.415 E0.0604
G1 X129.314 Y75.682 E0.0671
G1 X129.282 Y75.950 E0.0738
G1 X129.186 Y76.202 E0.0805
G1 X129.033 Y76.424 E0.0872
G1 X128.831 Y76.603 E0.0939
G1 X128.592 Y76.728 E0.1006
G1 X128.331 Y76.793 E0.1074
G1 X128.061 Y76.793 E0.1141
G1 X127.799 Y76.728 E0.1208
G1 X127.560 Y76.603 E0.1275
G1 X127.359 Y76.424 E0.1342
G1 X127.205 Y76.202 E0.1409
G1 X127.110 Y75.950 E0.1476
G1 X127.077 Y75.682 E0.1543
G1 X127.078 Y75.674 E0.1545
G1 X127.110 Y75.415 F472
G1 X127.205 Y75.163
G1 X127.359 Y74.941
; feature solid layer
G1 X128.515 Y74.932 F6000
G92 E0.0000
G1 X128.943 Y75.359 E0.0150 F504
G1 X128.991 Y75.486 E0.0184
G1 X129.015 Y75.682 E0.0233
G1 X128.991 Y75.878 E0.0282
G1 X128.984 Y75.896 E0.0287
G1 X127.986 Y74.898 E0.0638
G1 X127.901 Y74.919 E0.0660
G1 X127.731 Y75.008 E0.0708
G1 X127.662 Y75.069 E0.0731
G1 X128.813 Y76.219 E0.1136
G1 X128.809 Y76.225 E0.1137
G1 X128.661 Y76.356 E0.1186
G1 X128.526 Y76.427 E0.1224
G1 X127.451 Y75.353 E0.1603
G1 X127.401 Y75.486 E0.1638
