; G-Code generated by Simplify3D(R) Version 4.1.2
; Oct 28, 2020 at 7:42:00 PM
; Settings Summary
;   processName,Process1
;   applyToModels,Tourillion(2)
;   profileName,A04-04-35s Tevo Tornado
;   profileVersion,2020-07-14 00:02:25
;   baseProfile,Creality CR-10(2)
;   printMaterial,PLA
;   printQuality,Medium
;   printExtruders,
;   extruderName,Primary Extruder
;   extruderToolheadNumber,0
;   extruderDiameter,0.4
;   extruderAutoWidth,0
;   extruderWidth,0.35
;   extrusionMultiplier,0.95
;   extruderUseRetract,1
;   extruderRetractionDistance,4
;   extruderExtraRestartDistance,0
;   extruderRetractionZLift,0.3
;   extruderRetractionSpeed,3000
;   extruderUseCoasting,1
;   extruderCoastingDistance,0.8
;   extruderUseWipe,0
;   extruderWipeDistance,4
;   primaryExtruder,0
;   layerHeight,0.15
;   topSolidLayers,4
;   bottomSolidLayers,3
;   perimeterOutlines,3
;   printPerimetersInsideOut,0
;   startPointOption,1
;   startPointOriginX,0
;   startPointOriginY,300
;   sequentialIslands,0
;   spiralVaseMode,0
;   firstLayerHeightPercentage,120
;   firstLayerWidthPercentage,100
;   firstLayerUnderspeed,0.35
;   useRaft,0
;   raftExtruder,0
;   raftTopLayers,3
;   raftBaseLayers,2
;   raftOffset,3
;   raftSeparationDistance,0.14
;   raftTopInfill,100
;   aboveRaftSpeedMultiplier,0.3
;   useSkirt,1
;   skirtExtruder,0
;   skirtLayers,1
;   skirtOutlines,3
;   skirtOffset,2
;   usePrimePillar,0
;   primePillarExtruder,999
;   primePillarWidth,12
;   primePillarLocation,7
;   primePillarSpeedMultiplier,1
;   useOozeShield,0
;   oozeShieldExtruder,999
;   oozeShieldOffset,2
;   oozeShieldOutlines,1
;   oozeShieldSidewallShape,1
;   oozeShieldSidewallAngle,30
;   oozeShieldSpeedMultiplier,1
;   infillExtruder,0
;   internalInfillPattern,Rectilinear
;   externalInfillPattern,Rectilinear
;   infillPercentage,35
;   outlineOverlapPercentage,15
;   infillExtrusionWidthPercentage,100
;   minInfillLength,5
;   infillLayerInterval,1
;   internalInfillAngles,45,-45
;   overlapInternalInfillAngles,0
;   externalInfillAngles,45,-45
;   generateSupport,1
;   supportExtruder,0
;   supportInfillPercentage,30
;   supportExtraInflation,0
;   supportBaseLayers,0
;   denseSupportExtruder,0
;   denseSupportLayers,0
;   denseSupportInfillPercentage,70
;   supportLayerInterval,1
;   supportHorizontalPartOffset,0.4
;   supportUpperSeparationLayers,1
;   supportLowerSeparationLayers,1
;   supportType,1
;   supportGridSpacing,4.5
;   maxOverhangAngle,45
;   supportAngles,0
;   temperatureName,Primary Extruder,Heated Bed
;   temperatureNumber,0,0
;   temperatureSetpointCount,1,1
;   temperatureSetpointLayers,1,1
;   temperatureSetpointTemperatures,215,55
;   temperatureStabilizeAtStartup,1,1
;   temperatureHeatedBed,0,1
;   fanLayers,1,2
;   fanSpeeds,0,100
;   blipFanToFullPower,0
;   adjustSpeedForCooling,1
;   minSpeedLayerTime,15
;   minCoolingSpeedSlowdown,50
;   increaseFanForCooling,1
;   minFanLayerTime,25
;   maxCoolingFanSpeed,100
;   increaseFanForBridging,1
;   bridgingFanSpeed,100
;   use5D,1
;   relativeEdistances,0
;   allowEaxisZeroing,1
;   independentExtruderAxes,0
;   includeM10123,0
;   stickySupport,1
;   applyToolheadOffsets,0
;   gcodeXoffset,0
;   gcodeYoffset,0
;   gcodeZoffset,0
;   overrideMachineDefinition,1
;   machineTypeOverride,0
;   strokeXoverride,300
;   strokeYoverride,300
;   strokeZoverride,400
;   originOffsetXoverride,0
;   originOffsetYoverride,0
;   originOffsetZoverride,0
;   homeXdirOverride,-1
;   homeYdirOverride,-1
;   homeZdirOverride,-1
;   flipXoverride,1
;   flipYoverride,-1
;   flipZoverride,1
;   toolheadOffsets,0,0|0,0|0,0|0,0|0,0|0,0
;   overrideFirmwareConfiguration,1
;   firmwareTypeOverride,RepRap (Marlin/Repetier/Sprinter)
;   GPXconfigOverride,r2
;   baudRateOverride,250000
;   overridePrinterModels,1
;   printerModelsOverride
;   startingGcode,;,; -]H.P.B[- MarshMalloW  ,; $VER: StartScript 1.02 (26.12.2019) MarshMalloW,;,; Begin Startcode,;,M117 *Preheat*     	; Preheat,;extruder0_temperature,M104 S[extruder0_temperature]  ,M109 S[extruder0_temperature] ,M109 R[extruder0_temperature] ,;,M117 *Auto-leveling*     	; Auto-leveling,M107                   	; Turn layer fan off,G21                    	; Set to metric [change to G20 if you want Imperial],G90                    	; Force coordinates to be absolute relative to the origin,G28                    	; Home X/Y/Z axis,G29                    	; Auto-leveling (BL-Touch),;,M117 *Start Clean*     	; Indicate nozzle clean in progress on LCD,G92 E0                 	; Set Extruder to 0 ,G1 X0 Y0 F2000         	; Move X and Y to 0 with speed 2000 (mm/min),G1 Z0.1 F1000          	; Move Z to   0.1 with speed 1000 (mm/min),G1 X8.0 F2000          	; Move X to   8.0 with speed 2000 (mm/min),G1 Y60.0 E4.0 F1000.0  	; Move Y to  60 and Extruder with 4.0 with speed 1000 (mm/min),G1 Y100.0 E8.5 F1000.0 	; Move Y to 100 and Extruder with 8.5 with speed 1000 (mm/min),G92 E0                 	; Set extruder to 0,G1 X16.0 F3000         	; Move X to 16.0 with speed 3000 (mm/min),G1 Y60.0 F3000         	; Move Y to 60.0 with speed 3000 (mm/min),M117 *End Clean*       	; Indicate nozzle clean in progress on LCD,G1 Z5 F3000            	; Move Z to  5.0 with speed 3000 (mm/min),G1 X20.0 F3000         	; Move X to 20.0 with speed 3000 (mm/min),G1 Y20.0 F3000         	; Move Y to 20.0 with speed 3000 (mm/min),; ,M117 *Printing...*     	; Start printing msg on LCD,;,; End Startcode,;,; Begin printing with sliced GCode after here,;
;   layerChangeGcode,
;   retractionGcode,
;   toolChangeGcode,
;   endingGcode,;,; init 181010,;,;M107 			; Fan off,;G1 E-1 F300 			; Retract the filament a bit before lifting the nozzle,;M104 S0 			; Turn off extruder,;M140 S0 			; Turn off bed,;G91			; Relative positioning,;G28 X0 Y0 			; Move X/Y to min endstops so the head is out of teh way,;M84 			; Disable motors,;G90 			; Absolute positioning,;M117 Print ready...,,;,; // From Cura 181010,; // End_gcode,G92 E0			; Zero the extruded length,;G1 E-30 F300		; Retract E -30,M106 S0			; Turn off cooling fan,M104 S0			; Turn off temperature,M140 S0		     	; Turn off bed,G91			; Relative positioning,G1 E-1 F300			; Retract the filament a bit before lifting the nozzle to release some of the pressure,G1 Z+20 E-5 X-20 Y-20 F7200	; Move Z up a bit and retract filament even more,G1 X0 Y150 F10000		; Move right min,M107			; Turn off layer fan,M84			; Disable motors,G90			; Absolute positioning,M117 *The-End* 		; End msg,;,
;   exportFileFormat,gcode
;   celebration,0
;   celebrationSong,Star Wars
;   postProcessing,|{REPLACE "; layer " "M117 INDICATOR-Layer"}|{REPLACE ", Z = " "\n; Z="}
;   defaultSpeed,1800
;   outlineUnderspeed,0.5
;   solidInfillUnderspeed,0.8
;   supportUnderspeed,0.8
;   rapidXYspeed,6000
;   rapidZspeed,1002
;   minBridgingArea,50
;   bridgingExtraInflation,0.2
;   bridgingExtrusionMultiplier,1
;   bridgingSpeedMultiplier,0.6
;   useFixedBridgingAngle,0
;   fixedBridgingAngle,0
;   applyBridgingToPerimeters,0
;   filamentDiameters,1.75|1.75|1.75|1.75|1.75|1.75
;   filamentPricesPerKg,30|46|46|46|46|46
;   filamentDensities,1.25|1.25|1.25|1.25|1.25|1.25
;   useMinPrintHeight,0
;   minPrintHeight,0
;   useMaxPrintHeight,0
;   maxPrintHeight,9
;   useDiaphragm,0
;   diaphragmLayerInterval,20
;   robustSlicing,1
;   mergeAllIntoSolid,0
;   onlyRetractWhenCrossingOutline,1
;   retractBetweenLayers,0
;   useRetractionMinTravel,0
;   retractionMinTravel,3
;   retractWhileWiping,0
;   onlyWipeOutlines,1
;   avoidCrossingOutline,1
;   maxMovementDetourFactor,3
;   toolChangeRetractionDistance,12
;   toolChangeExtraRestartDistance,-0.5
;   toolChangeRetractionSpeed,600
;   externalThinWallType,1
;   internalThinWallType,1
;   thinWallAllowedOverlapPercentage,10
;   singleExtrusionMinLength,1
;   singleExtrusionMinPrintingWidthPercentage,50
;   singleExtrusionMaxPrintingWidthPercentage,200
;   singleExtrusionEndpointExtension,0.2
;   horizontalSizeCompensation,0
G90
M82
M106 S102
M140 S55
M190 S55
;
; -]H.P.B[- MarshMalloW  
; $VER: StartScript 1.02 (26.12.2019) MarshMalloW
;
; Begin Startcode
;
M117 *Preheat*     	; Preheat
;extruder0_temperature
M104 S215  
M109 S215 
M109 R215 
;
M117 *Auto-leveling*     	; Auto-leveling
M107                   	; Turn layer fan off
G21                    	; Set to metric [change to G20 if you want Imperial]
G90                    	; Force coordinates to be absolute relative to the origin
G28                    	; Home X/Y/Z axis
G29                    	; Auto-leveling (BL-Touch)
;
M117 *Start Clean*     	; Indicate nozzle clean in progress on LCD
G92 E0                 	; Set Extruder to 0 
G1 X0 Y0 F2000         	; Move X and Y to 0 with speed 2000 (mm/min)
G1 Z0.1 F1000          	; Move Z to   0.1 with speed 1000 (mm/min)
G1 X8.0 F2000          	; Move X to   8.0 with speed 2000 (mm/min)
G1 Y60.0 E4.0 F1000.0  	; Move Y to  60 and Extruder with 4.0 with speed 1000 (mm/min)
G1 Y100.0 E8.5 F1000.0 	; Move Y to 100 and Extruder with 8.5 with speed 1000 (mm/min)
G92 E0                 	; Set extruder to 0
G1 X16.0 F3000         	; Move X to 16.0 with speed 3000 (mm/min)
G1 Y60.0 F3000         	; Move Y to 60.0 with speed 3000 (mm/min)
M117 *End Clean*       	; Indicate nozzle clean in progress on LCD
G1 Z5 F3000            	; Move Z to  5.0 with speed 3000 (mm/min)
G1 X20.0 F3000         	; Move X to 20.0 with speed 3000 (mm/min)
G1 Y20.0 F3000         	; Move Y to 20.0 with speed 3000 (mm/min)
; 
M117 *Printing...*     	; Start printing msg on LCD
;
; End Startcode
;
; Begin printing with sliced GCode after here
;
; process Process1
M117 INDICATOR-Layer1
; Z=0.180
T0
G92 E0.0000
G1 E-4.0000 F3000
; feature skirt
; tool H0.180 W0.350
G1 Z0.300 F1002
G1 X152.521 Y79.842 F6000
G1 Z0.180 F1002
G1 E0.0000 F3000
G92 E0.0000
G1 X152.521 Y88.663 E0.2195 F354
G1 X150.837 Y90.347 E0.2788
G1 X142.015 Y90.347 E0.4983
G1 X140.331 Y88.663 E0.5575
G1 X140.331 Y79.842 E0.7771
G1 X142.015 Y78.157 E0.8363
G1 X150.837 Y78.157 E1.0558
G1 X152.521 Y79.842 E1.1151
G92 E0.0000
G1 E-4.0000 F3000
G1 Z0.480 F1002
G1 X147.782 Y83.043 F6000
G1 X147.906 Y83.223
G1 X144.984 Y85.364
G1 X145.052 Y85.462
G1 X140.681 Y88.518
G1 Z0.180 F1002
G1 E0.0000 F3000
G92 E0.0000
G1 X140.681 Y79.987 E0.2123 F354
G1 X142.160 Y78.507 E0.2643
G1 X150.692 Y78.507 E0.4766
G1 X152.171 Y79.987 E0.5287
G1 X152.171 Y88.518 E0.7410
G1 X150.692 Y89.997 E0.7930
G1 X142.160 Y89.997 E1.0053
G1 X140.681 Y88.518 E1.0574
G92 E0.0000
G1 E-4.0000 F3000
G1 Z0.480 F1002
G1 X145.052 Y85.462 F6000
G1 X144.802 Y85.100
G1 X144.646 Y84.689
G1 X144.640 Y84.641
G1 X146.836 Y82.491
G1 X147.063 Y82.547
G1 X147.453 Y82.752
G1 X150.547 Y78.857
G1 Z0.180 F1002
G1 E0.0000 F3000
G92 E0.0000
G1 X151.821 Y80.132 E0.0448 F354
G1 X151.821 Y88.373 E0.2499
G1 X150.547 Y89.647 E0.2947
G1 X142.305 Y89.647 E0.4998
G1 X141.031 Y88.373 E0.5447
G1 X141.031 Y80.132 E0.7497
G1 X142.305 Y78.857 E0.7946
G1 X150.547 Y78.857 E0.9997
G92 E0.0000
G1 E-4.0000 F3000
; feature outer perimeter
G1 Z0.480 F1002
G1 X147.453 Y82.752 F6000
G1 X147.063 Y82.547
G1 X146.637 Y82.442
G1 X146.197 Y82.442
G1 X145.764 Y82.551
G1 X145.553 Y82.661
G1 X145.052 Y83.043
G1 Z0.180 F1002
G1 E0.0000 F3000
G92 E0.0000
G1 X145.381 Y82.752 E0.0109 F177
G1 X145.764 Y82.551 E0.0217
G1 X146.197 Y82.442 E0.0328
G1 X146.637 Y82.442 E0.0438
G1 X147.063 Y82.547 E0.0547
G1 X147.453 Y82.752 E0.0656
G1 X147.782 Y83.043 E0.0766
G1 X148.032 Y83.405 E0.0875
G1 X148.187 Y83.816 E0.0985
G1 X148.240 Y84.252 E0.1094
G1 X148.187 Y84.689 E0.1203
G1 X148.032 Y85.100 E0.1313
G1 X147.782 Y85.462 E0.1422
G1 X147.453 Y85.753 E0.1531
G1 X147.063 Y85.958 E0.1641
G1 X146.637 Y86.063 E0.1750
G1 X146.197 Y86.063 E0.1860
G1 X145.770 Y85.958 E0.1969
G1 X145.381 Y85.753 E0.2078
G1 X145.052 Y85.462 E0.2188
G1 X144.802 Y85.100 E0.2297
G1 X144.646 Y84.689 E0.2407
G1 X144.593 Y84.252 E0.2516
G1 X144.646 Y83.816 E0.2625
G1 X144.674 Y83.742 E0.2645
G1 X144.802 Y83.405 F177
G1 X145.052 Y83.043
; feature inner perimeter
G1 X145.316 Y83.277 F6000
G92 E0.0000
G1 X145.581 Y83.042 E0.0088 F266
G1 X145.889 Y82.880 E0.0175
G1 X146.240 Y82.792 E0.0265
G1 X146.594 Y82.792 E0.0353
G1 X146.938 Y82.877 E0.0441
G1 X147.252 Y83.042 E0.0529
G1 X147.518 Y83.277 E0.0618
G1 X147.719 Y83.569 E0.0706
G1 X147.845 Y83.900 E0.0794
G1 X147.888 Y84.252 E0.0882
G1 X147.845 Y84.605 E0.0971
G1 X147.719 Y84.936 E0.1059
G1 X147.518 Y85.228 E0.1147
G1 X147.252 Y85.463 E0.1235
G1 X146.938 Y85.628 E0.1324
G1 X146.594 Y85.713 E0.1412
G1 X146.239 Y85.713 E0.1500
G1 X145.895 Y85.628 E0.1588
G1 X145.581 Y85.463 E0.1677
G1 X145.316 Y85.228 E0.1765
G1 X145.114 Y84.936 E0.1853
G1 X144.988 Y84.605 E0.1941
G1 X144.946 Y84.252 E0.2030
G1 X144.977 Y83.990 E0.2095
G1 X144.988 Y83.900 F266
G1 X145.114 Y83.569
G1 X145.316 Y83.277
G1 X145.579 Y83.511 F6000
G92 E0.0000
G1 X145.781 Y83.332 E0.0067 F266
G1 X146.015 Y83.209 E0.0133
G1 X146.284 Y83.142 E0.0202
G1 X146.552 Y83.142 E0.0268
G1 X146.813 Y83.207 E0.0335
G1 X147.052 Y83.332 E0.0403
G1 X147.254 Y83.511 E0.0470
G1 X147.407 Y83.733 E0.0537
G1 X147.503 Y83.985 E0.0604
G1 X147.535 Y84.252 E0.0671
G1 X147.503 Y84.520 E0.0738
G1 X147.407 Y84.772 E0.0805
G1 X147.254 Y84.994 E0.0872
G1 X147.052 Y85.173 E0.0939
G1 X146.813 Y85.298 E0.1006
G1 X146.552 Y85.363 E0.1074
G1 X146.282 Y85.363 E0.1141
G1 X146.020 Y85.298 E0.1208
G1 X145.781 Y85.173 E0.1275
G1 X145.579 Y84.994 E0.1342
G1 X145.426 Y84.772 E0.1409
G1 X145.331 Y84.520 E0.1476
G1 X145.298 Y84.252 E0.1543
G1 X145.299 Y84.244 E0.1545
G1 X145.331 Y83.985 F266
G1 X145.426 Y83.733
G1 X145.579 Y83.511
; feature solid layer
G1 X146.631 Y83.468 F6000
G92 E0.0000
G1 X147.207 Y84.044 E0.0203 F283
G1 X147.212 Y84.056 E0.0206
G1 X147.236 Y84.252 E0.0255
G1 X147.212 Y84.448 E0.0304
G1 X147.186 Y84.517 E0.0323
G1 X146.150 Y83.482 E0.0687
G1 X146.122 Y83.489 E0.0694
G1 X145.952 Y83.579 E0.0742
G1 X145.846 Y83.672 E0.0777
G1 X146.997 Y84.824 E0.1183
G1 X146.882 Y84.926 E0.1221
G1 X146.707 Y85.018 E0.1270
G1 X146.699 Y85.020 E0.1272
G1 X145.653 Y83.974 E0.1640
G1 X145.622 Y84.056 E0.1662
G1 X145.598 Y84.252 E0.1711
G1 X145.620 Y84.437 E0.1757
G1 X145.660 Y84.477 E0.1772
G1 X146.226 Y85.043 F283
G92 E0.0000
G1 E-4.0000 F3000
; feature support
G1 Z0.480 F1002
G1 X144.885 Y85.221 F6000
G1 X144.802 Y85.100
G1 X143.391 Y85.419
G1 Z0.180 F1002
G1 E0.0000 F3000
G92 E0.0000
G1 X144.110 Y85.419 E0.0179 F283
G1 X144.124 Y85.456 E0.0189
G1 X144.479 Y85.969 E0.0344
G1 X144.946 Y86.383 E0.0499
G1 X145.331 Y86.586 E0.0608
G1 X143.391 Y86.586 E0.1091
G1 X143.391 Y87.287 E0.1265
G1 X149.461 Y87.287 E0.2776
G1 X149.461 Y86.586 E0.2950
G1 X147.502 Y86.586 E0.3438
G1 X147.888 Y86.383 E0.3546
G1 X148.355 Y85.969 E0.3701
G1 X148.709 Y85.456 E0.3857
G1 X148.723 Y85.419 E0.3866
G1 X149.461 Y85.419 E0.4050
G1 X149.461 Y84.252 E0.4340
G1 X149.006 Y84.252 E0.4453
G1 X148.931 Y83.633 E0.4609
G1 X148.723 Y83.086 E0.4754
G1 X149.461 Y83.086 E0.4938
G1 X149.461 Y81.919 E0.5228
G1 X148.302 Y81.919 E0.5516
G1 X147.502 Y81.919 F283
G92 E0.0000
G1 E-4.0000 F3000
G1 Z0.480 F1002
G1 X143.391 Y81.919 F6000
G1 Z0.180 F1002
G1 E0.0000 F3000
G92 E0.0000
G1 X145.331 Y81.919 E0.0483 F283
G1 X144.946 Y82.121 E0.0591
G1 X144.479 Y82.535 E0.0747
G1 X144.148 Y83.015 E0.0892
G1 X144.124 Y83.049 F283
G1 X144.110 Y83.086
G1 X143.391 Y83.086
G92 E0.0000
G1 E-4.0000 F3000
M117 INDICATOR-Layer2
; Z=0.330
M106 S255
; feature outer perimeter
; tool H0.150 W0.350
G1 Z0.480 F1002
G1 X144.802 Y83.405 F6000
G1 X144.646 Y83.816
G1 X144.593 Y84.252
G1 X144.608 Y84.377
G1 X146.197 Y86.063
G1 Z0.330 F1002
G1 E0.0000 F3000
G92 E0.0000
G1 X145.770 Y85.958 E0.0091 F450
G1 X145.381 Y85.753 E0.0182
G1 X145.052 Y85.462 E0.0273
G1 X144.802 Y85.100 E0.0365
G1 X144.646 Y84.689 E0.0456
G1 X144.593 Y84.252 E0.0547
G1 X144.646 Y83.816 E0.0638
G1 X144.802 Y83.405 E0.0729
G1 X145.052 Y83.043 E0.0820
G1 X145.381 Y82.752 E0.0912
G1 X145.752 Y82.557 E0.0999
G1 X146.198 Y82.442 E0.1094
G1 X146.637 Y82.442 E0.1185
G1 X147.063 Y82.547 E0.1276
G1 X147.453 Y82.752 E0.1367
G1 X147.782 Y83.043 E0.1458
G1 X148.032 Y83.405 E0.1550
