; G-Code generated by Simplify3D(R) Version 4.1.2
; Oct 30, 2020 at 8:16:27 AM
; Settings Summary
;   processName,Process1
;   applyToModels,CoinProfileLHautDroit(2)
;   profileName,A04-04-25s Tevo Tornado
;   profileVersion,2020-07-06 22:44:24
;   baseProfile,Creality CR-10(2)
;   printMaterial,PLA
;   printQuality,Medium
;   printExtruders,
;   extruderName,Primary Extruder
;   extruderToolheadNumber,0
;   extruderDiameter,0.4
;   extruderAutoWidth,0
;   extruderWidth,0.35
;   extrusionMultiplier,0.95
;   extruderUseRetract,1
;   extruderRetractionDistance,4
;   extruderExtraRestartDistance,0
;   extruderRetractionZLift,0.3
;   extruderRetractionSpeed,3000
;   extruderUseCoasting,1
;   extruderCoastingDistance,0.8
;   extruderUseWipe,0
;   extruderWipeDistance,4
;   primaryExtruder,0
;   layerHeight,0.15
;   topSolidLayers,4
;   bottomSolidLayers,3
;   perimeterOutlines,3
;   printPerimetersInsideOut,0
;   startPointOption,1
;   startPointOriginX,0
;   startPointOriginY,300
;   sequentialIslands,0
;   spiralVaseMode,0
;   firstLayerHeightPercentage,120
;   firstLayerWidthPercentage,100
;   firstLayerUnderspeed,0.35
;   useRaft,0
;   raftExtruder,0
;   raftTopLayers,3
;   raftBaseLayers,2
;   raftOffset,3
;   raftSeparationDistance,0.14
;   raftTopInfill,100
;   aboveRaftSpeedMultiplier,0.3
;   useSkirt,1
;   skirtExtruder,0
;   skirtLayers,1
;   skirtOutlines,3
;   skirtOffset,2
;   usePrimePillar,0
;   primePillarExtruder,999
;   primePillarWidth,12
;   primePillarLocation,7
;   primePillarSpeedMultiplier,1
;   useOozeShield,0
;   oozeShieldExtruder,999
;   oozeShieldOffset,2
;   oozeShieldOutlines,1
;   oozeShieldSidewallShape,1
;   oozeShieldSidewallAngle,30
;   oozeShieldSpeedMultiplier,1
;   infillExtruder,0
;   internalInfillPattern,Rectilinear
;   externalInfillPattern,Rectilinear
;   infillPercentage,25
;   outlineOverlapPercentage,15
;   infillExtrusionWidthPercentage,100
;   minInfillLength,5
;   infillLayerInterval,1
;   internalInfillAngles,45,-45
;   overlapInternalInfillAngles,0
;   externalInfillAngles,45,-45
;   generateSupport,1
;   supportExtruder,0
;   supportInfillPercentage,30
;   supportExtraInflation,0
;   supportBaseLayers,0
;   denseSupportExtruder,0
;   denseSupportLayers,0
;   denseSupportInfillPercentage,70
;   supportLayerInterval,1
;   supportHorizontalPartOffset,0.4
;   supportUpperSeparationLayers,1
;   supportLowerSeparationLayers,1
;   supportType,0
;   supportGridSpacing,4.5
;   maxOverhangAngle,45
;   supportAngles,0
;   temperatureName,Primary Extruder,Heated Bed
;   temperatureNumber,0,0
;   temperatureSetpointCount,1,1
;   temperatureSetpointLayers,1,1
;   temperatureSetpointTemperatures,215,55
;   temperatureStabilizeAtStartup,1,1
;   temperatureHeatedBed,0,1
;   fanLayers,1,2
;   fanSpeeds,0,100
;   blipFanToFullPower,0
;   adjustSpeedForCooling,1
;   minSpeedLayerTime,15
;   minCoolingSpeedSlowdown,50
;   increaseFanForCooling,1
;   minFanLayerTime,25
;   maxCoolingFanSpeed,100
;   increaseFanForBridging,1
;   bridgingFanSpeed,100
;   use5D,1
;   relativeEdistances,0
;   allowEaxisZeroing,1
;   independentExtruderAxes,0
;   includeM10123,0
;   stickySupport,1
;   applyToolheadOffsets,0
;   gcodeXoffset,0
;   gcodeYoffset,0
;   gcodeZoffset,0
;   overrideMachineDefinition,1
;   machineTypeOverride,0
;   strokeXoverride,300
;   strokeYoverride,300
;   strokeZoverride,400
;   originOffsetXoverride,0
;   originOffsetYoverride,0
;   originOffsetZoverride,0
;   homeXdirOverride,-1
;   homeYdirOverride,-1
;   homeZdirOverride,-1
;   flipXoverride,1
;   flipYoverride,-1
;   flipZoverride,1
;   toolheadOffsets,0,0|0,0|0,0|0,0|0,0|0,0
;   overrideFirmwareConfiguration,1
;   firmwareTypeOverride,RepRap (Marlin/Repetier/Sprinter)
;   GPXconfigOverride,r2
;   baudRateOverride,250000
;   overridePrinterModels,1
;   printerModelsOverride
;   startingGcode,;,; -]H.P.B[- MarshMalloW  ,; $VER: StartScript 1.02 (26.12.2019) MarshMalloW,;,; Begin Startcode,;,M117 *Preheat*     	; Preheat,;extruder0_temperature,M104 S[extruder0_temperature]  ,M109 S[extruder0_temperature] ,M109 R[extruder0_temperature] ,;,M117 *Auto-leveling*     	; Auto-leveling,M107                   	; Turn layer fan off,G21                    	; Set to metric [change to G20 if you want Imperial],G90                    	; Force coordinates to be absolute relative to the origin,G28                    	; Home X/Y/Z axis,G29                    	; Auto-leveling (BL-Touch),;,M117 *Start Clean*     	; Indicate nozzle clean in progress on LCD,G92 E0                 	; Set Extruder to 0 ,G1 X0 Y0 F2000         	; Move X and Y to 0 with speed 2000 (mm/min),G1 Z0.1 F1000          	; Move Z to   0.1 with speed 1000 (mm/min),G1 X8.0 F2000          	; Move X to   8.0 with speed 2000 (mm/min),G1 Y60.0 E4.0 F1000.0  	; Move Y to  60 and Extruder with 4.0 with speed 1000 (mm/min),G1 Y100.0 E8.5 F1000.0 	; Move Y to 100 and Extruder with 8.5 with speed 1000 (mm/min),G92 E0                 	; Set extruder to 0,G1 X16.0 F3000         	; Move X to 16.0 with speed 3000 (mm/min),G1 Y60.0 F3000         	; Move Y to 60.0 with speed 3000 (mm/min),M117 *End Clean*       	; Indicate nozzle clean in progress on LCD,G1 Z5 F3000            	; Move Z to  5.0 with speed 3000 (mm/min),G1 X20.0 F3000         	; Move X to 20.0 with speed 3000 (mm/min),G1 Y20.0 F3000         	; Move Y to 20.0 with speed 3000 (mm/min),; ,M117 *Printing...*     	; Start printing msg on LCD,;,; End Startcode,;,; Begin printing with sliced GCode after here,;
;   layerChangeGcode,
;   retractionGcode,
;   toolChangeGcode,
;   endingGcode,;,; init 181010,;,;M107 			; Fan off,;G1 E-1 F300 			; Retract the filament a bit before lifting the nozzle,;M104 S0 			; Turn off extruder,;M140 S0 			; Turn off bed,;G91			; Relative positioning,;G28 X0 Y0 			; Move X/Y to min endstops so the head is out of teh way,;M84 			; Disable motors,;G90 			; Absolute positioning,;M117 Print ready...,,;,; // From Cura 181010,; // End_gcode,G92 E0			; Zero the extruded length,;G1 E-30 F300		; Retract E -30,M106 S0			; Turn off cooling fan,M104 S0			; Turn off temperature,M140 S0		     	; Turn off bed,G91			; Relative positioning,G1 E-1 F300			; Retract the filament a bit before lifting the nozzle to release some of the pressure,G1 Z+20 E-5 X-20 Y-20 F7200	; Move Z up a bit and retract filament even more,G1 X0 Y150 F10000		; Move right min,M107			; Turn off layer fan,M84			; Disable motors,G90			; Absolute positioning,M117 *The-End* 		; End msg,;,
;   exportFileFormat,gcode
;   celebration,0
;   celebrationSong,Star Wars
;   postProcessing,|{REPLACE "; layer " "M117 INDICATOR-Layer"}|{REPLACE ", Z = " "\n; Z="}
;   defaultSpeed,1800
;   outlineUnderspeed,0.5
;   solidInfillUnderspeed,0.8
;   supportUnderspeed,0.8
;   rapidXYspeed,6000
;   rapidZspeed,1002
;   minBridgingArea,50
;   bridgingExtraInflation,0.2
;   bridgingExtrusionMultiplier,1
;   bridgingSpeedMultiplier,0.6
;   useFixedBridgingAngle,0
;   fixedBridgingAngle,0
;   applyBridgingToPerimeters,0
;   filamentDiameters,1.75|1.75|1.75|1.75|1.75|1.75
;   filamentPricesPerKg,30|46|46|46|46|46
;   filamentDensities,1.25|1.25|1.25|1.25|1.25|1.25
;   useMinPrintHeight,0
;   minPrintHeight,0
;   useMaxPrintHeight,0
;   maxPrintHeight,9
;   useDiaphragm,0
;   diaphragmLayerInterval,20
;   robustSlicing,1
;   mergeAllIntoSolid,0
;   onlyRetractWhenCrossingOutline,1
;   retractBetweenLayers,0
;   useRetractionMinTravel,0
;   retractionMinTravel,3
;   retractWhileWiping,0
;   onlyWipeOutlines,1
;   avoidCrossingOutline,1
;   maxMovementDetourFactor,3
;   toolChangeRetractionDistance,12
;   toolChangeExtraRestartDistance,-0.5
;   toolChangeRetractionSpeed,600
;   externalThinWallType,1
;   internalThinWallType,1
;   thinWallAllowedOverlapPercentage,10
;   singleExtrusionMinLength,1
;   singleExtrusionMinPrintingWidthPercentage,50
;   singleExtrusionMaxPrintingWidthPercentage,200
;   singleExtrusionEndpointExtension,0.2
;   horizontalSizeCompensation,0
G90
M82
M106 S0
M140 S55
M190 S55
;
; -]H.P.B[- MarshMalloW  
; $VER: StartScript 1.02 (26.12.2019) MarshMalloW
;
; Begin Startcode
;
M117 *Preheat*     	; Preheat
;extruder0_temperature
M104 S215  
M109 S215 
M109 R215 
;
M117 *Auto-leveling*     	; Auto-leveling
M107                   	; Turn layer fan off
G21                    	; Set to metric [change to G20 if you want Imperial]
G90                    	; Force coordinates to be absolute relative to the origin
G28                    	; Home X/Y/Z axis
G29                    	; Auto-leveling (BL-Touch)
;
M117 *Start Clean*     	; Indicate nozzle clean in progress on LCD
G92 E0                 	; Set Extruder to 0 
G1 X0 Y0 F2000         	; Move X and Y to 0 with speed 2000 (mm/min)
G1 Z0.1 F1000          	; Move Z to   0.1 with speed 1000 (mm/min)
G1 X8.0 F2000          	; Move X to   8.0 with speed 2000 (mm/min)
G1 Y60.0 E4.0 F1000.0  	; Move Y to  60 and Extruder with 4.0 with speed 1000 (mm/min)
G1 Y100.0 E8.5 F1000.0 	; Move Y to 100 and Extruder with 8.5 with speed 1000 (mm/min)
G92 E0                 	; Set extruder to 0
G1 X16.0 F3000         	; Move X to 16.0 with speed 3000 (mm/min)
G1 Y60.0 F3000         	; Move Y to 60.0 with speed 3000 (mm/min)
M117 *End Clean*       	; Indicate nozzle clean in progress on LCD
G1 Z5 F3000            	; Move Z to  5.0 with speed 3000 (mm/min)
G1 X20.0 F3000         	; Move X to 20.0 with speed 3000 (mm/min)
G1 Y20.0 F3000         	; Move Y to 20.0 with speed 3000 (mm/min)
; 
M117 *Printing...*     	; Start printing msg on LCD
;
; End Startcode
;
; Begin printing with sliced GCode after here
;
; process Process1
M117 INDICATOR-Layer1
; Z=0.180
T0
G92 E0.0000
G1 E-4.0000 F3000
; feature skirt
; tool H0.180 W0.350
G1 Z0.300 F1002
G1 X105.558 Y57.106 F6000
G1 Z0.180 F1002
G1 E0.0000 F3000
G92 E0.0000
G1 X149.157 Y57.106 E1.0849 F630
G1 X149.238 Y57.109 E1.0869
G1 X152.519 Y57.293 E1.1686
G1 X152.687 Y57.312 E1.1729
G1 X156.115 Y57.914 E1.2595
G1 X156.265 Y57.948 E1.2633
G1 X159.301 Y58.823 E1.3419
G1 X159.453 Y58.876 E1.3459
G1 X162.523 Y60.148 E1.4286
G1 X162.668 Y60.218 E1.4326
G1 X165.576 Y61.825 E1.5153
G1 X165.713 Y61.911 E1.5193
G1 X168.422 Y63.833 E1.6020
G1 X168.549 Y63.934 E1.6060
G1 X171.026 Y66.148 E1.6887
G1 X171.140 Y66.262 E1.6927
G1 X173.354 Y68.739 E1.7754
G1 X173.455 Y68.866 E1.7794
G1 X175.377 Y71.575 E1.8620
G1 X175.463 Y71.712 E1.8661
G1 X177.070 Y74.620 E1.9487
G1 X177.140 Y74.765 E1.9527
G1 X178.412 Y77.835 E2.0354
G1 X178.465 Y77.987 E2.0394
G1 X179.385 Y81.180 E2.1221
G1 X179.421 Y81.337 E2.1261
G1 X179.977 Y84.613 E2.2088
G1 X179.995 Y84.773 E2.2128
G1 X180.180 Y88.050 E2.2945
G1 X180.182 Y88.131 E2.2965
G1 X180.182 Y124.362 E3.1980
G1 X178.498 Y126.046 E3.2573
G1 X147.926 Y126.046 E4.0180
G1 X146.242 Y124.362 E4.0773
G1 X146.242 Y91.046 E4.9062
G1 X99.736 Y91.046 E6.0634
G1 X98.052 Y89.362 E6.1227
G1 X98.052 Y64.612 E6.7386
G1 X96.522 Y63.082 E6.7924
G1 X96.522 Y59.260 E6.8875
G1 X98.206 Y57.576 E6.9468
G1 X98.522 Y57.576 E6.9546
G1 X98.522 Y57.260 E6.9625
G1 X100.206 Y55.576 E7.0217
G1 X104.028 Y55.576 E7.1168
G1 X105.558 Y57.106 E7.1707
G92 E0.0000
G1 E-4.0000 F3000
G1 Z0.480 F1002
G1 X104.126 Y60.156 F6000
G1 X114.786 Y60.156
G1 X175.981 Y80.382
G1 X176.429 Y81.937
G1 X179.077 Y81.406
G1 Z0.180 F1002
G1 E0.0000 F3000
G92 E0.0000
G1 X179.631 Y84.662 E0.0822 F630
G1 X179.647 Y84.803 E0.0857
G1 X179.830 Y88.065 E0.1670
G1 X179.832 Y88.136 E0.1688
G1 X179.832 Y124.217 E1.0666
G1 X178.353 Y125.696 E1.1186
G1 X148.071 Y125.696 E1.8721
G1 X146.592 Y124.217 E1.9242
G1 X146.592 Y90.696 E2.7583
G1 X99.881 Y90.696 E3.9206
G1 X98.402 Y89.217 E3.9726
G1 X98.402 Y64.416 E4.5897
G1 X98.351 Y64.416 E4.5910
G1 X96.872 Y62.937 E4.6430
G1 X96.872 Y59.405 E4.7309
G1 X98.351 Y57.926 E4.7830
G1 X98.872 Y57.926 E4.7959
G1 X98.872 Y57.405 E4.8089
G1 X100.351 Y55.926 E4.8609
G1 X103.883 Y55.926 E4.9488
G1 X105.362 Y57.405 E5.0009
G1 X105.362 Y57.456 E5.0021
G1 X149.152 Y57.456 E6.0918
G1 X149.223 Y57.458 E6.0935
G1 X152.489 Y57.642 E6.1749
G1 X152.636 Y57.659 E6.1786
G1 X156.046 Y58.257 E6.2647
G1 X156.177 Y58.287 E6.2681
G1 X159.194 Y59.156 E6.3462
G1 X159.328 Y59.203 E6.3497
G1 X162.380 Y60.467 E6.4319
G1 X162.507 Y60.529 E6.4355
G1 X165.398 Y62.126 E6.5176
G1 X165.518 Y62.202 E6.5212
G1 X168.212 Y64.113 E6.6034
G1 X168.323 Y64.201 E6.6069
G1 X170.785 Y66.402 E6.6891
G1 X170.886 Y66.503 E6.6926
G1 X173.087 Y68.965 E6.7748
G1 X173.175 Y69.076 E6.7783
G1 X175.086 Y71.770 E6.8605
G1 X175.162 Y71.890 E6.8640
G1 X176.759 Y74.781 E6.9462
G1 X176.821 Y74.908 E6.9497
G1 X178.085 Y77.960 E7.0319
G1 X178.132 Y78.094 E7.0354
G1 X179.046 Y81.267 E7.1176
G1 X179.077 Y81.406 E7.1212
G92 E0.0000
G1 E-4.0000 F3000
G1 Z0.480 F1002
G1 X176.429 Y81.937 F6000
G1 X175.559 Y78.919
G1 X174.505 Y76.372
G1 X163.322 Y64.064
G1 X161.272 Y62.931
G1 X158.369 Y61.729
G1 X159.203 Y59.530
G1 Z0.180 F1002
G1 E0.0000 F3000
G92 E0.0000
G1 X162.237 Y60.787 E0.0817 F630
G1 X162.347 Y60.840 E0.0847
G1 X165.220 Y62.428 E0.1664
G1 X165.324 Y62.493 E0.1695
G1 X168.001 Y64.393 E0.2512
G1 X168.097 Y64.469 E0.2542
G1 X170.545 Y66.657 E0.3359
G1 X170.631 Y66.743 E0.3389
G1 X172.819 Y69.191 E0.4206
G1 X172.895 Y69.287 E0.4237
G1 X174.795 Y71.964 E0.5054
G1 X174.860 Y72.068 E0.5084
G1 X176.448 Y74.941 E0.5901
G1 X176.501 Y75.051 E0.5931
G1 X177.758 Y78.085 E0.6748
G1 X177.798 Y78.200 E0.6779
G1 X178.707 Y81.355 E0.7596
G1 X178.734 Y81.474 E0.7626
G1 X179.284 Y84.711 E0.8443
G1 X179.298 Y84.832 E0.8473
G1 X179.480 Y88.080 E0.9283
G1 X179.482 Y88.141 E0.9298
G1 X179.482 Y124.072 E1.8239
G1 X178.208 Y125.346 E1.8687
G1 X148.216 Y125.346 E2.6150
G1 X146.942 Y124.072 E2.6598
G1 X146.942 Y90.346 E3.4990
G1 X100.026 Y90.346 E4.6664
G1 X98.752 Y89.072 E4.7112
G1 X98.752 Y64.066 E5.3335
G1 X98.496 Y64.066 E5.3398
G1 X97.222 Y62.792 E5.3847
G1 X97.222 Y59.550 E5.4653
G1 X98.496 Y58.276 E5.5102
G1 X99.222 Y58.276 E5.5282
G1 X99.222 Y57.550 E5.5463
G1 X100.496 Y56.276 E5.5911
G1 X103.738 Y56.276 E5.6718
G1 X105.012 Y57.550 E5.7166
G1 X105.012 Y57.806 E5.7230
G1 X149.147 Y57.806 E6.8212
G1 X149.208 Y57.808 E6.8227
G1 X152.459 Y57.991 E6.9037
G1 X152.586 Y58.005 E6.9069
G1 X155.976 Y58.600 E6.9926
G1 X156.089 Y58.626 E6.9954
G1 X159.088 Y59.490 E7.0731
G1 X159.203 Y59.530 E7.0761
G92 E0.0000
G1 E-4.0000 F3000
; feature outer perimeter
G1 Z0.480 F1002
G1 X158.369 Y61.729 F6000
G1 X155.494 Y60.900
G1 X155.351 Y60.859
G1 X152.253 Y60.333
G1 X149.112 Y60.156
G1 X138.449 Y60.156
G1 X101.787 Y61.262
G1 Z0.180 F1002
G1 E0.0000 F3000
G92 E0.0000
G1 X102.206 Y60.843 E0.0147 F315
G1 X102.829 Y60.447 E0.0331
G1 X103.464 Y60.229 E0.0498
G1 X104.126 Y60.156 E0.0664
G1 X149.112 Y60.156 E1.1857
G1 X152.254 Y60.333 E1.2640
G1 X155.351 Y60.859 E1.3422
G1 X155.494 Y60.900 E1.3459
G1 X158.369 Y61.729 E1.4204
G1 X161.272 Y62.931 E1.4986
G1 X164.022 Y64.451 E1.5767
G1 X166.584 Y66.268 E1.6549
G1 X168.926 Y68.362 E1.7331
G1 X171.020 Y70.704 E1.8112
G1 X172.838 Y73.266 E1.8894
G1 X174.357 Y76.016 E1.9676
G1 X175.559 Y78.919 E2.0458
G1 X176.429 Y81.937 E2.1239
G1 X176.955 Y85.035 E2.2021
G1 X177.132 Y88.176 E2.2804
G1 X177.132 Y122.996 E3.1468
G1 X149.292 Y122.996 E3.8395
G1 X149.292 Y87.996 E4.7104
G1 X101.102 Y87.996 E5.9095
G1 X101.102 Y63.181 E6.5270
G1 X101.175 Y62.518 E6.5436
G1 X101.372 Y61.944 E6.5587
G1 X101.393 Y61.883 F315
G1 X101.715 Y61.370
G1 X101.787 Y61.262
; feature inner perimeter
G1 X102.059 Y61.485 F6000
G92 E0.0000
G1 X102.426 Y61.118 E0.0129 F472
G1 X102.982 Y60.765 E0.0293
G1 X103.541 Y60.573 E0.0440
G1 X104.146 Y60.506 E0.0591
G1 X149.102 Y60.506 E1.1778
G1 X152.214 Y60.681 E1.2553
G1 X155.196 Y61.188 E1.3306
G1 X155.196 Y61.179 E1.3308
G1 X158.254 Y62.059 E1.4100
G1 X161.120 Y63.247 E1.4872
G1 X163.835 Y64.747 E1.5644
G1 X166.365 Y66.543 E1.6416
G1 X168.678 Y68.610 E1.7188
G1 X170.745 Y70.923 E1.7960
G1 X172.541 Y73.453 E1.8732
G1 X174.041 Y76.168 E1.9504
G1 X175.229 Y79.034 E2.0276
G1 X176.087 Y82.015 E2.1047
G1 X176.607 Y85.074 E2.1819
G1 X176.782 Y88.186 E2.2595
G1 X176.782 Y122.646 E3.1170
G1 X149.642 Y122.646 E3.7923
