; G-Code generated by Simplify3D(R) Version 4.1.2
; Oct 25, 2020 at 5:28:54 PM
; Settings Summary
;   processName,Process1
;   applyToModels,Tourillion
;   profileName,A04-04-50s Tevo Tornado
;   profileVersion,2020-07-28 17:16:38
;   baseProfile,Creality CR-10(2)
;   printMaterial,PLA
;   printQuality,Medium
;   printExtruders,
;   extruderName,Primary Extruder
;   extruderToolheadNumber,0
;   extruderDiameter,0.4
;   extruderAutoWidth,0
;   extruderWidth,0.35
;   extrusionMultiplier,0.95
;   extruderUseRetract,1
;   extruderRetractionDistance,4
;   extruderExtraRestartDistance,0
;   extruderRetractionZLift,0.3
;   extruderRetractionSpeed,3000
;   extruderUseCoasting,1
;   extruderCoastingDistance,0.8
;   extruderUseWipe,0
;   extruderWipeDistance,4
;   primaryExtruder,0
;   layerHeight,0.15
;   topSolidLayers,4
;   bottomSolidLayers,3
;   perimeterOutlines,3
;   printPerimetersInsideOut,0
;   startPointOption,1
;   startPointOriginX,0
;   startPointOriginY,300
;   sequentialIslands,0
;   spiralVaseMode,0
;   firstLayerHeightPercentage,120
;   firstLayerWidthPercentage,100
;   firstLayerUnderspeed,0.35
;   useRaft,0
;   raftExtruder,0
;   raftTopLayers,3
;   raftBaseLayers,2
;   raftOffset,3
;   raftSeparationDistance,0.14
;   raftTopInfill,100
;   aboveRaftSpeedMultiplier,0.3
;   useSkirt,1
;   skirtExtruder,0
;   skirtLayers,1
;   skirtOutlines,3
;   skirtOffset,2
;   usePrimePillar,0
;   primePillarExtruder,999
;   primePillarWidth,12
;   primePillarLocation,7
;   primePillarSpeedMultiplier,1
;   useOozeShield,0
;   oozeShieldExtruder,999
;   oozeShieldOffset,2
;   oozeShieldOutlines,1
;   oozeShieldSidewallShape,1
;   oozeShieldSidewallAngle,30
;   oozeShieldSpeedMultiplier,1
;   infillExtruder,0
;   internalInfillPattern,Rectilinear
;   externalInfillPattern,Rectilinear
;   infillPercentage,25
;   outlineOverlapPercentage,15
;   infillExtrusionWidthPercentage,100
;   minInfillLength,5
;   infillLayerInterval,1
;   internalInfillAngles,45,-45
;   overlapInternalInfillAngles,0
;   externalInfillAngles,45,-45
;   generateSupport,1
;   supportExtruder,0
;   supportInfillPercentage,30
;   supportExtraInflation,0
;   supportBaseLayers,0
;   denseSupportExtruder,0
;   denseSupportLayers,0
;   denseSupportInfillPercentage,70
;   supportLayerInterval,1
;   supportHorizontalPartOffset,0.4
;   supportUpperSeparationLayers,1
;   supportLowerSeparationLayers,1
;   supportType,0
;   supportGridSpacing,4.5
;   maxOverhangAngle,45
;   supportAngles,0
;   temperatureName,Primary Extruder,Heated Bed
;   temperatureNumber,0,0
;   temperatureSetpointCount,1,1
;   temperatureSetpointLayers,1,1
;   temperatureSetpointTemperatures,215,55
;   temperatureStabilizeAtStartup,1,1
;   temperatureHeatedBed,0,1
;   fanLayers,1,2
;   fanSpeeds,0,100
;   blipFanToFullPower,0
;   adjustSpeedForCooling,1
;   minSpeedLayerTime,15
;   minCoolingSpeedSlowdown,50
;   increaseFanForCooling,1
;   minFanLayerTime,25
;   maxCoolingFanSpeed,100
;   increaseFanForBridging,1
;   bridgingFanSpeed,100
;   use5D,1
;   relativeEdistances,0
;   allowEaxisZeroing,1
;   independentExtruderAxes,0
;   includeM10123,0
;   stickySupport,1
;   applyToolheadOffsets,0
;   gcodeXoffset,0
;   gcodeYoffset,0
;   gcodeZoffset,0
;   overrideMachineDefinition,1
;   machineTypeOverride,0
;   strokeXoverride,300
;   strokeYoverride,300
;   strokeZoverride,400
;   originOffsetXoverride,0
;   originOffsetYoverride,0
;   originOffsetZoverride,0
;   homeXdirOverride,-1
;   homeYdirOverride,-1
;   homeZdirOverride,-1
;   flipXoverride,1
;   flipYoverride,-1
;   flipZoverride,1
;   toolheadOffsets,0,0|0,0|0,0|0,0|0,0|0,0
;   overrideFirmwareConfiguration,1
;   firmwareTypeOverride,RepRap (Marlin/Repetier/Sprinter)
;   GPXconfigOverride,r2
;   baudRateOverride,250000
;   overridePrinterModels,1
;   printerModelsOverride
;   startingGcode,;,; -]H.P.B[- MarshMalloW  ,; $VER: StartScript 1.02 (26.12.2019) MarshMalloW,;,; Begin Startcode,;,M117 *Preheat*     	; Preheat,;extruder0_temperature,M104 S[extruder0_temperature]  ,M109 S[extruder0_temperature] ,M109 R[extruder0_temperature] ,;,M117 *Auto-leveling*     	; Auto-leveling,M107                   	; Turn layer fan off,G21                    	; Set to metric [change to G20 if you want Imperial],G90                    	; Force coordinates to be absolute relative to the origin,G28                    	; Home X/Y/Z axis,G29                    	; Auto-leveling (BL-Touch),;,M117 *Start Clean*     	; Indicate nozzle clean in progress on LCD,G92 E0                 	; Set Extruder to 0 ,G1 X0 Y0 F2000         	; Move X and Y to 0 with speed 2000 (mm/min),G1 Z0.1 F1000          	; Move Z to   0.1 with speed 1000 (mm/min),G1 X8.0 F2000          	; Move X to   8.0 with speed 2000 (mm/min),G1 Y60.0 E4.0 F1000.0  	; Move Y to  60 and Extruder with 4.0 with speed 1000 (mm/min),G1 Y100.0 E8.5 F1000.0 	; Move Y to 100 and Extruder with 8.5 with speed 1000 (mm/min),G92 E0                 	; Set extruder to 0,G1 X16.0 F3000         	; Move X to 16.0 with speed 3000 (mm/min),G1 Y60.0 F3000         	; Move Y to 60.0 with speed 3000 (mm/min),M117 *End Clean*       	; Indicate nozzle clean in progress on LCD,G1 Z5 F3000            	; Move Z to  5.0 with speed 3000 (mm/min),G1 X20.0 F3000         	; Move X to 20.0 with speed 3000 (mm/min),G1 Y20.0 F3000         	; Move Y to 20.0 with speed 3000 (mm/min),; ,M117 *Printing...*     	; Start printing msg on LCD,;,; End Startcode,;,; Begin printing with sliced GCode after here,;
;   layerChangeGcode,
;   retractionGcode,
;   toolChangeGcode,
;   endingGcode,;,; init 181010,;,;M107 			; Fan off,;G1 E-1 F300 			; Retract the filament a bit before lifting the nozzle,;M104 S0 			; Turn off extruder,;M140 S0 			; Turn off bed,;G91			; Relative positioning,;G28 X0 Y0 			; Move X/Y to min endstops so the head is out of teh way,;M84 			; Disable motors,;G90 			; Absolute positioning,;M117 Print ready...,,;,; // From Cura 181010,; // End_gcode,G92 E0			; Zero the extruded length,;G1 E-30 F300		; Retract E -30,M106 S0			; Turn off cooling fan,M104 S0			; Turn off temperature,M140 S0		     	; Turn off bed,G91			; Relative positioning,G1 E-1 F300			; Retract the filament a bit before lifting the nozzle to release some of the pressure,G1 Z+20 E-5 X-20 Y-20 F7200	; Move Z up a bit and retract filament even more,G1 X0 Y150 F10000		; Move right min,M107			; Turn off layer fan,M84			; Disable motors,G90			; Absolute positioning,M117 *The-End* 		; End msg,;,
;   exportFileFormat,gcode
;   celebration,0
;   celebrationSong,Star Wars
;   postProcessing,|{REPLACE "; layer " "M117 INDICATOR-Layer"}|{REPLACE ", Z = " "\n; Z="}
;   defaultSpeed,1800
;   outlineUnderspeed,0.5
;   solidInfillUnderspeed,0.8
;   supportUnderspeed,0.8
;   rapidXYspeed,6000
;   rapidZspeed,1002
;   minBridgingArea,50
;   bridgingExtraInflation,0.2
;   bridgingExtrusionMultiplier,1
;   bridgingSpeedMultiplier,0.6
;   useFixedBridgingAngle,0
;   fixedBridgingAngle,0
;   applyBridgingToPerimeters,0
;   filamentDiameters,1.75|1.75|1.75|1.75|1.75|1.75
;   filamentPricesPerKg,30|46|46|46|46|46
;   filamentDensities,1.25|1.25|1.25|1.25|1.25|1.25
;   useMinPrintHeight,0
;   minPrintHeight,0
;   useMaxPrintHeight,0
;   maxPrintHeight,9
;   useDiaphragm,0
;   diaphragmLayerInterval,20
;   robustSlicing,1
;   mergeAllIntoSolid,0
;   onlyRetractWhenCrossingOutline,1
;   retractBetweenLayers,0
;   useRetractionMinTravel,0
;   retractionMinTravel,3
;   retractWhileWiping,0
;   onlyWipeOutlines,1
;   avoidCrossingOutline,1
;   maxMovementDetourFactor,3
;   toolChangeRetractionDistance,12
;   toolChangeExtraRestartDistance,-0.5
;   toolChangeRetractionSpeed,600
;   externalThinWallType,1
;   internalThinWallType,1
;   thinWallAllowedOverlapPercentage,10
;   singleExtrusionMinLength,1
;   singleExtrusionMinPrintingWidthPercentage,50
;   singleExtrusionMaxPrintingWidthPercentage,200
;   singleExtrusionEndpointExtension,0.2
;   horizontalSizeCompensation,0
G90
M82
M106 S159
M140 S55
M190 S55
;
; -]H.P.B[- MarshMalloW  
; $VER: StartScript 1.02 (26.12.2019) MarshMalloW
;
; Begin Startcode
;
M117 *Preheat*     	; Preheat
;extruder0_temperature
M104 S215  
M109 S215 
M109 R215 
;
M117 *Auto-leveling*     	; Auto-leveling
M107                   	; Turn layer fan off
G21                    	; Set to metric [change to G20 if you want Imperial]
G90                    	; Force coordinates to be absolute relative to the origin
G28                    	; Home X/Y/Z axis
G29                    	; Auto-leveling (BL-Touch)
;
M117 *Start Clean*     	; Indicate nozzle clean in progress on LCD
G92 E0                 	; Set Extruder to 0 
G1 X0 Y0 F2000         	; Move X and Y to 0 with speed 2000 (mm/min)
G1 Z0.1 F1000          	; Move Z to   0.1 with speed 1000 (mm/min)
G1 X8.0 F2000          	; Move X to   8.0 with speed 2000 (mm/min)
G1 Y60.0 E4.0 F1000.0  	; Move Y to  60 and Extruder with 4.0 with speed 1000 (mm/min)
G1 Y100.0 E8.5 F1000.0 	; Move Y to 100 and Extruder with 8.5 with speed 1000 (mm/min)
G92 E0                 	; Set extruder to 0
G1 X16.0 F3000         	; Move X to 16.0 with speed 3000 (mm/min)
G1 Y60.0 F3000         	; Move Y to 60.0 with speed 3000 (mm/min)
M117 *End Clean*       	; Indicate nozzle clean in progress on LCD
G1 Z5 F3000            	; Move Z to  5.0 with speed 3000 (mm/min)
G1 X20.0 F3000         	; Move X to 20.0 with speed 3000 (mm/min)
G1 Y20.0 F3000         	; Move Y to 20.0 with speed 3000 (mm/min)
; 
M117 *Printing...*     	; Start printing msg on LCD
;
; End Startcode
;
; Begin printing with sliced GCode after here
;
; process Process1
M117 INDICATOR-Layer1
; Z=0.180
T0
G92 E0.0000
G1 E-4.0000 F3000
; feature skirt
; tool H0.180 W0.350
G1 Z0.300 F1002
G1 X141.973 Y91.709 F6000
G1 Z0.180 F1002
G1 E0.0000 F3000
G92 E0.0000
G1 X141.973 Y99.031 E0.1822 F315
G1 X140.289 Y100.715 E0.2414
G1 X132.967 Y100.715 E0.4236
G1 X131.283 Y99.031 E0.4829
G1 X131.283 Y91.709 E0.6651
G1 X132.967 Y90.025 E0.7243
G1 X140.289 Y90.025 E0.9065
G1 X141.973 Y91.709 E0.9658
G92 E0.0000
G1 E-4.0000 F3000
G1 Z0.480 F1002
G1 X131.633 Y98.886 F6000
G1 Z0.180 F1002
G1 E0.0000 F3000
G92 E0.0000
G1 X131.633 Y91.854 E0.1750 F315
G1 X133.112 Y90.375 E0.2270
G1 X140.144 Y90.375 E0.4020
G1 X141.623 Y91.854 E0.4540
G1 X141.623 Y98.886 E0.6290
G1 X140.144 Y100.365 E0.6811
G1 X133.112 Y100.365 E0.8560
G1 X131.633 Y98.886 E0.9081
G92 E0.0000
G1 E-4.0000 F3000
G1 Z0.480 F1002
G1 X135.637 Y96.248 F6000
G1 X135.456 Y95.985
G1 X135.343 Y95.687
G1 X135.304 Y95.370
G1 X135.313 Y95.296
G1 X136.582 Y94.058
G1 X136.788 Y94.056
G1 X137.097 Y94.132
G1 X137.380 Y94.281
G1 X139.999 Y90.725
G1 Z0.180 F1002
G1 E0.0000 F3000
G92 E0.0000
G1 X141.273 Y91.999 E0.0448 F315
G1 X141.273 Y98.741 E0.2126
G1 X139.999 Y100.015 E0.2574
G1 X133.257 Y100.015 E0.4252
G1 X131.983 Y98.741 E0.4700
G1 X131.983 Y91.999 E0.6378
G1 X133.257 Y90.725 E0.6826
G1 X139.999 Y90.725 E0.8504
G92 E0.0000
G1 E-4.0000 F3000
; feature outer perimeter
G1 Z0.480 F1002
G1 X137.380 Y94.281 F6000
G1 X137.097 Y94.132
G1 X136.788 Y94.056
G1 X136.458 Y94.058
G1 X136.158 Y94.132
G1 X135.892 Y94.272
G1 X135.637 Y94.492
G1 Z0.180 F1002
G1 E0.0000 F3000
G92 E0.0000
G1 X135.876 Y94.281 E0.0079 F158
G1 X136.158 Y94.132 E0.0159
G1 X136.458 Y94.058 E0.0236
G1 X136.788 Y94.056 E0.0318
G1 X137.097 Y94.132 E0.0397
G1 X137.380 Y94.281 E0.0476
G1 X137.619 Y94.492 E0.0556
G1 X137.800 Y94.755 E0.0635
G1 X137.913 Y95.053 E0.0715
G1 X137.952 Y95.370 E0.0794
G1 X137.913 Y95.687 E0.0873
G1 X137.800 Y95.985 E0.0953
G1 X137.619 Y96.248 E0.1032
G1 X137.380 Y96.459 E0.1112
G1 X137.097 Y96.608 E0.1191
G1 X136.787 Y96.684 E0.1270
G1 X136.468 Y96.684 E0.1350
G1 X136.158 Y96.608 E0.1429
G1 X135.876 Y96.459 E0.1509
G1 X135.637 Y96.248 E0.1588
G1 X135.456 Y95.985 E0.1667
G1 X135.343 Y95.687 E0.1747
G1 X135.304 Y95.370 E0.1826
G1 X135.323 Y95.214 E0.1865
G1 X135.343 Y95.053 F158
G1 X135.456 Y94.755
G1 X135.637 Y94.492
; feature inner perimeter
G1 X135.901 Y94.726 F6000
G92 E0.0000
G1 X136.076 Y94.571 E0.0058 F236
G1 X136.283 Y94.462 E0.0117
G1 X136.502 Y94.408 E0.0173
G1 X136.747 Y94.406 E0.0233
G1 X136.972 Y94.462 E0.0291
G1 X137.179 Y94.571 E0.0349
G1 X137.355 Y94.726 E0.0408
G1 X137.488 Y94.919 E0.0466
G1 X137.571 Y95.138 E0.0524
G1 X137.599 Y95.370 E0.0582
G1 X137.571 Y95.602 E0.0641
G1 X137.488 Y95.821 E0.0699
G1 X137.355 Y96.014 E0.0757
G1 X137.179 Y96.169 E0.0815
G1 X136.972 Y96.278 E0.0874
G1 X136.745 Y96.334 E0.0932
G1 X136.511 Y96.334 E0.0990
G1 X136.283 Y96.278 E0.1049
G1 X136.076 Y96.169 E0.1107
G1 X135.901 Y96.014 E0.1165
G1 X135.768 Y95.821 E0.1223
G1 X135.685 Y95.603 E0.1282
G1 X135.668 Y95.467 E0.1315
G1 X135.657 Y95.370 F236
G1 X135.685 Y95.138
G1 X135.768 Y94.919
G1 X135.901 Y94.726
G1 X136.165 Y94.960 F6000
G92 E0.0000
G1 X136.276 Y94.861 E0.0037 F236
G1 X136.408 Y94.792 E0.0074
G1 X136.546 Y94.758 E0.0109
G1 X136.705 Y94.757 E0.0149
G1 X136.847 Y94.792 E0.0185
G1 X136.979 Y94.861 E0.0223
G1 X137.091 Y94.960 E0.0260
G1 X137.175 Y95.083 E0.0297
G1 X137.228 Y95.222 E0.0334
G1 X137.246 Y95.370 E0.0371
G1 X137.228 Y95.518 E0.0408
G1 X137.175 Y95.658 E0.0445
G1 X137.091 Y95.780 E0.0482
G1 X136.979 Y95.879 E0.0519
G1 X136.847 Y95.948 E0.0557
G1 X136.702 Y95.984 E0.0594
G1 X136.553 Y95.984 E0.0631
G1 X136.408 Y95.948 E0.0668
G1 X136.276 Y95.879 E0.0705
G1 X136.165 Y95.780 E0.0742
G1 X136.111 Y95.702 E0.0766
G1 X136.080 Y95.657 F236
G1 X136.027 Y95.518
G1 X136.009 Y95.370
G1 X136.027 Y95.222
G1 X136.080 Y95.083
G1 X136.165 Y94.960
G92 E0.0000
G1 E-4.0000 F3000
; feature support
G1 Z0.480 F1002
G1 X135.422 Y95.896 F6000
G1 X135.456 Y95.985
G1 X134.913 Y96.537
G1 Z0.180 F1002
G1 E0.0000 F3000
G92 E0.0000
G1 X134.343 Y96.537 E0.0142 F252
G1 X134.343 Y97.655 E0.0420
G1 X138.913 Y97.655 E0.1557
G1 X138.913 Y96.537 E0.1836
G1 X138.343 Y96.537 E0.1977
G1 X138.478 Y96.341 E0.2037
G1 X138.656 Y95.870 E0.2162
G1 X138.717 Y95.370 E0.2287
G1 X138.913 Y95.370 E0.2336
G1 X138.913 Y94.203 E0.2626
G1 X138.343 Y94.203 E0.2768
G1 X138.192 Y93.985 E0.2834
G1 X137.815 Y93.651 E0.2960
G1 X137.369 Y93.417 E0.3085
G1 X136.878 Y93.295 E0.3211
G1 X136.363 Y93.299 E0.3339
G1 X135.887 Y93.417 E0.3461
G1 X135.441 Y93.651 E0.3586
G1 X135.064 Y93.985 E0.3711
G1 X135.044 Y94.014 E0.3720
G1 X134.913 Y94.203 F252
G1 X134.343 Y94.203
G92 E0.0000
G1 E-4.0000 F3000
M117 INDICATOR-Layer2
; Z=0.330
M106 S255
; feature outer perimeter
; tool H0.150 W0.350
G1 Z0.480 F1002
G1 X135.456 Y94.755 F6000
G1 X135.343 Y95.053
G1 X135.309 Y95.331
G1 X136.468 Y96.684
G1 Z0.330 F1002
G1 E0.0000 F3000
G92 E0.0000
G1 X136.158 Y96.608 E0.0066 F450
G1 X135.876 Y96.459 E0.0132
G1 X135.637 Y96.248 E0.0199
G1 X135.456 Y95.985 E0.0265
G1 X135.343 Y95.687 E0.0331
G1 X135.304 Y95.370 E0.0397
G1 X135.343 Y95.053 E0.0463
G1 X135.456 Y94.755 E0.0529
G1 X135.637 Y94.492 E0.0596
G1 X135.876 Y94.281 E0.0662
G1 X136.158 Y94.132 E0.0728
G1 X136.440 Y94.063 E0.0788
G1 X136.789 Y94.056 E0.0860
G1 X137.097 Y94.132 E0.0926
G1 X137.380 Y94.281 E0.0992
G1 X137.619 Y94.492 E0.1059
G1 X137.800 Y94.755 E0.1125
G1 X137.913 Y95.053 E0.1191
G1 X137.952 Y95.370 E0.1257
G1 X137.913 Y95.687 E0.1323
G1 X137.800 Y95.985 E0.1389
G1 X137.619 Y96.248 E0.1456
G1 X137.380 Y96.459 E0.1522
G1 X137.240 Y96.533 E0.1554
G1 X137.097 Y96.608 F450
G1 X136.787 Y96.684
G1 X136.468 Y96.684
; feature inner perimeter
G1 X136.511 Y96.334 F6000
G92 E0.0000
G1 X136.283 Y96.278 E0.0049 F675
G1 X136.076 Y96.169 E0.0097
G1 X135.901 Y96.014 E0.0146
G1 X135.768 Y95.821 E0.0194
G1 X135.685 Y95.603 E0.0243
G1 X135.657 Y95.370 E0.0291
G1 X135.685 Y95.138 E0.0340
G1 X135.768 Y94.919 E0.0388
G1 X135.901 Y94.726 E0.0437
G1 X136.076 Y94.571 E0.0485
G1 X136.283 Y94.462 E0.0534
G1 X136.486 Y94.412 E0.0577
G1 X136.750 Y94.407 E0.0632
G1 X136.972 Y94.462 E0.0679
G1 X137.179 Y94.571 E0.0728
G1 X137.355 Y94.726 E0.0777
G1 X137.488 Y94.919 E0.0825
G1 X137.571 Y95.138 E0.0874
G1 X137.599 Y95.370 E0.0922
G1 X137.571 Y95.602 E0.0971
G1 X137.488 Y95.821 E0.1019
G1 X137.355 Y96.014 E0.1068
G1 X137.253 Y96.105 E0.1096
G1 X137.179 Y96.169 F675
G1 X136.972 Y96.278
