; G-Code generated by Simplify3D(R) Version 4.1.2
; Oct 30, 2020 at 10:09:17 PM
; Settings Summary
;   processName,Process1
;   applyToModels,CoinProfileLHautDroit
;   profileName,A04-04-25s Tevo Tornado
;   profileVersion,2020-07-06 22:44:24
;   baseProfile,Creality CR-10(2)
;   printMaterial,PLA
;   printQuality,Medium
;   printExtruders,
;   extruderName,Primary Extruder
;   extruderToolheadNumber,0
;   extruderDiameter,0.4
;   extruderAutoWidth,0
;   extruderWidth,0.35
;   extrusionMultiplier,0.95
;   extruderUseRetract,1
;   extruderRetractionDistance,4
;   extruderExtraRestartDistance,0
;   extruderRetractionZLift,0.3
;   extruderRetractionSpeed,3000
;   extruderUseCoasting,1
;   extruderCoastingDistance,0.8
;   extruderUseWipe,0
;   extruderWipeDistance,4
;   primaryExtruder,0
;   layerHeight,0.15
;   topSolidLayers,4
;   bottomSolidLayers,3
;   perimeterOutlines,3
;   printPerimetersInsideOut,0
;   startPointOption,1
;   startPointOriginX,0
;   startPointOriginY,300
;   sequentialIslands,0
;   spiralVaseMode,0
;   firstLayerHeightPercentage,120
;   firstLayerWidthPercentage,100
;   firstLayerUnderspeed,0.35
;   useRaft,0
;   raftExtruder,0
;   raftTopLayers,3
;   raftBaseLayers,2
;   raftOffset,3
;   raftSeparationDistance,0.14
;   raftTopInfill,100
;   aboveRaftSpeedMultiplier,0.3
;   useSkirt,1
;   skirtExtruder,0
;   skirtLayers,1
;   skirtOutlines,3
;   skirtOffset,2
;   usePrimePillar,0
;   primePillarExtruder,999
;   primePillarWidth,12
;   primePillarLocation,7
;   primePillarSpeedMultiplier,1
;   useOozeShield,0
;   oozeShieldExtruder,999
;   oozeShieldOffset,2
;   oozeShieldOutlines,1
;   oozeShieldSidewallShape,1
;   oozeShieldSidewallAngle,30
;   oozeShieldSpeedMultiplier,1
;   infillExtruder,0
;   internalInfillPattern,Rectilinear
;   externalInfillPattern,Rectilinear
;   infillPercentage,25
;   outlineOverlapPercentage,15
;   infillExtrusionWidthPercentage,100
;   minInfillLength,5
;   infillLayerInterval,1
;   internalInfillAngles,45,-45
;   overlapInternalInfillAngles,0
;   externalInfillAngles,45,-45
;   generateSupport,1
;   supportExtruder,0
;   supportInfillPercentage,30
;   supportExtraInflation,0
;   supportBaseLayers,0
;   denseSupportExtruder,0
;   denseSupportLayers,0
;   denseSupportInfillPercentage,70
;   supportLayerInterval,1
;   supportHorizontalPartOffset,0.4
;   supportUpperSeparationLayers,1
;   supportLowerSeparationLayers,1
;   supportType,0
;   supportGridSpacing,4.5
;   maxOverhangAngle,45
;   supportAngles,0
;   temperatureName,Primary Extruder,Heated Bed
;   temperatureNumber,0,0
;   temperatureSetpointCount,1,1
;   temperatureSetpointLayers,1,1
;   temperatureSetpointTemperatures,215,55
;   temperatureStabilizeAtStartup,1,1
;   temperatureHeatedBed,0,1
;   fanLayers,1,2
;   fanSpeeds,0,100
;   blipFanToFullPower,0
;   adjustSpeedForCooling,1
;   minSpeedLayerTime,15
;   minCoolingSpeedSlowdown,50
;   increaseFanForCooling,1
;   minFanLayerTime,25
;   maxCoolingFanSpeed,100
;   increaseFanForBridging,1
;   bridgingFanSpeed,100
;   use5D,1
;   relativeEdistances,0
;   allowEaxisZeroing,1
;   independentExtruderAxes,0
;   includeM10123,0
;   stickySupport,1
;   applyToolheadOffsets,0
;   gcodeXoffset,0
;   gcodeYoffset,0
;   gcodeZoffset,0
;   overrideMachineDefinition,1
;   machineTypeOverride,0
;   strokeXoverride,300
;   strokeYoverride,300
;   strokeZoverride,400
;   originOffsetXoverride,0
;   originOffsetYoverride,0
;   originOffsetZoverride,0
;   homeXdirOverride,-1
;   homeYdirOverride,-1
;   homeZdirOverride,-1
;   flipXoverride,1
;   flipYoverride,-1
;   flipZoverride,1
;   toolheadOffsets,0,0|0,0|0,0|0,0|0,0|0,0
;   overrideFirmwareConfiguration,1
;   firmwareTypeOverride,RepRap (Marlin/Repetier/Sprinter)
;   GPXconfigOverride,r2
;   baudRateOverride,250000
;   overridePrinterModels,1
;   printerModelsOverride
;   startingGcode,;,; -]H.P.B[- MarshMalloW  ,; $VER: StartScript 1.02 (26.12.2019) MarshMalloW,;,; Begin Startcode,;,M117 *Preheat*     	; Preheat,;extruder0_temperature,M104 S[extruder0_temperature]  ,M109 S[extruder0_temperature] ,M109 R[extruder0_temperature] ,;,M117 *Auto-leveling*     	; Auto-leveling,M107                   	; Turn layer fan off,G21                    	; Set to metric [change to G20 if you want Imperial],G90                    	; Force coordinates to be absolute relative to the origin,G28                    	; Home X/Y/Z axis,G29                    	; Auto-leveling (BL-Touch),;,M117 *Start Clean*     	; Indicate nozzle clean in progress on LCD,G92 E0                 	; Set Extruder to 0 ,G1 X0 Y0 F2000         	; Move X and Y to 0 with speed 2000 (mm/min),G1 Z0.1 F1000          	; Move Z to   0.1 with speed 1000 (mm/min),G1 X8.0 F2000          	; Move X to   8.0 with speed 2000 (mm/min),G1 Y60.0 E4.0 F1000.0  	; Move Y to  60 and Extruder with 4.0 with speed 1000 (mm/min),G1 Y100.0 E8.5 F1000.0 	; Move Y to 100 and Extruder with 8.5 with speed 1000 (mm/min),G92 E0                 	; Set extruder to 0,G1 X16.0 F3000         	; Move X to 16.0 with speed 3000 (mm/min),G1 Y60.0 F3000         	; Move Y to 60.0 with speed 3000 (mm/min),M117 *End Clean*       	; Indicate nozzle clean in progress on LCD,G1 Z5 F3000            	; Move Z to  5.0 with speed 3000 (mm/min),G1 X20.0 F3000         	; Move X to 20.0 with speed 3000 (mm/min),G1 Y20.0 F3000         	; Move Y to 20.0 with speed 3000 (mm/min),; ,M117 *Printing...*     	; Start printing msg on LCD,;,; End Startcode,;,; Begin printing with sliced GCode after here,;
;   layerChangeGcode,
;   retractionGcode,
;   toolChangeGcode,
;   endingGcode,;,; init 181010,;,;M107 			; Fan off,;G1 E-1 F300 			; Retract the filament a bit before lifting the nozzle,;M104 S0 			; Turn off extruder,;M140 S0 			; Turn off bed,;G91			; Relative positioning,;G28 X0 Y0 			; Move X/Y to min endstops so the head is out of teh way,;M84 			; Disable motors,;G90 			; Absolute positioning,;M117 Print ready...,,;,; // From Cura 181010,; // End_gcode,G92 E0			; Zero the extruded length,;G1 E-30 F300		; Retract E -30,M106 S0			; Turn off cooling fan,M104 S0			; Turn off temperature,M140 S0		     	; Turn off bed,G91			; Relative positioning,G1 E-1 F300			; Retract the filament a bit before lifting the nozzle to release some of the pressure,G1 Z+20 E-5 X-20 Y-20 F7200	; Move Z up a bit and retract filament even more,G1 X0 Y150 F10000		; Move right min,M107			; Turn off layer fan,M84			; Disable motors,G90			; Absolute positioning,M117 *The-End* 		; End msg,;,
;   exportFileFormat,gcode
;   celebration,0
;   celebrationSong,Star Wars
;   postProcessing,|{REPLACE "; layer " "M117 INDICATOR-Layer"}|{REPLACE ", Z = " "\n; Z="}
;   defaultSpeed,1800
;   outlineUnderspeed,0.5
;   solidInfillUnderspeed,0.8
;   supportUnderspeed,0.8
;   rapidXYspeed,6000
;   rapidZspeed,1002
;   minBridgingArea,50
;   bridgingExtraInflation,0.2
;   bridgingExtrusionMultiplier,1
;   bridgingSpeedMultiplier,0.6
;   useFixedBridgingAngle,0
;   fixedBridgingAngle,0
;   applyBridgingToPerimeters,0
;   filamentDiameters,1.75|1.75|1.75|1.75|1.75|1.75
;   filamentPricesPerKg,30|46|46|46|46|46
;   filamentDensities,1.25|1.25|1.25|1.25|1.25|1.25
;   useMinPrintHeight,0
;   minPrintHeight,0
;   useMaxPrintHeight,0
;   maxPrintHeight,9
;   useDiaphragm,0
;   diaphragmLayerInterval,20
;   robustSlicing,1
;   mergeAllIntoSolid,0
;   onlyRetractWhenCrossingOutline,1
;   retractBetweenLayers,0
;   useRetractionMinTravel,0
;   retractionMinTravel,3
;   retractWhileWiping,0
;   onlyWipeOutlines,1
;   avoidCrossingOutline,1
;   maxMovementDetourFactor,3
;   toolChangeRetractionDistance,12
;   toolChangeExtraRestartDistance,-0.5
;   toolChangeRetractionSpeed,600
;   externalThinWallType,1
;   internalThinWallType,1
;   thinWallAllowedOverlapPercentage,10
;   singleExtrusionMinLength,1
;   singleExtrusionMinPrintingWidthPercentage,50
;   singleExtrusionMaxPrintingWidthPercentage,200
;   singleExtrusionEndpointExtension,0.2
;   horizontalSizeCompensation,0
G90
M82
M106 S0
M140 S55
M190 S55
;
; -]H.P.B[- MarshMalloW  
; $VER: StartScript 1.02 (26.12.2019) MarshMalloW
;
; Begin Startcode
;
M117 *Preheat*     	; Preheat
;extruder0_temperature
M104 S215  
M109 S215 
M109 R215 
;
M117 *Auto-leveling*     	; Auto-leveling
M107                   	; Turn layer fan off
G21                    	; Set to metric [change to G20 if you want Imperial]
G90                    	; Force coordinates to be absolute relative to the origin
G28                    	; Home X/Y/Z axis
G29                    	; Auto-leveling (BL-Touch)
;
M117 *Start Clean*     	; Indicate nozzle clean in progress on LCD
G92 E0                 	; Set Extruder to 0 
G1 X0 Y0 F2000         	; Move X and Y to 0 with speed 2000 (mm/min)
G1 Z0.1 F1000          	; Move Z to   0.1 with speed 1000 (mm/min)
G1 X8.0 F2000          	; Move X to   8.0 with speed 2000 (mm/min)
G1 Y60.0 E4.0 F1000.0  	; Move Y to  60 and Extruder with 4.0 with speed 1000 (mm/min)
G1 Y100.0 E8.5 F1000.0 	; Move Y to 100 and Extruder with 8.5 with speed 1000 (mm/min)
G92 E0                 	; Set extruder to 0
G1 X16.0 F3000         	; Move X to 16.0 with speed 3000 (mm/min)
G1 Y60.0 F3000         	; Move Y to 60.0 with speed 3000 (mm/min)
M117 *End Clean*       	; Indicate nozzle clean in progress on LCD
G1 Z5 F3000            	; Move Z to  5.0 with speed 3000 (mm/min)
G1 X20.0 F3000         	; Move X to 20.0 with speed 3000 (mm/min)
G1 Y20.0 F3000         	; Move Y to 20.0 with speed 3000 (mm/min)
; 
M117 *Printing...*     	; Start printing msg on LCD
;
; End Startcode
;
; Begin printing with sliced GCode after here
;
; process Process1
M117 INDICATOR-Layer1
; Z=0.180
T0
G92 E0.0000
G1 E-4.0000 F3000
; feature skirt
; tool H0.180 W0.350
G1 Z0.300 F1002
G1 X183.985 Y71.956 F6000
G1 Z0.180 F1002
G1 E0.0000 F3000
G92 E0.0000
G1 X183.985 Y102.528 E0.7607 F630
G1 X182.301 Y104.212 E0.8200
G1 X150.795 Y104.212 E1.6039
G1 X150.795 Y150.718 E2.7611
G1 X149.111 Y152.402 E2.8204
G1 X125.015 Y152.402 E3.4200
G1 X125.015 Y152.748 E3.4286
G1 X123.331 Y154.432 E3.4878
G1 X119.509 Y154.432 E3.5829
G1 X114.825 Y149.748 E3.7477
G1 X114.825 Y145.926 E3.8428
G1 X116.509 Y144.242 E3.9021
G1 X116.855 Y144.242 E3.9107
G1 X116.855 Y101.296 E4.9793
G1 X116.857 Y101.216 E4.9813
G1 X117.041 Y97.939 E5.0630
G1 X117.060 Y97.778 E5.0670
G1 X117.616 Y94.503 E5.1497
G1 X117.652 Y94.345 E5.1537
G1 X118.572 Y91.153 E5.2364
G1 X118.625 Y91.000 E5.2404
G1 X119.897 Y87.931 E5.3231
G1 X119.967 Y87.785 E5.3271
G1 X121.574 Y84.877 E5.4097
G1 X121.660 Y84.741 E5.4138
G1 X123.582 Y82.031 E5.4964
G1 X123.683 Y81.905 E5.5004
G1 X125.897 Y79.427 E5.5831
G1 X126.011 Y79.313 E5.5871
G1 X128.488 Y77.099 E5.6698
G1 X128.615 Y76.999 E5.6738
G1 X131.324 Y75.076 E5.7565
G1 X131.461 Y74.990 E5.7605
G1 X134.369 Y73.383 E5.8432
G1 X134.514 Y73.313 E5.8472
G1 X137.584 Y72.042 E5.9299
G1 X137.736 Y71.988 E5.9339
G1 X140.929 Y71.069 E6.0166
G1 X141.086 Y71.033 E6.0206
G1 X144.362 Y70.476 E6.1033
G1 X144.522 Y70.458 E6.1073
G1 X147.799 Y70.274 E6.1889
G1 X147.880 Y70.272 E6.1910
G1 X182.301 Y70.272 E7.0474
G1 X183.985 Y71.956 E7.1067
G92 E0.0000
G1 E-4.0000 F3000
G1 Z0.480 F1002
G1 X180.935 Y73.322 F6000
G1 X177.457 Y73.322
G1 X125.839 Y84.122
G1 X124.199 Y86.432
G1 X121.951 Y84.935
G1 Z0.180 F1002
G1 E0.0000 F3000
G92 E0.0000
G1 X123.862 Y82.242 E0.0822 F630
G1 X123.950 Y82.131 E0.0857
G1 X126.151 Y79.668 E0.1679
G1 X126.251 Y79.568 E0.1714
G1 X128.714 Y77.367 E0.2536
G1 X128.825 Y77.279 E0.2571
G1 X131.519 Y75.367 E0.3393
G1 X131.639 Y75.292 E0.3428
G1 X134.530 Y73.694 E0.4250
G1 X134.657 Y73.633 E0.4286
G1 X137.709 Y72.369 E0.5107
G1 X137.843 Y72.322 E0.5143
G1 X141.016 Y71.408 E0.5965
G1 X141.155 Y71.376 E0.6000
G1 X144.411 Y70.823 E0.6822
G1 X144.552 Y70.807 E0.6857
G1 X147.814 Y70.624 E0.7670
G1 X147.885 Y70.622 E0.7688
G1 X182.156 Y70.622 E1.6215
G1 X183.635 Y72.101 E1.6736
G1 X183.635 Y102.383 E2.4271
G1 X182.156 Y103.862 E2.4791
G1 X150.445 Y103.862 E3.2682
G1 X150.445 Y150.573 E4.4305
G1 X148.966 Y152.052 E4.4825
G1 X124.665 Y152.052 E5.0872
G1 X124.665 Y152.603 E5.1009
G1 X123.186 Y154.082 E5.1529
G1 X119.654 Y154.082 E5.2408
G1 X115.175 Y149.603 E5.3984
G1 X115.175 Y146.071 E5.4863
G1 X116.654 Y144.592 E5.5384
G1 X117.205 Y144.592 E5.5521
G1 X117.205 Y101.301 E6.6293
G1 X117.207 Y101.231 E6.6310
G1 X117.390 Y97.968 E6.7123
G1 X117.406 Y97.827 E6.7159
G1 X117.960 Y94.571 E6.7980
G1 X117.991 Y94.433 E6.8016
G1 X118.905 Y91.259 E6.8838
G1 X118.952 Y91.125 E6.8873
G1 X120.216 Y88.074 E6.9695
G1 X120.278 Y87.946 E6.9730
G1 X121.875 Y85.055 E7.0552
G1 X121.951 Y84.935 E7.0587
G92 E0.0000
G1 E-4.0000 F3000
G1 Z0.480 F1002
G1 X118.330 Y94.520 F6000
G1 Z0.180 F1002
G1 E0.0000 F3000
G92 E0.0000
G1 X119.239 Y91.365 E0.0817 F630
G1 X119.279 Y91.250 E0.0847
G1 X120.536 Y88.217 E0.1664
G1 X120.589 Y88.107 E0.1695
G1 X122.177 Y85.233 E0.2512
G1 X122.242 Y85.130 E0.2542
G1 X124.142 Y82.452 E0.3359
G1 X124.218 Y82.357 E0.3389
G1 X126.406 Y79.909 E0.4206
G1 X126.492 Y79.822 E0.4237
G1 X128.940 Y77.634 E0.5054
G1 X129.036 Y77.558 E0.5084
G1 X131.713 Y75.658 E0.5901
G1 X131.817 Y75.593 E0.5931
G1 X134.690 Y74.005 E0.6748
G1 X134.800 Y73.952 E0.6779
G1 X137.834 Y72.696 E0.7596
G1 X137.949 Y72.656 E0.7626
G1 X141.104 Y71.747 E0.8443
G1 X141.223 Y71.719 E0.8473
G1 X144.460 Y71.169 E0.9290
G1 X144.581 Y71.156 E0.9321
G1 X147.829 Y70.973 E1.0130
G1 X147.890 Y70.972 E1.0145
G1 X182.011 Y70.972 E1.8636
G1 X183.285 Y72.246 E1.9084
G1 X183.285 Y102.238 E2.6547
G1 X182.011 Y103.512 E2.6995
G1 X150.095 Y103.512 E3.4937
G1 X150.095 Y150.428 E4.6611
G1 X148.821 Y151.702 E4.7059
G1 X124.315 Y151.702 E5.3157
G1 X124.315 Y152.458 E5.3345
G1 X123.041 Y153.732 E5.3793
G1 X119.799 Y153.732 E5.4600
G1 X115.525 Y149.458 E5.6104
G1 X115.525 Y146.216 E5.6911
G1 X116.799 Y144.942 E5.7359
G1 X117.555 Y144.942 E5.7547
G1 X117.555 Y101.306 E6.8405
G1 X117.557 Y101.245 E6.8420
G1 X117.739 Y97.998 E6.9229
G1 X117.753 Y97.876 E6.9260
G1 X118.303 Y94.639 E7.0077
G1 X118.330 Y94.520 E7.0107
G92 E0.0000
G1 E-4.0000 F3000
; feature outer perimeter
G1 Z0.480 F1002
G1 X120.608 Y95.103 F6000
G1 X121.478 Y92.084
G1 X121.892 Y91.083
G1 X138.667 Y74.894
G1 Z0.180 F1002
G1 E0.0000 F3000
G92 E0.0000
G1 X141.686 Y74.024 E0.0782 F315
G1 X141.703 Y74.022 E0.0786
G1 X144.783 Y73.498 E0.1563
G1 X147.925 Y73.322 E0.2346
G1 X180.935 Y73.322 E1.0560
G1 X180.935 Y101.162 E1.7488
G1 X147.745 Y101.162 E2.5746
G1 X147.745 Y149.352 E3.7737
G1 X122.930 Y149.352 E4.3912
G1 X122.267 Y149.279 E4.4078
G1 X121.632 Y149.061 E4.4245
G1 X121.009 Y148.665 E4.4428
G1 X120.592 Y148.248 E4.4575
G1 X120.196 Y147.625 E4.4759
G1 X119.978 Y146.990 E4.4926
G1 X119.905 Y146.327 E4.5092
G1 X119.905 Y101.342 E5.6285
G1 X120.082 Y98.200 E5.7068
G1 X120.608 Y95.103 E5.7850
G1 X121.478 Y92.084 E5.8632
G1 X122.680 Y89.182 E5.9414
G1 X124.199 Y86.432 E6.0195
G1 X126.017 Y83.870 E6.0977
G1 X128.111 Y81.527 E6.1759
G1 X130.453 Y79.434 E6.2540
G1 X133.015 Y77.616 E6.3322
G1 X135.765 Y76.096 E6.4104
G1 X137.928 Y75.200 E6.4687
G1 X138.667 Y74.894 F315
; feature inner perimeter
G1 X138.783 Y75.225 F6000
G92 E0.0000
G1 X141.764 Y74.366 E0.0772 F472
G1 X141.955 Y74.334 E0.0820
G1 X144.823 Y73.847 E0.1544
G1 X147.935 Y73.672 E0.2319
G1 X180.585 Y73.672 E1.0444
G1 X180.585 Y100.812 E1.7197
G1 X147.395 Y100.812 E2.5456
G1 X147.395 Y149.002 E3.7447
G1 X122.949 Y149.002 E4.3529
G1 X122.344 Y148.935 E4.3681
G1 X121.785 Y148.743 E4.3828
G1 X121.230 Y148.390 E4.3992
G1 X120.867 Y148.027 E4.4119
G1 X120.514 Y147.472 E4.4283
G1 X120.322 Y146.913 E4.4430
G1 X120.255 Y146.308 E4.4582
G1 X120.255 Y101.352 E5.5768
G1 X120.430 Y98.239 E5.6544
G1 X120.950 Y95.181 E5.7316
G1 X121.808 Y92.200 E5.8087
G1 X122.996 Y89.334 E5.8859
G1 X124.496 Y86.618 E5.9631
G1 X126.291 Y84.088 E6.0403
G1 X128.359 Y81.775 E6.1175
G1 X130.672 Y79.708 E6.1947
G1 X133.202 Y77.913 E6.2719
G1 X135.917 Y76.412 E6.3491
G1 X138.044 Y75.531 E6.4064
G1 X138.783 Y75.225 F472
G1 X138.899 Y75.556 F6000
G92 E0.0000
G1 X141.842 Y74.708 E0.0762 F472
G1 X142.014 Y74.679 E0.0805
G1 X144.862 Y74.195 E0.1524
