; G-Code generated by Simplify3D(R) Version 4.1.2
;
;
;
;
; Nov 24, 2022 at 1:47:17 PM
; Settings Summary
;   processName,PLA A15
;   applyToModels,GarminForerunner735Stand
;   profileName,PLA_A15_04_25_210 Tevo Tornado (modified)
;   profileVersion,2022-11-23 18:53:41
;   baseProfile,Creality CR-10(2)
;   printMaterial,PLA
;   printQuality,High
;   printExtruders,
;   extruderName,Primary Extruder
;   extruderToolheadNumber,0
;   extruderDiameter,0.4
;   extruderAutoWidth,0
;   extruderWidth,0.35
;   extrusionMultiplier,0.95
;   extruderUseRetract,1
;   extruderRetractionDistance,4
;   extruderExtraRestartDistance,0
;   extruderRetractionZLift,0.3
;   extruderRetractionSpeed,3000
;   extruderUseCoasting,1
;   extruderCoastingDistance,0.2
;   extruderUseWipe,0
;   extruderWipeDistance,5
;   primaryExtruder,0
;   layerHeight,0.12
;   topSolidLayers,6
;   bottomSolidLayers,5
;   perimeterOutlines,4
;   printPerimetersInsideOut,1
;   startPointOption,2
;   startPointOriginX,0
;   startPointOriginY,300
;   sequentialIslands,0
;   spiralVaseMode,0
;   firstLayerHeightPercentage,120
;   firstLayerWidthPercentage,100
;   firstLayerUnderspeed,0.25
;   useRaft,0
;   raftExtruder,0
;   raftTopLayers,3
;   raftBaseLayers,2
;   raftOffset,3
;   raftSeparationDistance,0.14
;   raftTopInfill,100
;   aboveRaftSpeedMultiplier,0.3
;   useSkirt,1
;   skirtExtruder,0
;   skirtLayers,2
;   skirtOutlines,2
;   skirtOffset,3
;   usePrimePillar,0
;   primePillarExtruder,999
;   primePillarWidth,12
;   primePillarLocation,7
;   primePillarSpeedMultiplier,1
;   useOozeShield,0
;   oozeShieldExtruder,999
;   oozeShieldOffset,2
;   oozeShieldOutlines,1
;   oozeShieldSidewallShape,1
;   oozeShieldSidewallAngle,30
;   oozeShieldSpeedMultiplier,1
;   infillExtruder,0
;   internalInfillPattern,Full Honeycomb
;   externalInfillPattern,Rectilinear
;   infillPercentage,25
;   outlineOverlapPercentage,15
;   infillExtrusionWidthPercentage,100
;   minInfillLength,5
;   infillLayerInterval,1
;   internalInfillAngles,0,120,-120
;   overlapInternalInfillAngles,0
;   externalInfillAngles,45,-45
;   generateSupport,0
;   supportExtruder,0
;   supportInfillPercentage,40
;   supportExtraInflation,0
;   supportBaseLayers,0
;   denseSupportExtruder,0
;   denseSupportLayers,0
;   denseSupportInfillPercentage,70
;   supportLayerInterval,1
;   supportHorizontalPartOffset,0.4
;   supportUpperSeparationLayers,1
;   supportLowerSeparationLayers,1
;   supportType,0
;   supportGridSpacing,4.5
;   maxOverhangAngle,45
;   supportAngles,0
;   temperatureName,Primary Extruder,Heated Bed
;   temperatureNumber,0,0
;   temperatureSetpointCount,2,2
;   temperatureSetpointLayers,1,2,1,2
;   temperatureSetpointTemperatures,215,210,55,50
;   temperatureStabilizeAtStartup,1,1
;   temperatureHeatedBed,0,1
;   fanLayers,1,2
;   fanSpeeds,0,100
;   blipFanToFullPower,0
;   adjustSpeedForCooling,1
;   minSpeedLayerTime,15
;   minCoolingSpeedSlowdown,20
;   increaseFanForCooling,1
;   minFanLayerTime,25
;   maxCoolingFanSpeed,100
;   increaseFanForBridging,1
;   bridgingFanSpeed,100
;   use5D,1
;   relativeEdistances,0
;   allowEaxisZeroing,1
;   independentExtruderAxes,0
;   includeM10123,0
;   stickySupport,1
;   applyToolheadOffsets,0
;   gcodeXoffset,0
;   gcodeYoffset,0
;   gcodeZoffset,0
;   overrideMachineDefinition,1
;   machineTypeOverride,0
;   strokeXoverride,300
;   strokeYoverride,300
;   strokeZoverride,400
;   originOffsetXoverride,0
;   originOffsetYoverride,0
;   originOffsetZoverride,0
;   homeXdirOverride,-1
;   homeYdirOverride,-1
;   homeZdirOverride,-1
;   flipXoverride,1
;   flipYoverride,-1
;   flipZoverride,1
;   toolheadOffsets,0,0|0,0|0,0|0,0|0,0|0,0
;   overrideFirmwareConfiguration,1
;   firmwareTypeOverride,RepRap (Marlin/Repetier/Sprinter)
;   GPXconfigOverride,r2
;   baudRateOverride,250000
;   overridePrinterModels,1
;   printerModelsOverride
;   startingGcode,;,; -]H.P.B[- MarshMalloW  ,; $VER: StartScript 1.02 (26.12.2019) MarshMalloW,;,; Begin Startcode,;,M117 *Preheat*     	; Preheat,;extruder0_temperature,M104 S[extruder0_temperature]  ,M109 S[extruder0_temperature] ,M109 R[extruder0_temperature] ,;,M117 *Auto-leveling*     	; Auto-leveling,M107                   	; Turn layer fan off,G21                    	; Set to metric [change to G20 if you want Imperial],G90                    	; Force coordinates to be absolute relative to the origin,G28                    	; Home X/Y/Z axis,G29                    	; Auto-leveling (BL-Touch),;,M117 *Start Clean*     	; Indicate nozzle clean in progress on LCD,G92 E0                 	; Set Extruder to 0 ,G1 X0 Y0 F2000         	; Move X and Y to 0 with speed 2000 (mm/min),G1 Z0.1 F1000          	; Move Z to   0.1 with speed 1000 (mm/min),G1 X8.0 F2000          	; Move X to   8.0 with speed 2000 (mm/min),G1 Y60.0 E4.0 F1000.0  	; Move Y to  60 and Extruder with 4.0 with speed 1000 (mm/min),G1 Y100.0 E8.5 F1000.0 	; Move Y to 100 and Extruder with 8.5 with speed 1000 (mm/min),G92 E0                 	; Set extruder to 0,G1 X16.0 F3000         	; Move X to 16.0 with speed 3000 (mm/min),G1 Y60.0 F3000         	; Move Y to 60.0 with speed 3000 (mm/min),M117 *End Clean*       	; Indicate nozzle clean in progress on LCD,G1 Z5 F3000            	; Move Z to  5.0 with speed 3000 (mm/min),G1 X20.0 F3000         	; Move X to 20.0 with speed 3000 (mm/min),G1 Y20.0 F3000         	; Move Y to 20.0 with speed 3000 (mm/min),; ,M117 *Printing...*     	; Start printing msg on LCD,;,; End Startcode,;,; Begin printing with sliced GCode after here,;
;   layerChangeGcode,
;   retractionGcode,
;   toolChangeGcode,
;   endingGcode,;,; init 181010,;,;M107 			; Fan off,;G1 E-1 F300 			; Retract the filament a bit before lifting the nozzle,;M104 S0 			; Turn off extruder,;M140 S0 			; Turn off bed,;G91			; Relative positioning,;G28 X0 Y0 			; Move X/Y to min endstops so the head is out of teh way,;M84 			; Disable motors,;G90 			; Absolute positioning,;M117 Print ready...,,;,; // From Cura 181010,; // End_gcode,G92 E0			; Zero the extruded length,;G1 E-30 F300		; Retract E -30,M106 S0			; Turn off cooling fan,M104 S0			; Turn off temperature,M140 S0		     	; Turn off bed,G91			; Relative positioning,G1 E-1 F300			; Retract the filament a bit before lifting the nozzle to release some of the pressure,G1 Z+20 E-5 X-20 Y-20 F7200	; Move Z up a bit and retract filament even more,G1 X0 Y150 F10000		; Move right min,M107			; Turn off layer fan,M84			; Disable motors,G90			; Absolute positioning,M117 *The-End* 		; End msg,;,
;   exportFileFormat,gcode
;   celebration,0
;   celebrationSong,Star Wars
;   postProcessing,D:\S3D_Thumbs\S3D_Thumbs.exe f="[output_filepath]" x=600 y=110 w=953 lw=400 lh=300 sw=32 sh=32 d=Y
;   defaultSpeed,4200
;   outlineUnderspeed,0.5
;   solidInfillUnderspeed,0.8
;   supportUnderspeed,0.8
;   rapidXYspeed,6000
;   rapidZspeed,1002
;   minBridgingArea,50
;   bridgingExtraInflation,0.2
;   bridgingExtrusionMultiplier,1
;   bridgingSpeedMultiplier,0.8
;   useFixedBridgingAngle,0
;   fixedBridgingAngle,0
;   applyBridgingToPerimeters,0
;   filamentDiameters,1.75|1.75|1.75|1.75|1.75|1.75
;   filamentPricesPerKg,30|46|46|46|46|46
;   filamentDensities,1.25|1.25|1.25|1.25|1.25|1.25
;   useMinPrintHeight,0
;   minPrintHeight,0
;   useMaxPrintHeight,1
;   maxPrintHeight,6
;   useDiaphragm,0
;   diaphragmLayerInterval,20
;   robustSlicing,1
;   mergeAllIntoSolid,0
;   onlyRetractWhenCrossingOutline,1
;   retractBetweenLayers,1
;   useRetractionMinTravel,0
;   retractionMinTravel,3
;   retractWhileWiping,1
;   onlyWipeOutlines,1
;   avoidCrossingOutline,0
;   maxMovementDetourFactor,3
;   toolChangeRetractionDistance,12
;   toolChangeExtraRestartDistance,-0.5
;   toolChangeRetractionSpeed,600
;   externalThinWallType,1
;   internalThinWallType,1
;   thinWallAllowedOverlapPercentage,10
;   singleExtrusionMinLength,1
;   singleExtrusionMinPrintingWidthPercentage,50
;   singleExtrusionMaxPrintingWidthPercentage,200
;   singleExtrusionEndpointExtension,0.2
;   horizontalSizeCompensation,0
G90
M82
M106 S0
M140 S55
M190 S55
;
; -]H.P.B[- MarshMalloW  
; $VER: StartScript 1.02 (26.12.2019) MarshMalloW
;
; Begin Startcode
;
M117 *Preheat*     	; Preheat
;extruder0_temperature
M104 S215  
M109 S215 
M109 R215 
;
M117 *Auto-leveling*     	; Auto-leveling
M107                   	; Turn layer fan off
G21                    	; Set to metric [change to G20 if you want Imperial]
G90                    	; Force coordinates to be absolute relative to the origin
G28                    	; Home X/Y/Z axis
G29                    	; Auto-leveling (BL-Touch)
;
M117 *Start Clean*     	; Indicate nozzle clean in progress on LCD
G92 E0                 	; Set Extruder to 0 
G1 X0 Y0 F2000         	; Move X and Y to 0 with speed 2000 (mm/min)
G1 Z0.1 F1000          	; Move Z to   0.1 with speed 1000 (mm/min)
G1 X8.0 F2000          	; Move X to   8.0 with speed 2000 (mm/min)
G1 Y60.0 E4.0 F1000.0  	; Move Y to  60 and Extruder with 4.0 with speed 1000 (mm/min)
G1 Y100.0 E8.5 F1000.0 	; Move Y to 100 and Extruder with 8.5 with speed 1000 (mm/min)
G92 E0                 	; Set extruder to 0
G1 X16.0 F3000         	; Move X to 16.0 with speed 3000 (mm/min)
G1 Y60.0 F3000         	; Move Y to 60.0 with speed 3000 (mm/min)
M117 *End Clean*       	; Indicate nozzle clean in progress on LCD
G1 Z5 F3000            	; Move Z to  5.0 with speed 3000 (mm/min)
G1 X20.0 F3000         	; Move X to 20.0 with speed 3000 (mm/min)
G1 Y20.0 F3000         	; Move Y to 20.0 with speed 3000 (mm/min)
; 
M117 *Printing...*     	; Start printing msg on LCD
;
; End Startcode
;
; Begin printing with sliced GCode after here
;
; process PLA A15
; layer 1, Z = 0.144
M117 INDICATOR-Layer1
M117 DASHBOARD_LAYER_INDICATOR 1
T0
G92 E0.0000
G1 E-4.0000 F3000
; feature skirt
; tool H0.144 W0.350
G1 Z0.300 F1002
G1 X130.216 Y129.117 F6000
G1 Z0.144 F1002
G1 E0.0000 F3000
G92 E0.0000
G1 X130.737 Y128.624 E0.0143 F1050
G1 X130.782 Y128.584 E0.0155
G1 X130.806 Y128.563 E0.0161
G1 X131.305 Y128.136 E0.0292
G1 X131.823 Y127.694 E0.0427
G1 X131.851 Y127.671 E0.0435
G1 X131.895 Y127.636 E0.0446
G1 X132.419 Y127.231 E0.0578
G1 X132.958 Y126.815 E0.0713
G1 X132.966 Y126.809 E0.0715
G1 X133.044 Y126.753 E0.0734
G1 X134.456 Y125.786 E0.1075
G1 X134.540 Y125.731 E0.1095
G1 X135.042 Y125.427 E0.1212
G1 X135.665 Y125.050 E0.1357
G1 X135.729 Y125.013 E0.1371
G1 X135.743 Y125.005 E0.1375
G1 X136.333 Y124.687 E0.1508
G1 X136.897 Y124.382 E0.1636
G1 X136.915 Y124.372 E0.1640
G1 X136.920 Y124.370 E0.1641
G1 X136.960 Y124.350 E0.1650
G1 X136.995 Y124.331 E0.1658
G1 X137.002 Y124.328 E0.1659
G1 X137.020 Y124.320 E0.1663
G1 X137.739 Y123.976 E0.1822
G1 X138.186 Y123.763 E0.1920
G1 X138.204 Y123.754 E0.1924
G1 X138.238 Y123.739 E0.1932
G1 X138.283 Y123.719 E0.1942
G1 X138.288 Y123.717 E0.1943
G1 X138.301 Y123.711 E0.1946
G1 X138.924 Y123.451 E0.2080
G1 X139.519 Y123.202 E0.2208
G1 X139.541 Y123.193 E0.2213
G1 X139.599 Y123.171 E0.2225
G1 X140.176 Y122.962 E0.2348
G1 X140.811 Y122.733 E0.2482
G1 X140.841 Y122.722 E0.2488
G1 X140.850 Y122.719 E0.2490
G1 X140.859 Y122.715 E0.2492
G1 X140.897 Y122.703 E0.2500
G1 X140.934 Y122.690 E0.2508
G1 X140.943 Y122.688 E0.2510
G1 X140.949 Y122.685 E0.2511
G1 X140.980 Y122.676 E0.2517
G1 X141.618 Y122.481 E0.2650
G1 X142.215 Y122.298 E0.2775
G1 X142.223 Y122.296 E0.2776
G1 X142.260 Y122.286 E0.2784
G1 X142.296 Y122.275 E0.2791
G1 X142.304 Y122.273 E0.2793
G1 X143.125 Y122.066 E0.2961
G1 X143.599 Y121.946 E0.3059
G1 X143.606 Y121.944 E0.3060
G1 X143.643 Y121.936 E0.3068
G1 X143.672 Y121.929 E0.3074
G1 X143.678 Y121.928 E0.3075
G1 X143.686 Y121.926 E0.3077
G1 X144.528 Y121.757 E0.3248
G1 X144.989 Y121.665 E0.3341
G1 X144.998 Y121.663 E0.3343
G1 X145.008 Y121.661 E0.3345
G1 X145.036 Y121.656 E0.3351
G1 X145.064 Y121.651 E0.3356
G1 X145.073 Y121.650 E0.3358
G1 X145.086 Y121.648 E0.3361
G1 X145.900 Y121.526 E0.3525
G1 X146.393 Y121.452 E0.3624
G1 X146.415 Y121.449 E0.3628
G1 X146.434 Y121.447 E0.3632
G1 X146.446 Y121.445 E0.3634
G1 X146.459 Y121.444 E0.3637
G1 X146.478 Y121.441 E0.3641
G1 X146.501 Y121.439 E0.3645
G1 X147.518 Y121.338 E0.3849
G1 X147.751 Y121.315 E0.3895
G1 X147.780 Y121.311 E0.3901
G1 X147.807 Y121.309 E0.3907
G1 X147.864 Y121.303 E0.3918
G1 X147.896 Y121.302 E0.3925
G1 X148.859 Y121.254 E0.4116
G1 X149.244 Y121.235 E0.4193
G1 X149.331 Y121.233 E0.4211
G1 X150.669 Y121.233 E0.4477
G1 X150.756 Y121.235 E0.4494
G1 X151.141 Y121.254 E0.4571
G1 X152.107 Y121.302 E0.4763
G1 X152.136 Y121.303 E0.4769
G1 X152.193 Y121.309 E0.4781
G1 X152.220 Y121.311 E0.4786
G1 X152.250 Y121.315 E0.4792
G1 X152.635 Y121.353 E0.4869
G1 X153.512 Y121.440 E0.5044
G1 X153.553 Y121.445 E0.5053
G1 X153.592 Y121.450 E0.5061
G1 X153.597 Y121.451 E0.5062
G1 X154.130 Y121.530 E0.5169
G1 X154.915 Y121.648 E0.5327
G1 X154.926 Y121.650 E0.5329
G1 X154.936 Y121.651 E0.5331
G1 X154.964 Y121.656 E0.5337
G1 X154.992 Y121.661 E0.5342
G1 X155.001 Y121.663 E0.5344
G1 X155.011 Y121.665 E0.5346
G1 X155.472 Y121.757 E0.5440
G1 X156.314 Y121.926 E0.5611
G1 X156.322 Y121.928 E0.5612
G1 X156.328 Y121.929 E0.5614
G1 X156.358 Y121.936 E0.5620
G1 X156.394 Y121.944 E0.5627
G1 X156.406 Y121.947 E0.5629
G1 X156.875 Y122.066 E0.5726
G1 X157.696 Y122.273 E0.5894
G1 X157.704 Y122.275 E0.5896
G1 X157.740 Y122.286 E0.5904
G1 X157.778 Y122.296 E0.5911
G1 X157.785 Y122.298 E0.5913
G1 X158.329 Y122.465 E0.6026
G1 X159.017 Y122.675 E0.6169
G1 X159.048 Y122.685 E0.6176
G1 X159.056 Y122.687 E0.6177
G1 X159.065 Y122.690 E0.6179
G1 X159.103 Y122.703 E0.6187
G1 X159.140 Y122.715 E0.6195
G1 X159.149 Y122.718 E0.6197
G1 X159.157 Y122.721 E0.6199
G1 X159.188 Y122.733 E0.6205
G1 X159.598 Y122.880 E0.6292
G1 X160.397 Y123.169 E0.6461
G1 X160.407 Y123.173 E0.6463
G1 X160.415 Y123.176 E0.6465
G1 X160.442 Y123.186 E0.6471
G1 X160.470 Y123.197 E0.6477
G1 X160.478 Y123.201 E0.6478
G1 X160.488 Y123.205 E0.6481
G1 X160.909 Y123.381 E0.6571
G1 X161.697 Y123.710 E0.6741
G1 X161.712 Y123.717 E0.6745
G1 X161.717 Y123.719 E0.6746
G1 X161.759 Y123.738 E0.6755
G1 X161.798 Y123.755 E0.6763
G1 X161.811 Y123.761 E0.6766
G1 X162.190 Y123.942 E0.6850
G1 X162.980 Y124.320 E0.7024
G1 X163.000 Y124.329 E0.7029
G1 X163.005 Y124.331 E0.7030
G1 X163.040 Y124.350 E0.7038
G1 X163.080 Y124.370 E0.7046
G1 X163.087 Y124.373 E0.7048
G1 X163.103 Y124.382 E0.7051
G1 X163.667 Y124.687 E0.7179
G1 X164.258 Y125.006 E0.7313
G1 X164.263 Y125.009 E0.7314
G1 X164.336 Y125.050 E0.7331
G1 X164.948 Y125.422 E0.7473
G1 X165.479 Y125.744 E0.7597
G1 X165.486 Y125.748 E0.7599
G1 X165.492 Y125.751 E0.7600
G1 X165.520 Y125.770 E0.7606
G1 X165.547 Y125.787 E0.7613
G1 X165.552 Y125.790 E0.7614
G1 X165.560 Y125.795 E0.7616
G1 X166.032 Y126.114 E0.7729
G1 X166.627 Y126.516 E0.7872
G1 X166.633 Y126.520 E0.7874
G1 X166.667 Y126.544 E0.7882
G1 X166.696 Y126.565 E0.7889
G1 X166.701 Y126.569 E0.7890
G1 X167.212 Y126.951 E0.8018
G1 X167.737 Y127.343 E0.8148
G1 X167.743 Y127.348 E0.8149
G1 X167.816 Y127.406 E0.8168
G1 X169.087 Y128.468 E0.8498
G1 X169.093 Y128.473 E0.8499
G1 X169.133 Y128.508 E0.8510
G1 X169.161 Y128.533 E0.8517
G1 X169.166 Y128.537 E0.8519
G1 X169.731 Y129.066 E0.8673
G1 X170.159 Y129.467 E0.8789
G1 X170.165 Y129.473 E0.8791
G1 X170.195 Y129.502 E0.8799
G1 X170.220 Y129.527 E0.8806
G1 X170.225 Y129.532 E0.8808
G1 X170.891 Y130.220 E0.8998
G1 X171.094 Y130.429 E0.9056
G1 X171.104 Y130.439 E0.9059
G1 X171.113 Y130.449 E0.9062
G1 X171.126 Y130.463 E0.9066
G1 X171.140 Y130.478 E0.9070
G1 X171.150 Y130.489 E0.9073
G1 X171.160 Y130.500 E0.9076
G1 X171.988 Y131.438 E0.9325
G1 X171.993 Y131.444 E0.9326
G1 X172.014 Y131.470 E0.9333
G1 X172.039 Y131.499 E0.9341
G1 X172.044 Y131.505 E0.9342
G1 X172.218 Y131.722 E0.9398
G1 X172.830 Y132.485 E0.9592
G1 X172.849 Y132.510 E0.9599
G1 X172.881 Y132.552 E0.9609
G1 X173.120 Y132.880 E0.9690
G1 X173.620 Y133.566 E0.9859
G1 X173.651 Y133.611 E0.9870
G1 X173.669 Y133.637 E0.9876
G1 X173.933 Y134.038 E0.9972
G1 X174.359 Y134.683 E1.0125
G1 X174.365 Y134.693 E1.0128
G1 X174.372 Y134.705 E1.0130
G1 X174.403 Y134.754 E1.0142
