; G-Code generated by Simplify3D(R) Version 4.1.2
;
;
;
;
; Nov 24, 2022 at 11:01:54 PM
; Settings Summary
;   processName,PLA A15
;   applyToModels,GarminForerunner735Stand(2)
;   profileName,PLA_A15_04_25_210 Tevo Tornado (modified)
;   profileVersion,2022-11-23 18:53:41
;   baseProfile,Creality CR-10(2)
;   printMaterial,PLA
;   printQuality,High
;   printExtruders,
;   extruderName,Primary Extruder
;   extruderToolheadNumber,0
;   extruderDiameter,0.4
;   extruderAutoWidth,0
;   extruderWidth,0.35
;   extrusionMultiplier,0.95
;   extruderUseRetract,1
;   extruderRetractionDistance,4
;   extruderExtraRestartDistance,0
;   extruderRetractionZLift,0.3
;   extruderRetractionSpeed,3000
;   extruderUseCoasting,1
;   extruderCoastingDistance,0.2
;   extruderUseWipe,0
;   extruderWipeDistance,5
;   primaryExtruder,0
;   layerHeight,0.12
;   topSolidLayers,6
;   bottomSolidLayers,5
;   perimeterOutlines,4
;   printPerimetersInsideOut,1
;   startPointOption,2
;   startPointOriginX,0
;   startPointOriginY,300
;   sequentialIslands,0
;   spiralVaseMode,0
;   firstLayerHeightPercentage,120
;   firstLayerWidthPercentage,100
;   firstLayerUnderspeed,0.25
;   useRaft,0
;   raftExtruder,0
;   raftTopLayers,3
;   raftBaseLayers,2
;   raftOffset,3
;   raftSeparationDistance,0.14
;   raftTopInfill,100
;   aboveRaftSpeedMultiplier,0.3
;   useSkirt,1
;   skirtExtruder,0
;   skirtLayers,2
;   skirtOutlines,2
;   skirtOffset,3
;   usePrimePillar,0
;   primePillarExtruder,999
;   primePillarWidth,12
;   primePillarLocation,7
;   primePillarSpeedMultiplier,1
;   useOozeShield,0
;   oozeShieldExtruder,999
;   oozeShieldOffset,2
;   oozeShieldOutlines,1
;   oozeShieldSidewallShape,1
;   oozeShieldSidewallAngle,30
;   oozeShieldSpeedMultiplier,1
;   infillExtruder,0
;   internalInfillPattern,Full Honeycomb
;   externalInfillPattern,Rectilinear
;   infillPercentage,25
;   outlineOverlapPercentage,15
;   infillExtrusionWidthPercentage,100
;   minInfillLength,5
;   infillLayerInterval,1
;   internalInfillAngles,0,120,-120
;   overlapInternalInfillAngles,0
;   externalInfillAngles,45,-45
;   generateSupport,0
;   supportExtruder,0
;   supportInfillPercentage,40
;   supportExtraInflation,0
;   supportBaseLayers,0
;   denseSupportExtruder,0
;   denseSupportLayers,0
;   denseSupportInfillPercentage,70
;   supportLayerInterval,1
;   supportHorizontalPartOffset,0.4
;   supportUpperSeparationLayers,1
;   supportLowerSeparationLayers,1
;   supportType,0
;   supportGridSpacing,4.5
;   maxOverhangAngle,45
;   supportAngles,0
;   temperatureName,Primary Extruder,Heated Bed
;   temperatureNumber,0,0
;   temperatureSetpointCount,2,2
;   temperatureSetpointLayers,1,2,1,2
;   temperatureSetpointTemperatures,215,210,55,50
;   temperatureStabilizeAtStartup,1,1
;   temperatureHeatedBed,0,1
;   fanLayers,1,2
;   fanSpeeds,0,100
;   blipFanToFullPower,0
;   adjustSpeedForCooling,1
;   minSpeedLayerTime,15
;   minCoolingSpeedSlowdown,20
;   increaseFanForCooling,1
;   minFanLayerTime,25
;   maxCoolingFanSpeed,100
;   increaseFanForBridging,1
;   bridgingFanSpeed,100
;   use5D,1
;   relativeEdistances,0
;   allowEaxisZeroing,1
;   independentExtruderAxes,0
;   includeM10123,0
;   stickySupport,1
;   applyToolheadOffsets,0
;   gcodeXoffset,0
;   gcodeYoffset,0
;   gcodeZoffset,0
;   overrideMachineDefinition,1
;   machineTypeOverride,0
;   strokeXoverride,300
;   strokeYoverride,300
;   strokeZoverride,400
;   originOffsetXoverride,0
;   originOffsetYoverride,0
;   originOffsetZoverride,0
;   homeXdirOverride,-1
;   homeYdirOverride,-1
;   homeZdirOverride,-1
;   flipXoverride,1
;   flipYoverride,-1
;   flipZoverride,1
;   toolheadOffsets,0,0|0,0|0,0|0,0|0,0|0,0
;   overrideFirmwareConfiguration,1
;   firmwareTypeOverride,RepRap (Marlin/Repetier/Sprinter)
;   GPXconfigOverride,r2
;   baudRateOverride,250000
;   overridePrinterModels,1
;   printerModelsOverride
;   startingGcode,;,; -]H.P.B[- MarshMalloW  ,; $VER: StartScript 1.02 (26.12.2019) MarshMalloW,;,; Begin Startcode,;,M117 *Preheat*     	; Preheat,;extruder0_temperature,M104 S[extruder0_temperature]  ,M109 S[extruder0_temperature] ,M109 R[extruder0_temperature] ,;,M117 *Auto-leveling*     	; Auto-leveling,M107                   	; Turn layer fan off,G21                    	; Set to metric [change to G20 if you want Imperial],G90                    	; Force coordinates to be absolute relative to the origin,G28                    	; Home X/Y/Z axis,G29                    	; Auto-leveling (BL-Touch),;,M117 *Start Clean*     	; Indicate nozzle clean in progress on LCD,G92 E0                 	; Set Extruder to 0 ,G1 X0 Y0 F2000         	; Move X and Y to 0 with speed 2000 (mm/min),G1 Z0.1 F1000          	; Move Z to   0.1 with speed 1000 (mm/min),G1 X8.0 F2000          	; Move X to   8.0 with speed 2000 (mm/min),G1 Y60.0 E4.0 F1000.0  	; Move Y to  60 and Extruder with 4.0 with speed 1000 (mm/min),G1 Y100.0 E8.5 F1000.0 	; Move Y to 100 and Extruder with 8.5 with speed 1000 (mm/min),G92 E0                 	; Set extruder to 0,G1 X16.0 F3000         	; Move X to 16.0 with speed 3000 (mm/min),G1 Y60.0 F3000         	; Move Y to 60.0 with speed 3000 (mm/min),M117 *End Clean*       	; Indicate nozzle clean in progress on LCD,G1 Z5 F3000            	; Move Z to  5.0 with speed 3000 (mm/min),G1 X20.0 F3000         	; Move X to 20.0 with speed 3000 (mm/min),G1 Y20.0 F3000         	; Move Y to 20.0 with speed 3000 (mm/min),; ,M117 *Printing...*     	; Start printing msg on LCD,;,; End Startcode,;,; Begin printing with sliced GCode after here,;
;   layerChangeGcode,
;   retractionGcode,
;   toolChangeGcode,
;   endingGcode,;,; init 181010,;,;M107 			; Fan off,;G1 E-1 F300 			; Retract the filament a bit before lifting the nozzle,;M104 S0 			; Turn off extruder,;M140 S0 			; Turn off bed,;G91			; Relative positioning,;G28 X0 Y0 			; Move X/Y to min endstops so the head is out of teh way,;M84 			; Disable motors,;G90 			; Absolute positioning,;M117 Print ready...,,;,; // From Cura 181010,; // End_gcode,G92 E0			; Zero the extruded length,;G1 E-30 F300		; Retract E -30,M106 S0			; Turn off cooling fan,M104 S0			; Turn off temperature,M140 S0		     	; Turn off bed,G91			; Relative positioning,G1 E-1 F300			; Retract the filament a bit before lifting the nozzle to release some of the pressure,G1 Z+20 E-5 X-20 Y-20 F7200	; Move Z up a bit and retract filament even more,G1 X0 Y150 F10000		; Move right min,M107			; Turn off layer fan,M84			; Disable motors,G90			; Absolute positioning,M117 *The-End* 		; End msg,;,
;   exportFileFormat,gcode
;   celebration,0
;   celebrationSong,Star Wars
;   postProcessing,D:\S3D_Thumbs\S3D_Thumbs.exe f="[output_filepath]" x=600 y=110 w=953 lw=400 lh=300 sw=32 sh=32 d=Y
;   defaultSpeed,4200
;   outlineUnderspeed,0.5
;   solidInfillUnderspeed,0.8
;   supportUnderspeed,0.8
;   rapidXYspeed,6000
;   rapidZspeed,1002
;   minBridgingArea,50
;   bridgingExtraInflation,0.2
;   bridgingExtrusionMultiplier,1
;   bridgingSpeedMultiplier,0.8
;   useFixedBridgingAngle,0
;   fixedBridgingAngle,0
;   applyBridgingToPerimeters,0
;   filamentDiameters,1.75|1.75|1.75|1.75|1.75|1.75
;   filamentPricesPerKg,30|46|46|46|46|46
;   filamentDensities,1.25|1.25|1.25|1.25|1.25|1.25
;   useMinPrintHeight,0
;   minPrintHeight,0
;   useMaxPrintHeight,1
;   maxPrintHeight,7
;   useDiaphragm,0
;   diaphragmLayerInterval,20
;   robustSlicing,1
;   mergeAllIntoSolid,0
;   onlyRetractWhenCrossingOutline,1
;   retractBetweenLayers,1
;   useRetractionMinTravel,0
;   retractionMinTravel,3
;   retractWhileWiping,1
;   onlyWipeOutlines,1
;   avoidCrossingOutline,0
;   maxMovementDetourFactor,3
;   toolChangeRetractionDistance,12
;   toolChangeExtraRestartDistance,-0.5
;   toolChangeRetractionSpeed,600
;   externalThinWallType,1
;   internalThinWallType,1
;   thinWallAllowedOverlapPercentage,10
;   singleExtrusionMinLength,1
;   singleExtrusionMinPrintingWidthPercentage,50
;   singleExtrusionMaxPrintingWidthPercentage,200
;   singleExtrusionEndpointExtension,0.2
;   horizontalSizeCompensation,0
G90
M82
M106 S0
M140 S55
M190 S55
;
; -]H.P.B[- MarshMalloW  
; $VER: StartScript 1.02 (26.12.2019) MarshMalloW
;
; Begin Startcode
;
M117 *Preheat*     	; Preheat
;extruder0_temperature
M104 S215  
M109 S215 
M109 R215 
;
M117 *Auto-leveling*     	; Auto-leveling
M107                   	; Turn layer fan off
G21                    	; Set to metric [change to G20 if you want Imperial]
G90                    	; Force coordinates to be absolute relative to the origin
G28                    	; Home X/Y/Z axis
G29                    	; Auto-leveling (BL-Touch)
;
M117 *Start Clean*     	; Indicate nozzle clean in progress on LCD
G92 E0                 	; Set Extruder to 0 
G1 X0 Y0 F2000         	; Move X and Y to 0 with speed 2000 (mm/min)
G1 Z0.1 F1000          	; Move Z to   0.1 with speed 1000 (mm/min)
G1 X8.0 F2000          	; Move X to   8.0 with speed 2000 (mm/min)
G1 Y60.0 E4.0 F1000.0  	; Move Y to  60 and Extruder with 4.0 with speed 1000 (mm/min)
G1 Y100.0 E8.5 F1000.0 	; Move Y to 100 and Extruder with 8.5 with speed 1000 (mm/min)
G92 E0                 	; Set extruder to 0
G1 X16.0 F3000         	; Move X to 16.0 with speed 3000 (mm/min)
G1 Y60.0 F3000         	; Move Y to 60.0 with speed 3000 (mm/min)
M117 *End Clean*       	; Indicate nozzle clean in progress on LCD
G1 Z5 F3000            	; Move Z to  5.0 with speed 3000 (mm/min)
G1 X20.0 F3000         	; Move X to 20.0 with speed 3000 (mm/min)
G1 Y20.0 F3000         	; Move Y to 20.0 with speed 3000 (mm/min)
; 
M117 *Printing...*     	; Start printing msg on LCD
;
; End Startcode
;
; Begin printing with sliced GCode after here
;
; process PLA A15
; layer 1, Z = 0.144
M117 INDICATOR-Layer1
M117 DASHBOARD_LAYER_INDICATOR 1
T0
G92 E0.0000
G1 E-4.0000 F3000
; feature skirt
; tool H0.144 W0.350
G1 Z0.300 F1002
G1 X129.807 Y145.248 F6000
G1 Z0.144 F1002
G1 E0.0000 F3000
G92 E0.0000
G1 X129.828 Y145.230 E0.0006 F1050
G1 X129.873 Y145.191 E0.0018
G1 X130.439 Y144.724 E0.0163
G1 X130.961 Y144.294 E0.0298
G1 X130.977 Y144.281 E0.0302
G1 X130.981 Y144.278 E0.0303
G1 X131.012 Y144.253 E0.0311
G1 X131.048 Y144.225 E0.0320
G1 X131.054 Y144.220 E0.0322
G1 X131.069 Y144.209 E0.0325
G1 X131.669 Y143.762 E0.0474
G1 X132.197 Y143.370 E0.0605
G1 X132.204 Y143.364 E0.0607
G1 X132.236 Y143.342 E0.0615
G1 X132.267 Y143.320 E0.0623
G1 X132.273 Y143.316 E0.0624
G1 X132.940 Y142.869 E0.0784
G1 X133.460 Y142.520 E0.0908
G1 X133.466 Y142.517 E0.0910
G1 X133.518 Y142.484 E0.0922
G1 X133.533 Y142.474 E0.0926
G1 X133.538 Y142.471 E0.0927
G1 X134.323 Y141.999 E0.1109
G1 X134.762 Y141.736 E0.1211
G1 X134.783 Y141.724 E0.1216
G1 X134.830 Y141.697 E0.1227
G1 X137.577 Y140.207 E0.1849
G1 X139.277 Y141.220 E0.2242
G1 X141.343 Y140.474 E0.2680
G1 X141.510 Y140.423 E0.2714
G1 X144.149 Y139.757 E0.3256
G1 X144.316 Y139.723 E0.3290
G1 X146.852 Y139.339 E0.3801
G1 X147.022 Y139.322 E0.3835
G1 X149.896 Y139.168 E0.4408
G1 X150.075 Y139.168 E0.4443
G1 X152.640 Y139.291 E0.4955
G1 X152.809 Y139.307 E0.4988
G1 X155.658 Y139.720 E0.5561
G1 X155.837 Y139.756 E0.5598
G1 X158.484 Y140.424 E0.6141
G1 X158.656 Y140.477 E0.6177
G1 X160.706 Y141.224 E0.6611
G1 X162.429 Y140.204 E0.7010
G1 X165.391 Y141.829 E0.7682
G1 X165.418 Y141.844 E0.7688
G1 X165.427 Y141.849 E0.7691
G1 X165.438 Y141.855 E0.7693
G1 X165.471 Y141.875 E0.7701
G1 X165.504 Y141.894 E0.7708
G1 X165.515 Y141.900 E0.7711
G1 X165.525 Y141.906 E0.7713
G1 X165.551 Y141.923 E0.7719
G1 X166.015 Y142.208 E0.7828
G1 X166.705 Y142.632 E0.7989
G1 X166.759 Y142.667 E0.8002
G1 X166.778 Y142.679 E0.8006
G1 X167.338 Y143.063 E0.8141
G1 X167.931 Y143.468 E0.8284
G1 X168.002 Y143.519 E0.8302
G1 X168.562 Y143.943 E0.8442
G1 X169.121 Y144.366 E0.8581
G1 X169.145 Y144.385 E0.8587
G1 X169.197 Y144.427 E0.8601
G1 X170.537 Y145.561 E0.8950
G1 X170.608 Y145.624 E0.8969
G1 X170.612 Y145.628 E0.8970
G1 X171.142 Y146.128 E0.9115
G1 X171.630 Y146.589 E0.9249
G1 X171.638 Y146.597 E0.9251
G1 X171.663 Y146.622 E0.9258
G1 X171.691 Y146.649 E0.9266
G1 X171.696 Y146.654 E0.9267
G1 X172.222 Y147.201 E0.9418
G1 X172.645 Y147.641 E0.9540
G1 X172.660 Y147.657 E0.9544
G1 X172.665 Y147.663 E0.9546
G1 X172.696 Y147.696 E0.9555
G1 X172.722 Y147.724 E0.9562
G1 X172.727 Y147.730 E0.9564
G1 X172.743 Y147.749 E0.9569
G1 X173.161 Y148.229 E0.9695
G1 X173.640 Y148.778 E0.9840
G1 X173.661 Y148.802 E0.9847
G1 X173.665 Y148.807 E0.9848
G1 X173.692 Y148.839 E0.9856
G1 X173.718 Y148.870 E0.9864
G1 X173.725 Y148.879 E0.9867
G1 X173.742 Y148.901 E0.9872
G1 X174.295 Y149.602 E1.0050
G1 X174.589 Y149.975 E1.0144
G1 X174.595 Y149.983 E1.0147
G1 X174.603 Y149.993 E1.0149
G1 X174.618 Y150.014 E1.0154
G1 X174.631 Y150.031 E1.0159
G1 X174.638 Y150.041 E1.0161
G1 X174.648 Y150.054 E1.0164
G1 X175.464 Y151.200 E1.0444
G1 X175.512 Y151.271 E1.0461
G1 X176.259 Y152.435 E1.0737
G1 X176.274 Y152.459 E1.0742
G1 X176.297 Y152.495 E1.0751
G1 X176.326 Y152.545 E1.0762
G1 X176.497 Y152.842 E1.0830
G1 X176.993 Y153.705 E1.1029
G1 X177.008 Y153.731 E1.1035
G1 X177.017 Y153.747 E1.1038
G1 X177.026 Y153.763 E1.1042
G1 X177.042 Y153.793 E1.1049
G1 X177.059 Y153.824 E1.1056
G1 X177.068 Y153.840 E1.1059
G1 X177.075 Y153.853 E1.1062
G1 X177.089 Y153.882 E1.1069
G1 X177.275 Y154.246 E1.1150
G1 X177.695 Y155.066 E1.1333
G1 X177.704 Y155.084 E1.1337
G1 X177.707 Y155.090 E1.1339
G1 X177.727 Y155.130 E1.1348
G1 X177.745 Y155.169 E1.1356
G1 X177.754 Y155.189 E1.1361
G1 X177.927 Y155.571 E1.1444
G1 X178.325 Y156.452 E1.1637
G1 X178.344 Y156.497 E1.1646
G1 X178.359 Y156.532 E1.1654
G1 X178.578 Y157.089 E1.1773
G1 X178.875 Y157.843 E1.1934
G1 X178.878 Y157.849 E1.1936
G1 X178.891 Y157.886 E1.1943
G1 X178.904 Y157.922 E1.1951
G1 X178.907 Y157.929 E1.1952
G1 X179.111 Y158.530 E1.2079
G1 X179.357 Y159.258 E1.2232
G1 X179.381 Y159.334 E1.2248
G1 X179.383 Y159.339 E1.2249
G1 X180.206 Y162.187 E1.2839
G1 X178.091 Y165.000 E1.3540
G1 X168.770 Y165.000 E1.5395
G1 X168.770 Y171.950 E1.6778
G1 X178.090 Y171.950 E1.8634
G1 X180.206 Y174.762 E1.9334
G1 X179.396 Y177.568 E1.9915
G1 X179.394 Y177.576 E1.9917
G1 X179.385 Y177.605 E1.9923
G1 X179.373 Y177.642 E1.9931
G1 X179.371 Y177.649 E1.9932
G1 X179.149 Y178.305 E2.0070
G1 X178.925 Y178.970 E2.0210
G1 X178.923 Y178.977 E2.0211
G1 X178.910 Y179.013 E2.0219
G1 X178.896 Y179.050 E2.0227
G1 X178.894 Y179.056 E2.0228
G1 X178.631 Y179.725 E2.0371
G1 X178.383 Y180.359 E2.0507
G1 X178.364 Y180.404 E2.0516
G1 X178.349 Y180.440 E2.0524
G1 X178.047 Y181.113 E2.0671
G1 X177.776 Y181.717 E2.0803
G1 X177.771 Y181.727 E2.0805
G1 X177.754 Y181.761 E2.0813
G1 X177.739 Y181.794 E2.0820
G1 X177.736 Y181.800 E2.0821
G1 X177.431 Y182.400 E2.0955
G1 X177.101 Y183.048 E2.1100
G1 X177.082 Y183.085 E2.1108
G1 X177.060 Y183.125 E2.1117
G1 X176.704 Y183.748 E2.1260
G1 X176.364 Y184.343 E2.1396
G1 X176.319 Y184.418 E2.1414
G1 X175.939 Y185.015 E2.1555
G1 X175.577 Y185.582 E2.1689
G1 X175.567 Y185.599 E2.1692
G1 X175.540 Y185.638 E2.1702
G1 X175.515 Y185.676 E2.1711
G1 X175.502 Y185.694 E2.1715
G1 X175.072 Y186.302 E2.1864
G1 X174.709 Y186.814 E2.1989
G1 X174.702 Y186.825 E2.1991
G1 X174.696 Y186.833 E2.1993
G1 X174.681 Y186.853 E2.1998
G1 X174.664 Y186.875 E2.2004
G1 X174.658 Y186.883 E2.2006
G1 X174.651 Y186.892 E2.2008
G1 X174.346 Y187.283 E2.2107
G1 X173.794 Y187.987 E2.2285
G1 X173.781 Y188.003 E2.2289
G1 X173.772 Y188.015 E2.2292
G1 X173.761 Y188.028 E2.2295
G1 X173.749 Y188.042 E2.2299
G1 X173.740 Y188.053 E2.2302
G1 X173.730 Y188.065 E2.2305
G1 X172.891 Y189.037 E2.2560
G1 X172.877 Y189.054 E2.2565
G1 X172.850 Y189.084 E2.2573
G1 X172.822 Y189.117 E2.2581
G1 X172.807 Y189.133 E2.2586
G1 X172.794 Y189.148 E2.2590
G1 X172.764 Y189.179 E2.2598
G1 X172.734 Y189.211 E2.2607
G1 X172.721 Y189.225 E2.2611
G1 X172.500 Y189.458 E2.2675
G1 X171.844 Y190.147 E2.2864
G1 X171.826 Y190.167 E2.2870
G1 X171.822 Y190.171 E2.2871
G1 X171.795 Y190.198 E2.2878
G1 X171.764 Y190.229 E2.2887
G1 X171.759 Y190.234 E2.2888
G1 X171.742 Y190.250 E2.2893
G1 X171.323 Y190.651 E2.3008
G1 X170.757 Y191.192 E2.3164
G1 X170.695 Y191.249 E2.3181
