; G-Code generated by Simplify3D(R) Version 4.0.1
; Dec 19, 2018 at 1:25:54 PM
; Settings Summary
;   processName,Tevo Tornado 001
;   applyToModels,fan_duct
;   profileName,008 Tevo Tornado (experimental) 06-04
;   profileVersion,2018-12-16 11:00:31
;   baseProfile,Creality CR-10(2)
;   printMaterial,PLA
;   printQuality,Medium
;   printExtruders,
;   extruderName,Primary Extruder
;   extruderToolheadNumber,0
;   extruderDiameter,0.4
;   extruderAutoWidth,0
;   extruderWidth,0.4
;   extrusionMultiplier,1
;   extruderUseRetract,1
;   extruderRetractionDistance,6.5
;   extruderExtraRestartDistance,0
;   extruderRetractionZLift,0
;   extruderRetractionSpeed,1800
;   extruderUseCoasting,0
;   extruderCoastingDistance,0.2
;   extruderUseWipe,0
;   extruderWipeDistance,4
;   primaryExtruder,0
;   layerHeight,0.2
;   topSolidLayers,5
;   bottomSolidLayers,4
;   perimeterOutlines,3
;   printPerimetersInsideOut,1
;   startPointOption,2
;   startPointOriginX,0
;   startPointOriginY,500
;   sequentialIslands,0
;   spiralVaseMode,0
;   firstLayerHeightPercentage,150
;   firstLayerWidthPercentage,100
;   firstLayerUnderspeed,0.25
;   useRaft,0
;   raftExtruder,0
;   raftTopLayers,3
;   raftBaseLayers,2
;   raftOffset,3
;   raftSeparationDistance,0.14
;   raftTopInfill,100
;   aboveRaftSpeedMultiplier,0.3
;   useSkirt,1
;   skirtExtruder,0
;   skirtLayers,1
;   skirtOutlines,4
;   skirtOffset,0
;   usePrimePillar,0
;   primePillarExtruder,999
;   primePillarWidth,12
;   primePillarLocation,7
;   primePillarSpeedMultiplier,1
;   useOozeShield,0
;   oozeShieldExtruder,999
;   oozeShieldOffset,2
;   oozeShieldOutlines,1
;   oozeShieldSidewallShape,1
;   oozeShieldSidewallAngle,30
;   oozeShieldSpeedMultiplier,1
;   infillExtruder,0
;   internalInfillPattern,Rectilinear
;   externalInfillPattern,Rectilinear
;   infillPercentage,40
;   outlineOverlapPercentage,30
;   infillExtrusionWidthPercentage,125
;   minInfillLength,5
;   infillLayerInterval,1
;   internalInfillAngles,45,-45
;   overlapInternalInfillAngles,0
;   externalInfillAngles,45,-45
;   generateSupport,0
;   supportExtruder,0
;   supportInfillPercentage,30
;   supportExtraInflation,0
;   supportBaseLayers,0
;   denseSupportExtruder,0
;   denseSupportLayers,0
;   denseSupportInfillPercentage,70
;   supportLayerInterval,1
;   supportHorizontalPartOffset,0.4
;   supportUpperSeparationLayers,1
;   supportLowerSeparationLayers,1
;   supportType,0
;   supportGridSpacing,4.5
;   maxOverhangAngle,45
;   supportAngles,0
;   temperatureName,Primary Extruder,Heated Bed
;   temperatureNumber,0,0
;   temperatureSetpointCount,4,2
;   temperatureSetpointLayers,1,2,3,4,1,2
;   temperatureSetpointTemperatures,210,205,200,195,65,60
;   temperatureStabilizeAtStartup,1,1
;   temperatureHeatedBed,0,1
;   temperatureRelayBetweenLayers,0,0
;   temperatureRelayBetweenLoops,0,0
;   fanLayers,1,2
;   fanSpeeds,0,100
;   blipFanToFullPower,1
;   adjustSpeedForCooling,1
;   minSpeedLayerTime,15
;   minCoolingSpeedSlowdown,50
;   increaseFanForCooling,0
;   minFanLayerTime,45
;   maxCoolingFanSpeed,100
;   increaseFanForBridging,1
;   bridgingFanSpeed,100
;   use5D,1
;   relativeEdistances,0
;   allowEaxisZeroing,1
;   independentExtruderAxes,0
;   includeM10123,0
;   stickySupport,1
;   applyToolheadOffsets,0
;   gcodeXoffset,0
;   gcodeYoffset,0
;   gcodeZoffset,0
;   overrideMachineDefinition,1
;   machineTypeOverride,0
;   strokeXoverride,300
;   strokeYoverride,300
;   strokeZoverride,400
;   originOffsetXoverride,0
;   originOffsetYoverride,0
;   originOffsetZoverride,0
;   homeXdirOverride,-1
;   homeYdirOverride,-1
;   homeZdirOverride,-1
;   flipXoverride,1
;   flipYoverride,-1
;   flipZoverride,1
;   toolheadOffsets,0,0|0,0|0,0|0,0|0,0|0,0
;   overrideFirmwareConfiguration,0
;   firmwareTypeOverride,RepRap (Marlin/Repetier/Sprinter)
;   GPXconfigOverride,r2
;   baudRateOverride,250000
;   overridePrinterModels,1
;   printerModelsOverride
;   startingGcode,;Init 181010,;G28 ; home all axes,;G1 Z5 F3000 ; lift,;G92 E0 ; reset extrusion distance,;From Cura 181010,; start_gcode,M117 Start Clean	; Indicate nozzle clean in progress on LCD,;,M104 S[extruder0_temperature] ,M109 S[extruder0_temperature] ,M109 R[extruder0_temperature] ,;,M107		; Turn layer fan off,G21		; Set to metric [change to G20 if you want Imperial],G90	 	; Force coordinates to be absolute relative to the origin,G28		; Home X/Y/Z axis,;,G1 X3 Y1 Z15 F9000	; Move safe Z height to shear strings,G0 X1 Y1 Z0.2 F9000	; Move in 1mm from edge and up [z] 0.2mm,G92 E0		; Set extruder to [0] zero,G1 X100 E12 F500	; Extrude 30mm filiment along X axis 100mm long to prime and clean the nozzle,G92 E0		; Reset extruder to [0] zero end of cleaning run,G1 E-1 F500		; Retract filiment by 1 mm to reduce string effect,G1 X180 F4000		; quick wipe away from the filament line / purge,M117 End Clean		; Indicate nozzle clean in progress on LCD,;,M117 IMPRESSION...	; start msg,; Begin printing with sliced GCode after here,;
;   layerChangeGcode,
;   retractionGcode,
;   toolChangeGcode,
;   endingGcode,;,; init 181010,;,;M107 ; Fan off,;G1 E-1 F300 ; Retract the filament a bit before lifting the nozzle,;M104 S0 ; turn off extruder,;M140 S0 ; turn off bed,;G91 ; Relative positioning,;G28 X0 Y0 ; Move X/Y to min endstops so the head is out of teh way,;M84 ; disable motors,;G90 ; Absolute positioning,;M117 Print ready...,,;,;From Cura 181010,;,; end_gcode,G92 E0		; zero the extruded length,G1 E-5 F9000		; retract,M104 S0		; turn off temperature,M140 S0		; turn off bed,G91		; relative positioning,G1 E-1 F300		; retract the filament a bit before lifting the nozzle to release some of the pressure,G1 Z+20 E-5 X-20 Y-20 F7200	; move Z up a bit and retract filament even more,G1 X320 Y150 F10000	; move right mid,M107		; turn off layer fan,M84		; disable motors,G90		; absolute positioning,M117 IMPRESSION TERMINEE	; end msg,;,;EOF
;   exportFileFormat,gcode
;   celebration,0
;   celebrationSong,Star Wars
;   postProcessing,
;   defaultSpeed,4200
;   outlineUnderspeed,0.5
;   solidInfillUnderspeed,0.8
;   supportUnderspeed,0.8
;   rapidXYspeed,6000
;   rapidZspeed,1002
;   minBridgingArea,50
;   bridgingExtraInflation,0
;   bridgingExtrusionMultiplier,0.85
;   bridgingSpeedMultiplier,1.05
;   useFixedBridgingAngle,0
;   fixedBridgingAngle,0
;   applyBridgingToPerimeters,0
;   filamentDiameters,1.75|1.75|1.75|1.75|1.75|1.75
;   filamentPricesPerKg,30|46|46|46|46|46
;   filamentDensities,1.25|1.25|1.25|1.25|1.25|1.25
;   useMinPrintHeight,0
;   minPrintHeight,0
;   useMaxPrintHeight,0
;   maxPrintHeight,9
;   useDiaphragm,0
;   diaphragmLayerInterval,20
;   robustSlicing,1
;   mergeAllIntoSolid,0
;   onlyRetractWhenCrossingOutline,1
;   retractBetweenLayers,1
;   useRetractionMinTravel,1
;   retractionMinTravel,3
;   retractWhileWiping,1
;   onlyWipeOutlines,1
;   avoidCrossingOutline,1
;   maxMovementDetourFactor,3
;   toolChangeRetractionDistance,12
;   toolChangeExtraRestartDistance,-0.5
;   toolChangeRetractionSpeed,600
;   externalThinWallType,0
;   internalThinWallType,2
;   thinWallAllowedOverlapPercentage,15
;   singleExtrusionMinLength,1
;   singleExtrusionMinPrintingWidthPercentage,50
;   singleExtrusionMaxPrintingWidthPercentage,200
;   singleExtrusionEndpointExtension,0.2
;   horizontalSizeCompensation,0
G90
M82
M106 S255
G4 P500
M106 S0
M140 S65
M190 S65
;Init 181010
;G28 ; home all axes
;G1 Z5 F3000 ; lift
;G92 E0 ; reset extrusion distance
;From Cura 181010
; start_gcode
M117 Start Clean	; Indicate nozzle clean in progress on LCD
;
M104 S210 
M109 S210 
M109 R210 
;
M107		; Turn layer fan off
G21		; Set to metric [change to G20 if you want Imperial]
G90	 	; Force coordinates to be absolute relative to the origin
G28		; Home X/Y/Z axis
;
G1 X3 Y1 Z15 F9000	; Move safe Z height to shear strings
G0 X1 Y1 Z0.2 F9000	; Move in 1mm from edge and up [z] 0.2mm
G92 E0		; Set extruder to [0] zero
G1 X100 E12 F500	; Extrude 30mm filiment along X axis 100mm long to prime and clean the nozzle
G92 E0		; Reset extruder to [0] zero end of cleaning run
G1 E-1 F500		; Retract filiment by 1 mm to reduce string effect
G1 X180 F4000		; quick wipe away from the filament line / purge
M117 End Clean		; Indicate nozzle clean in progress on LCD
;
M117 IMPRESSION...	; start msg
; Begin printing with sliced GCode after here
;
G92 E0
G1 E-6.5000 F1800
G1 Z0.300 F1002
; process Tevo Tornado 001
; layer 1, Z = 0.300
T0
; tool H0.300 W0.400
; skirt
G1 X128.402 Y131.066 F6000
G1 E0.0000 F540
G92 E0
G1 X139.562 Y131.066 E0.5568 F1050
G1 X140.382 Y131.886 E0.6146
G1 X140.382 Y135.074 E0.7737
G1 X143.479 Y130.924 E1.0320
G1 X143.695 Y131.038 E1.0442
G1 X144.845 Y129.931 E1.1238
G1 X144.939 Y129.855 E1.1299
G1 X147.254 Y128.292 E1.2692
G1 X147.360 Y128.233 E1.2753
G1 X149.909 Y127.092 E1.4146
G1 X150.023 Y127.052 E1.4207
G1 X152.731 Y126.365 E1.5600
G1 X152.850 Y126.345 E1.5661
G1 X155.635 Y126.134 E1.7054
G1 X155.756 Y126.135 E1.7114
G1 X158.537 Y126.405 E1.8508
G1 X158.656 Y126.427 E1.8568
G1 X161.348 Y127.171 E1.9962
G1 X161.461 Y127.213 E2.0022
G1 X163.986 Y128.408 E2.1416
G1 X164.091 Y128.469 E2.1476
G1 X166.373 Y130.080 E2.2870
G1 X166.465 Y130.158 E2.2930
G1 X168.437 Y132.137 E2.4324
G1 X168.514 Y132.229 E2.4384
G1 X170.116 Y134.518 E2.5778
G1 X170.177 Y134.622 E2.5838
G1 X171.362 Y137.152 E2.7232
G1 X171.404 Y137.265 E2.7292
G1 X172.137 Y139.961 E2.8686
G1 X172.159 Y140.080 E2.8746
G1 X172.418 Y142.861 E3.0140
G1 X172.419 Y142.982 E3.0200
G1 X172.196 Y145.766 E3.1594
G1 X172.176 Y145.886 E3.1654
G1 X171.479 Y148.591 E3.3048
G1 X171.439 Y148.705 E3.3108
G1 X170.287 Y151.250 E3.4501
G1 X170.228 Y151.355 E3.4562
G1 X168.656 Y153.664 E3.5955
G1 X168.580 Y153.758 E3.6016
G1 X166.635 Y155.763 E3.7409
G1 X166.544 Y155.842 E3.7470
G1 X164.283 Y157.483 E3.8863
G1 X164.180 Y157.546 E3.8924
G1 X161.671 Y158.774 E4.0317
G1 X161.558 Y158.818 E4.0378
G1 X158.876 Y159.597 E4.1771
G1 X158.757 Y159.620 E4.1832
G1 X155.981 Y159.927 E4.3225
G1 X155.860 Y159.930 E4.3285
G1 X153.072 Y159.756 E4.4679
G1 X152.952 Y159.738 E4.4739
G1 X150.915 Y159.249 E4.5785
G1 X144.987 Y163.482 E4.9419
G1 X144.570 Y163.616 E4.9637
G1 X139.382 Y163.616 E5.2225
G1 X139.382 Y173.046 E5.6930
G1 X138.562 Y173.866 E5.7509
G1 X128.402 Y173.866 E6.2577
G1 X127.582 Y173.046 E6.3156
G1 X127.582 Y131.886 E8.3691
G1 X128.402 Y131.066 E8.4269
G1 X128.567 Y131.466 F6000
G92 E0
G1 X139.396 Y131.466 E0.5402 F1050
G1 X139.982 Y132.051 E0.5816
G1 X139.982 Y136.279 E0.7925
G1 X143.595 Y131.437 E1.0939
G1 X143.764 Y131.526 E1.1034
G1 X145.110 Y130.231 E1.1966
G1 X145.177 Y130.177 E1.2009
G1 X147.463 Y128.633 E1.3385
G1 X147.539 Y128.591 E1.3428
G1 X150.057 Y127.464 E1.4805
G1 X150.138 Y127.435 E1.4848
G1 X152.812 Y126.757 E1.6224
G1 X152.898 Y126.743 E1.6267
G1 X155.649 Y126.534 E1.7644
G1 X155.735 Y126.535 E1.7687
G1 X158.481 Y126.801 E1.9063
G1 X158.566 Y126.817 E1.9106
G1 X161.225 Y127.552 E2.0483
G1 X161.306 Y127.582 E2.0526
G1 X163.800 Y128.762 E2.1902
G1 X163.874 Y128.805 E2.1945
G1 X166.128 Y130.396 E2.3322
G1 X166.194 Y130.452 E2.3365
G1 X168.141 Y132.407 E2.4741
G1 X168.197 Y132.473 E2.4784
G1 X169.779 Y134.733 E2.6160
G1 X169.822 Y134.808 E2.6204
G1 X170.993 Y137.306 E2.7580
G1 X171.023 Y137.387 E2.7623
G1 X171.747 Y140.049 E2.8999
G1 X171.762 Y140.134 E2.9043
G1 X172.018 Y142.881 E3.0419
G1 X172.019 Y142.967 E3.0462
G1 X171.799 Y145.717 E3.1838
G1 X171.785 Y145.802 E3.1881
G1 X171.096 Y148.474 E3.3258
G1 X171.067 Y148.555 E3.3301
G1 X169.930 Y151.069 E3.4677
G1 X169.888 Y151.144 E3.4720
G1 X168.335 Y153.425 E3.6097
G1 X168.281 Y153.492 E3.6140
G1 X166.360 Y155.472 E3.7516
G1 X166.295 Y155.529 E3.7559
G1 X164.062 Y157.149 E3.8936
G1 X163.988 Y157.194 E3.8979
G1 X161.510 Y158.407 E4.0355
G1 X161.430 Y158.438 E4.0398
G1 X158.781 Y159.208 E4.1775
G1 X158.696 Y159.225 E4.1818
G1 X155.954 Y159.528 E4.3194
G1 X155.867 Y159.530 E4.3237
G1 X153.114 Y159.357 E4.4614
G1 X153.029 Y159.345 E4.4657
G1 X150.831 Y158.818 E4.5784
G1 X144.805 Y163.120 E4.9478
G1 X144.508 Y163.216 E4.9634
G1 X138.982 Y163.216 E5.2391
G1 X138.982 Y172.880 E5.7212
G1 X138.396 Y173.466 E5.7626
G1 X128.567 Y173.466 E6.2529
G1 X127.982 Y172.880 E6.2942
G1 X127.982 Y132.051 E8.3312
G1 X128.567 Y131.466 E8.3725
G1 X128.733 Y131.866 F6000
G92 E0
G1 X139.230 Y131.866 E0.5237 F1050
G1 X139.582 Y132.217 E0.5485
G1 X139.582 Y137.484 E0.8112
G1 X143.711 Y131.950 E1.1557
G1 X143.834 Y132.015 E1.1626
G1 X145.375 Y130.531 E1.2693
G1 X145.415 Y130.499 E1.2719
G1 X147.673 Y128.975 E1.4078
G1 X147.718 Y128.949 E1.4104
G1 X150.204 Y127.836 E1.5463
G1 X150.253 Y127.819 E1.5489
G1 X152.894 Y127.149 E1.6848
G1 X152.945 Y127.140 E1.6874
G1 X155.662 Y126.934 E1.8233
G1 X155.713 Y126.935 E1.8259
G1 X158.425 Y127.198 E1.9618
G1 X158.476 Y127.207 E1.9644
G1 X161.102 Y127.933 E2.1003
G1 X161.150 Y127.951 E2.1029
G1 X163.613 Y129.116 E2.2388
G1 X163.658 Y129.142 E2.2414
G1 X165.883 Y130.713 E2.3773
G1 X165.923 Y130.747 E2.3799
G1 X167.845 Y132.677 E2.5158
G1 X167.879 Y132.717 E2.5184
G1 X169.441 Y134.948 E2.6543
G1 X169.467 Y134.993 E2.6569
G1 X170.623 Y137.460 E2.7928
G1 X170.641 Y137.509 E2.7954
G1 X171.356 Y140.137 E2.9313
G1 X171.365 Y140.188 E2.9339
G1 X171.618 Y142.901 E3.0698
G1 X171.619 Y142.953 E3.0724
G1 X171.402 Y145.668 E3.2083
G1 X171.393 Y145.719 E3.2109
G1 X170.713 Y148.357 E3.3468
G1 X170.696 Y148.406 E3.3494
G1 X169.573 Y150.888 E3.4853
G1 X169.547 Y150.933 E3.4879
G1 X168.015 Y153.186 E3.6238
G1 X167.982 Y153.226 E3.6264
G1 X166.085 Y155.181 E3.7623
G1 X166.046 Y155.215 E3.7649
G1 X163.841 Y156.816 E3.9008
G1 X163.797 Y156.842 E3.9034
G1 X161.350 Y158.040 E4.0393
G1 X161.302 Y158.059 E4.0419
G1 X158.686 Y158.819 E4.1778
G1 X158.635 Y158.829 E4.1804
G1 X155.927 Y159.128 E4.3163
G1 X155.875 Y159.130 E4.3189
G1 X153.156 Y158.959 E4.4548
G1 X153.105 Y158.952 E4.4574
G1 X150.747 Y158.386 E4.5784
G1 X144.624 Y162.758 E4.9537
G1 X144.445 Y162.816 E4.9631
G1 X138.582 Y162.816 E5.2556
G1 X138.582 Y172.714 E5.7495
G1 X138.230 Y173.066 E5.7743
G1 X128.733 Y173.066 E6.2481
G1 X128.382 Y172.714 E6.2729
G1 X128.382 Y132.217 E8.2933
G1 X128.733 Y131.866 E8.3181
G1 X128.899 Y132.266 F6000
G92 E0
G1 X139.064 Y132.266 E0.5072 F1050
G1 X139.182 Y132.383 E0.5154
G1 X139.182 Y138.688 E0.8300
G1 X143.827 Y132.463 E1.2175
G1 X143.903 Y132.503 E1.2218
G1 X145.639 Y130.831 E1.3421
G1 X145.653 Y130.821 E1.3429
G1 X147.882 Y129.316 E1.4771
G1 X147.897 Y129.307 E1.4780
G1 X150.352 Y128.208 E1.6122
G1 X150.369 Y128.202 E1.6130
G1 X152.976 Y127.541 E1.7472
G1 X152.993 Y127.538 E1.7481
G1 X155.675 Y127.334 E1.8823
G1 X155.692 Y127.334 E1.8831
G1 X158.369 Y127.594 E2.0173
G1 X158.386 Y127.598 E2.0182
G1 X160.979 Y128.313 E2.1524
G1 X160.995 Y128.320 E2.1532
G1 X163.426 Y129.470 E2.2874
G1 X163.441 Y129.479 E2.2883
G1 X165.638 Y131.030 E2.4225
G1 X165.652 Y131.041 E2.4233
G1 X167.550 Y132.947 E2.5575
G1 X167.561 Y132.960 E2.5584
G1 X169.104 Y135.163 E2.6926
G1 X169.112 Y135.178 E2.6934
G1 X170.254 Y137.614 E2.8276
G1 X170.260 Y137.630 E2.8285
G1 X170.966 Y140.226 E2.9627
G1 X170.969 Y140.243 E2.9636
G1 X171.218 Y142.921 E3.0977
G1 X171.218 Y142.938 E3.0986
G1 X171.004 Y145.619 E3.2328
G1 X171.001 Y145.636 E3.2337
G1 X170.330 Y148.241 E3.3678
G1 X170.324 Y148.257 E3.3687
G1 X169.215 Y150.708 E3.5029
G1 X169.207 Y150.723 E3.5038
G1 X167.694 Y152.946 E3.6380
G1 X167.683 Y152.960 E3.6388
G1 X165.810 Y154.890 E3.7730
G1 X165.797 Y154.902 E3.7739
G1 X163.620 Y156.482 E3.9081
G1 X163.605 Y156.491 E3.9089
G1 X161.190 Y157.673 E4.0431
G1 X161.174 Y157.680 E4.0440
G1 X158.591 Y158.430 E4.1782
G1 X158.574 Y158.433 E4.1790
G1 X155.900 Y158.729 E4.3132
G1 X155.883 Y158.729 E4.3141
G1 X153.198 Y158.561 E4.4483
G1 X153.181 Y158.559 E4.4491
G1 X150.663 Y157.955 E4.5783
G1 X144.442 Y162.397 E4.9597
G1 X144.383 Y162.416 E4.9628
G1 X138.182 Y162.416 E5.2722
G1 X138.182 Y172.548 E5.7777
G1 X138.064 Y172.666 E5.7860
G1 X128.899 Y172.666 E6.2432
G1 X128.782 Y172.548 E6.2515
G1 X128.782 Y132.383 E8.2554
G1 X128.899 Y132.266 E8.2637
; inner perimeter
G1 X129.178 Y132.662 F6000
G1 X129.256 Y132.662 F6000
