; G-Code generated by Simplify3D(R) Version 4.1.2
; Oct 30, 2019 at 1:41:03 PM
; Settings Summary
;   processName,Process1
;   applyToModels,HH_1to2_ARM_10cm_Nut
;   profileName,401s Tevo Tornado (experimental)
;   profileVersion,2019-10-29 11:02:25
;   baseProfile,Creality CR-10(2)
;   printMaterial,PLA
;   printQuality,Medium
;   printExtruders,
;   extruderName,Primary Extruder
;   extruderToolheadNumber,0
;   extruderDiameter,0.4
;   extruderAutoWidth,0
;   extruderWidth,0.35
;   extrusionMultiplier,0.95
;   extruderUseRetract,1
;   extruderRetractionDistance,3.8
;   extruderExtraRestartDistance,0
;   extruderRetractionZLift,0.3
;   extruderRetractionSpeed,3000
;   extruderUseCoasting,0
;   extruderCoastingDistance,0.2
;   extruderUseWipe,0
;   extruderWipeDistance,4
;   primaryExtruder,0
;   layerHeight,0.15
;   topSolidLayers,4
;   bottomSolidLayers,3
;   perimeterOutlines,3
;   printPerimetersInsideOut,0
;   startPointOption,1
;   startPointOriginX,0
;   startPointOriginY,300
;   sequentialIslands,0
;   spiralVaseMode,0
;   firstLayerHeightPercentage,120
;   firstLayerWidthPercentage,100
;   firstLayerUnderspeed,0.5
;   useRaft,0
;   raftExtruder,0
;   raftTopLayers,3
;   raftBaseLayers,2
;   raftOffset,3
;   raftSeparationDistance,0.14
;   raftTopInfill,100
;   aboveRaftSpeedMultiplier,0.3
;   useSkirt,1
;   skirtExtruder,0
;   skirtLayers,1
;   skirtOutlines,3
;   skirtOffset,2
;   usePrimePillar,0
;   primePillarExtruder,999
;   primePillarWidth,12
;   primePillarLocation,7
;   primePillarSpeedMultiplier,1
;   useOozeShield,0
;   oozeShieldExtruder,999
;   oozeShieldOffset,2
;   oozeShieldOutlines,1
;   oozeShieldSidewallShape,1
;   oozeShieldSidewallAngle,30
;   oozeShieldSpeedMultiplier,1
;   infillExtruder,0
;   internalInfillPattern,Grid
;   externalInfillPattern,Concentric
;   infillPercentage,25
;   outlineOverlapPercentage,15
;   infillExtrusionWidthPercentage,100
;   minInfillLength,5
;   infillLayerInterval,1
;   internalInfillAngles,45,-45
;   overlapInternalInfillAngles,1
;   externalInfillAngles,45,-45
;   generateSupport,1
;   supportExtruder,0
;   supportInfillPercentage,30
;   supportExtraInflation,0
;   supportBaseLayers,0
;   denseSupportExtruder,0
;   denseSupportLayers,0
;   denseSupportInfillPercentage,70
;   supportLayerInterval,1
;   supportHorizontalPartOffset,0.4
;   supportUpperSeparationLayers,1
;   supportLowerSeparationLayers,1
;   supportType,0
;   supportGridSpacing,4.5
;   maxOverhangAngle,45
;   supportAngles,0
;   temperatureName,Primary Extruder,Heated Bed
;   temperatureNumber,0,0
;   temperatureSetpointCount,2,1
;   temperatureSetpointLayers,1,2,1
;   temperatureSetpointTemperatures,215,210,60
;   temperatureStabilizeAtStartup,1,1
;   temperatureHeatedBed,0,1
;   fanLayers,1,2
;   fanSpeeds,0,100
;   blipFanToFullPower,0
;   adjustSpeedForCooling,1
;   minSpeedLayerTime,15
;   minCoolingSpeedSlowdown,50
;   increaseFanForCooling,1
;   minFanLayerTime,25
;   maxCoolingFanSpeed,100
;   increaseFanForBridging,1
;   bridgingFanSpeed,100
;   use5D,1
;   relativeEdistances,0
;   allowEaxisZeroing,1
;   independentExtruderAxes,0
;   includeM10123,0
;   stickySupport,1
;   applyToolheadOffsets,0
;   gcodeXoffset,0
;   gcodeYoffset,0
;   gcodeZoffset,0
;   overrideMachineDefinition,1
;   machineTypeOverride,0
;   strokeXoverride,300
;   strokeYoverride,300
;   strokeZoverride,400
;   originOffsetXoverride,0
;   originOffsetYoverride,0
;   originOffsetZoverride,0
;   homeXdirOverride,-1
;   homeYdirOverride,-1
;   homeZdirOverride,-1
;   flipXoverride,1
;   flipYoverride,-1
;   flipZoverride,1
;   toolheadOffsets,0,0|0,0|0,0|0,0|0,0|0,0
;   overrideFirmwareConfiguration,1
;   firmwareTypeOverride,RepRap (Marlin/Repetier/Sprinter)
;   GPXconfigOverride,r2
;   baudRateOverride,250000
;   overridePrinterModels,1
;   printerModelsOverride
;   startingGcode,;Init 181010,;G28 			; Home all axes,;G1 Z5 F3000 		; Lift,;G92 E0			; Reset extrusion distance,,; // From Cura 181010,; // Update 190823 (GueroLoco),; // Update 191005 Autoleveling,; // Update 192029 Modify Cleaning,; // Start_gcode,M117 *Start Clean*		; Indicate nozzle clean in progress on LCD,;,M104 S[extruder0_temperature] ,M109 S[extruder0_temperature] ,M109 R[extruder0_temperature] ,;,M107			; Turn layer fan off,G21			; Set to metric [change to G20 if you want Imperial],G90			; Force coordinates to be absolute relative to the origin,G28			; Home X/Y/Z axis,G29			; Auto-leveling,;,;G1 X3 Y1 Z15 F9000		; Move safe Z height to shear strings,;G0 X1 Y1 Z0.2 F9000		; Move in 1mm from edge and up [z] 0.2mm,;G92 E0			; Set extruder to [0] zero,;G1 X100 E12 F500		; Extrude 30mm filiment along X axis 100mm long to prime and clean the nozzle,;G92 E0			; Reset extruder to [0] zero end of cleaning run,;G1 E-1 F500			; Retract filiment by 1 mm to reduce string effect,;G1 X180 F4000		; Quick wipe away from the filament line / purge,;,G92 E0			; Set Extruder to 0 ,G1 X0 Y0 F2000		; Move X and Y to 0 with speed 2000 (mm/min),G1 Z0.1 F1000		; Move Z to 0.1,G1 X8.0 F2000		; Move X to 8.0,G1 Y60.0 E4.0 F1000.0		; Prime - Move Y to 60 and Extruder with 4.0,G1 Y100.0 E8.5 F1000.0		; Prime - Move Y to 100 and Extruder with 8.5,G92 E0			; Set extruder to 0,M117 *End Clean*		; Indicate nozzle clean in progress on LCD,G1 X16.0 F3000		; Move X to 16.0,G1 Z5 F3000			; Move Z to 5 - Lift,; ,M117 *Printing...*		; start msg,; // Begin printing with sliced GCode after here,;
;   layerChangeGcode,
;   retractionGcode,
;   toolChangeGcode,
;   endingGcode,;,; init 181010,;,;M107 			; Fan off,;G1 E-1 F300 			; Retract the filament a bit before lifting the nozzle,;M104 S0 			; Turn off extruder,;M140 S0 			; Turn off bed,;G91			; Relative positioning,;G28 X0 Y0 			; Move X/Y to min endstops so the head is out of teh way,;M84 			; Disable motors,;G90 			; Absolute positioning,;M117 Print ready...,,;,; // From Cura 181010,; // End_gcode,G92 E0			; Zero the extruded length,;G1 E-30 F300		; Retract E -30,M106 S0			; Turn off cooling fan,M104 S0			; Turn off temperature,M140 S0		     	; Turn off bed,G91			; Relative positioning,G1 E-1 F300			; Retract the filament a bit before lifting the nozzle to release some of the pressure,G1 Z+20 E-5 X-20 Y-20 F7200	; Move Z up a bit and retract filament even more,G1 X0 Y150 F10000		; Move right min,M107			; Turn off layer fan,M84			; Disable motors,G90			; Absolute positioning,M117 *The-End* 		; End msg,;,
;   exportFileFormat,gcode
;   celebration,0
;   celebrationSong,Star Wars
;   postProcessing,
;   defaultSpeed,1800
;   outlineUnderspeed,0.5
;   solidInfillUnderspeed,0.8
;   supportUnderspeed,0.8
;   rapidXYspeed,6000
;   rapidZspeed,1002
;   minBridgingArea,50
;   bridgingExtraInflation,0.2
;   bridgingExtrusionMultiplier,1
;   bridgingSpeedMultiplier,0.6
;   useFixedBridgingAngle,0
;   fixedBridgingAngle,0
;   applyBridgingToPerimeters,0
;   filamentDiameters,1.75|1.75|1.75|1.75|1.75|1.75
;   filamentPricesPerKg,30|46|46|46|46|46
;   filamentDensities,1.25|1.25|1.25|1.25|1.25|1.25
;   useMinPrintHeight,0
;   minPrintHeight,0
;   useMaxPrintHeight,0
;   maxPrintHeight,9
;   useDiaphragm,0
;   diaphragmLayerInterval,20
;   robustSlicing,1
;   mergeAllIntoSolid,0
;   onlyRetractWhenCrossingOutline,1
;   retractBetweenLayers,1
;   useRetractionMinTravel,1
;   retractionMinTravel,3
;   retractWhileWiping,1
;   onlyWipeOutlines,1
;   avoidCrossingOutline,1
;   maxMovementDetourFactor,3
;   toolChangeRetractionDistance,12
;   toolChangeExtraRestartDistance,-0.5
;   toolChangeRetractionSpeed,600
;   externalThinWallType,1
;   internalThinWallType,1
;   thinWallAllowedOverlapPercentage,15
;   singleExtrusionMinLength,1
;   singleExtrusionMinPrintingWidthPercentage,50
;   singleExtrusionMaxPrintingWidthPercentage,200
;   singleExtrusionEndpointExtension,0.2
;   horizontalSizeCompensation,0
G90
M82
M106 S0
M140 S60
M190 S60
;Init 181010
;G28 			; Home all axes
;G1 Z5 F3000 		; Lift
;G92 E0			; Reset extrusion distance
; // From Cura 181010
; // Update 190823 (GueroLoco)
; // Update 191005 Autoleveling
; // Update 192029 Modify Cleaning
; // Start_gcode
M117 *Start Clean*		; Indicate nozzle clean in progress on LCD
;
M104 S215 
M109 S215 
M109 R215 
;
M107			; Turn layer fan off
G21			; Set to metric [change to G20 if you want Imperial]
G90			; Force coordinates to be absolute relative to the origin
G28			; Home X/Y/Z axis
G29			; Auto-leveling
;
;G1 X3 Y1 Z15 F9000		; Move safe Z height to shear strings
;G0 X1 Y1 Z0.2 F9000		; Move in 1mm from edge and up [z] 0.2mm
;G92 E0			; Set extruder to [0] zero
;G1 X100 E12 F500		; Extrude 30mm filiment along X axis 100mm long to prime and clean the nozzle
;G92 E0			; Reset extruder to [0] zero end of cleaning run
;G1 E-1 F500			; Retract filiment by 1 mm to reduce string effect
;G1 X180 F4000		; Quick wipe away from the filament line / purge
;
G92 E0			; Set Extruder to 0 
G1 X0 Y0 F2000		; Move X and Y to 0 with speed 2000 (mm/min)
G1 Z0.1 F1000		; Move Z to 0.1
G1 X8.0 F2000		; Move X to 8.0
G1 Y60.0 E4.0 F1000.0		; Prime - Move Y to 60 and Extruder with 4.0
G1 Y100.0 E8.5 F1000.0		; Prime - Move Y to 100 and Extruder with 8.5
G92 E0			; Set extruder to 0
M117 *End Clean*		; Indicate nozzle clean in progress on LCD
G1 X16.0 F3000		; Move X to 16.0
G1 Z5 F3000			; Move Z to 5 - Lift
; 
M117 *Printing...*		; start msg
; // Begin printing with sliced GCode after here
;
; process Process1
; layer 1, Z = 0.180
T0
G92 E0.0000
G1 E-3.8000 F3000
; feature skirt
; tool H0.180 W0.350
G1 Z0.300 F1002
G1 X194.436 Y19.724 F6000
G1 Z0.180 F1002
G1 E0.0000 F3000
G92 E0.0000
G1 X194.440 Y19.873 E0.0037 F900
G1 X200.314 Y19.873 E0.1499
G1 X201.998 Y21.557 E0.2091
G1 X201.998 Y28.879 E0.3913
G1 X200.314 Y30.563 E0.4506
G1 X192.992 Y30.563 E0.6328
G1 X192.172 Y29.743 E0.6616
G1 X186.278 Y29.743 E0.8083
G1 X186.278 Y34.193 E0.9190
G1 X192.172 Y34.193 E1.0657
G1 X192.992 Y33.373 E1.0945
G1 X200.314 Y33.373 E1.2767
G1 X201.998 Y35.057 E1.3360
G1 X201.998 Y42.379 E1.5182
G1 X200.314 Y44.063 E1.5774
G1 X194.584 Y44.063 E1.7200
G1 X194.584 Y44.157 E1.7223
G1 X192.900 Y45.843 E1.7816
G1 X187.902 Y45.843 E1.9060
G1 X186.908 Y44.843 E1.9411
G1 X175.405 Y44.843 E2.2273
G1 X173.721 Y43.159 E2.2866
G1 X173.721 Y39.933 E2.3669
G1 X99.921 Y39.933 E4.2032
G1 X99.704 Y39.843 E4.2090
G1 X87.914 Y39.843 E4.5024
G1 X87.634 Y39.563 E4.5123
G1 X80.492 Y39.563 E4.6900
G1 X78.808 Y37.879 E4.7492
G1 X78.808 Y26.057 E5.0434
G1 X80.492 Y24.373 E5.1026
G1 X87.634 Y24.373 E5.2803
G1 X87.914 Y24.093 E5.2902
G1 X99.704 Y24.093 E5.5836
G1 X99.921 Y24.003 E5.5894
G1 X173.721 Y24.003 E7.4258
G1 X173.721 Y20.777 E7.5060
G1 X175.405 Y19.093 E7.5653
G1 X186.984 Y19.093 E7.8534
G1 X188.150 Y18.093 E7.8916
G1 X192.761 Y18.093 E8.0064
G1 X194.436 Y19.724 E8.0645
G92 E0.0000
G1 E-3.8000 F3000
G1 Z0.480 F1002
G1 X191.422 Y21.143 F6000
G1 X189.364 Y21.143
G1 X189.263 Y21.798
G1 X189.298 Y22.143
G1 X182.932 Y22.143
G1 X176.771 Y23.439
G1 X176.771 Y27.053
G1 X159.581 Y27.053
G1 X112.832 Y36.883
G1 X100.566 Y36.883
G1 X99.991 Y39.583
G1 Z0.180 F1002
G1 E0.0000 F3000
G92 E0.0000
G1 X99.774 Y39.493 E0.0059 F900
G1 X88.059 Y39.493 E0.2974
G1 X87.724 Y39.158 E0.3091
G1 X87.669 Y39.213 E0.3111
G1 X80.637 Y39.213 E0.4860
G1 X79.158 Y37.734 E0.5381
G1 X79.158 Y26.202 E0.8250
G1 X80.637 Y24.723 E0.8771
G1 X87.669 Y24.723 E1.0520
G1 X87.724 Y24.778 E1.0540
G1 X88.059 Y24.443 E1.0658
G1 X99.774 Y24.443 E1.3573
G1 X99.991 Y24.353 E1.3631
G1 X174.071 Y24.353 E3.2064
G1 X174.071 Y20.922 E3.2918
G1 X175.550 Y19.443 E3.3438
G1 X187.114 Y19.443 E3.6316
G1 X188.279 Y18.443 E3.6698
G1 X192.619 Y18.443 E3.7778
G1 X194.090 Y19.876 E3.8289
G1 X194.099 Y20.223 E3.8375
G1 X200.169 Y20.223 E3.9886
G1 X201.648 Y21.702 E4.0406
G1 X201.648 Y28.734 E4.2156
G1 X200.169 Y30.213 E4.2676
G1 X193.137 Y30.213 E4.4426
G1 X192.317 Y29.393 E4.4714
G1 X185.928 Y29.393 E4.6304
G1 X185.928 Y34.543 E4.7586
G1 X192.317 Y34.543 E4.9175
G1 X193.137 Y33.723 E4.9464
G1 X200.169 Y33.723 E5.1214
G1 X201.648 Y35.202 E5.1734
G1 X201.648 Y42.234 E5.3484
G1 X200.169 Y43.713 E5.4004
G1 X194.234 Y43.713 E5.5481
G1 X194.234 Y44.012 E5.5556
G1 X192.755 Y45.493 E5.6077
G1 X188.048 Y45.493 E5.7248
G1 X187.054 Y44.493 E5.7599
G1 X175.550 Y44.493 E6.0461
G1 X174.071 Y43.014 E6.0982
G1 X174.071 Y39.583 E6.1835
G1 X99.991 Y39.583 E8.0268
G92 E0.0000
G1 E-3.8000 F3000
G1 Z0.480 F1002
G1 X100.566 Y36.883 F6000
G1 X121.916 Y36.883
G1 X185.578 Y29.043
G1 Z0.180 F1002
G1 E0.0000 F3000
G92 E0.0000
G1 X185.578 Y34.893 E0.1456 F900
G1 X192.462 Y34.893 E0.3169
G1 X193.282 Y34.073 E0.3457
G1 X200.024 Y34.073 E0.5135
G1 X201.298 Y35.347 E0.5583
G1 X201.298 Y42.089 E0.7261
G1 X200.024 Y43.363 E0.7709
G1 X193.884 Y43.363 E0.9237
G1 X193.884 Y43.867 E0.9362
G1 X192.610 Y45.143 E0.9811
G1 X188.194 Y45.143 E1.0910
G1 X187.200 Y44.143 E1.1261
G1 X175.695 Y44.143 E1.4124
G1 X174.421 Y42.869 E1.4572
G1 X174.421 Y39.233 E1.5477
G1 X100.061 Y39.233 E3.3979
G1 X99.843 Y39.143 E3.4038
G1 X88.204 Y39.143 E3.6934
G1 X87.724 Y38.663 E3.7103
G1 X87.524 Y38.863 E3.7173
G1 X80.782 Y38.863 E3.8851
G1 X79.508 Y37.589 E3.9299
G1 X79.508 Y26.347 E4.2096
G1 X80.782 Y25.073 E4.2545
G1 X87.524 Y25.073 E4.4222
G1 X87.724 Y25.273 E4.4293
G1 X88.204 Y24.793 E4.4461
G1 X99.843 Y24.793 E4.7358
G1 X100.061 Y24.703 E4.7416
G1 X174.421 Y24.703 E6.5919
G1 X174.421 Y21.067 E6.6824
G1 X175.695 Y19.793 E6.7272
G1 X187.243 Y19.793 E7.0146
G1 X188.409 Y18.793 E7.0528
G1 X192.477 Y18.793 E7.1540
G1 X193.744 Y20.027 E7.1980
G1 X193.758 Y20.573 E7.2116
G1 X200.024 Y20.573 E7.3675
G1 X201.298 Y21.847 E7.4124
G1 X201.298 Y28.589 E7.5801
G1 X200.024 Y29.863 E7.6249
G1 X193.282 Y29.863 E7.7927
G1 X192.462 Y29.043 E7.8216
G1 X185.578 Y29.043 E7.9929
G92 E0.0000
G1 E-3.8000 F3000
; feature outer perimeter
G1 Z0.480 F1002
G1 X176.771 Y22.143 F6000
G1 Z0.180 F1002
G1 E0.0000 F3000
G92 E0.0000
G1 X189.298 Y22.143 E0.3117 F450
G1 X189.263 Y21.798 E0.3203
G1 X189.364 Y21.143 E0.3368
G1 X191.422 Y21.143 E0.3880
G1 X191.545 Y25.826 E0.5046
G1 X191.530 Y26.693 E0.5262
G1 X183.228 Y26.693 E0.7327
G1 X183.228 Y37.243 E0.9953
G1 X191.527 Y37.243 E1.2018
G1 X191.533 Y42.793 E1.3399
G1 X189.274 Y42.793 E1.3961
G1 X189.281 Y41.793 E1.4209
G1 X176.771 Y41.793 E1.7322
G1 X176.771 Y36.883 E1.8544
G1 X100.566 Y36.883 E3.7506
G1 X100.476 Y36.793 E3.7538
G1 X89.280 Y36.793 E4.0323
G1 X89.280 Y27.143 E4.2725
G1 X100.476 Y27.143 E4.5511
G1 X100.566 Y27.053 E4.5542
G1 X176.771 Y27.053 E6.4504
G1 X176.771 Y22.143 E6.5726
; feature inner perimeter
G1 X177.121 Y22.493 F6000
G92 E0.0000
G1 X189.685 Y22.493 E0.3126 F675
G1 X189.616 Y21.808 E0.3298
G1 X189.664 Y21.493 E0.3377
G1 X191.081 Y21.493 E0.3730
G1 X191.195 Y25.827 E0.4808
G1 X191.186 Y26.343 E0.4937
G1 X182.878 Y26.343 E0.7004
G1 X182.878 Y37.593 E0.9803
G1 X191.177 Y37.593 E1.1868
G1 X191.183 Y42.443 E1.3075
G1 X189.627 Y42.443 E1.3462
G1 X189.633 Y41.443 E1.3711
G1 X177.121 Y41.443 E1.6824
G1 X177.121 Y36.533 E1.8046
G1 X100.711 Y36.533 E3.7059
G1 X100.621 Y36.443 E3.7091
G1 X89.630 Y36.443 E3.9826
G1 X89.630 Y27.493 E4.2053
G1 X100.621 Y27.493 E4.4787
G1 X100.711 Y27.403 E4.4819
G1 X177.121 Y27.403 E6.3832
G1 X177.121 Y22.493 E6.5054
G1 X177.471 Y22.843 F6000
G92 E0.0000
G1 X190.072 Y22.843 E0.3136 F675
G1 X189.971 Y21.843 E0.3386
G1 X190.740 Y21.843 E0.3577
G1 X190.845 Y25.829 E0.4569
G1 X190.842 Y25.993 E0.4610
G1 X182.528 Y25.993 E0.6679
G1 X182.528 Y37.943 E0.9652
G1 X190.828 Y37.943 E1.1717
G1 X190.832 Y42.093 E1.2750
G1 X189.979 Y42.093 E1.2962
G1 X189.985 Y41.093 E1.3211
G1 X177.471 Y41.093 E1.6325
G1 X177.471 Y36.183 E1.7547
G1 X100.856 Y36.183 E3.6611
G1 X100.766 Y36.093 E3.6642
G1 X89.980 Y36.093 E3.9326
G1 X89.980 Y27.843 E4.1379
G1 X100.766 Y27.843 E4.4063
G1 X100.856 Y27.753 E4.4094
G1 X177.471 Y27.753 E6.3158
G1 X177.471 Y22.843 E6.4380
; feature solid layer
G1 X177.768 Y23.141 F6000
G92 E0.0000
G1 X190.401 Y23.141 E0.3143 F720
G1 X190.300 Y22.141 E0.3394
G1 X190.450 Y22.141 E0.3431
G1 X190.543 Y25.696 E0.4316
G1 X182.231 Y25.696 E0.6384
G1 X182.231 Y38.241 E0.9506
G1 X190.531 Y38.241 E1.1571
