; G-Code generated by Simplify3D(R) Version 4.1.2
; Oct 31, 2019 at 5:04:50 PM
; Settings Summary
;   processName,Process1
;   applyToModels,camera_screw
;   profileName,401_35p Tevo Tornado (experimental)
;   profileVersion,2019-10-29 10:44:47
;   baseProfile,Creality CR-10(2)
;   printMaterial,PLA
;   printQuality,Medium
;   printExtruders,
;   extruderName,Primary Extruder
;   extruderToolheadNumber,0
;   extruderDiameter,0.4
;   extruderAutoWidth,0
;   extruderWidth,0.35
;   extrusionMultiplier,0.95
;   extruderUseRetract,1
;   extruderRetractionDistance,3.8
;   extruderExtraRestartDistance,0
;   extruderRetractionZLift,0.3
;   extruderRetractionSpeed,3000
;   extruderUseCoasting,0
;   extruderCoastingDistance,0.2
;   extruderUseWipe,0
;   extruderWipeDistance,4
;   primaryExtruder,0
;   layerHeight,0.15
;   topSolidLayers,4
;   bottomSolidLayers,3
;   perimeterOutlines,3
;   printPerimetersInsideOut,0
;   startPointOption,1
;   startPointOriginX,0
;   startPointOriginY,300
;   sequentialIslands,0
;   spiralVaseMode,0
;   firstLayerHeightPercentage,120
;   firstLayerWidthPercentage,100
;   firstLayerUnderspeed,0.5
;   useRaft,0
;   raftExtruder,0
;   raftTopLayers,3
;   raftBaseLayers,2
;   raftOffset,3
;   raftSeparationDistance,0.14
;   raftTopInfill,100
;   aboveRaftSpeedMultiplier,0.3
;   useSkirt,1
;   skirtExtruder,0
;   skirtLayers,1
;   skirtOutlines,3
;   skirtOffset,2
;   usePrimePillar,0
;   primePillarExtruder,999
;   primePillarWidth,12
;   primePillarLocation,7
;   primePillarSpeedMultiplier,1
;   useOozeShield,0
;   oozeShieldExtruder,999
;   oozeShieldOffset,2
;   oozeShieldOutlines,1
;   oozeShieldSidewallShape,1
;   oozeShieldSidewallAngle,30
;   oozeShieldSpeedMultiplier,1
;   infillExtruder,0
;   internalInfillPattern,Grid
;   externalInfillPattern,Concentric
;   infillPercentage,35
;   outlineOverlapPercentage,15
;   infillExtrusionWidthPercentage,100
;   minInfillLength,5
;   infillLayerInterval,1
;   internalInfillAngles,45,-45
;   overlapInternalInfillAngles,1
;   externalInfillAngles,45,-45
;   generateSupport,0
;   supportExtruder,0
;   supportInfillPercentage,30
;   supportExtraInflation,0
;   supportBaseLayers,0
;   denseSupportExtruder,0
;   denseSupportLayers,0
;   denseSupportInfillPercentage,70
;   supportLayerInterval,1
;   supportHorizontalPartOffset,0.4
;   supportUpperSeparationLayers,1
;   supportLowerSeparationLayers,1
;   supportType,0
;   supportGridSpacing,4.5
;   maxOverhangAngle,45
;   supportAngles,0
;   temperatureName,Primary Extruder,Heated Bed
;   temperatureNumber,0,0
;   temperatureSetpointCount,2,1
;   temperatureSetpointLayers,1,2,1
;   temperatureSetpointTemperatures,215,210,60
;   temperatureStabilizeAtStartup,1,1
;   temperatureHeatedBed,0,1
;   fanLayers,1,2
;   fanSpeeds,0,100
;   blipFanToFullPower,0
;   adjustSpeedForCooling,1
;   minSpeedLayerTime,15
;   minCoolingSpeedSlowdown,50
;   increaseFanForCooling,1
;   minFanLayerTime,25
;   maxCoolingFanSpeed,100
;   increaseFanForBridging,1
;   bridgingFanSpeed,100
;   use5D,1
;   relativeEdistances,0
;   allowEaxisZeroing,1
;   independentExtruderAxes,0
;   includeM10123,0
;   stickySupport,1
;   applyToolheadOffsets,0
;   gcodeXoffset,0
;   gcodeYoffset,0
;   gcodeZoffset,0
;   overrideMachineDefinition,1
;   machineTypeOverride,0
;   strokeXoverride,300
;   strokeYoverride,300
;   strokeZoverride,400
;   originOffsetXoverride,0
;   originOffsetYoverride,0
;   originOffsetZoverride,0
;   homeXdirOverride,-1
;   homeYdirOverride,-1
;   homeZdirOverride,-1
;   flipXoverride,1
;   flipYoverride,-1
;   flipZoverride,1
;   toolheadOffsets,0,0|0,0|0,0|0,0|0,0|0,0
;   overrideFirmwareConfiguration,1
;   firmwareTypeOverride,RepRap (Marlin/Repetier/Sprinter)
;   GPXconfigOverride,r2
;   baudRateOverride,250000
;   overridePrinterModels,1
;   printerModelsOverride
;   startingGcode,;Init 181010,;G28 			; Home all axes,;G1 Z5 F3000 		; Lift,;G92 E0			; Reset extrusion distance,,; // From Cura 181010,; // Update 190823 (GueroLoco),; // Update 191005 Autoleveling,; // Update 192029 Modify Cleaning,; // Start_gcode,M117 *Start Clean*		; Indicate nozzle clean in progress on LCD,;,M104 S[extruder0_temperature] ,M109 S[extruder0_temperature] ,M109 R[extruder0_temperature] ,;,M107			; Turn layer fan off,G21			; Set to metric [change to G20 if you want Imperial],G90			; Force coordinates to be absolute relative to the origin,G28			; Home X/Y/Z axis,G29			; Auto-leveling,;,;G1 X3 Y1 Z15 F9000		; Move safe Z height to shear strings,;G0 X1 Y1 Z0.2 F9000		; Move in 1mm from edge and up [z] 0.2mm,;G92 E0			; Set extruder to [0] zero,;G1 X100 E12 F500		; Extrude 30mm filiment along X axis 100mm long to prime and clean the nozzle,;G92 E0			; Reset extruder to [0] zero end of cleaning run,;G1 E-1 F500			; Retract filiment by 1 mm to reduce string effect,;G1 X180 F4000		; Quick wipe away from the filament line / purge,;,G92 E0			; Set Extruder to 0 ,G1 X0 Y0 F2000		; Move X and Y to 0 with speed 2000 (mm/min),G1 Z0.1 F1000		; Move Z to 0.1,G1 X8.0 F2000		; Move X to 8.0,G1 Y60.0 E4.0 F1000.0		; Prime - Move Y to 60 and Extruder with 4.0,G1 Y100.0 E8.5 F1000.0		; Prime - Move Y to 100 and Extruder with 8.5,G92 E0			; Set extruder to 0,M117 *End Clean*		; Indicate nozzle clean in progress on LCD,G1 X16.0 F3000		; Move X to 16.0,G1 Z5 F3000			; Move Z to 5 - Lift,; ,M117 *Printing...*		; start msg,; // Begin printing with sliced GCode after here,;
;   layerChangeGcode,
;   retractionGcode,
;   toolChangeGcode,
;   endingGcode,;,; init 181010,;,;M107 			; Fan off,;G1 E-1 F300 			; Retract the filament a bit before lifting the nozzle,;M104 S0 			; Turn off extruder,;M140 S0 			; Turn off bed,;G91			; Relative positioning,;G28 X0 Y0 			; Move X/Y to min endstops so the head is out of teh way,;M84 			; Disable motors,;G90 			; Absolute positioning,;M117 Print ready...,,;,; // From Cura 181010,; // End_gcode,G92 E0			; Zero the extruded length,;G1 E-30 F300		; Retract E -30,M106 S0			; Turn off cooling fan,M104 S0			; Turn off temperature,M140 S0		     	; Turn off bed,G91			; Relative positioning,G1 E-1 F300			; Retract the filament a bit before lifting the nozzle to release some of the pressure,G1 Z+20 E-5 X-20 Y-20 F7200	; Move Z up a bit and retract filament even more,G1 X0 Y150 F10000		; Move right min,M107			; Turn off layer fan,M84			; Disable motors,G90			; Absolute positioning,M117 *The-End* 		; End msg,;,
;   exportFileFormat,gcode
;   celebration,0
;   celebrationSong,Star Wars
;   postProcessing,
;   defaultSpeed,1800
;   outlineUnderspeed,0.5
;   solidInfillUnderspeed,0.8
;   supportUnderspeed,0.8
;   rapidXYspeed,6000
;   rapidZspeed,1002
;   minBridgingArea,50
;   bridgingExtraInflation,0.2
;   bridgingExtrusionMultiplier,1
;   bridgingSpeedMultiplier,0.6
;   useFixedBridgingAngle,0
;   fixedBridgingAngle,0
;   applyBridgingToPerimeters,0
;   filamentDiameters,1.75|1.75|1.75|1.75|1.75|1.75
;   filamentPricesPerKg,30|46|46|46|46|46
;   filamentDensities,1.25|1.25|1.25|1.25|1.25|1.25
;   useMinPrintHeight,0
;   minPrintHeight,0
;   useMaxPrintHeight,0
;   maxPrintHeight,9
;   useDiaphragm,0
;   diaphragmLayerInterval,20
;   robustSlicing,1
;   mergeAllIntoSolid,0
;   onlyRetractWhenCrossingOutline,1
;   retractBetweenLayers,1
;   useRetractionMinTravel,1
;   retractionMinTravel,3
;   retractWhileWiping,1
;   onlyWipeOutlines,1
;   avoidCrossingOutline,1
;   maxMovementDetourFactor,3
;   toolChangeRetractionDistance,12
;   toolChangeExtraRestartDistance,-0.5
;   toolChangeRetractionSpeed,600
;   externalThinWallType,1
;   internalThinWallType,1
;   thinWallAllowedOverlapPercentage,15
;   singleExtrusionMinLength,1
;   singleExtrusionMinPrintingWidthPercentage,50
;   singleExtrusionMaxPrintingWidthPercentage,200
;   singleExtrusionEndpointExtension,0.2
;   horizontalSizeCompensation,0
G90
M82
M106 S0
M140 S60
M190 S60
;Init 181010
;G28 			; Home all axes
;G1 Z5 F3000 		; Lift
;G92 E0			; Reset extrusion distance
; // From Cura 181010
; // Update 190823 (GueroLoco)
; // Update 191005 Autoleveling
; // Update 192029 Modify Cleaning
; // Start_gcode
M117 *Start Clean*		; Indicate nozzle clean in progress on LCD
;
M104 S215 
M109 S215 
M109 R215 
;
M107			; Turn layer fan off
G21			; Set to metric [change to G20 if you want Imperial]
G90			; Force coordinates to be absolute relative to the origin
G28			; Home X/Y/Z axis
G29			; Auto-leveling
;
;G1 X3 Y1 Z15 F9000		; Move safe Z height to shear strings
;G0 X1 Y1 Z0.2 F9000		; Move in 1mm from edge and up [z] 0.2mm
;G92 E0			; Set extruder to [0] zero
;G1 X100 E12 F500		; Extrude 30mm filiment along X axis 100mm long to prime and clean the nozzle
;G92 E0			; Reset extruder to [0] zero end of cleaning run
;G1 E-1 F500			; Retract filiment by 1 mm to reduce string effect
;G1 X180 F4000		; Quick wipe away from the filament line / purge
;
G92 E0			; Set Extruder to 0 
G1 X0 Y0 F2000		; Move X and Y to 0 with speed 2000 (mm/min)
G1 Z0.1 F1000		; Move Z to 0.1
G1 X8.0 F2000		; Move X to 8.0
G1 Y60.0 E4.0 F1000.0		; Prime - Move Y to 60 and Extruder with 4.0
G1 Y100.0 E8.5 F1000.0		; Prime - Move Y to 100 and Extruder with 8.5
G92 E0			; Set extruder to 0
M117 *End Clean*		; Indicate nozzle clean in progress on LCD
G1 X16.0 F3000		; Move X to 16.0
G1 Z5 F3000			; Move Z to 5 - Lift
; 
M117 *Printing...*		; start msg
; // Begin printing with sliced GCode after here
;
; process Process1
; layer 1, Z = 0.180
T0
G92 E0.0000
G1 E-3.8000 F3000
; feature skirt
; tool H0.180 W0.350
G1 Z0.300 F1002
G1 X119.533 Y53.191 F6000
G1 Z0.180 F1002
G1 E0.0000 F3000
G92 E0.0000
G1 X119.623 Y53.170 E0.0023 F900
G1 X119.846 Y53.208 E0.0079
G1 X120.201 Y53.228 E0.0168
G1 X120.332 Y53.291 E0.0204
G1 X120.839 Y53.377 E0.0332
G1 X120.996 Y53.413 E0.0372
G1 X121.491 Y53.555 E0.0500
G1 X121.635 Y53.555 E0.0536
G1 X121.964 Y53.691 E0.0625
G1 X122.182 Y53.754 E0.0681
G1 X122.254 Y53.812 E0.0704
G1 X122.894 Y54.077 E0.0876
G1 X123.039 Y54.147 E0.0916
G1 X123.645 Y54.481 E0.1089
G1 X123.735 Y54.502 E0.1112
G1 X123.920 Y54.634 E0.1168
G1 X124.231 Y54.805 E0.1256
G1 X124.321 Y54.918 E0.1292
G1 X124.741 Y55.216 E0.1420
G1 X124.867 Y55.317 E0.1461
G1 X125.251 Y55.660 E0.1589
G1 X125.381 Y55.723 E0.1625
G1 X125.618 Y55.987 E0.1713
G1 X125.787 Y56.139 E0.1770
G1 X125.827 Y56.222 E0.1793
G1 X126.288 Y56.738 E0.1965
G1 X126.389 Y56.864 E0.2005
G1 X126.790 Y57.429 E0.2177
G1 X126.862 Y57.486 E0.2200
G1 X126.972 Y57.685 E0.2257
G1 X127.177 Y57.975 E0.2345
G1 X127.210 Y58.116 E0.2381
G1 X127.458 Y58.566 E0.2509
G1 X127.528 Y58.712 E0.2549
G1 X127.725 Y59.187 E0.2677
G1 X127.815 Y59.300 E0.2713
G1 X127.914 Y59.641 E0.2802
G1 X128.001 Y59.851 E0.2858
G1 X128.001 Y59.944 E0.2881
G1 X128.192 Y60.609 E0.3053
G1 X128.228 Y60.766 E0.3094
G1 X128.344 Y61.448 E0.3266
G1 X128.384 Y61.532 E0.3289
G1 X128.397 Y61.758 E0.3345
G1 X128.456 Y62.109 E0.3434
G1 X128.424 Y62.250 E0.3470
G1 X128.453 Y62.764 E0.3598
G1 X128.453 Y62.925 E0.3638
G1 X128.424 Y63.439 E0.3766
G1 X128.456 Y63.580 E0.3802
G1 X128.397 Y63.930 E0.3890
G1 X128.384 Y64.157 E0.3947
G1 X128.344 Y64.240 E0.3970
G1 X128.228 Y64.922 E0.4142
G1 X128.192 Y65.080 E0.4182
G1 X128.001 Y65.745 E0.4354
G1 X128.001 Y65.837 E0.4377
G1 X127.914 Y66.047 E0.4434
G1 X127.815 Y66.388 E0.4522
G1 X127.725 Y66.501 E0.4558
G1 X127.528 Y66.977 E0.4686
G1 X127.458 Y67.122 E0.4726
G1 X127.210 Y67.573 E0.4854
G1 X127.177 Y67.714 E0.4890
G1 X126.972 Y68.003 E0.4979
G1 X126.862 Y68.202 E0.5035
G1 X126.790 Y68.260 E0.5058
G1 X126.389 Y68.824 E0.5231
G1 X126.288 Y68.951 E0.5271
G1 X125.827 Y69.467 E0.5443
G1 X125.787 Y69.550 E0.5466
G1 X125.618 Y69.701 E0.5522
G1 X125.381 Y69.966 E0.5611
G1 X125.251 Y70.029 E0.5647
G1 X124.867 Y70.372 E0.5775
G1 X124.741 Y70.472 E0.5815
G1 X124.321 Y70.770 E0.5943
G1 X124.231 Y70.883 E0.5979
G1 X123.920 Y71.055 E0.6067
G1 X123.735 Y71.186 E0.6124
G1 X123.645 Y71.207 E0.6147
G1 X123.039 Y71.542 E0.6319
G1 X122.894 Y71.612 E0.6359
G1 X122.254 Y71.877 E0.6531
G1 X122.182 Y71.934 E0.6554
G1 X121.964 Y71.997 E0.6611
G1 X121.635 Y72.133 E0.6699
G1 X121.491 Y72.133 E0.6735
G1 X120.996 Y72.276 E0.6863
G1 X120.839 Y72.312 E0.6904
G1 X120.332 Y72.398 E0.7032
G1 X120.201 Y72.460 E0.7068
G1 X119.847 Y72.480 E0.7156
G1 X119.623 Y72.518 E0.7212
G1 X119.532 Y72.498 E0.7235
G1 X118.841 Y72.537 E0.7408
G1 X118.680 Y72.537 E0.7448
G1 X117.989 Y72.498 E0.7620
G1 X117.899 Y72.518 E0.7643
G1 X117.675 Y72.480 E0.7700
G1 X117.320 Y72.460 E0.7788
G1 X117.190 Y72.398 E0.7824
G1 X116.683 Y72.312 E0.7952
G1 X116.525 Y72.276 E0.7992
G1 X116.031 Y72.133 E0.8120
G1 X115.886 Y72.133 E0.8156
G1 X115.558 Y71.997 E0.8245
G1 X115.340 Y71.934 E0.8301
G1 X115.267 Y71.877 E0.8324
G1 X114.628 Y71.612 E0.8496
G1 X114.483 Y71.542 E0.8536
G1 X113.877 Y71.207 E0.8709
G1 X113.787 Y71.186 E0.8732
G1 X113.602 Y71.055 E0.8788
G1 X113.291 Y70.883 E0.8877
G1 X113.200 Y70.770 E0.8912
G1 X112.781 Y70.472 E0.9041
G1 X112.655 Y70.372 E0.9081
G1 X112.271 Y70.029 E0.9209
G1 X112.141 Y69.966 E0.9245
G1 X111.904 Y69.701 E0.9333
G1 X111.735 Y69.550 E0.9390
G1 X111.694 Y69.467 E0.9413
G1 X111.233 Y68.951 E0.9585
G1 X111.133 Y68.824 E0.9625
G1 X110.732 Y68.260 E0.9797
G1 X110.660 Y68.202 E0.9820
G1 X110.550 Y68.003 E0.9877
G1 X110.345 Y67.714 E0.9965
G1 X110.312 Y67.573 E1.0001
G1 X110.063 Y67.122 E1.0129
G1 X109.993 Y66.977 E1.0169
G1 X109.796 Y66.501 E1.0297
G1 X109.706 Y66.388 E1.0333
G1 X109.608 Y66.047 E1.0422
G1 X109.521 Y65.837 E1.0478
G1 X109.521 Y65.745 E1.0501
G1 X109.329 Y65.080 E1.0673
G1 X109.293 Y64.922 E1.0714
G1 X109.177 Y64.240 E1.0886
G1 X109.137 Y64.157 E1.0909
G1 X109.125 Y63.930 E1.0965
G1 X109.065 Y63.580 E1.1054
G1 X109.097 Y63.439 E1.1090
G1 X109.068 Y62.925 E1.1218
G1 X109.068 Y62.764 E1.1258
G1 X109.097 Y62.250 E1.1386
G1 X109.065 Y62.109 E1.1422
G1 X109.125 Y61.759 E1.1510
G1 X109.137 Y61.532 E1.1567
G1 X109.177 Y61.448 E1.1590
G1 X109.293 Y60.766 E1.1762
G1 X109.329 Y60.609 E1.1802
G1 X109.521 Y59.944 E1.1974
G1 X109.521 Y59.851 E1.1997
G1 X109.608 Y59.642 E1.2054
G1 X109.706 Y59.300 E1.2142
G1 X109.796 Y59.187 E1.2178
G1 X109.993 Y58.712 E1.2306
G1 X110.063 Y58.566 E1.2346
G1 X110.312 Y58.116 E1.2474
G1 X110.344 Y57.975 E1.2510
G1 X110.550 Y57.685 E1.2599
G1 X110.660 Y57.486 E1.2655
G1 X110.732 Y57.429 E1.2678
G1 X111.133 Y56.864 E1.2851
G1 X111.233 Y56.738 E1.2891
G1 X111.694 Y56.222 E1.3063
G1 X111.735 Y56.139 E1.3086
G1 X111.904 Y55.987 E1.3142
G1 X112.141 Y55.723 E1.3231
G1 X112.271 Y55.660 E1.3267
G1 X112.655 Y55.317 E1.3395
G1 X112.781 Y55.216 E1.3435
G1 X113.200 Y54.918 E1.3563
G1 X113.291 Y54.805 E1.3599
G1 X113.602 Y54.634 E1.3687
G1 X113.787 Y54.502 E1.3744
G1 X113.877 Y54.481 E1.3767
G1 X114.483 Y54.147 E1.3939
G1 X114.628 Y54.077 E1.3979
G1 X115.268 Y53.812 E1.4152
G1 X115.340 Y53.754 E1.4175
G1 X115.558 Y53.691 E1.4231
G1 X115.886 Y53.555 E1.4319
G1 X116.031 Y53.555 E1.4355
G1 X116.525 Y53.413 E1.4483
G1 X116.683 Y53.377 E1.4524
G1 X117.190 Y53.291 E1.4652
G1 X117.320 Y53.228 E1.4688
G1 X117.675 Y53.208 E1.4776
G1 X117.899 Y53.170 E1.4833
G1 X117.989 Y53.191 E1.4856
G1 X118.680 Y53.152 E1.5028
G1 X118.841 Y53.152 E1.5068
G1 X119.533 Y53.191 E1.5240
G92 E0.0000
G1 E-3.8000 F3000
G1 Z0.480 F1002
G1 X119.390 Y56.237 F6000
G1 X118.761 Y56.202
G1 X118.740 Y56.203
G1 X115.477 Y68.607
G1 X115.879 Y68.829
G1 X114.771 Y71.292
G1 Z0.180 F1002
G1 E0.0000 F3000
G92 E0.0000
G1 X114.643 Y71.231 E0.0035 F900
G1 X114.003 Y70.877 E0.0217
G1 X113.933 Y70.861 E0.0235
G1 X113.788 Y70.758 E0.0279
G1 X113.521 Y70.610 E0.0355
G1 X113.443 Y70.513 E0.0386
G1 X112.991 Y70.193 E0.0524
G1 X112.880 Y70.104 E0.0559
G1 X112.467 Y69.735 E0.0697
G1 X112.356 Y69.681 E0.0728
G1 X112.152 Y69.453 E0.0804
G1 X112.020 Y69.335 E0.0848
G1 X111.988 Y69.270 E0.0866
G1 X111.501 Y68.725 E0.1048
G1 X111.412 Y68.614 E0.1084
G1 X110.989 Y68.017 E0.1266
G1 X110.933 Y67.972 E0.1284
G1 X110.847 Y67.817 E0.1328
G1 X110.670 Y67.568 E0.1404
G1 X110.642 Y67.446 E0.1435
G1 X110.374 Y66.962 E0.1573
G1 X110.313 Y66.834 E0.1608
G1 X110.101 Y66.322 E0.1746
G1 X110.023 Y66.225 E0.1777
G1 X109.939 Y65.931 E0.1853
