; G-Code generated by Simplify3D(R) Version 4.1.2
; Oct 31, 2019 at 8:23:08 PM
; Settings Summary
;   processName,Process1
;   applyToModels,HH_1to2_ARM_06cm_Nut
;   profileName,401s Tevo Tornado (experimental)
;   profileVersion,2019-10-29 11:02:25
;   baseProfile,Creality CR-10(2)
;   printMaterial,PLA
;   printQuality,Medium
;   printExtruders,
;   extruderName,Primary Extruder
;   extruderToolheadNumber,0
;   extruderDiameter,0.4
;   extruderAutoWidth,0
;   extruderWidth,0.35
;   extrusionMultiplier,0.95
;   extruderUseRetract,1
;   extruderRetractionDistance,3.8
;   extruderExtraRestartDistance,0
;   extruderRetractionZLift,0.3
;   extruderRetractionSpeed,3000
;   extruderUseCoasting,0
;   extruderCoastingDistance,0.2
;   extruderUseWipe,0
;   extruderWipeDistance,4
;   primaryExtruder,0
;   layerHeight,0.15
;   topSolidLayers,4
;   bottomSolidLayers,3
;   perimeterOutlines,3
;   printPerimetersInsideOut,0
;   startPointOption,1
;   startPointOriginX,0
;   startPointOriginY,300
;   sequentialIslands,0
;   spiralVaseMode,0
;   firstLayerHeightPercentage,120
;   firstLayerWidthPercentage,100
;   firstLayerUnderspeed,0.5
;   useRaft,0
;   raftExtruder,0
;   raftTopLayers,3
;   raftBaseLayers,2
;   raftOffset,3
;   raftSeparationDistance,0.14
;   raftTopInfill,100
;   aboveRaftSpeedMultiplier,0.3
;   useSkirt,1
;   skirtExtruder,0
;   skirtLayers,1
;   skirtOutlines,3
;   skirtOffset,2
;   usePrimePillar,0
;   primePillarExtruder,999
;   primePillarWidth,12
;   primePillarLocation,7
;   primePillarSpeedMultiplier,1
;   useOozeShield,0
;   oozeShieldExtruder,999
;   oozeShieldOffset,2
;   oozeShieldOutlines,1
;   oozeShieldSidewallShape,1
;   oozeShieldSidewallAngle,30
;   oozeShieldSpeedMultiplier,1
;   infillExtruder,0
;   internalInfillPattern,Grid
;   externalInfillPattern,Concentric
;   infillPercentage,25
;   outlineOverlapPercentage,15
;   infillExtrusionWidthPercentage,100
;   minInfillLength,5
;   infillLayerInterval,1
;   internalInfillAngles,45,-45
;   overlapInternalInfillAngles,1
;   externalInfillAngles,45,-45
;   generateSupport,1
;   supportExtruder,0
;   supportInfillPercentage,30
;   supportExtraInflation,0
;   supportBaseLayers,0
;   denseSupportExtruder,0
;   denseSupportLayers,0
;   denseSupportInfillPercentage,70
;   supportLayerInterval,1
;   supportHorizontalPartOffset,0.4
;   supportUpperSeparationLayers,1
;   supportLowerSeparationLayers,1
;   supportType,0
;   supportGridSpacing,4.5
;   maxOverhangAngle,45
;   supportAngles,0
;   temperatureName,Primary Extruder,Heated Bed
;   temperatureNumber,0,0
;   temperatureSetpointCount,2,1
;   temperatureSetpointLayers,1,2,1
;   temperatureSetpointTemperatures,215,210,60
;   temperatureStabilizeAtStartup,1,1
;   temperatureHeatedBed,0,1
;   fanLayers,1,2
;   fanSpeeds,0,100
;   blipFanToFullPower,0
;   adjustSpeedForCooling,1
;   minSpeedLayerTime,15
;   minCoolingSpeedSlowdown,50
;   increaseFanForCooling,1
;   minFanLayerTime,25
;   maxCoolingFanSpeed,100
;   increaseFanForBridging,1
;   bridgingFanSpeed,100
;   use5D,1
;   relativeEdistances,0
;   allowEaxisZeroing,1
;   independentExtruderAxes,0
;   includeM10123,0
;   stickySupport,1
;   applyToolheadOffsets,0
;   gcodeXoffset,0
;   gcodeYoffset,0
;   gcodeZoffset,0
;   overrideMachineDefinition,1
;   machineTypeOverride,0
;   strokeXoverride,300
;   strokeYoverride,300
;   strokeZoverride,400
;   originOffsetXoverride,0
;   originOffsetYoverride,0
;   originOffsetZoverride,0
;   homeXdirOverride,-1
;   homeYdirOverride,-1
;   homeZdirOverride,-1
;   flipXoverride,1
;   flipYoverride,-1
;   flipZoverride,1
;   toolheadOffsets,0,0|0,0|0,0|0,0|0,0|0,0
;   overrideFirmwareConfiguration,1
;   firmwareTypeOverride,RepRap (Marlin/Repetier/Sprinter)
;   GPXconfigOverride,r2
;   baudRateOverride,250000
;   overridePrinterModels,1
;   printerModelsOverride
;   startingGcode,;Init 181010,;G28 			; Home all axes,;G1 Z5 F3000 		; Lift,;G92 E0			; Reset extrusion distance,,; // From Cura 181010,; // Update 190823 (GueroLoco),; // Update 191005 Autoleveling,; // Update 192029 Modify Cleaning,; // Start_gcode,M117 *Start Clean*		; Indicate nozzle clean in progress on LCD,;,M104 S[extruder0_temperature] ,M109 S[extruder0_temperature] ,M109 R[extruder0_temperature] ,;,M107			; Turn layer fan off,G21			; Set to metric [change to G20 if you want Imperial],G90			; Force coordinates to be absolute relative to the origin,G28			; Home X/Y/Z axis,G29			; Auto-leveling,;,;G1 X3 Y1 Z15 F9000		; Move safe Z height to shear strings,;G0 X1 Y1 Z0.2 F9000		; Move in 1mm from edge and up [z] 0.2mm,;G92 E0			; Set extruder to [0] zero,;G1 X100 E12 F500		; Extrude 30mm filiment along X axis 100mm long to prime and clean the nozzle,;G92 E0			; Reset extruder to [0] zero end of cleaning run,;G1 E-1 F500			; Retract filiment by 1 mm to reduce string effect,;G1 X180 F4000		; Quick wipe away from the filament line / purge,;,G92 E0			; Set Extruder to 0 ,G1 X0 Y0 F2000		; Move X and Y to 0 with speed 2000 (mm/min),G1 Z0.1 F1000		; Move Z to 0.1,G1 X8.0 F2000		; Move X to 8.0,G1 Y60.0 E4.0 F1000.0		; Prime - Move Y to 60 and Extruder with 4.0,G1 Y100.0 E8.5 F1000.0		; Prime - Move Y to 100 and Extruder with 8.5,G92 E0			; Set extruder to 0,M117 *End Clean*		; Indicate nozzle clean in progress on LCD,G1 X16.0 F3000		; Move X to 16.0,G1 Z5 F3000			; Move Z to 5 - Lift,; ,M117 *Printing...*		; start msg,; // Begin printing with sliced GCode after here,;
;   layerChangeGcode,
;   retractionGcode,
;   toolChangeGcode,
;   endingGcode,;,; init 181010,;,;M107 			; Fan off,;G1 E-1 F300 			; Retract the filament a bit before lifting the nozzle,;M104 S0 			; Turn off extruder,;M140 S0 			; Turn off bed,;G91			; Relative positioning,;G28 X0 Y0 			; Move X/Y to min endstops so the head is out of teh way,;M84 			; Disable motors,;G90 			; Absolute positioning,;M117 Print ready...,,;,; // From Cura 181010,; // End_gcode,G92 E0			; Zero the extruded length,;G1 E-30 F300		; Retract E -30,M106 S0			; Turn off cooling fan,M104 S0			; Turn off temperature,M140 S0		     	; Turn off bed,G91			; Relative positioning,G1 E-1 F300			; Retract the filament a bit before lifting the nozzle to release some of the pressure,G1 Z+20 E-5 X-20 Y-20 F7200	; Move Z up a bit and retract filament even more,G1 X0 Y150 F10000		; Move right min,M107			; Turn off layer fan,M84			; Disable motors,G90			; Absolute positioning,M117 *The-End* 		; End msg,;,
;   exportFileFormat,gcode
;   celebration,0
;   celebrationSong,Star Wars
;   postProcessing,
;   defaultSpeed,1800
;   outlineUnderspeed,0.5
;   solidInfillUnderspeed,0.8
;   supportUnderspeed,0.8
;   rapidXYspeed,6000
;   rapidZspeed,1002
;   minBridgingArea,50
;   bridgingExtraInflation,0.2
;   bridgingExtrusionMultiplier,1
;   bridgingSpeedMultiplier,0.6
;   useFixedBridgingAngle,0
;   fixedBridgingAngle,0
;   applyBridgingToPerimeters,0
;   filamentDiameters,1.75|1.75|1.75|1.75|1.75|1.75
;   filamentPricesPerKg,30|46|46|46|46|46
;   filamentDensities,1.25|1.25|1.25|1.25|1.25|1.25
;   useMinPrintHeight,0
;   minPrintHeight,0
;   useMaxPrintHeight,0
;   maxPrintHeight,9
;   useDiaphragm,0
;   diaphragmLayerInterval,20
;   robustSlicing,1
;   mergeAllIntoSolid,0
;   onlyRetractWhenCrossingOutline,1
;   retractBetweenLayers,1
;   useRetractionMinTravel,1
;   retractionMinTravel,3
;   retractWhileWiping,1
;   onlyWipeOutlines,1
;   avoidCrossingOutline,1
;   maxMovementDetourFactor,3
;   toolChangeRetractionDistance,12
;   toolChangeExtraRestartDistance,-0.5
;   toolChangeRetractionSpeed,600
;   externalThinWallType,1
;   internalThinWallType,1
;   thinWallAllowedOverlapPercentage,15
;   singleExtrusionMinLength,1
;   singleExtrusionMinPrintingWidthPercentage,50
;   singleExtrusionMaxPrintingWidthPercentage,200
;   singleExtrusionEndpointExtension,0.2
;   horizontalSizeCompensation,0
G90
M82
M106 S0
M140 S60
M190 S60
;Init 181010
;G28 			; Home all axes
;G1 Z5 F3000 		; Lift
;G92 E0			; Reset extrusion distance
; // From Cura 181010
; // Update 190823 (GueroLoco)
; // Update 191005 Autoleveling
; // Update 192029 Modify Cleaning
; // Start_gcode
M117 *Start Clean*		; Indicate nozzle clean in progress on LCD
;
M104 S215 
M109 S215 
M109 R215 
;
M107			; Turn layer fan off
G21			; Set to metric [change to G20 if you want Imperial]
G90			; Force coordinates to be absolute relative to the origin
G28			; Home X/Y/Z axis
G29			; Auto-leveling
;
;G1 X3 Y1 Z15 F9000		; Move safe Z height to shear strings
;G0 X1 Y1 Z0.2 F9000		; Move in 1mm from edge and up [z] 0.2mm
;G92 E0			; Set extruder to [0] zero
;G1 X100 E12 F500		; Extrude 30mm filiment along X axis 100mm long to prime and clean the nozzle
;G92 E0			; Reset extruder to [0] zero end of cleaning run
;G1 E-1 F500			; Retract filiment by 1 mm to reduce string effect
;G1 X180 F4000		; Quick wipe away from the filament line / purge
;
G92 E0			; Set Extruder to 0 
G1 X0 Y0 F2000		; Move X and Y to 0 with speed 2000 (mm/min)
G1 Z0.1 F1000		; Move Z to 0.1
G1 X8.0 F2000		; Move X to 8.0
G1 Y60.0 E4.0 F1000.0		; Prime - Move Y to 60 and Extruder with 4.0
G1 Y100.0 E8.5 F1000.0		; Prime - Move Y to 100 and Extruder with 8.5
G92 E0			; Set extruder to 0
M117 *End Clean*		; Indicate nozzle clean in progress on LCD
G1 X16.0 F3000		; Move X to 16.0
G1 Z5 F3000			; Move Z to 5 - Lift
; 
M117 *Printing...*		; start msg
; // Begin printing with sliced GCode after here
;
; process Process1
; layer 1, Z = 0.180
T0
G92 E0.0000
G1 E-3.8000 F3000
; feature skirt
; tool H0.180 W0.350
G1 Z0.300 F1002
G1 X186.466 Y72.315 F6000
G1 Z0.180 F1002
G1 E0.0000 F3000
G92 E0.0000
G1 X186.469 Y72.455 E0.0035 F900
G1 X192.025 Y72.455 E0.1417
G1 X193.709 Y74.139 E0.2010
G1 X193.709 Y81.461 E0.3832
G1 X192.025 Y83.145 E0.4425
G1 X184.703 Y83.145 E0.6246
G1 X183.883 Y82.325 E0.6535
G1 X178.234 Y82.325 E0.7941
G1 X178.234 Y86.775 E0.9048
G1 X183.883 Y86.775 E1.0453
G1 X184.703 Y85.955 E1.0742
G1 X192.025 Y85.955 E1.2564
G1 X193.709 Y87.639 E1.3156
G1 X193.709 Y94.961 E1.4978
G1 X192.025 Y96.645 E1.5571
G1 X186.500 Y96.645 E1.6946
G1 X186.500 Y96.740 E1.6969
G1 X184.816 Y98.425 E1.7562
G1 X179.901 Y98.425 E1.8785
G1 X178.903 Y97.425 E1.9137
G1 X167.360 Y97.425 E2.2009
G1 X165.676 Y95.741 E2.2601
G1 X165.675 Y92.515 E2.3404
G1 X131.877 Y92.515 E3.1814
G1 X131.660 Y92.425 E3.1872
G1 X119.904 Y92.425 E3.4798
G1 X119.624 Y92.145 E3.4896
G1 X112.703 Y92.145 E3.6618
G1 X111.019 Y90.461 E3.7211
G1 X111.019 Y78.639 E4.0152
G1 X112.703 Y76.955 E4.0745
G1 X119.624 Y76.955 E4.2467
G1 X119.904 Y76.675 E4.2566
G1 X131.660 Y76.675 E4.5491
G1 X131.877 Y76.585 E4.5550
G1 X165.675 Y76.585 E5.3959
G1 X165.676 Y73.358 E5.4762
G1 X167.360 Y71.675 E5.5355
G1 X178.881 Y71.675 E5.8221
G1 X180.018 Y70.675 E5.8598
G1 X184.789 Y70.675 E5.9785
G1 X186.466 Y72.315 E6.0369
G92 E0.0000
G1 E-3.8000 F3000
G1 Z0.480 F1002
G1 X183.446 Y73.725 F6000
G1 X183.478 Y75.216
G1 X179.298 Y79.275
G1 X175.184 Y79.275
G1 X175.184 Y83.270
G1 X168.724 Y89.544
G1 X168.725 Y94.375
G1 X166.024 Y92.165
G1 Z0.180 F1002
G1 E0.0000 F3000
G92 E0.0000
G1 X131.947 Y92.165 E0.8479 F900
G1 X131.729 Y92.075 E0.8538
G1 X120.049 Y92.075 E1.1444
G1 X119.769 Y91.795 E1.1543
G1 X112.848 Y91.795 E1.3265
G1 X111.369 Y90.316 E1.3786
G1 X111.369 Y78.784 E1.6655
G1 X112.848 Y77.305 E1.7175
G1 X119.769 Y77.305 E1.8898
G1 X120.049 Y77.025 E1.8996
G1 X131.729 Y77.025 E2.1903
G1 X131.947 Y76.935 E2.1961
G1 X166.024 Y76.935 E3.0441
G1 X166.026 Y73.503 E3.1294
G1 X167.505 Y72.025 E3.1815
G1 X179.013 Y72.025 E3.4678
G1 X180.150 Y71.025 E3.5055
G1 X184.647 Y71.025 E3.6174
G1 X186.119 Y72.465 E3.6687
G1 X186.126 Y72.805 E3.6771
G1 X191.880 Y72.805 E3.8203
G1 X193.359 Y74.284 E3.8723
G1 X193.359 Y81.316 E4.0473
G1 X191.880 Y82.795 E4.0993
G1 X184.848 Y82.795 E4.2743
G1 X184.028 Y81.975 E4.3032
G1 X177.884 Y81.975 E4.4560
G1 X177.884 Y87.125 E4.5842
G1 X184.028 Y87.125 E4.7371
G1 X184.848 Y86.305 E4.7659
G1 X191.880 Y86.305 E4.9409
G1 X193.359 Y87.784 E4.9929
G1 X193.359 Y94.816 E5.1679
G1 X191.880 Y96.295 E5.2200
G1 X186.150 Y96.295 E5.3625
G1 X186.150 Y96.595 E5.3700
G1 X184.671 Y98.075 E5.4221
G1 X180.046 Y98.075 E5.5371
G1 X179.048 Y97.075 E5.5723
G1 X167.505 Y97.075 E5.8595
G1 X166.026 Y95.596 E5.9116
G1 X166.024 Y92.165 E5.9970
G92 E0.0000
G1 E-3.8000 F3000
G1 Z0.480 F1002
G1 X168.725 Y94.375 F6000
G1 X168.724 Y89.693
G1 X177.534 Y81.625
G1 Z0.180 F1002
G1 E0.0000 F3000
G92 E0.0000
G1 X177.534 Y87.475 E0.1456 F900
G1 X184.173 Y87.475 E0.3108
G1 X184.993 Y86.655 E0.3396
G1 X191.735 Y86.655 E0.5074
G1 X193.009 Y87.929 E0.5522
G1 X193.009 Y94.671 E0.7200
G1 X191.735 Y95.945 E0.7648
G1 X185.800 Y95.945 E0.9125
G1 X185.800 Y96.450 E0.9250
G1 X184.526 Y97.725 E0.9699
G1 X180.191 Y97.725 E1.0777
G1 X179.193 Y96.725 E1.1129
G1 X167.649 Y96.725 E1.4001
G1 X166.375 Y95.451 E1.4450
G1 X166.374 Y91.815 E1.5354
G1 X132.016 Y91.815 E2.3904
G1 X131.799 Y91.725 E2.3962
G1 X120.194 Y91.725 E2.6850
G1 X119.824 Y91.355 E2.6980
G1 X119.735 Y91.445 E2.7011
G1 X112.993 Y91.445 E2.8689
G1 X111.719 Y90.171 E2.9137
G1 X111.719 Y78.929 E3.1935
G1 X112.993 Y77.655 E3.2383
G1 X119.735 Y77.655 E3.4060
G1 X119.824 Y77.744 E3.4092
G1 X120.194 Y77.375 E3.4222
G1 X131.799 Y77.375 E3.7110
G1 X132.016 Y77.285 E3.7168
G1 X166.374 Y77.285 E4.5717
G1 X166.375 Y73.648 E4.6622
G1 X167.649 Y72.375 E4.7071
G1 X179.145 Y72.375 E4.9931
G1 X180.282 Y71.375 E5.0308
G1 X184.504 Y71.375 E5.1358
G1 X185.772 Y72.615 E5.1800
G1 X185.784 Y73.155 E5.1934
G1 X191.735 Y73.155 E5.3415
G1 X193.009 Y74.429 E5.3863
G1 X193.009 Y81.171 E5.5541
G1 X191.735 Y82.445 E5.5989
G1 X184.993 Y82.445 E5.7666
G1 X184.173 Y81.625 E5.7955
G1 X177.534 Y81.625 E5.9607
G92 E0.0000
G1 E-3.8000 F3000
; feature outer perimeter
G1 Z0.480 F1002
G1 X168.725 Y74.725 F6000
G1 Z0.180 F1002
G1 E0.0000 F3000
G92 E0.0000
G1 X181.285 Y74.725 E0.3125 F450
G1 X181.223 Y73.988 E0.3309
G1 X181.257 Y73.725 E0.3375
G1 X183.446 Y73.725 E0.3920
G1 X183.497 Y76.057 E0.4500
G1 X183.451 Y79.275 E0.5301
G1 X175.184 Y79.275 E0.7358
G1 X175.184 Y89.825 E0.9983
G1 X183.448 Y89.825 E1.2040
G1 X183.450 Y95.375 E1.3421
G1 X181.268 Y95.375 E1.3963
G1 X181.270 Y94.375 E1.4212
G1 X168.725 Y94.375 E1.7334
G1 X168.723 Y89.465 E1.8555
G1 X132.521 Y89.465 E2.7564
G1 X132.431 Y89.375 E2.7595
G1 X121.270 Y89.375 E3.0373
G1 X121.270 Y79.725 E3.2774
G1 X132.431 Y79.725 E3.5551
G1 X132.521 Y79.635 E3.5583
G1 X168.723 Y79.635 E4.4591
G1 X168.725 Y74.725 E4.5813
; feature inner perimeter
G1 X169.075 Y75.075 F6000
G92 E0.0000
G1 X181.666 Y75.075 E0.3133 F675
G1 X181.581 Y74.075 E0.3383
G1 X183.103 Y74.075 E0.3761
G1 X183.147 Y76.059 E0.4255
G1 X183.106 Y78.925 E0.4968
G1 X174.834 Y78.925 E0.7027
G1 X174.834 Y90.175 E0.9826
G1 X183.098 Y90.175 E1.1882
G1 X183.100 Y95.025 E1.3089
G1 X181.619 Y95.025 E1.3458
G1 X181.620 Y94.025 E1.3706
G1 X169.075 Y94.025 E1.6828
G1 X169.073 Y89.115 E1.8050
G1 X132.666 Y89.115 E2.7109
G1 X132.576 Y89.025 E2.7140
G1 X121.620 Y89.025 E2.9867
G1 X121.620 Y80.075 E3.2094
G1 X132.576 Y80.075 E3.4820
G1 X132.666 Y79.985 E3.4852
G1 X169.073 Y79.985 E4.3911
G1 X169.075 Y75.075 E4.5133
G1 X169.425 Y75.425 F6000
G92 E0.0000
G1 X182.047 Y75.425 E0.3141 F675
G1 X181.962 Y74.425 E0.3390
G1 X182.761 Y74.425 E0.3589
G1 X182.797 Y76.060 E0.3996
G1 X182.761 Y78.575 E0.4622
G1 X174.484 Y78.575 E0.6681
G1 X174.484 Y90.525 E0.9655
G1 X182.748 Y90.525 E1.1711
G1 X182.749 Y94.675 E1.2744
G1 X181.969 Y94.675 E1.2938
G1 X181.971 Y93.675 E1.3187
G1 X169.425 Y93.675 E1.6309
G1 X169.423 Y88.765 E1.7530
G1 X132.811 Y88.765 E2.6640
G1 X132.721 Y88.675 E2.6672
G1 X121.970 Y88.675 E2.9347
G1 X121.970 Y80.425 E3.1400
G1 X132.721 Y80.425 E3.4076
G1 X132.811 Y80.335 E3.4107
G1 X169.423 Y80.335 E4.3217
G1 X169.425 Y75.425 E4.4439
; feature solid layer
G1 X169.722 Y75.722 F6000
G92 E0.0000
G1 X182.370 Y75.722 E0.3147 F720
G1 X182.286 Y74.722 E0.3397
G1 X182.470 Y74.722 E0.3443
G1 X182.499 Y76.061 E0.3776
G1 X182.467 Y78.277 E0.4327
G1 X174.186 Y78.277 E0.6388
G1 X174.186 Y90.822 E0.9509
G1 X182.451 Y90.822 E1.1566
G1 X182.452 Y94.377 E1.2450
G1 X182.267 Y94.377 E1.2496
