; G-Code generated by Simplify3D(R) Version 4.1.2
; Oct 31, 2019 at 9:52:07 AM
; Settings Summary
;   processName,Process1
;   applyToModels,HH_1to2_ARM_06cm_Nut,HH_1to2_ARM_06cm_Nut(2)
;   profileName,401s Tevo Tornado (experimental)
;   profileVersion,2019-10-29 11:02:25
;   baseProfile,Creality CR-10(2)
;   printMaterial,PLA
;   printQuality,Medium
;   printExtruders,
;   extruderName,Primary Extruder
;   extruderToolheadNumber,0
;   extruderDiameter,0.4
;   extruderAutoWidth,0
;   extruderWidth,0.35
;   extrusionMultiplier,0.95
;   extruderUseRetract,1
;   extruderRetractionDistance,3.8
;   extruderExtraRestartDistance,0
;   extruderRetractionZLift,0.3
;   extruderRetractionSpeed,3000
;   extruderUseCoasting,0
;   extruderCoastingDistance,0.2
;   extruderUseWipe,0
;   extruderWipeDistance,4
;   primaryExtruder,0
;   layerHeight,0.15
;   topSolidLayers,4
;   bottomSolidLayers,3
;   perimeterOutlines,3
;   printPerimetersInsideOut,0
;   startPointOption,1
;   startPointOriginX,0
;   startPointOriginY,300
;   sequentialIslands,0
;   spiralVaseMode,0
;   firstLayerHeightPercentage,120
;   firstLayerWidthPercentage,100
;   firstLayerUnderspeed,0.5
;   useRaft,0
;   raftExtruder,0
;   raftTopLayers,3
;   raftBaseLayers,2
;   raftOffset,3
;   raftSeparationDistance,0.14
;   raftTopInfill,100
;   aboveRaftSpeedMultiplier,0.3
;   useSkirt,1
;   skirtExtruder,0
;   skirtLayers,1
;   skirtOutlines,3
;   skirtOffset,2
;   usePrimePillar,0
;   primePillarExtruder,999
;   primePillarWidth,12
;   primePillarLocation,7
;   primePillarSpeedMultiplier,1
;   useOozeShield,0
;   oozeShieldExtruder,999
;   oozeShieldOffset,2
;   oozeShieldOutlines,1
;   oozeShieldSidewallShape,1
;   oozeShieldSidewallAngle,30
;   oozeShieldSpeedMultiplier,1
;   infillExtruder,0
;   internalInfillPattern,Grid
;   externalInfillPattern,Concentric
;   infillPercentage,25
;   outlineOverlapPercentage,15
;   infillExtrusionWidthPercentage,100
;   minInfillLength,5
;   infillLayerInterval,1
;   internalInfillAngles,45,-45
;   overlapInternalInfillAngles,1
;   externalInfillAngles,45,-45
;   generateSupport,1
;   supportExtruder,0
;   supportInfillPercentage,30
;   supportExtraInflation,0
;   supportBaseLayers,0
;   denseSupportExtruder,0
;   denseSupportLayers,0
;   denseSupportInfillPercentage,70
;   supportLayerInterval,1
;   supportHorizontalPartOffset,0.4
;   supportUpperSeparationLayers,1
;   supportLowerSeparationLayers,1
;   supportType,0
;   supportGridSpacing,4.5
;   maxOverhangAngle,45
;   supportAngles,0
;   temperatureName,Primary Extruder,Heated Bed
;   temperatureNumber,0,0
;   temperatureSetpointCount,2,1
;   temperatureSetpointLayers,1,2,1
;   temperatureSetpointTemperatures,215,210,60
;   temperatureStabilizeAtStartup,1,1
;   temperatureHeatedBed,0,1
;   fanLayers,1,2
;   fanSpeeds,0,100
;   blipFanToFullPower,0
;   adjustSpeedForCooling,1
;   minSpeedLayerTime,15
;   minCoolingSpeedSlowdown,50
;   increaseFanForCooling,1
;   minFanLayerTime,25
;   maxCoolingFanSpeed,100
;   increaseFanForBridging,1
;   bridgingFanSpeed,100
;   use5D,1
;   relativeEdistances,0
;   allowEaxisZeroing,1
;   independentExtruderAxes,0
;   includeM10123,0
;   stickySupport,1
;   applyToolheadOffsets,0
;   gcodeXoffset,0
;   gcodeYoffset,0
;   gcodeZoffset,0
;   overrideMachineDefinition,1
;   machineTypeOverride,0
;   strokeXoverride,300
;   strokeYoverride,300
;   strokeZoverride,400
;   originOffsetXoverride,0
;   originOffsetYoverride,0
;   originOffsetZoverride,0
;   homeXdirOverride,-1
;   homeYdirOverride,-1
;   homeZdirOverride,-1
;   flipXoverride,1
;   flipYoverride,-1
;   flipZoverride,1
;   toolheadOffsets,0,0|0,0|0,0|0,0|0,0|0,0
;   overrideFirmwareConfiguration,1
;   firmwareTypeOverride,RepRap (Marlin/Repetier/Sprinter)
;   GPXconfigOverride,r2
;   baudRateOverride,250000
;   overridePrinterModels,1
;   printerModelsOverride
;   startingGcode,;Init 181010,;G28 			; Home all axes,;G1 Z5 F3000 		; Lift,;G92 E0			; Reset extrusion distance,,; // From Cura 181010,; // Update 190823 (GueroLoco),; // Update 191005 Autoleveling,; // Update 192029 Modify Cleaning,; // Start_gcode,M117 *Start Clean*		; Indicate nozzle clean in progress on LCD,;,M104 S[extruder0_temperature] ,M109 S[extruder0_temperature] ,M109 R[extruder0_temperature] ,;,M107			; Turn layer fan off,G21			; Set to metric [change to G20 if you want Imperial],G90			; Force coordinates to be absolute relative to the origin,G28			; Home X/Y/Z axis,G29			; Auto-leveling,;,;G1 X3 Y1 Z15 F9000		; Move safe Z height to shear strings,;G0 X1 Y1 Z0.2 F9000		; Move in 1mm from edge and up [z] 0.2mm,;G92 E0			; Set extruder to [0] zero,;G1 X100 E12 F500		; Extrude 30mm filiment along X axis 100mm long to prime and clean the nozzle,;G92 E0			; Reset extruder to [0] zero end of cleaning run,;G1 E-1 F500			; Retract filiment by 1 mm to reduce string effect,;G1 X180 F4000		; Quick wipe away from the filament line / purge,;,G92 E0			; Set Extruder to 0 ,G1 X0 Y0 F2000		; Move X and Y to 0 with speed 2000 (mm/min),G1 Z0.1 F1000		; Move Z to 0.1,G1 X8.0 F2000		; Move X to 8.0,G1 Y60.0 E4.0 F1000.0		; Prime - Move Y to 60 and Extruder with 4.0,G1 Y100.0 E8.5 F1000.0		; Prime - Move Y to 100 and Extruder with 8.5,G92 E0			; Set extruder to 0,M117 *End Clean*		; Indicate nozzle clean in progress on LCD,G1 X16.0 F3000		; Move X to 16.0,G1 Z5 F3000			; Move Z to 5 - Lift,; ,M117 *Printing...*		; start msg,; // Begin printing with sliced GCode after here,;
;   layerChangeGcode,
;   retractionGcode,
;   toolChangeGcode,
;   endingGcode,;,; init 181010,;,;M107 			; Fan off,;G1 E-1 F300 			; Retract the filament a bit before lifting the nozzle,;M104 S0 			; Turn off extruder,;M140 S0 			; Turn off bed,;G91			; Relative positioning,;G28 X0 Y0 			; Move X/Y to min endstops so the head is out of teh way,;M84 			; Disable motors,;G90 			; Absolute positioning,;M117 Print ready...,,;,; // From Cura 181010,; // End_gcode,G92 E0			; Zero the extruded length,;G1 E-30 F300		; Retract E -30,M106 S0			; Turn off cooling fan,M104 S0			; Turn off temperature,M140 S0		     	; Turn off bed,G91			; Relative positioning,G1 E-1 F300			; Retract the filament a bit before lifting the nozzle to release some of the pressure,G1 Z+20 E-5 X-20 Y-20 F7200	; Move Z up a bit and retract filament even more,G1 X0 Y150 F10000		; Move right min,M107			; Turn off layer fan,M84			; Disable motors,G90			; Absolute positioning,M117 *The-End* 		; End msg,;,
;   exportFileFormat,gcode
;   celebration,0
;   celebrationSong,Star Wars
;   postProcessing,
;   defaultSpeed,1800
;   outlineUnderspeed,0.5
;   solidInfillUnderspeed,0.8
;   supportUnderspeed,0.8
;   rapidXYspeed,6000
;   rapidZspeed,1002
;   minBridgingArea,50
;   bridgingExtraInflation,0.2
;   bridgingExtrusionMultiplier,1
;   bridgingSpeedMultiplier,0.6
;   useFixedBridgingAngle,0
;   fixedBridgingAngle,0
;   applyBridgingToPerimeters,0
;   filamentDiameters,1.75|1.75|1.75|1.75|1.75|1.75
;   filamentPricesPerKg,30|46|46|46|46|46
;   filamentDensities,1.25|1.25|1.25|1.25|1.25|1.25
;   useMinPrintHeight,0
;   minPrintHeight,0
;   useMaxPrintHeight,0
;   maxPrintHeight,9
;   useDiaphragm,0
;   diaphragmLayerInterval,20
;   robustSlicing,1
;   mergeAllIntoSolid,0
;   onlyRetractWhenCrossingOutline,1
;   retractBetweenLayers,1
;   useRetractionMinTravel,1
;   retractionMinTravel,3
;   retractWhileWiping,1
;   onlyWipeOutlines,1
;   avoidCrossingOutline,1
;   maxMovementDetourFactor,3
;   toolChangeRetractionDistance,12
;   toolChangeExtraRestartDistance,-0.5
;   toolChangeRetractionSpeed,600
;   externalThinWallType,1
;   internalThinWallType,1
;   thinWallAllowedOverlapPercentage,15
;   singleExtrusionMinLength,1
;   singleExtrusionMinPrintingWidthPercentage,50
;   singleExtrusionMaxPrintingWidthPercentage,200
;   singleExtrusionEndpointExtension,0.2
;   horizontalSizeCompensation,0
G90
M82
M106 S0
M140 S60
M190 S60
;Init 181010
;G28 			; Home all axes
;G1 Z5 F3000 		; Lift
;G92 E0			; Reset extrusion distance
; // From Cura 181010
; // Update 190823 (GueroLoco)
; // Update 191005 Autoleveling
; // Update 192029 Modify Cleaning
; // Start_gcode
M117 *Start Clean*		; Indicate nozzle clean in progress on LCD
;
M104 S215 
M109 S215 
M109 R215 
;
M107			; Turn layer fan off
G21			; Set to metric [change to G20 if you want Imperial]
G90			; Force coordinates to be absolute relative to the origin
G28			; Home X/Y/Z axis
G29			; Auto-leveling
;
;G1 X3 Y1 Z15 F9000		; Move safe Z height to shear strings
;G0 X1 Y1 Z0.2 F9000		; Move in 1mm from edge and up [z] 0.2mm
;G92 E0			; Set extruder to [0] zero
;G1 X100 E12 F500		; Extrude 30mm filiment along X axis 100mm long to prime and clean the nozzle
;G92 E0			; Reset extruder to [0] zero end of cleaning run
;G1 E-1 F500			; Retract filiment by 1 mm to reduce string effect
;G1 X180 F4000		; Quick wipe away from the filament line / purge
;
G92 E0			; Set Extruder to 0 
G1 X0 Y0 F2000		; Move X and Y to 0 with speed 2000 (mm/min)
G1 Z0.1 F1000		; Move Z to 0.1
G1 X8.0 F2000		; Move X to 8.0
G1 Y60.0 E4.0 F1000.0		; Prime - Move Y to 60 and Extruder with 4.0
G1 Y100.0 E8.5 F1000.0		; Prime - Move Y to 100 and Extruder with 8.5
G92 E0			; Set extruder to 0
M117 *End Clean*		; Indicate nozzle clean in progress on LCD
G1 X16.0 F3000		; Move X to 16.0
G1 Z5 F3000			; Move Z to 5 - Lift
; 
M117 *Printing...*		; start msg
; // Begin printing with sliced GCode after here
;
; process Process1
; layer 1, Z = 0.180
T0
G92 E0.0000
G1 E-3.8000 F3000
; feature skirt
; tool H0.180 W0.350
G1 Z0.300 F1002
G1 X163.050 Y56.135 F6000
G1 Z0.180 F1002
G1 E0.0000 F3000
G92 E0.0000
G1 X163.053 Y56.275 E0.0035 F900
G1 X168.609 Y56.275 E0.1417
G1 X170.294 Y57.959 E0.2010
G1 X170.294 Y65.281 E0.3832
G1 X168.609 Y66.965 E0.4424
G1 X161.288 Y66.965 E0.6246
G1 X160.468 Y66.145 E0.6535
G1 X154.819 Y66.145 E0.7941
G1 X154.819 Y70.595 E0.9048
G1 X160.468 Y70.595 E1.0453
G1 X161.288 Y69.775 E1.0742
G1 X168.609 Y69.775 E1.2564
G1 X170.294 Y71.459 E1.3156
G1 X170.294 Y78.781 E1.4978
G1 X168.609 Y80.465 E1.5571
G1 X163.085 Y80.465 E1.6946
G1 X163.085 Y80.560 E1.6969
G1 X161.401 Y82.245 E1.7562
G1 X156.486 Y82.245 E1.8785
G1 X155.487 Y81.245 E1.9137
G1 X143.944 Y81.245 E2.2009
G1 X142.260 Y79.562 E2.2601
G1 X142.259 Y76.335 E2.3404
G1 X108.462 Y76.335 E3.1814
G1 X108.245 Y76.245 E3.1872
G1 X96.489 Y76.245 E3.4798
G1 X96.209 Y75.965 E3.4896
G1 X89.288 Y75.965 E3.6618
G1 X87.604 Y74.281 E3.7211
G1 X87.604 Y62.459 E4.0153
G1 X89.288 Y60.775 E4.0745
G1 X96.209 Y60.775 E4.2467
G1 X96.489 Y60.495 E4.2566
G1 X108.245 Y60.495 E4.5491
G1 X108.462 Y60.405 E4.5550
G1 X142.259 Y60.405 E5.3959
G1 X142.260 Y57.178 E5.4762
G1 X143.944 Y55.495 E5.5355
G1 X155.466 Y55.495 E5.8221
G1 X156.603 Y54.495 E5.8598
G1 X161.374 Y54.495 E5.9785
G1 X163.050 Y56.135 E6.0369
G92 E0.0000
G1 E-3.8000 F3000
G1 Z0.480 F1002
G1 X160.030 Y57.545 F6000
G1 X160.063 Y59.036
G1 X155.883 Y63.095
G1 X151.769 Y63.095
G1 X151.769 Y67.090
G1 X145.308 Y73.364
G1 X145.310 Y78.195
G1 X142.609 Y75.985
G1 Z0.180 F1002
G1 E0.0000 F3000
G92 E0.0000
G1 X108.531 Y75.985 E0.8479 F900
G1 X108.314 Y75.895 E0.8538
G1 X96.634 Y75.895 E1.1444
G1 X96.354 Y75.615 E1.1543
G1 X89.433 Y75.615 E1.3265
G1 X87.954 Y74.136 E1.3786
G1 X87.954 Y62.604 E1.6655
G1 X89.433 Y61.125 E1.7175
G1 X96.354 Y61.125 E1.8898
G1 X96.634 Y60.845 E1.8996
G1 X108.314 Y60.845 E2.1903
G1 X108.531 Y60.755 E2.1961
G1 X142.609 Y60.755 E3.0441
G1 X142.610 Y57.324 E3.1294
G1 X144.089 Y55.845 E3.1815
G1 X155.598 Y55.845 E3.4678
G1 X156.735 Y54.845 E3.5055
G1 X161.231 Y54.845 E3.6174
G1 X162.704 Y56.285 E3.6687
G1 X162.711 Y56.625 E3.6771
G1 X168.464 Y56.625 E3.8203
G1 X169.944 Y58.104 E3.8723
G1 X169.944 Y65.136 E4.0473
G1 X168.464 Y66.615 E4.0993
G1 X161.433 Y66.615 E4.2743
G1 X160.613 Y65.795 E4.3032
G1 X154.469 Y65.795 E4.4560
G1 X154.469 Y70.945 E4.5842
G1 X160.613 Y70.945 E4.7371
G1 X161.433 Y70.125 E4.7659
G1 X168.464 Y70.125 E4.9409
G1 X169.944 Y71.604 E4.9929
G1 X169.944 Y78.636 E5.1679
G1 X168.464 Y80.115 E5.2200
G1 X162.735 Y80.115 E5.3625
G1 X162.735 Y80.415 E5.3700
G1 X161.256 Y81.895 E5.4221
G1 X156.631 Y81.895 E5.5371
G1 X155.632 Y80.895 E5.5723
G1 X144.089 Y80.895 E5.8595
G1 X142.610 Y79.417 E5.9116
G1 X142.609 Y75.985 E5.9970
G92 E0.0000
G1 E-3.8000 F3000
G1 Z0.480 F1002
G1 X145.310 Y78.195 F6000
G1 X145.308 Y73.513
G1 X154.119 Y65.445
G1 Z0.180 F1002
G1 E0.0000 F3000
G92 E0.0000
G1 X154.119 Y71.295 E0.1456 F900
G1 X160.758 Y71.295 E0.3108
G1 X161.578 Y70.475 E0.3396
G1 X168.319 Y70.475 E0.5074
G1 X169.594 Y71.749 E0.5522
G1 X169.594 Y78.491 E0.7200
G1 X168.319 Y79.765 E0.7648
G1 X162.385 Y79.765 E0.9125
G1 X162.385 Y80.271 E0.9250
G1 X161.111 Y81.545 E0.9699
G1 X156.776 Y81.545 E1.0777
G1 X155.778 Y80.545 E1.1129
G1 X144.234 Y80.545 E1.4001
G1 X142.960 Y79.271 E1.4450
G1 X142.959 Y75.635 E1.5354
G1 X108.601 Y75.635 E2.3904
G1 X108.384 Y75.545 E2.3962
G1 X96.779 Y75.545 E2.6850
G1 X96.409 Y75.176 E2.6980
G1 X96.319 Y75.265 E2.7011
G1 X89.578 Y75.265 E2.8689
G1 X88.304 Y73.991 E2.9137
G1 X88.304 Y62.749 E3.1935
G1 X89.578 Y61.475 E3.2383
G1 X96.319 Y61.475 E3.4060
G1 X96.409 Y61.565 E3.4092
G1 X96.779 Y61.195 E3.4222
G1 X108.384 Y61.195 E3.7110
G1 X108.601 Y61.105 E3.7168
G1 X142.959 Y61.105 E4.5717
G1 X142.960 Y57.469 E4.6622
G1 X144.234 Y56.195 E4.7071
G1 X155.730 Y56.195 E4.9931
G1 X156.867 Y55.195 E5.0308
G1 X161.089 Y55.195 E5.1358
G1 X162.357 Y56.436 E5.1800
G1 X162.369 Y56.975 E5.1934
G1 X168.319 Y56.975 E5.3415
G1 X169.594 Y58.249 E5.3863
G1 X169.594 Y64.991 E5.5541
G1 X168.319 Y66.265 E5.5989
G1 X161.578 Y66.265 E5.7666
G1 X160.758 Y65.445 E5.7955
G1 X154.119 Y65.445 E5.9607
G92 E0.0000
G1 E-3.8000 F3000
G1 Z0.480 F1002
G1 X142.871 Y73.285 F6000
G1 X109.106 Y73.285
G1 X109.016 Y73.195
G1 X97.854 Y73.195
G1 X101.888 Y101.851
G1 Z0.180 F1002
G1 E0.0000 F3000
G92 E0.0000
G1 X113.644 Y101.851 E0.2925 F900
G1 X113.861 Y101.761 E0.2984
G1 X147.658 Y101.761 E1.1393
G1 X147.659 Y98.535 E1.2196
G1 X149.343 Y96.851 E1.2789
G1 X160.865 Y96.851 E1.5656
G1 X162.002 Y95.851 E1.6032
G1 X166.773 Y95.851 E1.7220
G1 X168.449 Y97.491 E1.7803
G1 X168.452 Y97.631 E1.7838
G1 X174.008 Y97.631 E1.9221
G1 X175.693 Y99.316 E1.9813
G1 X175.693 Y106.637 E2.1635
G1 X174.008 Y108.321 E2.2228
G1 X166.687 Y108.321 E2.4050
G1 X165.867 Y107.501 E2.4338
G1 X160.218 Y107.501 E2.5744
G1 X160.218 Y111.951 E2.6851
G1 X165.867 Y111.951 E2.8257
G1 X166.687 Y111.131 E2.8545
G1 X174.008 Y111.131 E3.0367
G1 X175.693 Y112.816 E3.0960
G1 X175.693 Y120.137 E3.2781
G1 X174.008 Y121.821 E3.3374
G1 X168.484 Y121.821 E3.4749
G1 X168.484 Y121.917 E3.4773
G1 X166.799 Y123.601 E3.5365
G1 X161.885 Y123.601 E3.6588
G1 X160.886 Y122.601 E3.6940
G1 X149.343 Y122.601 E3.9812
G1 X147.659 Y120.918 E4.0405
G1 X147.658 Y117.691 E4.1207
G1 X113.861 Y117.691 E4.9617
G1 X113.644 Y117.601 E4.9676
G1 X101.888 Y117.601 E5.2601
G1 X101.608 Y117.321 E5.2699
G1 X94.687 Y117.321 E5.4421
G1 X93.003 Y115.637 E5.5014
G1 X93.003 Y103.816 E5.7956
G1 X94.687 Y102.131 E5.8548
G1 X101.608 Y102.131 E6.0270
G1 X101.888 Y101.851 E6.0369
G92 E0.0000
G1 E-3.8000 F3000
G1 Z0.480 F1002
G1 X103.253 Y104.901 F6000
G1 X104.259 Y104.901
G1 X111.761 Y114.551
G1 X114.415 Y114.551
G1 X114.505 Y114.641
G1 X113.930 Y117.341
G1 Z0.180 F1002
G1 E0.0000 F3000
G92 E0.0000
G1 X113.713 Y117.251 E0.0059 F900
G1 X102.033 Y117.251 E0.2965
G1 X101.752 Y116.971 E0.3064
G1 X94.832 Y116.971 E0.4786
G1 X93.353 Y115.492 E0.5306
G1 X93.353 Y103.961 E0.8176
G1 X94.832 Y102.481 E0.8696
G1 X101.753 Y102.481 E1.0418
G1 X102.033 Y102.201 E1.0517
G1 X113.713 Y102.201 E1.3423
G1 X113.930 Y102.111 E1.3482
G1 X148.008 Y102.111 E2.1961
G1 X148.009 Y98.680 E2.2815
G1 X149.488 Y97.201 E2.3335
G1 X160.997 Y97.201 E2.6199
G1 X162.134 Y96.201 E2.6576
G1 X166.630 Y96.201 E2.7695
G1 X168.102 Y97.642 E2.8207
G1 X168.110 Y97.981 E2.8292
G1 X173.863 Y97.981 E2.9723
G1 X175.343 Y99.461 E3.0244
G1 X175.343 Y106.492 E3.1993
G1 X173.863 Y107.971 E3.2514
G1 X166.832 Y107.971 E3.4264
G1 X166.012 Y107.151 E3.4552
G1 X159.868 Y107.151 E3.6081
G1 X159.868 Y112.301 E3.7362
